surachairobotic/cobot/cobot_dynamixel_driver/log/2018-12-12T02:29:38.711936_driver_log.txt
cobot_dynamixel_driver/joint_states|name|J1,J2,J3,J4,J5,J6|pos|-0.067749,-1.262200,1.263465,0.002216,-1.461609,-0.000083|vel|0.000000,-0.000000,0.000000,0.000000,0.000000,0.000000|eff|0.000000,0.000000,0.000000,0.000000,0.000000,0.000000
cobot_dynamixel_driver/joint_states|name|J1,J2,J3,J4,J5,J6|pos|-0.067749,-1.262200,1.263465,0.002216,-1.461609,-0.000083|vel|0.000000,-0.000000,0.000000,0.000000,0.000000,0.000000|eff|0.000000,0.000000,0.000000,0.000000,0.000000,0.000000
cobot_dynamixel_driver/joint_states|name|J1,J2,J3,J4,J5,J6|pos|-0.067749,-1.262200,1.263465,0.002216,-1.461609,-0.000083|vel|0.000000,-0.000000,0.000000,0.000000,0.000000,0.000000|eff|0.000000,0.000000,0.000000,0.000000,0.000000,0.000000
cobot_dynamixel_driver/joint_states|name|J1,J2,J3,J4,J5,J6|pos|-0.067749,-1.262200,1.263465,0.002216,-1.461609,-0.000083|vel|0.000000,-0.000000,0.000000,0.000000,0.000000,0.000000|eff|0.000000,0.000000,0.000000,0.000000,0.000000,0.000000
cobot_dynamixel_driver/joint_states|name|J1,J2,J3,J4,J5,J6|pos|-0.067749,-1.262200,1.263465,0.002216,-1.461609,-0.000083|vel|0.000000,-0.000000,0.000000,0.000000,0.000000,0.000000|eff|0.000000,0.000000,0.000000,0.000000,0.000000,0.000000
cobot_dynamixel_driver/joint_states|name|J1,J2,J3,J4,J5,J6|pos|-0.067749,-1.262200,1.263465,0.002216,-1.461609,-0.000083|vel|0.000000,-0.000000,0.000000,0.000000,0.000000,0.000000|eff|0.000000,0.000000,0.000000,0.000000,0.000000,0.000000
cobot_dynamixel_driver/joint_states|name|J1,J2,J3,J4,J5,J6|pos|-0.067749,-1.262200,1.263465,0.002216,-1.461609,-0.000083|vel|0.000000,-0.000000,0.000000,0.000000,0.000000,0.000000|eff|0.000000,0.000000,0.000000,0.000000,0.000000,0.000000
cobot_dynamixel_driver/joint_states|name|J1,J2,J3,J4,J5,J6|pos|-0.067749,-1.262200,1.263465,0.002216,-1.461609,-0.000083|vel|0.000000,-0.000000,0.000000,0.000000,0.000000,0.000000|eff|0.000000,0.000000,0.000000,0.000000,0.000000,0.000000
cobot_dynamixel_driver/joint_states|name|J1,J2,J3,J4,J5,J6|pos|-0.067749,-1.262200,1.263465,0.002216,-1.461609,-0.000083|vel|0.000000,-0.000000,0.000000,0.000000,0.000000,0.000000|eff|0.000000,0.000000,0.000000,0.000000,0.000000,0.000000
cobot_dynamixel_driver/joint_states|name|J1,J2,J3,J4,J5,J6|pos|-0.067749,-1.262200,1.263465,0.002216,-1.461609,-0.000083|vel|0.000000,-0.000000,0.000000,0.000000,0.000000,0.000000|eff|0.000000,0.000000,0.000000,0.000000,0.000000,0.000000
cobot_dynamixel_driver/joint_states|name|J1,J2,J3,J4,J5,J6|pos|-0.067749,-1.262200,1.263465,0.002216,-1.461609,-0.000083|vel|0.000000,-0.000000,0.000000,0.000000,0.000000,0.000000|eff|0.000000,0.000000,0.000000,0.000000,0.000000,0.000000
cobot_dynamixel_driver/joint_states|name|J1,J2,J3,J4,J5,J6|pos|-0.067749,-1.262200,1.263465,0.002216,-1.461609,-0.000083|vel|0.000000,-0.000000,0.000000,0.000000,0.000000,0.000000|eff|0.000000,0.000000,0.000000,0.000000,0.000000,0.000000
cobot_dynamixel_driver/joint_states|name|J1,J2,J3,J4,J5,J6|pos|-0.067749,-1.262200,1.263465,0.002216,-1.461609,-0.000083|vel|0.000000,-0.000000,0.000000,0.000000,0.000000,0.000000|eff|0.000000,0.000000,0.000000,0.000000,0.000000,0.000000
cobot_dynamixel_driver/joint_states|name|J1,J2,J3,J4,J5,J6|pos|-0.067749,-1.262200,1.263465,0.002216,-1.461609,-0.000083|vel|0.000000,-0.000000,0.000000,0.000000,0.000000,0.000000|eff|0.000000,0.000000,0.000000,0.000000,0.000000,0.000000
cobot_dynamixel_driver/joint_states|name|J1,J2,J3,J4,J5,J6|pos|-0.067749,-1.262200,1.263465,0.002216,-1.461609,-0.000083|vel|0.000000,-0.000000,0.000000,0.000000,0.000000,0.000000|eff|0.000000,0.000000,0.000000,0.000000,0.000000,0.000000
cobot_dynamixel_driver/joint_states|name|J1,J2,J3,J4,J5,J6|pos|-0.067749,-1.262200,1.263465,0.002216,-1.461609,-0.000083|vel|0.000000,-0.000000,0.000000,0.000000,0.000000,0.000000|eff|0.000000,0.000000,0.000000,0.000000,0.000000,0.000000
cobot_dynamixel_driver/joint_states|name|J1,J2,J3,J4,J5,J6|pos|-0.067749,-1.262200,1.263465,0.002216,-1.461609,-0.000083|vel|0.000000,-0.000000,0.000000,0.000000,0.000000,0.000000|eff|0.000000,0.000000,0.000000,0.000000,0.000000,0.000000
cobot_dynamixel_driver/joint_states|name|J1,J2,J3,J4,J5,J6|pos|-0.067749,-1.262200,1.263465,0.002216,-1.461609,-0.000083|vel|0.000000,-0.000000,0.000000,0.000000,0.000000,0.000000|eff|0.000000,0.000000,0.000000,0.000000,0.000000,0.000000
cobot_dynamixel_driver/joint_states|name|J1,J2,J3,J4,J5,J6|pos|-0.067749,-1.262200,1.263465,0.002216,-1.461609,-0.000083|vel|0.000000,-0.000000,0.000000,0.000000,0.000000,0.000000|eff|0.000000,0.000000,0.000000,0.000000,0.000000,0.000000
cobot_dynamixel_driver/joint_states|name|J1,J2,J3,J4,J5,J6|pos|-0.067749,-1.262200,1.263465,0.002216,-1.461609,-0.000083|vel|0.000000,-0.000000,0.000000,0.000000,0.000000,0.000000|eff|0.000000,0.000000,0.000000,0.000000,0.000000,0.000000
cobot_dynamixel_driver/joint_states|name|J1,J2,J3,J4,J5,J6|pos|-0.067749,-1.262200,1.263465,0.002216,-1.461609,-0.000083|vel|0.000000,-0.000000,0.000000,0.000000,0.000000,0.000000|eff|0.000000,0.000000,0.000000,0.000000,0.000000,0.000000
cobot_dynamixel_driver/joint_states|name|J1,J2,J3,J4,J5,J6|pos|-0.067749,-1.262200,1.263465,0.002216,-1.461609,-0.000083|vel|0.000000,-0.000000,0.000000,0.000000,0.000000,0.000000|eff|0.000000,0.000000,0.000000,0.000000,0.000000,0.000000
cobot_dynamixel_driver/joint_states|name|J1,J2,J3,J4,J5,J6|pos|-0.067749,-1.262200,1.263465,0.002216,-1.461609,-0.000083|vel|0.000000,-0.000000,0.000000,0.000000,0.000000,0.000000|eff|0.000000,0.000000,0.000000,0.000000,0.000000,0.000000
cobot_dynamixel_driver/joint_states|name|J1,J2,J3,J4,J5,J6|pos|-0.067749,-1.262200,1.263465,0.002216,-1.461609,-0.000083|vel|0.000000,-0.000000,0.000000,0.000000,0.000000,0.000000|eff|0.000000,0.000000,0.000000,0.000000,0.000000,0.000000
cobot_dynamixel_driver/joint_states|name|J1,J2,J3,J4,J5,J6|pos|-0.067749,-1.262200,1.263465,0.002216,-1.461609,-0.000083|vel|0.000000,-0.000000,0.000000,0.000000,0.000000,0.000000|eff|0.000000,0.000000,0.000000,0.000000,0.000000,0.000000
cobot_dynamixel_driver/joint_states|name|J1,J2,J3,J4,J5,J6|pos|-0.067749,-1.262200,1.263465,0.002216,-1.461609,-0.000083|vel|0.000000,-0.000000,0.000000,0.000000,0.000000,0.000000|eff|0.000000,0.000000,0.000000,0.000000,0.000000,0.000000
cobot_dynamixel_driver/joint_states|name|J1,J2,J3,J4,J5,J6|pos|-0.067749,-1.262200,1.263465,0.002216,-1.461609,-0.000083|vel|0.000000,-0.000000,0.000000,0.000000,0.000000,0.000000|eff|0.000000,0.000000,0.000000,0.000000,0.000000,0.000000
cobot_dynamixel_driver/joint_states|name|J1,J2,J3,J4,J5,J6|pos|-0.067749,-1.262200,1.263465,0.002216,-1.461609,-0.000083|vel|0.000000,-0.000000,0.000000,0.000000,0.000000,0.000000|eff|0.000000,0.000000,0.000000,0.000000,0.000000,0.000000
cobot_dynamixel_driver/joint_states|name|J1,J2,J3,J4,J5,J6|pos|-0.067749,-1.262200,1.263465,0.002216,-1.461609,-0.000083|vel|0.000000,-0.000000,0.000000,0.000000,0.000000,0.000000|eff|0.000000,0.000000,0.000000,0.000000,0.000000,0.000000
cobot_dynamixel_driver/joint_states|name|J1,J2,J3,J4,J5,J6|pos|-0.067749,-1.262200,1.263465,0.002216,-1.461609,-0.000083|vel|0.000000,-0.000000,0.000000,0.000000,0.000000,0.000000|eff|0.000000,0.000000,0.000000,0.000000,0.000000,0.000000
cobot_dynamixel_driver/joint_states|name|J1,J2,J3,J4,J5,J6|pos|-0.067749,-1.262200,1.263465,0.002216,-1.461609,-0.000083|vel|0.000000,-0.000000,0.000000,0.000000,0.000000,0.000000|eff|0.000000,0.000000,0.000000,0.000000,0.000000,0.000000
cobot_dynamixel_driver/joint_states|name|J1,J2,J3,J4,J5,J6|pos|-0.067749,-1.262200,1.263465,0.002216,-1.461609,-0.000083|vel|0.000000,-0.000000,0.000000,0.000000,0.000000,0.000000|eff|0.000000,0.000000,0.000000,0.000000,0.000000,0.000000
cobot_dynamixel_driver/joint_states|name|J1,J2,J3,J4,J5,J6|pos|-0.067749,-1.262200,1.263465,0.002216,-1.461609,-0.000083|vel|0.000000,-0.000000,0.000000,0.000000,0.000000,0.000000|eff|0.000000,0.000000,0.000000,0.000000,0.000000,0.000000
cobot_dynamixel_driver/joint_states|name|J1,J2,J3,J4,J5,J6|pos|-0.067749,-1.262200,1.263465,0.002216,-1.461609,-0.000083|vel|0.000000,-0.000000,0.000000,0.000000,0.000000,0.000000|eff|0.000000,0.000000,0.000000,0.000000,0.000000,0.000000
cobot_dynamixel_driver/joint_states|name|J1,J2,J3,J4,J5,J6|pos|-0.067749,-1.262200,1.263465,0.002216,-1.461609,-0.000083|vel|0.000000,-0.000000,0.000000,0.000000,0.000000,0.000000|eff|0.000000,0.000000,0.000000,0.000000,0.000000,0.000000
cobot_dynamixel_driver/joint_states|name|J1,J2,J3,J4,J5,J6|pos|-0.067749,-1.262200,1.263465,0.002216,-1.461609,-0.000083|vel|0.000000,-0.000000,0.000000,0.000000,0.000000,0.000000|eff|0.000000,0.000000,0.000000,0.000000,0.000000,0.000000
cobot_dynamixel_driver/joint_states|name|J1,J2,J3,J4,J5,J6|pos|-0.067749,-1.262200,1.263465,0.002216,-1.461609,-0.000083|vel|0.000000,-0.000000,0.000000,0.000000,0.000000,0.000000|eff|0.000000,0.000000,0.000000,0.000000,0.000000,0.000000
cobot_dynamixel_driver/joint_states|name|J1,J2,J3,J4,J5,J6|pos|-0.067749,-1.262200,1.263465,0.002216,-1.461609,-0.000083|vel|0.000000,-0.000000,0.000000,0.000000,0.000000,0.000000|eff|0.000000,0.000000,0.000000,0.000000,0.000000,-8.056641
cobot_dynamixel_driver/joint_states|name|J1,J2,J3,J4,J5,J6|pos|-0.067749,-1.262200,1.263465,0.002216,-1.461609,-0.000083|vel|0.000000,-0.000000,0.000000,0.000000,0.000000,0.000000|eff|0.000000,0.000000,0.000000,0.000000,0.000000,0.000000
cobot_dynamixel_driver/joint_states|name|J1,J2,J3,J4,J5,J6|pos|-0.067749,-1.262200,1.263465,0.002216,-1.461609,-0.000083|vel|0.000000,-0.000000,0.000000,0.000000,0.000000,0.000000|eff|0.000000,0.000000,0.000000,0.000000,0.000000,0.000000
cobot_dynamixel_driver/joint_states|name|J1,J2,J3,J4,J5,J6|pos|-0.067749,-1.262200,1.263465,0.002216,-1.461609,-0.000083|vel|0.000000,-0.000000,0.000000,0.000000,0.000000,0.000000|eff|0.000000,0.000000,0.000000,0.000000,0.000000,0.000000
cobot_dynamixel_driver/joint_states|name|J1,J2,J3,J4,J5,J6|pos|-0.067749,-1.262200,1.263465,0.002216,-1.461609,-0.000083|vel|0.000000,-0.000000,0.000000,0.000000,0.000000,0.000000|eff|0.000000,0.000000,0.000000,0.000000,0.000000,0.000000
cobot_dynamixel_driver/joint_states|name|J1,J2,J3,J4,J5,J6|pos|-0.067749,-1.262200,1.263465,0.002216,-1.461609,-0.000083|vel|0.000000,-0.000000,0.000000,0.000000,0.000000,0.000000|eff|0.000000,0.000000,0.000000,0.000000,0.000000,0.000000
cobot_dynamixel_driver/joint_states|name|J1,J2,J3,J4,J5,J6|pos|-0.067749,-1.262200,1.263465,0.002216,-1.461609,-0.000083|vel|0.000000,-0.000000,0.000000,0.000000,0.000000,0.000000|eff|0.000000,0.000000,0.000000,0.000000,0.000000,0.000000
cobot_dynamixel_driver/joint_states|name|J1,J2,J3,J4,J5,J6|pos|-0.067749,-1.262200,1.263465,0.002216,-1.461609,-0.000083|vel|0.000000,-0.000000,0.000000,0.000000,0.000000,0.000000|eff|0.000000,0.000000,0.000000,0.000000,0.000000,0.000000
cobot_dynamixel_driver/joint_states|name|J1,J2,J3,J4,J5,J6|pos|-0.067749,-1.262200,1.263465,0.002216,-1.461609,-0.000083|vel|0.000000,-0.000000,0.000000,0.000000,0.000000,0.000000|eff|0.000000,0.000000,0.000000,0.000000,0.000000,0.000000
cobot_dynamixel_driver/joint_states|name|J1,J2,J3,J4,J5,J6|pos|-0.067749,-1.262200,1.263465,0.002216,-1.461609,-0.000083|vel|0.000000,-0.000000,0.000000,0.000000,0.000000,0.000000|eff|0.000000,0.000000,0.000000,0.000000,0.000000,0.000000
cobot_dynamixel_driver/joint_states|name|J1,J2,J3,J4,J5,J6|pos|-0.067749,-1.262200,1.263465,0.002216,-1.461609,-0.000083|vel|0.000000,-0.000000,0.000000,0.000000,0.000000,0.000000|eff|0.000000,0.000000,0.000000,0.000000,0.000000,0.000000
cobot_dynamixel_driver/joint_states|name|J1,J2,J3,J4,J5,J6|pos|-0.067749,-1.262200,1.263465,0.002216,-1.461609,-0.000083|vel|0.000000,-0.000000,0.000000,0.000000,0.000000,0.000000|eff|0.000000,0.000000,0.000000,0.000000,0.000000,0.000000
cobot_dynamixel_driver/joint_states|name|J1,J2,J3,J4,J5,J6|pos|-0.067749,-1.262200,1.263465,0.002216,-1.461609,-0.000083|vel|0.000000,-0.000000,0.000000,0.000000,0.000000,0.000000|eff|0.000000,0.000000,0.000000,0.000000,0.000000,0.000000
cobot_dynamixel_driver/joint_states|name|J1,J2,J3,J4,J5,J6|pos|-0.067749,-1.262200,1.263465,0.002216,-1.461609,-0.000083|vel|0.000000,-0.000000,0.000000,0.000000,0.000000,0.000000|eff|0.000000,0.000000,0.000000,0.000000,0.000000,0.000000
cobot_dynamixel_driver/joint_states|name|J1,J2,J3,J4,J5,J6|pos|-0.067749,-1.262200,1.263465,0.002216,-1.461609,-0.000083|vel|0.000000,-0.000000,0.000000,0.000000,0.000000,0.000000|eff|0.000000,0.000000,0.000000,0.000000,0.000000,0.000000
cobot_dynamixel_driver/joint_states|name|J1,J2,J3,J4,J5,J6|pos|-0.067749,-1.262200,1.263465,0.002216,-1.461609,-0.000083|vel|0.000000,-0.000000,0.000000,0.000000,0.000000,0.000000|eff|0.000000,0.000000,0.000000,0.000000,0.000000,0.000000
cobot_dynamixel_driver/joint_states|name|J1,J2,J3,J4,J5,J6|pos|-0.067749,-1.262200,1.263465,0.002216,-1.461609,-0.000083|vel|0.000000,-0.000000,0.000000,0.000000,0.000000,0.000000|eff|0.000000,0.000000,0.000000,0.000000,0.000000,0.000000
cobot_dynamixel_driver/joint_states|name|J1,J2,J3,J4,J5,J6|pos|-0.067749,-1.262200,1.263465,0.002216,-1.461609,-0.000083|vel|0.000000,-0.000000,0.000000,0.000000,0.000000,0.000000|eff|0.000000,0.000000,0.000000,0.000000,0.000000,0.000000
cobot_dynamixel_driver/joint_states|name|J1,J2,J3,J4,J5,J6|pos|-0.067749,-1.262200,1.263465,0.002216,-1.461609,-0.000083|vel|0.000000,-0.000000,0.000000,0.000000,0.000000,0.000000|eff|0.000000,0.000000,0.000000,0.000000,0.000000,0.000000
cobot_dynamixel_driver/joint_states|name|J1,J2,J3,J4,J5,J6|pos|-0.067749,-1.262200,1.263465,0.002216,-1.461609,-0.000083|vel|0.000000,-0.000000,0.000000,0.000000,0.000000,0.000000|eff|0.000000,0.000000,0.000000,0.000000,0.000000,0.000000
cobot_dynamixel_driver/joint_states|name|J1,J2,J3,J4,J5,J6|pos|-0.067749,-1.262200,1.263465,0.002216,-1.461609,-0.000083|vel|0.000000,-0.000000,0.000000,0.000000,0.000000,0.000000|eff|0.000000,0.000000,0.000000,0.000000,0.000000,0.000000
cobot_dynamixel_driver/joint_states|name|J1,J2,J3,J4,J5,J6|pos|-0.067749,-1.262200,1.263465,0.002216,-1.461609,-0.000083|vel|0.000000,-0.000000,0.000000,0.000000,0.000000,0.000000|eff|0.000000,0.000000,0.000000,0.000000,0.000000,0.000000
cobot_dynamixel_driver/joint_states|name|J1,J2,J3,J4,J5,J6|pos|-0.067749,-1.262200,1.263465,0.002216,-1.461609,-0.000083|vel|0.000000,-0.000000,0.000000,0.000000,0.000000,0.000000|eff|0.000000,0.000000,0.000000,0.000000,0.000000,0.000000
cobot_dynamixel_driver/joint_states|name|J1,J2,J3,J4,J5,J6|pos|-0.067749,-1.262200,1.263465,0.002216,-1.461609,-0.000083|vel|0.000000,-0.000000,0.000000,0.000000,0.000000,0.000000|eff|0.000000,0.000000,0.000000,0.000000,0.000000,0.000000
cobot_dynamixel_driver/joint_states|name|J1,J2,J3,J4,J5,J6|pos|-0.067749,-1.262200,1.263465,0.002216,-1.461609,-0.000083|vel|0.000000,-0.000000,0.000000,0.000000,0.000000,0.000000|eff|0.000000,0.000000,0.000000,0.000000,0.000000,0.000000
cobot_dynamixel_driver/joint_states|name|J1,J2,J3,J4,J5,J6|pos|-0.067749,-1.262200,1.263465,0.002216,-1.461609,-0.000083|vel|0.000000,-0.000000,0.000000,0.000000,0.000000,0.000000|eff|0.000000,0.000000,0.000000,0.000000,0.000000,0.000000
cobot_dynamixel_driver/joint_states|name|J1,J2,J3,J4,J5,J6|pos|-0.067749,-1.262200,1.263465,0.002216,-1.461609,-0.000083|vel|0.000000,-0.000000,0.000000,0.000000,0.000000,0.000000|eff|0.000000,0.000000,0.000000,0.000000,0.000000,0.000000
cobot_dynamixel_driver/joint_states|name|J1,J2,J3,J4,J5,J6|pos|-0.067749,-1.262200,1.263465,0.002216,-1.461609,-0.000083|vel|0.000000,-0.000000,0.000000,0.000000,0.000000,0.000000|eff|0.000000,0.000000,0.000000,0.000000,0.000000,0.000000
cobot_dynamixel_driver/joint_states|name|J1,J2,J3,J4,J5,J6|pos|-0.067749,-1.262200,1.263465,0.002216,-1.461609,-0.000083|vel|0.000000,-0.000000,0.000000,0.000000,0.000000,0.000000|eff|0.000000,0.000000,0.000000,0.000000,0.000000,8.056641
cobot_dynamixel_driver/joint_states|name|J1,J2,J3,J4,J5,J6|pos|-0.067749,-1.262200,1.263465,0.002216,-1.461609,-0.000083|vel|0.000000,-0.000000,0.000000,0.000000,0.000000,0.000000|eff|0.000000,0.000000,0.000000,0.000000,0.000000,0.000000
cobot_dynamixel_driver/joint_states|name|J1,J2,J3,J4,J5,J6|pos|-0.067749,-1.262200,1.263465,0.002216,-1.461609,-0.000083|vel|0.000000,-0.000000,0.000000,0.000000,0.000000,0.000000|eff|0.000000,0.000000,0.000000,0.000000,0.000000,0.000000
cobot_dynamixel_driver/joint_states|name|J1,J2,J3,J4,J5,J6|pos|-0.067749,-1.262200,1.263465,0.002216,-1.461609,-0.000083|vel|0.000000,-0.000000,0.000000,0.000000,0.000000,0.000000|eff|0.000000,0.000000,0.000000,0.000000,0.000000,0.000000
cobot_dynamixel_driver/joint_states|name|J1,J2,J3,J4,J5,J6|pos|-0.067749,-1.262200,1.263465,0.002216,-1.461609,-0.000083|vel|0.000000,-0.000000,0.000000,0.000000,0.000000,0.000000|eff|0.000000,0.000000,0.000000,0.000000,0.000000,0.000000
cobot_dynamixel_driver/joint_states|name|J1,J2,J3,J4,J5,J6|pos|-0.067749,-1.262200,1.263465,0.002216,-1.461609,-0.000083|vel|0.000000,-0.000000,0.000000,0.000000,0.000000,0.000000|eff|0.000000,0.000000,0.000000,0.000000,0.000000,0.000000
cobot_dynamixel_driver/joint_states|name|J1,J2,J3,J4,J5,J6|pos|-0.067749,-1.262200,1.263465,0.002216,-1.461609,-0.000083|vel|0.000000,-0.000000,0.000000,0.000000,0.000000,0.000000|eff|0.000000,0.000000,0.000000,0.000000,0.000000,0.000000
cobot_dynamixel_driver/joint_states|name|J1,J2,J3,J4,J5,J6|pos|-0.067749,-1.262200,1.263465,0.002216,-1.461609,-0.000083|vel|0.000000,-0.000000,0.000000,0.000000,0.000000,0.000000|eff|0.000000,0.000000,0.000000,0.000000,0.000000,0.000000
cobot_dynamixel_driver/joint_states|name|J1,J2,J3,J4,J5,J6|pos|-0.067749,-1.262200,1.263465,0.002216,-1.461609,-0.000083|vel|0.000000,-0.000000,0.000000,0.000000,0.000000,0.000000|eff|0.000000,0.000000,0.000000,0.000000,0.000000,0.000000
cobot_dynamixel_driver/joint_states|name|J1,J2,J3,J4,J5,J6|pos|-0.067749,-1.262200,1.263465,0.002216,-1.461609,-0.000083|vel|0.000000,-0.000000,0.000000,0.000000,0.000000,0.000000|eff|0.000000,0.000000,0.000000,0.000000,0.000000,0.000000
cobot_dynamixel_driver/joint_states|name|J1,J2,J3,J4,J5,J6|pos|-0.067749,-1.262200,1.263465,0.002216,-1.461609,-0.000083|vel|0.000000,-0.000000,0.000000,0.000000,0.000000,0.000000|eff|0.000000,0.000000,0.000000,0.000000,0.000000,0.000000
cobot_dynamixel_driver/goal|-:J1,J2,J3,J4,J5,J6:0.000000,0.000000,0.000000,0.000000,0.000000,0.000000:0.700000,0.700000,0.700000,0.700000,0.700000,0.700000:pos_vel_
cobot_dynamixel_driver/joint_states|name|J1,J2,J3,J4,J5,J6|pos|-0.067749,-1.262200,1.261374,0.001014,-1.461609,-0.000083|vel|0.000000,-0.000000,0.000000,0.000000,0.000000,0.000000|eff|0.000000,0.000000,0.000000,0.000000,0.000000,0.000000
cobot_dynamixel_driver/joint_states|name|J1,J2,J3,J4,J5,J6|pos|-0.067736,-1.262200,1.261374,0.001014,-1.461546,-0.000083|vel|0.000000,-0.000000,0.000000,0.000000,0.007583,0.000000|eff|225.585938,-177.246094,-225.585938,-80.566406,84.594727,0.000000
cobot_dynamixel_driver/joint_states|name|J1,J2,J3,J4,J5,J6|pos|-0.067323,-1.261737,1.260973,0.001001,-1.460388,-0.000083|vel|0.034427,0.045068,-0.041938,0.000000,0.112372,0.000000|eff|660.644531,-547.851562,-547.851562,-80.566406,132.934570,0.000000
cobot_dynamixel_driver/joint_states|name|J1,J2,J3,J4,J5,J6|pos|-0.065883,-1.260172,1.259496,0.000976,-1.457430,-0.000083|vel|0.111209,0.116216,-0.116633,-0.001461,0.199926,0.000000|eff|1031.250000,-918.457031,-918.457031,-112.792969,116.821289,0.000000
cobot_dynamixel_driver/joint_states|name|J1,J2,J3,J4,J5,J6|pos|-0.063017,-1.257418,1.256667,0.000876,-1.452900,-0.000083|vel|0.191329,0.163788,-0.184235,-0.005633,0.261972,0.000000|eff|1450.195312,-1627.441406,-1305.175781,-112.792969,76.538086,0.000000
cobot_dynamixel_driver/joint_states|name|J1,J2,J3,J4,J5,J6|pos|-0.058585,-1.253600,1.252261,0.000801,-1.447212,-0.000083|vel|0.278961,0.244534,-0.239944,-0.003130,0.332290,0.000000|eff|1321.289062,-1901.367188,-1579.101562,-161.132812,72.509766,0.000000
cobot_dynamixel_driver/joint_states|name|J1,J2,J3,J4,J5,J6|pos|-0.052727,-1.248305,1.246365,0.000751,-1.440613,-0.000083|vel|0.317143,0.309006,-0.335504,-0.002504,0.375723,0.000000|eff|1144.042969,-2094.726562,-1353.515625,-161.132812,56.396484,0.000000
cobot_dynamixel_driver/joint_states|name|J1,J2,J3,J4,J5,J6|pos|-0.046255,-1.241670,1.239304,0.000676,-1.433187,-0.000083|vel|0.328201,0.358246,-0.397889,-0.003756,0.397439,0.000000|eff|1127.929688,-1981.933594,-1176.269531,-161.132812,56.396484,0.000000
cobot_dynamixel_driver/joint_states|name|J1,J2,J3,J4,J5,J6|pos|-0.039996,-1.233909,1.231330,0.000613,-1.424995,-0.000083|vel|0.302955,0.444000,-0.439827,-0.003547,0.464655,0.000000|eff|773.437500,-1724.121094,-821.777344,-145.019531,56.396484,0.000000
cobot_dynamixel_driver/joint_states|name|J1,J2,J3,J4,J5,J6|pos|-0.034488,-1.225221,1.222405,0.000551,-1.416204,-0.000083|vel|0.269780,0.481556,-0.456728,-0.003130,0.480167,0.000000|eff|-80.566406,-2594.238281,-1208.496094,-161.132812,56.396484,8.056641
cobot_dynamixel_driver/joint_states|name|J1,J2,J3,J4,J5,J6|pos|-0.029731,-1.215883,1.212916,0.000488,-1.406772,-0.000083|vel|0.218870,0.502004,-0.498040,-0.003130,0.488784,0.000000|eff|402.832031,-2787.597656,-1369.628906,-96.679688,60.424805,8.056641
cobot_dynamixel_driver/joint_states|name|J1,J2,J3,J4,J5,J6|pos|-0.025687,-1.205781,1.202814,0.000451,-1.396822,-0.000083|vel|0.185904,0.494910,-0.557921,-0.001878,0.548762,0.000000|eff|338.378906,-1466.308594,-789.550781,-145.019531,48.339844,0.000000
cobot_dynamixel_driver/joint_states|name|J1,J2,J3,J4,J5,J6|pos|-0.022282,-1.195228,1.192361,0.000401,-1.386417,-0.000083|vel|0.145427,0.570440,-0.534970,-0.001669,0.562205,0.000000|eff|370.605469,-2175.292969,-934.570312,-161.132812,32.226562,8.056641
cobot_dynamixel_driver/joint_states|name|J1,J2,J3,J4,J5,J6|pos|-0.019341,-1.184337,1.181620,0.000351,-1.375702,-0.000083|vel|0.137707,0.574613,-0.536013,-0.002921,0.574614,0.000000|eff|257.812500,-1917.480469,-1272.949219,-161.132812,44.311523,8.056641
cobot_dynamixel_driver/joint_states|name|J1,J2,J3,J4,J5,J6|pos|-0.016749,-1.172983,1.170454,0.000288,-1.364532,-0.000083|vel|0.111000,0.593182,-0.598399,-0.002921,0.571857,0.000000|eff|145.019531,-2449.218750,-870.117188,-177.246094,36.254883,8.056641
cobot_dynamixel_driver/joint_states|name|J1,J2,J3,J4,J5,J6|pos|-0.014534,-1.161453,1.159063,0.000263,-1.353196,-0.000083|vel|0.104532,0.606327,-0.606953,-0.002504,0.578061,0.000000|eff|225.585938,-2159.179688,-902.343750,-112.792969,56.396484,8.056641
cobot_dynamixel_driver/joint_states|name|J1,J2,J3,J4,J5,J6|pos|-0.012668,-1.149674,1.147283,0.000250,-1.341613,-0.000083|vel|0.089509,0.639085,-0.630113,-0.002504,0.597709,0.000000|eff|257.812500,-725.097656,-1160.156250,-96.679688,44.311523,8.056641
cobot_dynamixel_driver/joint_states|name|J1,J2,J3,J4,J5,J6|pos|-0.011004,-1.137619,1.135328,0.000250,-1.329698,-0.000083|vel|0.080538,0.614673,-0.686656,-0.002504,0.526701,0.000000|eff|209.472656,-3448.242188,-1611.328125,-128.906250,16.113281,8.056641
cobot_dynamixel_driver/joint_states|name|J1,J2,J3,J4,J5,J6|pos|-0.009576,-1.125363,1.123110,0.000250,-1.317659,-0.000083|vel|0.069479,0.624062,-0.643258,-0.000209,0.617357,0.000000|eff|209.472656,-1901.367188,-1659.667969,-177.246094,28.198242,16.113281
cobot_dynamixel_driver/joint_states|name|J1,J2,J3,J4,J5,J6|pos|-0.008337,-1.112945,1.110880,0.000238,-1.305372,-0.000083|vel|0.056961,0.648265,-0.648891,-0.000209,0.654585,0.000000|eff|257.812500,-1562.988281,-999.023438,-193.359375,0.000000,12.084961
cobot_dynamixel_driver/joint_states|name|J1,J2,J3,J4,J5,J6|pos|-0.007286,-1.100327,1.098362,0.000213,-1.293002,-0.000083|vel|0.051536,0.644927,-0.667669,-0.000626,0.652172,0.000000|eff|209.472656,-2062.500000,-886.230469,-193.359375,52.368164,8.056641
cobot_dynamixel_driver/joint_states|name|J1,J2,J3,J4,J5,J6|pos|-0.006297,-1.087608,1.085756,0.000188,-1.280487,-0.000083|vel|0.049867,0.660367,-0.700844,-0.001461,0.723525,0.000000|eff|161.132812,-2948.730469,-950.683594,-193.359375,60.424805,12.084961
cobot_dynamixel_driver/joint_states|name|J1,J2,J3,J4,J5,J6|pos|-0.005420,-1.074690,1.073012,0.000175,-1.267786,-0.000083|vel|0.040477,0.681023,-0.583793,-0.000835,0.592194,0.000000|eff|209.472656,-483.398438,-1836.914062,-209.472656,12.084961,12.084961
cobot_dynamixel_driver/joint_states|name|J1,J2,J3,J4,J5,J6|pos|-0.004744,-1.061796,1.060169,0.000150,-1.255065,-0.000083|vel|0.030254,0.650560,-0.653273,-0.001043,0.587713,0.000000|eff|193.359375,-1514.648438,-1691.894531,-96.679688,36.254883,8.056641
cobot_dynamixel_driver/joint_states|name|J1,J2,J3,J4,J5,J6|pos|-0.004181,-1.048789,1.047262,0.000125,-1.242281,-0.000083|vel|0.026915,0.666835,-0.680397,-0.001252,0.648035,0.000000|eff|273.925781,-1514.648438,-999.023438,-161.132812,-8.056641,16.113281
cobot_dynamixel_driver/joint_states|name|J1,J2,J3,J4,J5,J6|pos|-0.003618,-1.035670,1.034243,0.000113,-1.229394,-0.000083|vel|0.029419,0.688325,-0.690620,-0.001252,0.702153,0.000000|eff|209.472656,-1691.894531,-1949.707031,-177.246094,-8.056641,16.113281
cobot_dynamixel_driver/joint_states|name|J1,J2,J3,J4,J5,J6|pos|-0.003117,-1.022639,1.021162,0.000100,-1.216487,-0.000083|vel|0.021073,0.672885,-0.724213,-0.000626,0.646657,0.000000|eff|193.359375,-902.343750,-886.230469,-112.792969,36.254883,16.113281
cobot_dynamixel_driver/joint_states|name|J1,J2,J3,J4,J5,J6|pos|-0.002741,-1.009570,1.008155,0.000088,-1.203496,-0.000083|vel|0.017944,0.646805,-0.679145,-0.000626,0.712149,0.000000|eff|225.585938,-2384.765625,-2030.273438,-193.359375,80.566406,16.113281
cobot_dynamixel_driver/joint_states|name|J1,J2,J3,J4,J5,J6|pos|-0.002403,-0.996238,0.994898,0.000075,-1.190568,-0.000083|vel|0.015023,0.729220,-0.611335,-0.000626,0.683195,0.000000|eff|193.359375,-999.023438,-1466.308594,-209.472656,88.623047,16.113281
cobot_dynamixel_driver/joint_states|name|J1,J2,J3,J4,J5,J6|pos|-0.002116,-0.982831,0.981554,0.000063,-1.177185,-0.000083|vel|0.014814,0.701679,-0.679562,-0.000417,0.682850,0.000000|eff|225.585938,-467.285156,-644.531250,-209.472656,36.254883,16.113281
cobot_dynamixel_driver/joint_states|name|J1,J2,J3,J4,J5,J6|pos|-0.001878,-0.969524,0.968084,0.000050,-1.163863,-0.000083|vel|0.010224,0.631991,-0.682692,-0.000417,0.787983,0.000000|eff|193.359375,-1917.480469,-531.738281,-177.246094,16.113281,24.169922
cobot_dynamixel_driver/joint_states|name|J1,J2,J3,J4,J5,J6|pos|-0.001590,-0.956155,0.954803,0.000038,-1.150562,-0.000083|vel|0.015231,0.676641,-0.617385,-0.000626,0.710771,0.000000|eff|145.019531,-2852.050781,-1708.007812,-209.472656,24.169922,20.141602
cobot_dynamixel_driver/joint_states|name|J1,J2,J3,J4,J5,J6|pos|-0.001390,-0.942823,0.941446,0.000025,-1.137179,-0.000083|vel|0.008972,0.650352,-0.689369,-0.000626,0.609429,0.000000|eff|96.679688,-2078.613281,-2239.746094,-112.792969,-44.311523,20.141602
cobot_dynamixel_driver/joint_states|name|J1,J2,J3,J4,J5,J6|pos|-0.001164,-0.928802,0.927338,0.000013,-1.123134,-0.000083|vel|0.010432,0.670590,-0.674555,-0.000626,0.680092,0.000000|eff|96.679688,-596.191406,-725.097656,-145.019531,-56.396484,20.141602
cobot_dynamixel_driver/joint_states|name|J1,J2,J3,J4,J5,J6|pos|-0.001001,-0.915984,0.914769,0.000013,-1.110743,-0.000083|vel|0.009180,0.699384,-0.604867,-0.000626,0.651482,0.000000|eff|161.132812,-725.097656,-1015.136719,-209.472656,40.283203,20.141602
cobot_dynamixel_driver/joint_states|name|J1,J2,J3,J4,J5,J6|pos|-0.000826,-0.902677,0.901300,0.000000,-1.097401,-0.000083|vel|0.008346,0.774705,-0.705852,-0.000626,0.678369,0.000000|eff|64.453125,-499.511719,-531.738281,-209.472656,28.198242,20.141602
cobot_dynamixel_driver/joint_states|name|J1,J2,J3,J4,J5,J6|pos|-0.000676,-0.889382,0.887980,0.000000,-1.084038,-0.000083|vel|0.006885,0.665374,-0.692081,-0.000626,0.715252,0.000000|eff|128.906250,-3738.281250,-918.457031,-112.792969,44.311523,24.169922
cobot_dynamixel_driver/joint_states|name|J1,J2,J3,J4,J5,J6|pos|-0.000563,-0.875888,0.874623,0.000000,-1.070675,-0.000083|vel|0.005633,0.622393,-0.705852,-0.000626,0.731453,0.000000|eff|128.906250,-2400.878906,-2288.085938,-112.792969,-24.169922,24.169922
cobot_dynamixel_driver/joint_states|name|J1,J2,J3,J4,J5,J6|pos|-0.000476,-0.862381,0.861091,0.000000,-1.057230,-0.000083|vel|0.003964,0.642006,-0.708355,-0.000626,0.707324,0.000000|eff|128.906250,-2771.484375,-2384.765625,-96.679688,16.113281,20.141602
cobot_dynamixel_driver/joint_states|name|J1,J2,J3,J4,J5,J6|pos|-0.000413,-0.848823,0.847321,0.000000,-1.044219,-0.000083|vel|0.003130,0.682275,-0.720457,0.000000,0.608395,0.000000|eff|225.585938,-3303.222656,-918.457031,-177.246094,8.056641,24.169922
cobot_dynamixel_driver/joint_states|name|J1,J2,J3,J4,J5,J6|pos|-0.000351,-0.835379,0.833914,0.000000,-1.030835,-0.000083|vel|0.003756,0.702096,-0.677476,0.000000,0.725593,0.000000|eff|32.226562,-1772.460938,-692.871094,-96.679688,60.424805,24.169922
cobot_dynamixel_driver/joint_states|name|J1,J2,J3,J4,J5,J6|pos|-0.000300,-0.821784,0.820557,0.000000,-1.017390,-0.000083|vel|0.004173,0.666000,-0.698340,0.000000,0.799703,0.000000|eff|145.019531,-2304.199219,-1869.140625,-112.792969,-24.169922,28.198242
cobot_dynamixel_driver/joint_states|name|J1,J2,J3,J4,J5,J6|pos|-0.000288,-0.808264,0.807175,0.000000,-1.004358,-0.000062|vel|0.000835,0.655776,-0.671842,0.000000,0.684229,0.000000|eff|112.792969,-2014.160156,-1256.835938,-145.019531,72.509766,28.198242
cobot_dynamixel_driver/joint_states|name|J1,J2,J3,J4,J5,J6|pos|-0.000275,-0.794720,0.793943,0.000000,-0.990871,-0.000041|vel|0.000835,0.724421,-0.701261,0.000000,0.725593,0.000000|eff|112.792969,-2110.839844,-902.343750,-128.906250,0.000000,32.226562
cobot_dynamixel_driver/joint_states|name|J1,J2,J3,J4,J5,J6|pos|-0.000250,-0.781150,0.780274,0.000000,-0.977384,-0.000041|vel|0.000626,0.677267,-0.741113,0.000000,0.628043,0.000000|eff|128.906250,-1901.367188,-725.097656,-96.679688,44.311523,24.169922
cobot_dynamixel_driver/joint_states|name|J1,J2,J3,J4,J5,J6|pos|-0.000238,-0.767630,0.766591,0.000000,-0.963835,-0.000041|vel|0.000626,0.724421,-0.749667,0.000000,0.718354,0.000000|eff|145.019531,-1772.460938,-950.683594,-209.472656,76.538086,28.198242
cobot_dynamixel_driver/joint_states|name|J1,J2,J3,J4,J5,J6|pos|-0.000200,-0.753985,0.752946,-0.000013,-0.950328,-0.000041|vel|0.001669,0.706269,-0.734854,0.000000,0.752135,0.000000|eff|128.906250,-2352.539062,-1321.289062,-209.472656,0.000000,28.198242
cobot_dynamixel_driver/joint_states|name|J1,J2,J3,J4,J5,J6|pos|-0.000175,-0.740516,0.739489,-0.000013,-0.936862,-0.000041|vel|0.001252,0.703765,-0.622810,0.000000,0.633903,0.000000|eff|145.019531,-1853.027344,-1160.156250,-177.246094,32.226562,28.198242
cobot_dynamixel_driver/joint_states|name|J1,J2,J3,J4,J5,J6|pos|-0.000150,-0.726883,0.725732,-0.000013,-0.923458,-0.000041|vel|0.001461,0.710025,-0.727551,0.000000,0.581508,0.000000|eff|145.019531,-2078.613281,-1514.648438,-112.792969,120.849609,32.226562
cobot_dynamixel_driver/joint_states|name|J1,J2,J3,J4,J5,J6|pos|-0.000125,-0.713339,0.712112,-0.000013,-0.909888,-0.000041|vel|0.001043,0.692498,-0.692707,0.000000,0.691123,0.000000|eff|112.792969,-2159.179688,-1901.367188,-177.246094,60.424805,28.198242
cobot_dynamixel_driver/joint_states|name|J1,J2,J3,J4,J5,J6|pos|-0.000088,-0.699694,0.698517,-0.000013,-0.896401,-0.000041|vel|0.001669,0.702931,-0.700635,0.000000,0.670441,0.000000|eff|145.019531,-2046.386719,-1772.460938,-161.132812,-20.141602,24.169922
cobot_dynamixel_driver/joint_states|name|J1,J2,J3,J4,J5,J6|pos|-0.000075,-0.686111,0.684972,-0.000013,-0.882935,-0.000021|vel|0.001252,0.679979,-0.647222,0.000000,0.623906,0.000000|eff|145.019531,-3029.296875,-1853.027344,-128.906250,52.368164,32.226562
cobot_dynamixel_driver/joint_states|name|J1,J2,J3,J4,J5,J6|pos|-0.000063,-0.672579,0.671528,-0.000013,-0.869427,-0.000021|vel|0.000835,0.672468,-0.613004,0.000000,0.732142,0.000000|eff|161.132812,-2481.445312,-1434.082031,-209.472656,-20.141602,24.169922
cobot_dynamixel_driver/joint_states|name|J1,J2,J3,J4,J5,J6|pos|-0.000038,-0.659009,0.658033,-0.000013,-0.856065,-0.000021|vel|0.000835,0.720040,-0.691246,0.000000,0.741794,0.000000|eff|64.453125,-2690.917969,-1224.609375,-112.792969,-32.226562,28.198242
cobot_dynamixel_driver/joint_states|name|J1,J2,J3,J4,J5,J6|pos|-0.000025,-0.645565,0.644513,-0.000013,-0.843053,-0.000021|vel|0.000626,0.631156,-0.715449,0.000000,0.715596,0.000000|eff|112.792969,-1482.421875,-1240.722656,-112.792969,120.849609,28.198242
cobot_dynamixel_driver/joint_states|name|J1,J2,J3,J4,J5,J6|pos|0.000000,-0.631958,0.630843,-0.000013,-0.829443,-0.000021|vel|0.001043,0.721709,-0.659323,0.000000,0.697327,0.000000|eff|96.679688,-2046.386719,-1482.421875,-112.792969,32.226562,28.198242
cobot_dynamixel_driver/joint_states|name|J1,J2,J3,J4,J5,J6|pos|0.000013,-0.618488,0.617386,-0.000013,-0.815935,-0.000021|vel|0.000626,0.677684,-0.650978,0.000000,0.673888,0.000000|eff|161.132812,-1740.234375,-1305.175781,-145.019531,16.113281,28.198242
cobot_dynamixel_driver/joint_states|name|J1,J2,J3,J4,J5,J6|pos|0.000025,-0.604868,0.603892,-0.000013,-0.802489,-0.000021|vel|0.000626,0.662870,-0.706269,0.000000,0.709392,0.000000|eff|128.906250,-1836.914062,-966.796875,-193.359375,84.594727,28.198242
cobot_dynamixel_driver/joint_states|name|J1,J2,J3,J4,J5,J6|pos|0.000025,-0.591286,0.590309,-0.000025,-0.788982,-0.000021|vel|0.000626,0.702513,-0.737149,0.000000,0.720078,0.000000|eff|145.019531,-1611.328125,-902.343750,-209.472656,16.113281,28.198242
cobot_dynamixel_driver/joint_states|name|J1,J2,J3,J4,J5,J6|pos|0.000038,-0.577729,0.576715,-0.000025,-0.775681,-0.000021|vel|0.000626,0.677058,-0.707521,0.000000,0.734210,0.000000|eff|177.246094,-2110.839844,-1095.703125,-112.792969,124.877930,28.198242
cobot_dynamixel_driver/joint_states|name|J1,J2,J3,J4,J5,J6|pos|0.000038,-0.564134,0.563170,-0.000025,-0.762153,-0.000021|vel|0.000209,0.704391,-0.774079,0.000000,0.670441,0.000000|eff|32.226562,-2126.953125,-1111.816406,-145.019531,12.084961,28.198242
cobot_dynamixel_driver/joint_states|name|J1,J2,J3,J4,J5,J6|pos|0.000038,-0.550577,0.549613,-0.000025,-0.748625,-0.000021|vel|0.001043,0.738401,-0.658072,0.000000,0.753858,0.000000|eff|32.226562,-2255.859375,-934.570312,-128.906250,0.000000,28.198242
cobot_dynamixel_driver/joint_states|name|J1,J2,J3,J4,J5,J6|pos|0.000038,-0.537032,0.536156,-0.000025,-0.735159,-0.000021|vel|0.001043,0.682900,-0.735479,0.000000,0.682850,0.000000|eff|0.000000,-2143.066406,-1015.136719,-161.132812,72.509766,28.198242
cobot_dynamixel_driver/joint_states|name|J1,J2,J3,J4,J5,J6|pos|0.000038,-0.523550,0.522586,-0.000025,-0.721630,-0.000021|vel|0.000835,0.726299,-0.660993,0.000000,0.674577,0.000000|eff|96.679688,-1611.328125,-757.324219,-145.019531,-28.198242,28.198242
cobot_dynamixel_driver/joint_states|name|J1,J2,J3,J4,J5,J6|pos|0.000038,-0.509930,0.509016,-0.000025,-0.708164,-0.000021|vel|-0.000835,0.712111,-0.717953,0.000000,0.712494,0.000000|eff|145.019531,-1772.460938,-950.683594,-128.906250,72.509766,24.169922
cobot_dynamixel_driver/joint_states|name|J1,J2,J3,J4,J5,J6|pos|0.000038,-0.496385,0.495534,-0.000025,-0.694739,-0.000021|vel|-0.000835,0.688534,-0.657863,0.000000,0.764544,0.000000|eff|0.000000,-1691.894531,-805.664062,-161.132812,76.538086,28.198242
cobot_dynamixel_driver/joint_states|name|J1,J2,J3,J4,J5,J6|pos|0.000050,-0.482903,0.481889,-0.000025,-0.681294,-0.000021|vel|-0.000835,0.678102,-0.687491,0.000000,0.663892,0.000000|eff|80.566406,-1256.835938,-918.457031,-96.679688,-52.368164,28.198242
cobot_dynamixel_driver/joint_states|name|J1,J2,J3,J4,J5,J6|pos|0.000050,-0.469358,0.468282,-0.000025,-0.668262,-0.000021|vel|0.000835,0.713989,-0.663079,0.000000,0.669751,0.000000|eff|0.000000,-1063.476562,-1063.476562,-96.679688,36.254883,28.198242
cobot_dynamixel_driver/joint_states|name|J1,J2,J3,J4,J5,J6|pos|0.000050,-0.455764,0.454637,-0.000025,-0.654796,-0.000021|vel|0.000835,0.665374,-0.663079,0.000000,0.630456,0.000000|eff|32.226562,-1546.875000,-1208.496094,-112.792969,24.169922,28.198242
cobot_dynamixel_driver/joint_states|name|J1,J2,J3,J4,J5,J6|pos|0.000050,-0.442106,0.441067,-0.000025,-0.641185,-0.000021|vel|0.000000,0.676641,-0.623019,0.000000,0.681471,0.000000|eff|0.000000,-1772.460938,-1127.929688,-112.792969,44.311523,28.198242
cobot_dynamixel_driver/joint_states|name|J1,J2,J3,J4,J5,J6|pos|0.000050,-0.428586,0.427485,-0.000025,-0.627760,-0.000021|vel|0.000000,0.683526,-0.730055,0.000000,0.694915,0.000000|eff|80.566406,-1595.214844,-1417.968750,-209.472656,56.396484,28.198242
cobot_dynamixel_driver/joint_states|name|J1,J2,J3,J4,J5,J6|pos|0.000050,-0.415067,0.413953,-0.000025,-0.614232,-0.000021|vel|0.000000,0.662036,-0.769280,0.000000,0.600122,0.000000|eff|80.566406,-1595.214844,-1305.175781,-193.359375,44.311523,28.198242
cobot_dynamixel_driver/joint_states|name|J1,J2,J3,J4,J5,J6|pos|0.000050,-0.401547,0.400420,-0.000025,-0.600786,-0.000021|vel|0.000000,0.669338,-0.754675,0.000000,0.668028,0.000000|eff|112.792969,-1079.589844,-1095.703125,-112.792969,76.538086,28.198242
cobot_dynamixel_driver/joint_states|name|J1,J2,J3,J4,J5,J6|pos|0.000050,-0.387865,0.387101,-0.000025,-0.587320,0.000000|vel|0.000000,0.748833,-0.699175,0.000000,0.810734,0.000000|eff|80.566406,-1949.707031,-789.550781,-161.132812,48.339844,28.198242
cobot_dynamixel_driver/joint_states|name|J1,J2,J3,J4,J5,J6|pos|0.000050,-0.374220,0.373732,-0.000025,-0.573833,0.000000|vel|0.000000,0.683735,-0.709399,0.000000,0.658721,0.000000|eff|80.566406,-2288.085938,-805.664062,-112.792969,52.368164,28.198242
cobot_dynamixel_driver/joint_states|name|J1,J2,J3,J4,J5,J6|pos|0.000050,-0.360813,0.360275,-0.000025,-0.560305,0.000000|vel|0.000000,0.724630,-0.700010,0.000000,0.731453,0.000000|eff|80.566406,-1756.347656,-1256.835938,-209.472656,0.000000,28.198242
cobot_dynamixel_driver/joint_states|name|J1,J2,J3,J4,J5,J6|pos|0.000050,-0.347231,0.346655,-0.000025,-0.546922,0.000000|vel|0.000000,0.678519,-0.750919,0.000000,0.728695,0.000000|eff|128.906250,-1691.894531,-837.890625,-112.792969,36.254883,28.198242
cobot_dynamixel_driver/joint_states|name|J1,J2,J3,J4,J5,J6|pos|0.000050,-0.333586,0.332835,-0.000038,-0.533414,0.000000|vel|-0.000626,0.664957,-0.759682,0.000000,0.693191,0.000000|eff|32.226562,-2368.652344,-628.417969,-177.246094,96.679688,24.169922
cobot_dynamixel_driver/joint_states|name|J1,J2,J3,J4,J5,J6|pos|0.000050,-0.319953,0.319177,-0.000038,-0.519989,0.000000|vel|0.000626,0.648682,-0.698966,0.000000,0.683884,0.000000|eff|112.792969,-2255.859375,-966.796875,-193.359375,56.396484,28.198242
cobot_dynamixel_driver/joint_states|name|J1,J2,J3,J4,J5,J6|pos|0.000050,-0.306371,0.305520,-0.000038,-0.506420,0.000000|vel|-0.000626,0.684152,-0.659532,0.000000,0.627353,0.000000|eff|80.566406,-918.457031,-1305.175781,-145.019531,60.424805,28.198242
cobot_dynamixel_driver/joint_states|name|J1,J2,J3,J4,J5,J6|pos|0.000050,-0.292776,0.291950,-0.000038,-0.493057,0.000000|vel|-0.000626,0.697923,-0.707938,0.000000,0.678024,0.000000|eff|112.792969,-1659.667969,-1256.835938,-209.472656,80.566406,28.198242
cobot_dynamixel_driver/joint_states|name|J1,J2,J3,J4,J5,J6|pos|0.000050,-0.279194,0.278343,-0.000038,-0.479549,0.000000|vel|0.000626,0.740696,-0.723169,0.000000,0.716286,0.000000|eff|80.566406,-2078.613281,-1450.195312,-145.019531,28.198242,24.169922
cobot_dynamixel_driver/joint_states|name|J1,J2,J3,J4,J5,J6|pos|0.000050,-0.265649,0.264710,-0.000038,-0.466104,0.000000|vel|0.000626,0.667669,-0.806002,0.000000,0.624596,0.000000|eff|161.132812,-2835.937500,-1434.082031,-145.019531,68.481445,28.198242
cobot_dynamixel_driver/joint_states|name|J1,J2,J3,J4,J5,J6|pos|0.000050,-0.252092,0.251404,-0.000038,-0.452576,0.000000|vel|0.000209,0.725673,-0.695002,0.000000,0.708702,0.000000|eff|161.132812,-1321.289062,-854.003906,-112.792969,52.368164,24.169922
cobot_dynamixel_driver/joint_states|name|J1,J2,J3,J4,J5,J6|pos|0.000050,-0.238547,0.237909,-0.000038,-0.439089,0.000000|vel|0.000209,0.706060,-0.659741,0.000000,0.677680,0.000000|eff|80.566406,-2497.558594,-725.097656,-145.019531,108.764648,28.198242
cobot_dynamixel_driver/joint_states|name|J1,J2,J3,J4,J5,J6|pos|0.000050,-0.224927,0.224176,-0.000038,-0.425622,0.000000|vel|0.000626,0.712320,-0.767194,0.000000,0.613910,0.000000|eff|112.792969,-1724.121094,-1160.156250,-96.679688,-24.169922,28.198242
cobot_dynamixel_driver/joint_states|name|J1,J2,J3,J4,J5,J6|pos|0.000050,-0.211220,0.210469,-0.000038,-0.412508,0.000000|vel|0.000626,0.688117,-0.719622,0.000000,0.760063,0.000000|eff|0.000000,-112.792969,-1530.761719,-177.246094,68.481445,28.198242
cobot_dynamixel_driver/joint_states|name|J1,J2,J3,J4,J5,J6|pos|0.000050,-0.197613,0.196837,-0.000038,-0.398959,0.000000|vel|0.000626,0.709399,-0.629070,0.000000,0.732487,0.000000|eff|128.906250,290.039062,-1869.140625,-96.679688,24.169922,28.198242
cobot_dynamixel_driver/joint_states|name|J1,J2,J3,J4,J5,J6|pos|0.000050,-0.184131,0.183242,-0.000038,-0.385576,0.000000|vel|-0.000626,0.696254,-0.644510,0.000000,0.708013,0.000000|eff|0.000000,-451.171875,-1853.027344,-96.679688,32.226562,28.198242
cobot_dynamixel_driver/joint_states|name|J1,J2,J3,J4,J5,J6|pos|0.000050,-0.170836,0.169660,-0.000038,-0.372089,0.000000|vel|-0.000626,0.688743,-0.723169,0.000000,0.677680,0.000000|eff|64.453125,-2529.785156,-2143.066406,-112.792969,92.651367,28.198242
cobot_dynamixel_driver/joint_states|name|J1,J2,J3,J4,J5,J6|pos|0.000050,-0.157342,0.156027,-0.000038,-0.358540,0.000000|vel|-0.000626,0.665374,-0.683735,0.000000,0.604948,0.000000|eff|0.000000,-1820.800781,-1111.816406,-96.679688,60.424805,28.198242
cobot_dynamixel_driver/joint_states|name|J1,J2,J3,J4,J5,J6|pos|0.000063,-0.143709,0.142495,-0.000038,-0.345115,0.000000|vel|0.000000,0.714823,-0.690203,0.000000,0.616668,0.000000|eff|0.000000,-2626.464844,-2239.746094,-96.679688,140.991211,28.198242
cobot_dynamixel_driver/joint_states|name|J1,J2,J3,J4,J5,J6|pos|0.000063,-0.130089,0.129025,-0.000038,-0.331504,0.000000|vel|0.000000,0.665374,-0.721709,0.000000,0.698017,0.000000|eff|0.000000,-2529.785156,-1820.800781,-96.679688,60.424805,28.198242
cobot_dynamixel_driver/joint_states|name|J1,J2,J3,J4,J5,J6|pos|0.000063,-0.116357,0.115643,-0.000038,-0.318058,0.000000|vel|0.000000,0.697506,-0.742365,0.000000,0.676990,0.000000|eff|0.000000,-225.585938,-1401.855469,-128.906250,28.198242,28.198242
cobot_dynamixel_driver/joint_states|name|J1,J2,J3,J4,J5,J6|pos|0.000063,-0.102750,0.102036,-0.000038,-0.304117,0.000000|vel|0.000000,0.700010,-0.719622,0.000000,0.668373,0.000000|eff|128.906250,322.265625,-1546.875000,-177.246094,112.792969,28.198242
cobot_dynamixel_driver/joint_states|name|J1,J2,J3,J4,J5,J6|pos|0.000063,-0.089580,0.088992,-0.000038,-0.291188,0.000000|vel|0.000000,0.665583,-0.659949,0.000000,0.694915,0.000000|eff|0.000000,-789.550781,-644.531250,-112.792969,0.000000,28.198242
cobot_dynamixel_driver/joint_states|name|J1,J2,J3,J4,J5,J6|pos|0.000063,-0.077563,0.077325,-0.000038,-0.277163,0.000000|vel|0.000000,0.597355,-0.557087,0.000000,0.714562,0.000000|eff|112.792969,1208.496094,-290.039062,-112.792969,52.368164,28.198242
cobot_dynamixel_driver/joint_states|name|J1,J2,J3,J4,J5,J6|pos|0.000063,-0.067098,0.067273,-0.000038,-0.264711,0.000000|vel|0.000000,0.502212,-0.469872,0.000000,0.693536,0.000000|eff|64.453125,1208.496094,-1836.914062,-161.132812,112.792969,28.198242
cobot_dynamixel_driver/joint_states|name|J1,J2,J3,J4,J5,J6|pos|0.000063,-0.058110,0.058748,-0.000038,-0.250459,0.000000|vel|0.000000,0.437741,-0.417293,0.000000,0.587368,0.000000|eff|0.000000,-209.472656,-402.832031,-145.019531,60.424805,28.198242
cobot_dynamixel_driver/joint_states|name|J1,J2,J3,J4,J5,J6|pos|0.000063,-0.050499,0.051362,-0.000038,-0.237592,0.000000|vel|0.000000,0.352196,-0.381615,0.000000,0.732487,0.000000|eff|112.792969,338.378906,-515.625000,-96.679688,36.254883,28.198242
cobot_dynamixel_driver/joint_states|name|J1,J2,J3,J4,J5,J6|pos|0.000063,-0.043951,0.044840,-0.000038,-0.223444,0.000000|vel|0.000000,0.300868,-0.315891,0.000000,0.690433,0.000000|eff|0.000000,612.304688,-725.097656,-145.019531,96.679688,28.198242
cobot_dynamixel_driver/joint_states|name|J1,J2,J3,J4,J5,J6|pos|0.000050,-0.038293,0.039157,-0.000038,-0.210660,0.000000|vel|0.000000,0.269571,-0.267068,0.000000,0.853476,0.000000|eff|0.000000,128.906250,-854.003906,-112.792969,16.113281,28.198242
cobot_dynamixel_driver/joint_states|name|J1,J2,J3,J4,J5,J6|pos|0.000050,-0.033361,0.034287,-0.000038,-0.196842,0.000000|vel|0.000000,0.230972,-0.232432,0.000000,0.664236,0.000000|eff|0.000000,322.265625,-821.777344,-96.679688,169.189453,28.198242
cobot_dynamixel_driver/joint_states|name|J1,J2,J3,J4,J5,J6|pos|0.000050,-0.029080,0.029981,-0.000038,-0.184017,0.000000|vel|0.000000,0.200718,-0.199883,0.000000,0.617357,0.000000|eff|0.000000,322.265625,-789.550781,-96.679688,36.254883,28.198242
cobot_dynamixel_driver/joint_states|name|J1,J2,J3,J4,J5,J6|pos|0.000050,-0.025349,0.026176,-0.000038,-0.169744,0.000000|vel|0.000000,0.172968,-0.189660,0.000000,0.707324,0.000000|eff|112.792969,370.605469,-757.324219,-112.792969,48.339844,28.198242
cobot_dynamixel_driver/joint_states|name|J1,J2,J3,J4,J5,J6|pos|0.000050,-0.022120,0.022921,-0.000038,-0.157333,0.000000|vel|0.000000,0.156694,-0.156276,0.000000,0.668717,0.000000|eff|64.453125,370.605469,-789.550781,-112.792969,136.962891,28.198242
cobot_dynamixel_driver/joint_states|name|J1,J2,J3,J4,J5,J6|pos|0.000050,-0.019366,0.020079,-0.000038,-0.143743,0.000000|vel|0.000000,0.121432,-0.131656,0.000000,0.690433,0.000000|eff|128.906250,209.472656,-789.550781,-96.679688,36.254883,28.198242
cobot_dynamixel_driver/joint_states|name|J1,J2,J3,J4,J5,J6|pos|0.000050,-0.017037,0.017651,-0.000038,-0.130194,0.000000|vel|0.000000,0.110583,-0.123519,0.000000,0.613910,0.000000|eff|0.000000,80.566406,-837.890625,-96.679688,48.339844,28.198242
cobot_dynamixel_driver/joint_states|name|J1,J2,J3,J4,J5,J6|pos|0.000050,-0.014934,0.015435,-0.000038,-0.116024,0.000000|vel|0.000000,0.102237,-0.099316,0.000000,0.784192,0.000000|eff|0.000000,241.699219,-821.777344,-96.679688,88.623047,28.198242
cobot_dynamixel_driver/joint_states|name|J1,J2,J3,J4,J5,J6|pos|0.000050,-0.013069,0.013520,-0.000038,-0.103282,0.000000|vel|0.000000,0.090553,-0.091387,0.000000,0.796256,0.000000|eff|64.453125,161.132812,-854.003906,-96.679688,96.679688,28.198242
cobot_dynamixel_driver/joint_states|name|J1,J2,J3,J4,J5,J6|pos|0.000050,-0.011417,0.011905,-0.000038,-0.089319,0.000000|vel|0.000000,0.078660,-0.081789,0.000000,0.636316,0.000000|eff|112.792969,225.585938,-902.343750,-112.792969,-16.113281,28.198242
cobot_dynamixel_driver/joint_states|name|J1,J2,J3,J4,J5,J6|pos|0.000050,-0.010015,0.010390,-0.000038,-0.077756,0.000000|vel|0.000000,0.068645,-0.073652,0.000000,0.596330,0.000000|eff|0.000000,177.246094,-854.003906,-96.679688,0.000000,28.198242
cobot_dynamixel_driver/joint_states|name|J1,J2,J3,J4,J5,J6|pos|0.000050,-0.008813,0.009101,-0.000038,-0.068014,0.000000|vel|0.000000,0.055291,-0.062594,0.000000,0.546004,0.000000|eff|0.000000,96.679688,-870.117188,-96.679688,40.283203,28.198242
cobot_dynamixel_driver/joint_states|name|J1,J2,J3,J4,J5,J6|pos|0.000050,-0.007749,0.007974,-0.000038,-0.059926,0.000000|vel|0.000000,0.053205,-0.050075,0.000000,0.406401,0.000000|eff|145.019531,177.246094,-870.117188,-96.679688,0.000000,28.198242
cobot_dynamixel_driver/joint_states|name|J1,J2,J3,J4,J5,J6|pos|0.000050,-0.006810,0.007085,-0.000038,-0.052044,0.000000|vel|0.000000,0.039852,-0.042355,0.000000,0.354007,0.000000|eff|64.453125,145.019531,-966.796875,-96.679688,8.056641,28.198242
cobot_dynamixel_driver/joint_states|name|J1,J2,J3,J4,J5,J6|pos|0.000050,-0.005971,0.006284,-0.000038,-0.045570,0.000000|vel|0.000000,0.039434,-0.041312,0.000000,0.305749,0.000000|eff|128.906250,209.472656,-966.796875,-96.679688,28.198242,28.198242
cobot_dynamixel_driver/joint_states|name|J1,J2,J3,J4,J5,J6|pos|0.000050,-0.005245,0.005458,-0.000038,-0.039943,0.000000|vel|0.000000,0.037765,-0.031297,0.000000,0.282654,0.000000|eff|0.000000,145.019531,-902.343750,-96.679688,40.283203,28.198242
cobot_dynamixel_driver/joint_states|name|J1,J2,J3,J4,J5,J6|pos|0.000050,-0.004569,0.004707,-0.000038,-0.035186,0.000000|vel|0.000000,0.033383,-0.039226,0.000000,0.248873,0.000000|eff|0.000000,193.359375,-870.117188,-96.679688,32.226562,28.198242
cobot_dynamixel_driver/joint_states|name|J1,J2,J3,J4,J5,J6|pos|0.000050,-0.003981,0.004106,-0.000038,-0.030614,0.000000|vel|0.000000,0.029002,-0.030671,0.000000,0.211990,0.000000|eff|112.792969,209.472656,-918.457031,-96.679688,48.339844,28.198242
cobot_dynamixel_driver/joint_states|name|J1,J2,J3,J4,J5,J6|pos|0.000050,-0.003480,0.003518,-0.000038,-0.026829,0.000000|vel|0.000000,0.026289,-0.026498,0.000000,0.189585,0.000000|eff|0.000000,177.246094,-870.117188,-96.679688,56.396484,28.198242
cobot_dynamixel_driver/joint_states|name|J1,J2,J3,J4,J5,J6|pos|0.000050,-0.003004,0.003130,-0.000038,-0.023540,0.000000|vel|0.000000,0.022117,-0.018361,0.000000,0.148910,0.000000|eff|0.000000,193.359375,-886.230469,-96.679688,56.396484,28.198242
cobot_dynamixel_driver/joint_states|name|J1,J2,J3,J4,J5,J6|pos|0.000050,-0.002641,0.002691,-0.000038,-0.020623,0.000000|vel|0.000000,0.016692,-0.026498,0.000000,0.153736,0.000000|eff|0.000000,161.132812,-854.003906,-96.679688,60.424805,28.198242
cobot_dynamixel_driver/joint_states|name|J1,J2,J3,J4,J5,J6|pos|0.000050,-0.002316,0.002378,-0.000038,-0.018058,0.000000|vel|0.000000,0.015023,-0.010850,0.000000,0.130986,0.000000|eff|0.000000,177.246094,-902.343750,-96.679688,56.396484,28.198242
cobot_dynamixel_driver/joint_states|name|J1,J2,J3,J4,J5,J6|pos|0.000050,-0.002040,0.002178,-0.000038,-0.015804,0.000000|vel|0.000000,0.013771,-0.011267,0.000000,0.109270,0.000000|eff|0.000000,161.132812,-934.570312,-96.679688,60.424805,28.198242
cobot_dynamixel_driver/joint_states|name|J1,J2,J3,J4,J5,J6|pos|0.000050,-0.001790,0.001878,-0.000038,-0.013797,0.000000|vel|0.000000,0.011476,-0.020030,0.000000,0.085486,0.000000|eff|0.000000,161.132812,-837.890625,-96.679688,56.396484,28.198242
cobot_dynamixel_driver/joint_states|name|J1,J2,J3,J4,J5,J6|pos|0.000050,-0.001565,0.001515,-0.000038,-0.012080,0.000000|vel|0.000000,0.011684,-0.013979,0.000000,0.085141,0.000000|eff|0.000000,177.246094,-821.777344,-96.679688,60.424805,28.198242
cobot_dynamixel_driver/joint_states|name|J1,J2,J3,J4,J5,J6|pos|0.000050,-0.001339,0.001415,-0.000038,-0.010591,0.000000|vel|0.000000,0.010432,-0.005633,0.000000,0.071008,0.000000|eff|0.000000,306.152344,-902.343750,-96.679688,60.424805,28.198242
cobot_dynamixel_driver/joint_states|name|J1,J2,J3,J4,J5,J6|pos|0.000050,-0.001152,0.001415,-0.000038,-0.009267,0.000000|vel|0.000000,0.007929,-0.005633,0.000000,0.070319,0.000000|eff|0.000000,96.679688,-934.570312,-96.679688,64.453125,28.198242
cobot_dynamixel_driver/joint_states|name|J1,J2,J3,J4,J5,J6|pos|0.000050,-0.001026,0.001352,-0.000038,-0.008109,0.000000|vel|0.000000,0.006885,-0.005008,0.000000,0.051360,0.000000|eff|0.000000,257.812500,-982.910156,-80.566406,60.424805,28.198242
cobot_dynamixel_driver/joint_states|name|J1,J2,J3,J4,J5,J6|pos|0.000050,-0.000901,0.001202,-0.000038,-0.007157,0.000000|vel|0.000000,0.006468,-0.009598,0.000000,0.042398,0.000000|eff|112.792969,177.246094,-950.683594,-96.679688,76.538086,28.198242
cobot_dynamixel_driver/joint_states|name|J1,J2,J3,J4,J5,J6|pos|0.000050,-0.000814,0.000976,-0.000038,-0.006288,0.000000|vel|0.000000,0.004382,-0.013145,0.000000,0.044466,0.000000|eff|112.792969,145.019531,-886.230469,-96.679688,76.538086,28.198242
cobot_dynamixel_driver/joint_states|name|J1,J2,J3,J4,J5,J6|pos|0.000050,-0.000764,0.000726,-0.000025,-0.005523,0.000000|vel|0.000000,0.002921,-0.013145,0.000000,0.032402,0.000000|eff|48.339844,161.132812,-821.777344,-96.679688,80.566406,32.226562
cobot_dynamixel_driver/joint_states|name|J1,J2,J3,J4,J5,J6|pos|0.000050,-0.000689,0.000576,-0.000025,-0.004820,0.000000|vel|0.000000,0.003756,-0.005633,0.000000,0.033436,0.000000|eff|0.000000,161.132812,-837.890625,-32.226562,72.509766,28.198242
cobot_dynamixel_driver/joint_states|name|J1,J2,J3,J4,J5,J6|pos|0.000050,-0.000626,0.000538,-0.000025,-0.004261,0.000000|vel|0.000000,0.002712,-0.003756,0.000000,0.029299,0.000000|eff|0.000000,128.906250,-837.890625,-80.566406,76.538086,28.198242
cobot_dynamixel_driver/joint_states|name|J1,J2,J3,J4,J5,J6|pos|0.000038,-0.000576,0.000526,-0.000025,-0.003765,0.000000|vel|0.000000,0.002921,-0.001252,0.000000,0.025852,0.000000|eff|0.000000,145.019531,-902.343750,-48.339844,88.623047,28.198242
cobot_dynamixel_driver/joint_states|name|J1,J2,J3,J4,J5,J6|pos|0.000038,-0.000513,0.000501,-0.000025,-0.003248,0.000000|vel|0.000000,0.003338,-0.000835,0.000000,0.021716,0.000000|eff|0.000000,161.132812,-918.457031,-32.226562,72.509766,28.198242
cobot_dynamixel_driver/joint_states|name|J1,J2,J3,J4,J5,J6|pos|0.000038,-0.000413,0.000488,-0.000025,-0.002896,0.000000|vel|0.000000,0.004799,-0.000835,0.000000,0.016546,0.000000|eff|0.000000,112.792969,-918.457031,-96.679688,88.623047,28.198242
cobot_dynamixel_driver/joint_states|name|J1,J2,J3,J4,J5,J6|pos|0.000038,-0.000325,0.000476,-0.000025,-0.002524,0.000000|vel|0.000000,0.004590,-0.000626,0.000000,0.017580,0.000000|eff|0.000000,161.132812,-918.457031,-48.339844,72.509766,24.169922
cobot_dynamixel_driver/joint_states|name|J1,J2,J3,J4,J5,J6|pos|0.000038,-0.000263,0.000451,-0.000025,-0.002193,0.000000|vel|0.000000,0.003547,-0.000835,0.000000,0.014477,0.000000|eff|0.000000,161.132812,-982.910156,-48.339844,80.566406,28.198242
cobot_dynamixel_driver/joint_states|name|J1,J2,J3,J4,J5,J6|pos|0.000038,-0.000188,0.000438,-0.000025,-0.001903,0.000000|vel|0.000000,0.003547,-0.000835,0.000000,0.015511,0.000000|eff|0.000000,209.472656,-982.910156,-96.679688,72.509766,28.198242
cobot_dynamixel_driver/joint_states|name|J1,J2,J3,J4,J5,J6|pos|0.000038,-0.000113,0.000426,-0.000025,-0.001676,0.000000|vel|0.000000,0.003547,-0.000835,0.000000,0.009996,0.000000|eff|0.000000,209.472656,-982.910156,-96.679688,76.538086,28.198242
cobot_dynamixel_driver/joint_states|name|J1,J2,J3,J4,J5,J6|pos|0.000038,-0.000038,0.000426,-0.000025,-0.001510,0.000000|vel|0.000000,0.005008,-0.000835,0.000000,0.007583,0.000000|eff|0.000000,177.246094,-999.023438,-96.679688,84.594727,28.198242
cobot_dynamixel_driver/joint_states|name|J1,J2,J3,J4,J5,J6|pos|0.000038,0.000025,0.000413,-0.000025,-0.001365,0.000000|vel|0.000000,0.003756,-0.000835,0.000000,0.008273,0.000000|eff|0.000000,338.378906,-982.910156,-96.679688,88.623047,28.198242
cobot_dynamixel_driver/joint_states|name|J1,J2,J3,J4,J5,J6|pos|0.000038,0.000025,0.000401,-0.000025,-0.001158,0.000000|vel|0.000000,0.003756,-0.000209,0.000000,0.009996,0.000000|eff|0.000000,161.132812,-1031.250000,-96.679688,76.538086,32.226562
cobot_dynamixel_driver/joint_states|name|J1,J2,J3,J4,J5,J6|pos|0.000038,0.000025,0.000363,-0.000025,-0.000972,0.000000|vel|0.000000,0.003756,-0.001043,0.000000,0.008962,0.000000|eff|0.000000,161.132812,-1015.136719,-64.453125,80.566406,28.198242
cobot_dynamixel_driver/joint_states|name|J1,J2,J3,J4,J5,J6|pos|0.000038,0.000025,0.000263,-0.000025,-0.000889,0.000000|vel|0.000000,0.003756,-0.006885,0.000000,0.004136,0.000000|eff|0.000000,354.492188,-934.570312,-96.679688,80.566406,32.226562
cobot_dynamixel_driver/joint_states|name|J1,J2,J3,J4,J5,J6|pos|0.000038,0.000025,0.000138,-0.000025,-0.000807,0.000000|vel|0.000000,-0.003756,-0.005008,0.000000,0.003447,0.000000|eff|0.000000,354.492188,-902.343750,-96.679688,84.594727,28.198242
cobot_dynamixel_driver/joint_states|name|J1,J2,J3,J4,J5,J6|pos|0.000038,0.000025,0.000013,-0.000025,-0.000703,0.000000|vel|0.000000,0.003756,-0.007929,0.000000,0.006549,0.000000|eff|0.000000,306.152344,-886.230469,-96.679688,88.623047,32.226562
cobot_dynamixel_driver/joint_states|name|J1,J2,J3,J4,J5,J6|pos|0.000038,0.000025,-0.000138,-0.000025,-0.000600,0.000000|vel|0.000000,-0.000000,-0.007511,0.000000,0.005170,0.000000|eff|0.000000,145.019531,-837.890625,-96.679688,84.594727,28.198242
cobot_dynamixel_driver/joint_states|name|J1,J2,J3,J4,J5,J6|pos|0.000038,0.000025,-0.000250,-0.000025,-0.000517,0.000000|vel|0.000000,-0.000000,-0.004799,0.000000,0.003792,0.000000|eff|0.000000,290.039062,-789.550781,-96.679688,84.594727,28.198242
cobot_dynamixel_driver/joint_states|name|J1,J2,J3,J4,J5,J6|pos|0.000038,0.000025,-0.000313,-0.000025,-0.000517,0.000000|vel|0.000000,-0.000000,-0.003130,0.000000,0.002068,0.000000|eff|0.000000,145.019531,-757.324219,-96.679688,80.566406,32.226562
cobot_dynamixel_driver/joint_states|name|J1,J2,J3,J4,J5,J6|pos|0.000038,0.000025,-0.000313,-0.000025,-0.000476,0.000000|vel|0.000000,-0.000000,-0.001878,0.000000,0.002068,0.000000|eff|0.000000,225.585938,-789.550781,-96.679688,88.623047,28.198242
cobot_dynamixel_driver/joint_states|name|J1,J2,J3,J4,J5,J6|pos|0.000038,0.000025,-0.000313,-0.000025,-0.000414,0.000000|vel|0.000000,-0.000000,-0.001878,0.000000,0.003102,0.000000|eff|0.000000,370.605469,-708.984375,-96.679688,80.566406,28.198242
cobot_dynamixel_driver/joint_states|name|J1,J2,J3,J4,J5,J6|pos|0.000038,0.000025,-0.000313,-0.000025,-0.000269,0.000000|vel|0.000000,-0.000000,-0.001878,0.000000,0.007583,0.000000|eff|0.000000,290.039062,-708.984375,-96.679688,72.509766,28.198242
cobot_dynamixel_driver/joint_states|name|J1,J2,J3,J4,J5,J6|pos|0.000038,0.000025,-0.000313,-0.000025,-0.000248,0.000000|vel|0.000000,-0.000000,-0.001878,0.000000,0.005860,0.000000|eff|0.000000,161.132812,-725.097656,-96.679688,72.509766,28.198242
cobot_dynamixel_driver/joint_states|name|J1,J2,J3,J4,J5,J6|pos|0.000038,0.000025,-0.000313,-0.000025,-0.000248,0.000000|vel|0.000000,-0.000000,-0.001878,0.000000,0.005860,0.000000|eff|0.000000,273.925781,-725.097656,-96.679688,60.424805,28.198242
cobot_dynamixel_driver/joint_states|name|J1,J2,J3,J4,J5,J6|pos|0.000038,0.000025,-0.000313,-0.000025,-0.000248,0.000000|vel|0.000000,-0.000000,-0.001878,0.000000,0.005860,0.000000|eff|0.000000,225.585938,-692.871094,-64.453125,44.311523,28.198242
cobot_dynamixel_driver/joint_states|name|J1,J2,J3,J4,J5,J6|pos|0.000038,0.000025,-0.000313,-0.000025,-0.000248,0.000000|vel|0.000000,-0.000000,0.000000,0.000000,0.005860,0.000000|eff|0.000000,322.265625,-676.757812,-64.453125,44.311523,28.198242
cobot_dynamixel_driver/joint_states|name|J1,J2,J3,J4,J5,J6|pos|0.000038,0.000025,-0.000313,-0.000025,-0.000248,0.000000|vel|0.000000,-0.000000,0.000000,0.000000,0.005860,0.000000|eff|0.000000,161.132812,-692.871094,-96.679688,40.283203,28.198242
cobot_dynamixel_driver/joint_states|name|J1,J2,J3,J4,J5,J6|pos|0.000038,0.000025,-0.000313,-0.000025,-0.000248,0.000000|vel|0.000000,-0.000000,0.000000,0.000000,0.005860,0.000000|eff|0.000000,386.718750,-676.757812,-96.679688,24.169922,28.198242
cobot_dynamixel_driver/joint_states|name|J1,J2,J3,J4,J5,J6|pos|0.000038,0.000025,-0.000313,-0.000025,-0.000248,0.000000|vel|0.000000,-0.000000,0.000000,0.000000,0.000000,0.000000|eff|0.000000,354.492188,-676.757812,-96.679688,20.141602,28.198242
cobot_dynamixel_driver/joint_states|name|J1,J2,J3,J4,J5,J6|pos|0.000038,0.000025,-0.000313,-0.000025,-0.000248,0.000000|vel|0.000000,-0.000000,0.000000,0.000000,0.000000,0.000000|eff|0.000000,225.585938,-612.304688,-96.679688,44.311523,28.198242
cobot_dynamixel_driver/joint_states|name|J1,J2,J3,J4,J5,J6|pos|0.000038,0.000025,-0.000300,-0.000025,-0.000248,0.000000|vel|0.000000,-0.000000,0.000000,0.000000,0.000000,0.000000|eff|0.000000,241.699219,-628.417969,-96.679688,44.311523,28.198242
cobot_dynamixel_driver/joint_states|name|J1,J2,J3,J4,J5,J6|pos|0.000038,0.000025,-0.000300,-0.000025,-0.000248,0.000000|vel|0.000000,-0.000000,0.000000,0.000000,0.000000,0.000000|eff|0.000000,241.699219,-596.191406,-96.679688,48.339844,28.198242
cobot_dynamixel_driver/joint_states|name|J1,J2,J3,J4,J5,J6|pos|0.000038,0.000025,-0.000300,-0.000025,-0.000248,0.000000|vel|0.000000,-0.000000,0.000000,0.000000,0.000000,0.000000|eff|0.000000,177.246094,-596.191406,-80.566406,44.311523,28.198242
cobot_dynamixel_driver/joint_states|name|J1,J2,J3,J4,J5,J6|pos|0.000038,0.000025,-0.000288,-0.000025,-0.000248,0.000000|vel|0.000000,-0.000000,0.000000,0.000000,0.000000,0.000000|eff|0.000000,354.492188,-580.078125,-64.453125,52.368164,28.198242
cobot_dynamixel_driver/joint_states|name|J1,J2,J3,J4,J5,J6|pos|0.000038,0.000025,-0.000288,-0.000025,-0.000248,0.000000|vel|0.000000,-0.000000,0.000000,0.000000,0.000000,0.000000|eff|0.000000,370.605469,-580.078125,-96.679688,56.396484,28.198242
cobot_dynamixel_driver/joint_states|name|J1,J2,J3,J4,J5,J6|pos|0.000038,0.000025,-0.000275,-0.000025,-0.000248,0.000000|vel|0.000000,-0.000000,0.000000,0.000000,0.000000,0.000000|eff|0.000000,370.605469,-580.078125,-80.566406,56.396484,28.198242
cobot_dynamixel_driver/joint_states|name|J1,J2,J3,J4,J5,J6|pos|0.000038,0.000025,-0.000275,-0.000025,-0.000248,0.000000|vel|0.000000,-0.000000,0.000209,0.000000,0.000000,0.000000|eff|0.000000,370.605469,-580.078125,-96.679688,60.424805,28.198242
cobot_dynamixel_driver/joint_states|name|J1,J2,J3,J4,J5,J6|pos|0.000038,0.000025,-0.000275,-0.000025,-0.000248,0.000000|vel|0.000000,-0.000000,0.000209,0.000000,0.000000,0.000000|eff|0.000000,290.039062,-499.511719,-64.453125,68.481445,28.198242
cobot_dynamixel_driver/joint_states|name|J1,J2,J3,J4,J5,J6|pos|0.000038,0.000025,-0.000263,-0.000025,-0.000248,0.000000|vel|0.000000,-0.000000,0.000209,0.000000,0.000000,0.000000|eff|0.000000,354.492188,-580.078125,-96.679688,72.509766,28.198242
cobot_dynamixel_driver/joint_states|name|J1,J2,J3,J4,J5,J6|pos|0.000038,0.000025,-0.000263,-0.000025,-0.000248,0.000000|vel|0.000000,-0.000000,0.000209,0.000000,0.000000,0.000000|eff|0.000000,322.265625,-580.078125,-96.679688,76.538086,28.198242
cobot_dynamixel_driver/joint_states|name|J1,J2,J3,J4,J5,J6|pos|0.000025,0.000025,-0.000263,-0.000025,-0.000228,0.000000|vel|0.000000,-0.000000,0.000209,0.000000,0.000000,0.000000|eff|0.000000,386.718750,-547.851562,-96.679688,68.481445,28.198242
cobot_dynamixel_driver/joint_states|name|J1,J2,J3,J4,J5,J6|pos|0.000025,0.000025,-0.000263,-0.000025,-0.000228,0.000000|vel|0.000000,-0.000000,0.000209,0.000000,0.000000,0.000000|eff|0.000000,161.132812,-580.078125,-96.679688,80.566406,28.198242
cobot_dynamixel_driver/joint_states|name|J1,J2,J3,J4,J5,J6|pos|0.000025,0.000025,-0.000250,-0.000025,-0.000228,0.000000|vel|0.000000,-0.000000,0.000000,0.000000,0.000000,0.000000|eff|0.000000,290.039062,-563.964844,-96.679688,80.566406,28.198242
cobot_dynamixel_driver/joint_states|name|J1,J2,J3,J4,J5,J6|pos|0.000025,0.000025,-0.000250,-0.000025,-0.000186,0.000000|vel|0.000000,-0.000000,0.000000,0.000000,0.000000,0.000000|eff|0.000000,177.246094,-483.398438,-96.679688,80.566406,28.198242
cobot_dynamixel_driver/joint_states|name|J1,J2,J3,J4,J5,J6|pos|0.000013,0.000025,-0.000238,-0.000025,-0.000145,0.000000|vel|0.000000,-0.000000,0.000000,0.000000,0.000689,0.000000|eff|0.000000,161.132812,-467.285156,-96.679688,88.623047,28.198242
cobot_dynamixel_driver/joint_states|name|J1,J2,J3,J4,J5,J6|pos|0.000013,0.000025,-0.000238,-0.000025,-0.000083,0.000000|vel|0.000000,-0.000000,0.000000,0.000000,0.003792,0.000000|eff|0.000000,290.039062,-467.285156,-80.566406,80.566406,28.198242
cobot_dynamixel_driver/joint_states|name|J1,J2,J3,J4,J5,J6|pos|0.000013,0.000025,-0.000225,-0.000025,-0.000062,0.000000|vel|0.000000,-0.000000,0.000000,0.000000,0.003102,0.000000|eff|0.000000,306.152344,-531.738281,-64.453125,72.509766,28.198242
cobot_dynamixel_driver/joint_states|name|J1,J2,J3,J4,J5,J6|pos|0.000013,0.000025,-0.000225,-0.000025,-0.000062,0.000000|vel|0.000000,-0.000000,0.000000,0.000000,0.003102,0.000000|eff|0.000000,225.585938,-547.851562,-96.679688,64.453125,28.198242
cobot_dynamixel_driver/joint_states|name|J1,J2,J3,J4,J5,J6|pos|0.000000,0.000025,-0.000225,-0.000025,-0.000062,0.000000|vel|0.000000,-0.000000,0.000209,0.000000,0.003102,0.000000|eff|0.000000,225.585938,-467.285156,-96.679688,64.453125,28.198242
cobot_dynamixel_driver/joint_states|name|J1,J2,J3,J4,J5,J6|pos|0.000000,0.000025,-0.000225,-0.000025,-0.000062,0.000000|vel|0.000000,-0.000000,0.000209,0.000000,0.003102,0.000000|eff|0.000000,225.585938,-547.851562,-96.679688,52.368164,28.198242
cobot_dynamixel_driver/joint_states|name|J1,J2,J3,J4,J5,J6|pos|0.000000,0.000025,-0.000213,-0.000025,-0.000062,0.000000|vel|0.000000,-0.000000,0.000209,0.000000,0.003102,0.000000|eff|0.000000,322.265625,-483.398438,0.000000,44.311523,28.198242
cobot_dynamixel_driver/joint_states|name|J1,J2,J3,J4,J5,J6|pos|0.000000,0.000025,-0.000213,-0.000025,-0.000062,0.000000|vel|0.000000,-0.000000,0.000209,0.000000,0.003102,0.000000|eff|0.000000,290.039062,-467.285156,-32.226562,44.311523,28.198242
cobot_dynamixel_driver/joint_states|name|J1,J2,J3,J4,J5,J6|pos|0.000000,0.000025,-0.000213,-0.000025,-0.000062,0.000000|vel|0.000000,-0.000000,0.000209,0.000000,0.000000,0.000000|eff|0.000000,193.359375,-435.058594,-96.679688,48.339844,28.198242
cobot_dynamixel_driver/joint_states|name|J1,J2,J3,J4,J5,J6|pos|0.000000,0.000025,-0.000200,-0.000025,-0.000062,0.000000|vel|0.000000,-0.000000,0.000209,0.000000,0.000000,0.000000|eff|-112.792969,241.699219,-467.285156,-96.679688,44.311523,28.198242
cobot_dynamixel_driver/joint_states|name|J1,J2,J3,J4,J5,J6|pos|0.000000,0.000025,-0.000200,-0.000025,-0.000062,0.000000|vel|0.000000,-0.000000,0.000209,0.000000,0.000000,0.000000|eff|-80.566406,370.605469,-467.285156,-96.679688,48.339844,28.198242
cobot_dynamixel_driver/joint_states|name|J1,J2,J3,J4,J5,J6|pos|0.000000,0.000025,-0.000188,-0.000025,-0.000062,0.000000|vel|0.000000,-0.000000,0.000209,0.000000,0.000000,0.000000|eff|-80.566406,241.699219,-467.285156,-80.566406,48.339844,28.198242
cobot_dynamixel_driver/joint_states|name|J1,J2,J3,J4,J5,J6|pos|0.000000,0.000025,-0.000188,-0.000025,-0.000062,0.000000|vel|0.000000,-0.000000,0.000209,0.000000,0.000000,0.000000|eff|0.000000,370.605469,-467.285156,-64.453125,48.339844,28.198242
cobot_dynamixel_driver/joint_states|name|J1,J2,J3,J4,J5,J6|pos|0.000000,0.000025,-0.000188,-0.000025,-0.000062,0.000000|vel|0.000000,-0.000000,0.000209,0.000000,0.000000,0.000000|eff|0.000000,306.152344,-435.058594,-96.679688,48.339844,28.198242
cobot_dynamixel_driver/joint_states|name|J1,J2,J3,J4,J5,J6|pos|0.000000,0.000025,-0.000175,-0.000025,-0.000062,0.000000|vel|0.000000,-0.000000,0.000209,0.000000,0.000000,0.000000|eff|0.000000,161.132812,-370.605469,-96.679688,48.339844,28.198242
cobot_dynamixel_driver/joint_states|name|J1,J2,J3,J4,J5,J6|pos|-0.000013,0.000025,-0.000175,-0.000025,-0.000062,0.000000|vel|0.000000,-0.000000,0.000209,0.000000,0.000000,0.000000|eff|0.000000,370.605469,-435.058594,-32.226562,48.339844,28.198242
cobot_dynamixel_driver/joint_states|name|J1,J2,J3,J4,J5,J6|pos|-0.000013,0.000025,-0.000175,-0.000025,-0.000062,0.000000|vel|0.000000,-0.000000,0.000209,0.000000,0.000000,0.000000|eff|-80.566406,386.718750,-451.171875,-96.679688,44.311523,28.198242
cobot_dynamixel_driver/joint_states|name|J1,J2,J3,J4,J5,J6|pos|-0.000013,0.000025,-0.000163,-0.000025,-0.000062,0.000000|vel|0.000000,-0.000000,0.000209,0.000000,0.000000,0.000000|eff|-80.566406,306.152344,-370.605469,-96.679688,56.396484,28.198242
cobot_dynamixel_driver/joint_states|name|J1,J2,J3,J4,J5,J6|pos|-0.000013,0.000025,-0.000163,-0.000025,-0.000062,0.000000|vel|0.000000,-0.000000,0.000209,0.000000,0.000000,0.000000|eff|0.000000,225.585938,-418.945312,-96.679688,48.339844,28.198242
cobot_dynamixel_driver/joint_states|name|J1,J2,J3,J4,J5,J6|pos|-0.000013,0.000025,-0.000163,-0.000025,-0.000062,0.000000|vel|0.000000,-0.000000,0.000209,0.000000,0.000000,0.000000|eff|0.000000,177.246094,-435.058594,-96.679688,52.368164,28.198242
cobot_dynamixel_driver/joint_states|name|J1,J2,J3,J4,J5,J6|pos|-0.000013,0.000025,-0.000163,-0.000025,-0.000062,0.000000|vel|0.000000,-0.000000,0.000209,0.000000,0.000000,0.000000|eff|0.000000,354.492188,-435.058594,-96.679688,56.396484,28.198242
cobot_dynamixel_driver/joint_states|name|J1,J2,J3,J4,J5,J6|pos|-0.000013,0.000025,-0.000150,-0.000025,-0.000062,0.000000|vel|0.000000,-0.000000,0.000000,0.000000,0.000000,0.000000|eff|0.000000,386.718750,-354.492188,-96.679688,52.368164,28.198242
cobot_dynamixel_driver/joint_states|name|J1,J2,J3,J4,J5,J6|pos|-0.000013,0.000025,-0.000150,-0.000025,-0.000062,0.000000|vel|0.000000,-0.000000,0.000000,0.000000,0.000000,0.000000|eff|0.000000,386.718750,-386.718750,-96.679688,48.339844,28.198242
cobot_dynamixel_driver/joint_states|name|J1,J2,J3,J4,J5,J6|pos|-0.000013,0.000025,-0.000150,-0.000025,-0.000062,0.000000|vel|0.000000,-0.000000,0.000000,0.000000,0.000000,0.000000|eff|0.000000,225.585938,-386.718750,-96.679688,56.396484,28.198242
cobot_dynamixel_driver/joint_states|name|J1,J2,J3,J4,J5,J6|pos|-0.000013,0.000025,-0.000138,-0.000025,-0.000062,0.000000|vel|0.000000,-0.000000,0.000000,0.000000,0.000000,0.000000|eff|0.000000,177.246094,-354.492188,-96.679688,56.396484,28.198242
cobot_dynamixel_driver/joint_states|name|J1,J2,J3,J4,J5,J6|pos|-0.000013,0.000025,-0.000138,-0.000025,-0.000062,0.000000|vel|0.000000,-0.000000,0.000000,0.000000,0.000000,0.000000|eff|0.000000,161.132812,-354.492188,0.000000,56.396484,28.198242
cobot_dynamixel_driver/joint_states|name|J1,J2,J3,J4,J5,J6|pos|-0.000013,0.000025,-0.000125,-0.000025,-0.000062,0.000000|vel|0.000000,-0.000000,0.000000,0.000000,0.000000,0.000000|eff|0.000000,386.718750,-354.492188,-96.679688,56.396484,28.198242
cobot_dynamixel_driver/joint_states|name|J1,J2,J3,J4,J5,J6|pos|-0.000013,0.000025,-0.000125,-0.000025,-0.000062,0.000000|vel|0.000000,-0.000000,0.000209,0.000000,0.000000,0.000000|eff|0.000000,386.718750,-402.832031,-96.679688,56.396484,28.198242
cobot_dynamixel_driver/joint_states|name|J1,J2,J3,J4,J5,J6|pos|-0.000013,0.000025,-0.000113,-0.000025,-0.000062,0.000000|vel|0.000000,-0.000000,0.000209,0.000000,0.000000,0.000000|eff|-32.226562,241.699219,-354.492188,-64.453125,60.424805,28.198242
cobot_dynamixel_driver/joint_states|name|J1,J2,J3,J4,J5,J6|pos|-0.000013,0.000025,-0.000113,-0.000025,-0.000062,0.000000|vel|0.000000,-0.000000,0.000209,0.000000,0.000000,0.000000|eff|0.000000,354.492188,-354.492188,-80.566406,60.424805,28.198242
cobot_dynamixel_driver/joint_states|name|J1,J2,J3,J4,J5,J6|pos|-0.000013,0.000025,-0.000113,-0.000025,-0.000062,0.000000|vel|0.000000,-0.000000,0.000209,0.000000,0.000000,0.000000|eff|-80.566406,225.585938,-386.718750,-96.679688,56.396484,28.198242
cobot_dynamixel_driver/joint_states|name|J1,J2,J3,J4,J5,J6|pos|-0.000013,0.000025,-0.000113,-0.000025,-0.000062,0.000000|vel|0.000000,-0.000000,0.000209,0.000000,0.000000,0.000000|eff|0.000000,386.718750,-354.492188,-96.679688,60.424805,28.198242
cobot_dynamixel_driver/joint_states|name|J1,J2,J3,J4,J5,J6|pos|-0.000013,0.000025,-0.000113,-0.000025,-0.000062,0.000000|vel|0.000000,-0.000000,0.000209,0.000000,0.000000,0.000000|eff|0.000000,354.492188,-370.605469,-96.679688,60.424805,28.198242
cobot_dynamixel_driver/joint_states|name|J1,J2,J3,J4,J5,J6|pos|-0.000013,0.000025,-0.000113,-0.000025,-0.000062,0.000000|vel|0.000000,-0.000000,0.000209,0.000000,0.000000,0.000000|eff|0.000000,273.925781,-386.718750,-80.566406,56.396484,28.198242
cobot_dynamixel_driver/joint_states|name|J1,J2,J3,J4,J5,J6|pos|-0.000013,0.000025,-0.000100,-0.000025,-0.000062,0.000000|vel|0.000000,-0.000000,0.000000,0.000000,0.000000,0.000000|eff|0.000000,193.359375,-354.492188,-48.339844,60.424805,28.198242
cobot_dynamixel_driver/joint_states|name|J1,J2,J3,J4,J5,J6|pos|-0.000013,0.000025,-0.000100,-0.000025,-0.000062,0.000000|vel|0.000000,-0.000000,0.000000,0.000000,0.000000,0.000000|eff|-32.226562,193.359375,-338.378906,-96.679688,64.453125,28.198242
cobot_dynamixel_driver/joint_states|name|J1,J2,J3,J4,J5,J6|pos|-0.000013,0.000025,-0.000100,-0.000025,-0.000062,0.000000|vel|0.000000,-0.000000,0.000000,0.000000,0.000000,0.000000|eff|0.000000,193.359375,-338.378906,-64.453125,68.481445,28.198242
cobot_dynamixel_driver/joint_states|name|J1,J2,J3,J4,J5,J6|pos|-0.000013,0.000025,-0.000100,-0.000025,-0.000062,0.000000|vel|0.000000,-0.000000,0.000000,0.000000,0.000000,0.000000|eff|0.000000,177.246094,-338.378906,-96.679688,60.424805,28.198242
cobot_dynamixel_driver/joint_states|name|J1,J2,J3,J4,J5,J6|pos|-0.000013,0.000025,-0.000100,-0.000025,-0.000062,0.000000|vel|0.000000,-0.000000,0.000000,0.000000,0.000000,0.000000|eff|0.000000,370.605469,-338.378906,-96.679688,60.424805,28.198242
cobot_dynamixel_driver/joint_states|name|J1,J2,J3,J4,J5,J6|pos|-0.000013,0.000025,-0.000088,-0.000025,-0.000062,0.000000|vel|0.000000,-0.000000,0.000000,0.000000,0.000000,0.000000|eff|0.000000,354.492188,-290.039062,-96.679688,68.481445,28.198242
cobot_dynamixel_driver/joint_states|name|J1,J2,J3,J4,J5,J6|pos|-0.000013,0.000025,-0.000088,-0.000025,-0.000062,0.000000|vel|0.000000,-0.000000,0.000000,0.000000,0.000000,0.000000|eff|-64.453125,161.132812,-306.152344,-96.679688,68.481445,28.198242
cobot_dynamixel_driver/joint_states|name|J1,J2,J3,J4,J5,J6|pos|-0.000013,0.000025,-0.000075,-0.000025,-0.000062,0.000000|vel|0.000000,-0.000000,0.000000,0.000000,0.000000,0.000000|eff|-112.792969,290.039062,-338.378906,-96.679688,68.481445,28.198242
cobot_dynamixel_driver/joint_states|name|J1,J2,J3,J4,J5,J6|pos|-0.000013,0.000025,-0.000075,-0.000025,-0.000062,0.000000|vel|0.000000,-0.000000,0.000000,0.000000,0.000000,0.000000|eff|-80.566406,386.718750,-338.378906,-96.679688,68.481445,28.198242
cobot_dynamixel_driver/joint_states|name|J1,J2,J3,J4,J5,J6|pos|-0.000013,0.000025,-0.000075,-0.000025,-0.000062,0.000000|vel|0.000000,-0.000000,0.000000,0.000000,0.000000,0.000000|eff|-112.792969,193.359375,-338.378906,-96.679688,68.481445,28.198242
cobot_dynamixel_driver/joint_states|name|J1,J2,J3,J4,J5,J6|pos|-0.000013,0.000025,-0.000075,-0.000025,-0.000062,0.000000|vel|0.000000,-0.000000,0.000000,0.000000,0.000000,0.000000|eff|0.000000,290.039062,-322.265625,-96.679688,68.481445,28.198242
cobot_dynamixel_driver/joint_states|name|J1,J2,J3,J4,J5,J6|pos|-0.000013,0.000025,-0.000075,-0.000025,-0.000062,0.000000|vel|0.000000,-0.000000,0.000000,0.000000,0.000000,0.000000|eff|0.000000,354.492188,-306.152344,-96.679688,68.481445,28.198242
cobot_dynamixel_driver/joint_states|name|J1,J2,J3,J4,J5,J6|pos|-0.000013,0.000025,-0.000075,-0.000025,-0.000062,0.000000|vel|0.000000,-0.000000,0.000000,0.000000,0.000000,0.000000|eff|0.000000,322.265625,-306.152344,-96.679688,68.481445,28.198242
cobot_dynamixel_driver/joint_states|name|J1,J2,J3,J4,J5,J6|pos|-0.000013,0.000025,-0.000063,-0.000025,-0.000062,0.000000|vel|0.000000,-0.000000,0.000000,0.000000,0.000000,0.000000|eff|0.000000,322.265625,-338.378906,-80.566406,76.538086,28.198242
cobot_dynamixel_driver/joint_states|name|J1,J2,J3,J4,J5,J6|pos|-0.000013,0.000025,-0.000063,-0.000025,-0.000062,0.000000|vel|0.000000,-0.000000,0.000000,0.000000,0.000000,0.000000|eff|0.000000,290.039062,-338.378906,-80.566406,68.481445,28.198242
cobot_dynamixel_driver/joint_states|name|J1,J2,J3,J4,J5,J6|pos|-0.000013,0.000025,-0.000063,-0.000025,-0.000062,0.000000|vel|0.000000,-0.000000,0.000000,0.000000,0.000000,0.000000|eff|-32.226562,193.359375,-338.378906,-96.679688,68.481445,28.198242
cobot_dynamixel_driver/joint_states|name|J1,J2,J3,J4,J5,J6|pos|-0.000013,0.000025,-0.000063,-0.000025,-0.000062,0.000000|vel|0.000000,-0.000000,0.000000,0.000000,0.000000,0.000000|eff|0.000000,209.472656,-322.265625,-96.679688,76.538086,28.198242
cobot_dynamixel_driver/joint_states|name|J1,J2,J3,J4,J5,J6|pos|-0.000013,0.000025,-0.000063,-0.000025,-0.000062,0.000000|vel|0.000000,-0.000000,0.000000,0.000000,0.000000,0.000000|eff|0.000000,290.039062,-257.812500,-96.679688,68.481445,28.198242
cobot_dynamixel_driver/joint_states|name|J1,J2,J3,J4,J5,J6|pos|-0.000013,0.000025,-0.000050,-0.000025,-0.000041,0.000000|vel|0.000000,-0.000000,0.000000,0.000000,0.000000,0.000000|eff|0.000000,386.718750,-273.925781,-80.566406,76.538086,28.198242
cobot_dynamixel_driver/joint_states|name|J1,J2,J3,J4,J5,J6|pos|-0.000013,0.000025,-0.000050,-0.000025,-0.000041,0.000000|vel|0.000000,-0.000000,0.000000,0.000000,0.000000,0.000000|eff|0.000000,177.246094,-290.039062,-48.339844,76.538086,28.198242
cobot_dynamixel_driver/joint_states|name|J1,J2,J3,J4,J5,J6|pos|-0.000013,0.000025,-0.000050,-0.000025,-0.000041,0.000000|vel|0.000000,-0.000000,0.000000,0.000000,0.000000,0.000000|eff|0.000000,290.039062,-338.378906,-96.679688,80.566406,28.198242
cobot_dynamixel_driver/joint_states|name|J1,J2,J3,J4,J5,J6|pos|-0.000013,0.000025,-0.000050,-0.000025,-0.000041,0.000000|vel|0.000000,-0.000000,0.000000,0.000000,0.000000,0.000000|eff|0.000000,290.039062,-225.585938,-80.566406,76.538086,28.198242
cobot_dynamixel_driver/joint_states|name|J1,J2,J3,J4,J5,J6|pos|-0.000013,0.000025,-0.000038,-0.000025,-0.000041,0.000000|vel|0.000000,-0.000000,0.000000,0.000000,0.000000,0.000000|eff|-48.339844,225.585938,-338.378906,-96.679688,76.538086,28.198242
cobot_dynamixel_driver/joint_states|name|J1,J2,J3,J4,J5,J6|pos|-0.000013,0.000025,-0.000038,-0.000025,-0.000041,0.000000|vel|0.000000,-0.000000,0.000000,0.000000,0.000000,0.000000|eff|-80.566406,386.718750,-241.699219,-96.679688,76.538086,28.198242
cobot_dynamixel_driver/joint_states|name|J1,J2,J3,J4,J5,J6|pos|-0.000013,0.000025,-0.000025,-0.000025,-0.000041,0.000000|vel|0.000000,-0.000000,0.000209,0.000000,0.000000,0.000000|eff|0.000000,322.265625,-273.925781,-96.679688,76.538086,28.198242
cobot_dynamixel_driver/joint_states|name|J1,J2,J3,J4,J5,J6|pos|-0.000013,0.000025,-0.000013,-0.000025,-0.000041,0.000000|vel|0.000000,-0.000000,0.000209,0.000000,0.000000,0.000000|eff|0.000000,290.039062,-273.925781,-80.566406,76.538086,28.198242
cobot_dynamixel_driver/joint_states|name|J1,J2,J3,J4,J5,J6|pos|-0.000013,0.000025,-0.000013,-0.000025,-0.000041,0.000000|vel|0.000000,-0.000000,0.000209,0.000000,0.000000,0.000000|eff|-80.566406,209.472656,-338.378906,-96.679688,76.538086,28.198242
cobot_dynamixel_driver/joint_states|name|J1,J2,J3,J4,J5,J6|pos|-0.000013,0.000025,-0.000013,-0.000025,-0.000041,0.000000|vel|0.000000,-0.000000,0.000209,0.000000,0.000000,0.000000|eff|0.000000,370.605469,-290.039062,-80.566406,76.538086,28.198242
cobot_dynamixel_driver/joint_states|name|J1,J2,J3,J4,J5,J6|pos|-0.000013,0.000025,0.000000,-0.000025,-0.000041,0.000000|vel|0.000000,-0.000000,0.000209,0.000000,0.000000,0.000000|eff|0.000000,161.132812,-338.378906,-96.679688,76.538086,28.198242
cobot_dynamixel_driver/joint_states|name|J1,J2,J3,J4,J5,J6|pos|-0.000013,0.000025,0.000000,-0.000025,-0.000041,0.000000|vel|0.000000,-0.000000,0.000209,0.000000,0.000000,0.000000|eff|0.000000,241.699219,-306.152344,-96.679688,76.538086,28.198242
cobot_dynamixel_driver/joint_states|name|J1,J2,J3,J4,J5,J6|pos|-0.000013,0.000025,0.000000,-0.000025,-0.000041,0.000000|vel|0.000000,-0.000000,0.000209,0.000000,0.000000,0.000000|eff|0.000000,161.132812,-273.925781,-64.453125,76.538086,28.198242
cobot_dynamixel_driver/joint_states|name|J1,J2,J3,J4,J5,J6|pos|-0.000013,0.000025,0.000000,-0.000025,-0.000041,0.000000|vel|0.000000,-0.000000,0.000000,0.000000,0.000000,0.000000|eff|0.000000,241.699219,-257.812500,-96.679688,76.538086,28.198242
cobot_dynamixel_driver/joint_states|name|J1,J2,J3,J4,J5,J6|pos|-0.000013,0.000025,0.000000,-0.000025,-0.000021,0.000000|vel|0.000000,-0.000000,0.000000,0.000000,0.000000,0.000000|eff|0.000000,306.152344,-338.378906,-64.453125,76.538086,28.198242
cobot_dynamixel_driver/joint_states|name|J1,J2,J3,J4,J5,J6|pos|-0.000013,0.000025,0.000000,-0.000025,-0.000021,0.000000|vel|0.000000,-0.000000,0.000000,0.000000,0.000000,0.000000|eff|0.000000,290.039062,-290.039062,-96.679688,76.538086,28.198242
cobot_dynamixel_driver/joint_states|name|J1,J2,J3,J4,J5,J6|pos|-0.000013,0.000025,0.000000,-0.000025,-0.000021,0.000000|vel|0.000000,-0.000000,0.000000,0.000000,0.000000,0.000000|eff|-80.566406,225.585938,-306.152344,-48.339844,76.538086,28.198242
cobot_dynamixel_driver/joint_states|name|J1,J2,J3,J4,J5,J6|pos|-0.000013,0.000025,0.000000,-0.000025,-0.000021,0.000000|vel|0.000000,-0.000000,0.000000,0.000000,0.000000,0.000000|eff|0.000000,161.132812,-290.039062,-80.566406,76.538086,28.198242
cobot_dynamixel_driver/joint_states|name|J1,J2,J3,J4,J5,J6|pos|-0.000013,0.000025,0.000000,-0.000025,-0.000021,0.000000|vel|0.000000,-0.000000,0.000000,0.000000,0.000000,0.000000|eff|0.000000,161.132812,-338.378906,-96.679688,76.538086,28.198242
cobot_dynamixel_driver/joint_states|name|J1,J2,J3,J4,J5,J6|pos|-0.000013,0.000025,0.000000,-0.000025,-0.000021,0.000000|vel|0.000000,-0.000000,0.000000,0.000000,0.000000,0.000000|eff|0.000000,386.718750,-290.039062,-96.679688,76.538086,28.198242
cobot_dynamixel_driver/joint_states|name|J1,J2,J3,J4,J5,J6|pos|-0.000013,0.000025,0.000000,-0.000025,-0.000021,0.000000|vel|0.000000,-0.000000,0.000000,0.000000,0.000000,0.000000|eff|0.000000,177.246094,-273.925781,-96.679688,76.538086,28.198242
cobot_dynamixel_driver/joint_states|name|J1,J2,J3,J4,J5,J6|pos|-0.000013,0.000025,0.000000,-0.000025,-0.000021,0.000000|vel|0.000000,-0.000000,0.000000,0.000000,0.000000,0.000000|eff|0.000000,386.718750,-290.039062,-96.679688,76.538086,28.198242
cobot_dynamixel_driver/joint_states|name|J1,J2,J3,J4,J5,J6|pos|-0.000013,0.000025,0.000000,-0.000025,-0.000021,0.000000|vel|0.000000,-0.000000,0.000000,0.000000,0.000000,0.000000|eff|0.000000,177.246094,-338.378906,-96.679688,76.538086,28.198242
cobot_dynamixel_driver/joint_states|name|J1,J2,J3,J4,J5,J6|pos|-0.000013,0.000025,0.000000,-0.000025,-0.000021,0.000000|vel|0.000000,-0.000000,0.000000,0.000000,0.000000,0.000000|eff|0.000000,306.152344,-338.378906,-96.679688,76.538086,28.198242
cobot_dynamixel_driver/joint_states|name|J1,J2,J3,J4,J5,J6|pos|-0.000013,0.000025,0.000000,-0.000025,-0.000021,0.000000|vel|0.000000,-0.000000,0.000000,0.000000,0.000000,0.000000|eff|0.000000,225.585938,-338.378906,-96.679688,76.538086,28.198242
cobot_dynamixel_driver/joint_states|name|J1,J2,J3,J4,J5,J6|pos|-0.000013,0.000025,0.000000,-0.000025,-0.000021,0.000000|vel|0.000000,-0.000000,0.000000,0.000000,0.000000,0.000000|eff|0.000000,322.265625,-241.699219,-80.566406,76.538086,28.198242
cobot_dynamixel_driver/joint_states|name|J1,J2,J3,J4,J5,J6|pos|-0.000013,0.000025,0.000000,-0.000025,-0.000021,0.000000|vel|0.000000,-0.000000,0.000000,0.000000,0.000000,0.000000|eff|0.000000,225.585938,-241.699219,-96.679688,76.538086,28.198242
cobot_dynamixel_driver/joint_states|name|J1,J2,J3,J4,J5,J6|pos|-0.000013,0.000025,0.000000,-0.000025,-0.000021,0.000000|vel|0.000000,-0.000000,0.000000,0.000000,0.000000,0.000000|eff|0.000000,209.472656,-257.812500,-96.679688,76.538086,28.198242
cobot_dynamixel_driver/joint_states|name|J1,J2,J3,J4,J5,J6|pos|-0.000013,0.000025,0.000000,-0.000025,-0.000021,0.000000|vel|0.000000,-0.000000,0.000000,0.000000,0.000000,0.000000|eff|0.000000,225.585938,-338.378906,-80.566406,76.538086,28.198242
cobot_dynamixel_driver/joint_states|name|J1,J2,J3,J4,J5,J6|pos|-0.000013,0.000025,0.000000,-0.000025,-0.000021,0.000000|vel|0.000000,-0.000000,0.000000,0.000000,0.000000,0.000000|eff|0.000000,225.585938,-306.152344,-96.679688,76.538086,28.198242
cobot_dynamixel_driver/joint_states|name|J1,J2,J3,J4,J5,J6|pos|-0.000013,0.000025,0.000000,-0.000025,-0.000021,0.000000|vel|0.000000,-0.000000,0.000000,0.000000,0.000000,0.000000|eff|0.000000,241.699219,-273.925781,-96.679688,76.538086,28.198242
cobot_dynamixel_driver/joint_states|name|J1,J2,J3,J4,J5,J6|pos|-0.000013,0.000025,0.000000,-0.000025,-0.000021,0.000000|vel|0.000000,-0.000000,0.000000,0.000000,0.000000,0.000000|eff|0.000000,322.265625,-338.378906,-96.679688,76.538086,28.198242
cobot_dynamixel_driver/joint_states|name|J1,J2,J3,J4,J5,J6|pos|-0.000013,0.000025,0.000000,-0.000025,-0.000021,0.000000|vel|0.000000,-0.000000,0.000000,0.000000,0.000000,0.000000|eff|0.000000,161.132812,-322.265625,-96.679688,76.538086,28.198242
cobot_dynamixel_driver/joint_states|name|J1,J2,J3,J4,J5,J6|pos|-0.000013,0.000025,0.000000,-0.000025,-0.000021,0.000000|vel|0.000000,-0.000000,0.000000,0.000000,0.000000,0.000000|eff|-48.339844,290.039062,-338.378906,-96.679688,76.538086,28.198242
cobot_dynamixel_driver/joint_states|name|J1,J2,J3,J4,J5,J6|pos|-0.000013,0.000025,0.000000,-0.000025,-0.000021,0.000000|vel|0.000000,-0.000000,0.000000,0.000000,0.000000,0.000000|eff|-48.339844,290.039062,-290.039062,-96.679688,76.538086,28.198242
cobot_dynamixel_driver/joint_states|name|J1,J2,J3,J4,J5,J6|pos|-0.000013,0.000025,0.000000,-0.000025,-0.000021,0.000000|vel|0.000000,-0.000000,0.000000,0.000000,0.000000,0.000000|eff|0.000000,354.492188,-338.378906,-80.566406,76.538086,28.198242
cobot_dynamixel_driver/joint_states|name|J1,J2,J3,J4,J5,J6|pos|-0.000013,0.000025,0.000000,-0.000025,-0.000021,0.000000|vel|0.000000,-0.000000,0.000000,0.000000,0.000000,0.000000|eff|0.000000,225.585938,-322.265625,-96.679688,76.538086,28.198242
cobot_dynamixel_driver/joint_states|name|J1,J2,J3,J4,J5,J6|pos|-0.000013,0.000025,0.000000,-0.000025,-0.000021,0.000000|vel|0.000000,-0.000000,0.000000,0.000000,0.000000,0.000000|eff|-80.566406,370.605469,-338.378906,0.000000,76.538086,28.198242
cobot_dynamixel_driver/joint_states|name|J1,J2,J3,J4,J5,J6|pos|-0.000013,0.000025,0.000000,-0.000025,-0.000021,0.000000|vel|0.000000,-0.000000,0.000000,0.000000,0.000000,0.000000|eff|0.000000,177.246094,-338.378906,-80.566406,76.538086,28.198242
cobot_dynamixel_driver/joint_states|name|J1,J2,J3,J4,J5,J6|pos|-0.000013,0.000025,0.000000,-0.000025,-0.000021,0.000000|vel|0.000000,-0.000000,0.000000,0.000000,0.000000,0.000000|eff|0.000000,370.605469,-322.265625,-96.679688,76.538086,28.198242
cobot_dynamixel_driver/joint_states|name|J1,J2,J3,J4,J5,J6|pos|-0.000013,0.000025,0.000000,-0.000025,-0.000021,0.000000|vel|0.000000,-0.000000,0.000000,0.000000,0.000000,0.000000|eff|0.000000,386.718750,-338.378906,-64.453125,76.538086,28.198242
cobot_dynamixel_driver/joint_states|name|J1,J2,J3,J4,J5,J6|pos|-0.000013,0.000025,0.000000,-0.000025,-0.000021,0.000000|vel|0.000000,-0.000000,0.000000,0.000000,0.000000,0.000000|eff|0.000000,161.132812,-322.265625,-96.679688,76.538086,28.198242
cobot_dynamixel_driver/joint_states|name|J1,J2,J3,J4,J5,J6|pos|-0.000013,0.000025,0.000000,-0.000025,-0.000021,0.000000|vel|0.000000,-0.000000,0.000000,0.000000,0.000000,0.000000|eff|0.000000,225.585938,-290.039062,-48.339844,76.538086,28.198242
cobot_dynamixel_driver/joint_states|name|J1,J2,J3,J4,J5,J6|pos|-0.000013,0.000025,0.000000,-0.000025,-0.000021,0.000000|vel|0.000000,-0.000000,0.000000,0.000000,0.000000,0.000000|eff|0.000000,193.359375,-338.378906,-48.339844,76.538086,28.198242
cobot_dynamixel_driver/joint_states|name|J1,J2,J3,J4,J5,J6|pos|-0.000025,0.000025,0.000000,-0.000025,-0.000021,0.000000|vel|0.000000,-0.000000,0.000000,0.000000,0.000000,0.000000|eff|-32.226562,241.699219,-290.039062,-80.566406,76.538086,28.198242
cobot_dynamixel_driver/joint_states|name|J1,J2,J3,J4,J5,J6|pos|-0.000025,0.000025,0.000000,-0.000025,-0.000021,0.000000|vel|0.000000,-0.000000,0.000000,0.000000,0.000000,0.000000|eff|0.000000,225.585938,-273.925781,-48.339844,76.538086,28.198242
cobot_dynamixel_driver/joint_states|name|J1,J2,J3,J4,J5,J6|pos|-0.000025,0.000025,0.000000,-0.000025,-0.000021,0.000000|vel|0.000000,-0.000000,0.000000,0.000000,0.000000,0.000000|eff|-112.792969,386.718750,-273.925781,-80.566406,76.538086,28.198242
cobot_dynamixel_driver/joint_states|name|J1,J2,J3,J4,J5,J6|pos|-0.000025,0.000025,0.000000,-0.000025,-0.000021,0.000000|vel|0.000000,-0.000000,0.000000,0.000000,0.000000,0.000000|eff|0.000000,225.585938,-273.925781,-96.679688,76.538086,28.198242
cobot_dynamixel_driver/joint_states|name|J1,J2,J3,J4,J5,J6|pos|-0.000025,0.000025,0.000000,-0.000025,-0.000021,0.000000|vel|0.000000,-0.000000,0.000000,0.000000,0.000000,0.000000|eff|0.000000,225.585938,-338.378906,-96.679688,76.538086,28.198242
cobot_dynamixel_driver/joint_states|name|J1,J2,J3,J4,J5,J6|pos|-0.000025,0.000025,0.000000,-0.000025,-0.000021,0.000000|vel|0.000000,-0.000000,0.000000,0.000000,0.000000,0.000000|eff|0.000000,354.492188,-322.265625,-64.453125,76.538086,28.198242
cobot_dynamixel_driver/joint_states|name|J1,J2,J3,J4,J5,J6|pos|-0.000025,0.000025,0.000000,-0.000025,-0.000021,0.000000|vel|0.000000,-0.000000,0.000000,0.000000,0.000000,0.000000|eff|0.000000,370.605469,-322.265625,-80.566406,76.538086,28.198242
cobot_dynamixel_driver/joint_states|name|J1,J2,J3,J4,J5,J6|pos|-0.000025,0.000025,0.000000,-0.000025,-0.000021,0.000000|vel|0.000000,-0.000000,0.000000,0.000000,0.000000,0.000000|eff|0.000000,145.019531,-338.378906,-64.453125,76.538086,28.198242
cobot_dynamixel_driver/joint_states|name|J1,J2,J3,J4,J5,J6|pos|-0.000025,0.000025,0.000000,-0.000025,-0.000021,0.000000|vel|0.000000,-0.000000,0.000000,0.000000,0.000000,0.000000|eff|0.000000,161.132812,-290.039062,-96.679688,76.538086,28.198242
cobot_dynamixel_driver/joint_states|name|J1,J2,J3,J4,J5,J6|pos|-0.000025,0.000025,0.000000,-0.000025,-0.000021,0.000000|vel|0.000000,-0.000000,0.000000,0.000000,0.000000,0.000000|eff|0.000000,145.019531,-257.812500,-96.679688,76.538086,28.198242
cobot_dynamixel_driver/joint_states|name|J1,J2,J3,J4,J5,J6|pos|-0.000025,0.000025,0.000000,-0.000025,-0.000021,0.000000|vel|0.000000,-0.000000,0.000000,0.000000,0.000000,0.000000|eff|0.000000,354.492188,-290.039062,-80.566406,76.538086,28.198242
cobot_dynamixel_driver/joint_states|name|J1,J2,J3,J4,J5,J6|pos|-0.000025,0.000025,0.000000,-0.000025,-0.000021,0.000000|vel|0.000000,-0.000000,0.000000,0.000000,0.000000,0.000000|eff|-112.792969,193.359375,-257.812500,-64.453125,76.538086,28.198242
cobot_dynamixel_driver/joint_states|name|J1,J2,J3,J4,J5,J6|pos|-0.000025,0.000025,0.000000,-0.000025,-0.000021,0.000000|vel|0.000000,-0.000000,0.000000,0.000000,0.000000,0.000000|eff|-64.453125,273.925781,-338.378906,-96.679688,76.538086,28.198242
cobot_dynamixel_driver/joint_states|name|J1,J2,J3,J4,J5,J6|pos|-0.000025,0.000025,0.000000,-0.000025,-0.000021,0.000000|vel|0.000000,-0.000000,0.000000,0.000000,0.000000,0.000000|eff|0.000000,370.605469,-322.265625,-96.679688,76.538086,28.198242
cobot_dynamixel_driver/joint_states|name|J1,J2,J3,J4,J5,J6|pos|-0.000025,0.000025,0.000000,-0.000025,-0.000021,0.000000|vel|0.000000,-0.000000,0.000000,0.000000,0.000000,0.000000|eff|0.000000,386.718750,-338.378906,-96.679688,76.538086,28.198242
cobot_dynamixel_driver/joint_states|name|J1,J2,J3,J4,J5,J6|pos|-0.000025,0.000025,0.000000,-0.000025,-0.000021,0.000000|vel|0.000000,-0.000000,0.000000,0.000000,0.000000,0.000000|eff|-80.566406,161.132812,-257.812500,-64.453125,76.538086,28.198242
cobot_dynamixel_driver/joint_states|name|J1,J2,J3,J4,J5,J6|pos|-0.000025,0.000025,0.000000,-0.000025,-0.000021,0.000000|vel|0.000000,-0.000000,0.000000,0.000000,0.000000,0.000000|eff|0.000000,386.718750,-273.925781,-96.679688,76.538086,28.198242
cobot_dynamixel_driver/joint_states|name|J1,J2,J3,J4,J5,J6|pos|-0.000025,0.000025,0.000000,-0.000025,-0.000021,0.000000|vel|0.000000,-0.000000,0.000000,0.000000,0.000000,0.000000|eff|-80.566406,177.246094,-338.378906,-96.679688,76.538086,28.198242
cobot_dynamixel_driver/joint_states|name|J1,J2,J3,J4,J5,J6|pos|-0.000025,0.000025,0.000000,-0.000025,-0.000021,0.000000|vel|0.000000,-0.000000,0.000000,0.000000,0.000000,0.000000|eff|0.000000,354.492188,-257.812500,-64.453125,76.538086,28.198242
cobot_dynamixel_driver/joint_states|name|J1,J2,J3,J4,J5,J6|pos|-0.000025,0.000025,0.000000,-0.000025,-0.000021,0.000000|vel|0.000000,-0.000000,0.000000,0.000000,0.000000,0.000000|eff|0.000000,386.718750,-338.378906,-96.679688,76.538086,28.198242
cobot_dynamixel_driver/joint_states|name|J1,J2,J3,J4,J5,J6|pos|-0.000025,0.000025,0.000000,-0.000025,-0.000021,0.000000|vel|0.000000,-0.000000,0.000000,0.000000,0.000000,0.000000|eff|0.000000,193.359375,-273.925781,-96.679688,76.538086,28.198242
cobot_dynamixel_driver/joint_states|name|J1,J2,J3,J4,J5,J6|pos|-0.000025,0.000025,0.000000,-0.000025,-0.000021,0.000000|vel|0.000000,-0.000000,0.000000,0.000000,0.000000,0.000000|eff|0.000000,161.132812,-290.039062,-96.679688,76.538086,28.198242
cobot_dynamixel_driver/joint_states|name|J1,J2,J3,J4,J5,J6|pos|-0.000025,0.000025,0.000000,-0.000025,-0.000021,0.000000|vel|0.000000,-0.000000,0.000000,0.000000,0.000000,0.000000|eff|0.000000,225.585938,-241.699219,-96.679688,76.538086,28.198242
cobot_dynamixel_driver/joint_states|name|J1,J2,J3,J4,J5,J6|pos|-0.000025,0.000025,0.000000,-0.000025,-0.000021,0.000000|vel|0.000000,-0.000000,0.000000,0.000000,0.000000,0.000000|eff|0.000000,322.265625,-322.265625,-80.566406,76.538086,28.198242
cobot_dynamixel_driver/joint_states|name|J1,J2,J3,J4,J5,J6|pos|-0.000025,0.000025,0.000000,-0.000025,-0.000021,0.000000|vel|0.000000,-0.000000,0.000000,0.000000,0.000000,0.000000|eff|-32.226562,225.585938,-306.152344,-96.679688,76.538086,28.198242
cobot_dynamixel_driver/joint_states|name|J1,J2,J3,J4,J5,J6|pos|-0.000025,0.000025,0.000000,-0.000025,-0.000021,0.000000|vel|0.000000,-0.000000,0.000000,0.000000,0.000000,0.000000|eff|0.000000,322.265625,-322.265625,-96.679688,76.538086,28.198242
cobot_dynamixel_driver/joint_states|name|J1,J2,J3,J4,J5,J6|pos|-0.000025,0.000025,0.000000,-0.000025,-0.000021,0.000000|vel|0.000000,-0.000000,0.000000,0.000000,0.000000,0.000000|eff|0.000000,370.605469,-322.265625,0.000000,76.538086,28.198242
cobot_dynamixel_driver/joint_states|name|J1,J2,J3,J4,J5,J6|pos|-0.000025,0.000025,0.000000,-0.000025,-0.000021,0.000000|vel|0.000000,-0.000000,0.000000,0.000000,0.000000,0.000000|eff|0.000000,370.605469,-322.265625,-96.679688,76.538086,28.198242
cobot_dynamixel_driver/joint_states|name|J1,J2,J3,J4,J5,J6|pos|-0.000025,0.000025,0.000000,-0.000025,-0.000021,0.000000|vel|0.000000,-0.000000,0.000000,0.000000,0.000000,0.000000|eff|0.000000,193.359375,-241.699219,-32.226562,76.538086,28.198242
cobot_dynamixel_driver/joint_states|name|J1,J2,J3,J4,J5,J6|pos|-0.000025,0.000025,0.000000,-0.000025,-0.000021,0.000000|vel|0.000000,-0.000000,0.000000,0.000000,0.000000,0.000000|eff|0.000000,193.359375,-273.925781,-96.679688,76.538086,28.198242
cobot_dynamixel_driver/joint_states|name|J1,J2,J3,J4,J5,J6|pos|-0.000025,0.000025,0.000000,-0.000025,-0.000021,0.000000|vel|0.000000,-0.000000,0.000000,0.000000,0.000000,0.000000|eff|0.000000,386.718750,-241.699219,-48.339844,76.538086,28.198242
cobot_dynamixel_driver/joint_states|name|J1,J2,J3,J4,J5,J6|pos|-0.000025,0.000025,0.000000,-0.000025,-0.000021,0.000000|vel|0.000000,-0.000000,0.000000,0.000000,0.000000,0.000000|eff|0.000000,354.492188,-322.265625,-96.679688,76.538086,28.198242
cobot_dynamixel_driver/joint_states|name|J1,J2,J3,J4,J5,J6|pos|-0.000025,0.000025,0.000000,-0.000025,-0.000021,0.000000|vel|0.000000,-0.000000,0.000000,0.000000,0.000000,0.000000|eff|0.000000,322.265625,-338.378906,-48.339844,76.538086,28.198242
cobot_dynamixel_driver/joint_states|name|J1,J2,J3,J4,J5,J6|pos|-0.000025,0.000025,0.000000,-0.000025,-0.000021,0.000000|vel|0.000000,-0.000000,0.000000,0.000000,0.000000,0.000000|eff|-80.566406,386.718750,-322.265625,-80.566406,76.538086,28.198242
cobot_dynamixel_driver/joint_states|name|J1,J2,J3,J4,J5,J6|pos|-0.000025,0.000025,0.000000,-0.000025,-0.000021,0.000000|vel|0.000000,-0.000000,0.000000,0.000000,0.000000,0.000000|eff|0.000000,306.152344,-257.812500,-64.453125,76.538086,28.198242
cobot_dynamixel_driver/joint_states|name|J1,J2,J3,J4,J5,J6|pos|-0.000025,0.000025,0.000000,-0.000025,-0.000021,0.000000|vel|0.000000,-0.000000,0.000000,0.000000,0.000000,0.000000|eff|-112.792969,370.605469,-338.378906,-96.679688,72.509766,28.198242
cobot_dynamixel_driver/joint_states|name|J1,J2,J3,J4,J5,J6|pos|-0.000025,0.000025,0.000000,-0.000025,-0.000021,0.000000|vel|0.000000,-0.000000,0.000000,0.000000,0.000000,0.000000|eff|0.000000,306.152344,-322.265625,-96.679688,76.538086,28.198242
cobot_dynamixel_driver/joint_states|name|J1,J2,J3,J4,J5,J6|pos|-0.000025,0.000025,0.000000,-0.000025,-0.000021,0.000000|vel|0.000000,-0.000000,0.000000,0.000000,0.000000,0.000000|eff|0.000000,322.265625,-290.039062,-48.339844,76.538086,28.198242
cobot_dynamixel_driver/joint_states|name|J1,J2,J3,J4,J5,J6|pos|-0.000025,0.000025,0.000000,-0.000025,-0.000021,0.000000|vel|0.000000,-0.000000,0.000000,0.000000,0.000000,0.000000|eff|0.000000,354.492188,-273.925781,-96.679688,72.509766,28.198242
cobot_dynamixel_driver/joint_states|name|J1,J2,J3,J4,J5,J6|pos|-0.000025,0.000025,0.000000,-0.000025,-0.000021,0.000000|vel|0.000000,-0.000000,0.000000,0.000000,0.000000,0.000000|eff|0.000000,241.699219,-338.378906,-96.679688,76.538086,28.198242
cobot_dynamixel_driver/joint_states|name|J1,J2,J3,J4,J5,J6|pos|-0.000025,0.000025,0.000000,-0.000025,-0.000021,0.000000|vel|0.000000,-0.000000,0.000000,0.000000,0.000000,0.000000|eff|0.000000,290.039062,-273.925781,-96.679688,76.538086,24.169922
cobot_dynamixel_driver/joint_states|name|J1,J2,J3,J4,J5,J6|pos|-0.000025,0.000025,0.000000,-0.000025,-0.000021,0.000000|vel|0.000000,-0.000000,0.000000,0.000000,0.000000,0.000000|eff|0.000000,161.132812,-306.152344,-96.679688,76.538086,28.198242
cobot_dynamixel_driver/joint_states|name|J1,J2,J3,J4,J5,J6|pos|-0.000025,0.000025,0.000000,-0.000025,-0.000021,0.000000|vel|0.000000,-0.000000,0.000000,0.000000,0.000000,0.000000|eff|0.000000,290.039062,-338.378906,-80.566406,76.538086,28.198242
cobot_dynamixel_driver/joint_states|name|J1,J2,J3,J4,J5,J6|pos|-0.000025,0.000025,0.000000,-0.000025,-0.000021,0.000000|vel|0.000000,-0.000000,0.000000,0.000000,0.000000,0.000000|eff|0.000000,338.378906,-338.378906,-96.679688,76.538086,28.198242
cobot_dynamixel_driver/joint_states|name|J1,J2,J3,J4,J5,J6|pos|-0.000025,0.000025,0.000000,-0.000025,-0.000021,0.000000|vel|0.000000,-0.000000,0.000000,0.000000,0.000000,0.000000|eff|0.000000,161.132812,-306.152344,0.000000,76.538086,28.198242
cobot_dynamixel_driver/joint_states|name|J1,J2,J3,J4,J5,J6|pos|-0.000025,0.000025,0.000000,-0.000025,-0.000021,0.000000|vel|0.000000,-0.000000,0.000000,0.000000,0.000000,0.000000|eff|-32.226562,290.039062,-338.378906,-96.679688,76.538086,28.198242
cobot_dynamixel_driver/joint_states|name|J1,J2,J3,J4,J5,J6|pos|-0.000025,0.000025,0.000000,-0.000025,-0.000021,0.000000|vel|0.000000,-0.000000,0.000000,0.000000,0.000000,0.000000|eff|0.000000,386.718750,-322.265625,-64.453125,76.538086,28.198242
cobot_dynamixel_driver/joint_states|name|J1,J2,J3,J4,J5,J6|pos|-0.000025,0.000025,0.000000,-0.000025,-0.000021,0.000000|vel|0.000000,-0.000000,0.000000,0.000000,0.000000,0.000000|eff|-112.792969,177.246094,-273.925781,-96.679688,76.538086,28.198242
cobot_dynamixel_driver/joint_states|name|J1,J2,J3,J4,J5,J6|pos|-0.000025,0.000025,0.000000,-0.000025,-0.000021,0.000000|vel|0.000000,-0.000000,0.000000,0.000000,0.000000,0.000000|eff|0.000000,290.039062,-290.039062,-96.679688,76.538086,28.198242
cobot_dynamixel_driver/joint_states|name|J1,J2,J3,J4,J5,J6|pos|-0.000025,0.000025,0.000000,-0.000025,-0.000021,0.000000|vel|0.000000,-0.000000,0.000000,0.000000,0.000000,0.000000|eff|0.000000,225.585938,-273.925781,-96.679688,76.538086,28.198242
cobot_dynamixel_driver/joint_states|name|J1,J2,J3,J4,J5,J6|pos|-0.000025,0.000025,0.000000,-0.000025,-0.000021,0.000000|vel|0.000000,-0.000000,0.000000,0.000000,0.000000,0.000000|eff|0.000000,225.585938,-322.265625,-80.566406,76.538086,28.198242
cobot_dynamixel_driver/joint_states|name|J1,J2,J3,J4,J5,J6|pos|-0.000025,0.000025,0.000000,-0.000025,-0.000021,0.000000|vel|0.000000,-0.000000,0.000000,0.000000,0.000000,0.000000|eff|-112.792969,370.605469,-306.152344,-96.679688,72.509766,28.198242
cobot_dynamixel_driver/joint_states|name|J1,J2,J3,J4,J5,J6|pos|-0.000025,0.000025,0.000000,-0.000025,-0.000021,0.000000|vel|0.000000,-0.000000,0.000000,0.000000,0.000000,0.000000|eff|0.000000,386.718750,-290.039062,-96.679688,76.538086,28.198242
cobot_dynamixel_driver/joint_states|name|J1,J2,J3,J4,J5,J6|pos|-0.000025,0.000025,0.000000,-0.000025,-0.000021,0.000000|vel|0.000000,-0.000000,0.000000,0.000000,0.000000,0.000000|eff|-112.792969,225.585938,-338.378906,-64.453125,76.538086,28.198242
cobot_dynamixel_driver/joint_states|name|J1,J2,J3,J4,J5,J6|pos|-0.000025,0.000025,0.000000,-0.000025,-0.000021,0.000000|vel|0.000000,-0.000000,0.000000,0.000000,0.000000,0.000000|eff|0.000000,306.152344,-273.925781,-32.226562,76.538086,28.198242
cobot_dynamixel_driver/joint_states|name|J1,J2,J3,J4,J5,J6|pos|-0.000025,0.000025,0.000000,-0.000025,-0.000021,0.000000|vel|0.000000,-0.000000,0.000000,0.000000,0.000000,0.000000|eff|0.000000,161.132812,-290.039062,-96.679688,76.538086,24.169922
cobot_dynamixel_driver/joint_states|name|J1,J2,J3,J4,J5,J6|pos|-0.000025,0.000025,0.000000,-0.000025,-0.000021,0.000000|vel|0.000000,-0.000000,0.000000,0.000000,0.000000,0.000000|eff|0.000000,177.246094,-322.265625,-80.566406,76.538086,28.198242
