surachairobotic/cobot/cobot_dynamixel_driver/log/2018-12-14T09:46:32.060402_driver_log.txt
cobot_dynamixel_driver/joint_states|name|J1,J2,J3,J4,J5,J6|pos|0.006597,-1.267658,1.296275,-0.001715,-1.398601,-0.031587|vel|0.000000,-0.000000,0.000000,0.000000,0.000000,0.000000|eff|0.000000,0.000000,0.000000,0.000000,0.000000,-8.056641
cobot_dynamixel_driver/joint_states|name|J1,J2,J3,J4,J5,J6|pos|0.006597,-1.267658,1.296275,-0.001715,-1.398601,-0.031587|vel|0.000000,-0.000000,0.000000,0.000000,0.000000,0.000000|eff|0.000000,0.000000,0.000000,0.000000,0.000000,-8.056641
cobot_dynamixel_driver/joint_states|name|J1,J2,J3,J4,J5,J6|pos|0.006597,-1.267658,1.296275,-0.001715,-1.398580,-0.031587|vel|0.000000,-0.000000,0.000000,0.000000,0.000000,0.000000|eff|0.000000,0.000000,0.000000,0.000000,0.000000,24.169922
cobot_dynamixel_driver/joint_states|name|J1,J2,J3,J4,J5,J6|pos|0.006597,-1.267658,1.296275,-0.001715,-1.398518,-0.031587|vel|0.000000,-0.000000,0.000000,0.000000,0.001723,0.000000|eff|0.000000,0.000000,0.000000,0.000000,-16.113281,-8.056641
cobot_dynamixel_driver/joint_states|name|J1,J2,J3,J4,J5,J6|pos|0.006597,-1.267658,1.296275,-0.001715,-1.398518,-0.031587|vel|0.000000,-0.000000,0.000000,0.000000,0.000000,0.000000|eff|0.000000,0.000000,0.000000,0.000000,-20.141602,20.141602
cobot_dynamixel_driver/joint_states|name|J1,J2,J3,J4,J5,J6|pos|0.006597,-1.267658,1.296275,-0.001715,-1.398518,-0.031587|vel|0.000000,-0.000000,0.000000,0.000000,0.000000,0.000000|eff|0.000000,0.000000,0.000000,0.000000,-20.141602,0.000000
cobot_dynamixel_driver/joint_states|name|J1,J2,J3,J4,J5,J6|pos|0.006597,-1.267658,1.296275,-0.001715,-1.398518,-0.031587|vel|0.000000,-0.000000,0.000000,0.000000,0.000000,0.000000|eff|0.000000,0.000000,0.000000,0.000000,-20.141602,-8.056641
cobot_dynamixel_driver/joint_states|name|J1,J2,J3,J4,J5,J6|pos|0.006597,-1.267658,1.296275,-0.001715,-1.398518,-0.031587|vel|0.000000,-0.000000,0.000000,0.000000,0.000000,0.000000|eff|0.000000,0.000000,0.000000,0.000000,-20.141602,8.056641
cobot_dynamixel_driver/joint_states|name|J1,J2,J3,J4,J5,J6|pos|0.006597,-1.267658,1.296275,-0.001715,-1.398518,-0.031587|vel|0.000000,-0.000000,0.000000,0.000000,0.000000,0.000000|eff|0.000000,0.000000,0.000000,0.000000,-20.141602,0.000000
cobot_dynamixel_driver/joint_states|name|J1,J2,J3,J4,J5,J6|pos|0.006597,-1.267658,1.296275,-0.001715,-1.398518,-0.031587|vel|0.000000,-0.000000,0.000000,0.000000,0.000000,0.000000|eff|0.000000,0.000000,0.000000,0.000000,-20.141602,24.169922
cobot_dynamixel_driver/joint_states|name|J1,J2,J3,J4,J5,J6|pos|0.006597,-1.267658,1.296275,-0.001715,-1.398518,-0.031587|vel|0.000000,-0.000000,0.000000,0.000000,0.000000,0.000000|eff|0.000000,0.000000,0.000000,0.000000,-20.141602,-8.056641
cobot_dynamixel_driver/joint_states|name|J1,J2,J3,J4,J5,J6|pos|0.006597,-1.267658,1.296275,-0.001715,-1.398518,-0.031587|vel|0.000000,-0.000000,0.000000,0.000000,0.000000,0.000000|eff|0.000000,0.000000,0.000000,0.000000,-20.141602,20.141602
cobot_dynamixel_driver/joint_states|name|J1,J2,J3,J4,J5,J6|pos|0.006597,-1.267658,1.296275,-0.001715,-1.398518,-0.031587|vel|0.000000,-0.000000,0.000000,0.000000,0.000000,0.000000|eff|0.000000,0.000000,0.000000,0.000000,-20.141602,-8.056641
cobot_dynamixel_driver/joint_states|name|J1,J2,J3,J4,J5,J6|pos|0.006597,-1.267658,1.296275,-0.001715,-1.398518,-0.031587|vel|0.000000,-0.000000,0.000000,0.000000,0.000000,0.000000|eff|0.000000,0.000000,0.000000,0.000000,-20.141602,8.056641
cobot_dynamixel_driver/joint_states|name|J1,J2,J3,J4,J5,J6|pos|0.006597,-1.267658,1.296275,-0.001715,-1.398518,-0.031587|vel|0.000000,-0.000000,0.000000,0.000000,0.000000,0.000000|eff|0.000000,0.000000,0.000000,0.000000,-20.141602,20.141602
cobot_dynamixel_driver/joint_states|name|J1,J2,J3,J4,J5,J6|pos|0.006597,-1.267658,1.296275,-0.001715,-1.398518,-0.031587|vel|0.000000,-0.000000,0.000000,0.000000,0.000000,0.000000|eff|0.000000,0.000000,0.000000,0.000000,-20.141602,-8.056641
cobot_dynamixel_driver/joint_states|name|J1,J2,J3,J4,J5,J6|pos|0.006597,-1.267658,1.296275,-0.001715,-1.398518,-0.031587|vel|0.000000,-0.000000,0.000000,0.000000,0.000000,0.000000|eff|0.000000,0.000000,0.000000,0.000000,-20.141602,0.000000
cobot_dynamixel_driver/joint_states|name|J1,J2,J3,J4,J5,J6|pos|0.006597,-1.267658,1.296275,-0.001715,-1.398518,-0.031587|vel|0.000000,-0.000000,0.000000,0.000000,0.000000,0.000000|eff|0.000000,0.000000,0.000000,0.000000,-20.141602,-8.056641
cobot_dynamixel_driver/joint_states|name|J1,J2,J3,J4,J5,J6|pos|0.006597,-1.267658,1.296275,-0.001715,-1.398518,-0.031587|vel|0.000000,-0.000000,0.000000,0.000000,0.000000,0.000000|eff|0.000000,0.000000,0.000000,0.000000,-20.141602,0.000000
cobot_dynamixel_driver/joint_states|name|J1,J2,J3,J4,J5,J6|pos|0.006597,-1.267658,1.296275,-0.001715,-1.398518,-0.031587|vel|0.000000,-0.000000,0.000000,0.000000,0.000000,0.000000|eff|0.000000,0.000000,0.000000,0.000000,-20.141602,-8.056641
cobot_dynamixel_driver/joint_states|name|J1,J2,J3,J4,J5,J6|pos|0.006597,-1.267658,1.296275,-0.001715,-1.398518,-0.031587|vel|0.000000,-0.000000,0.000000,0.000000,0.000000,0.000000|eff|0.000000,0.000000,0.000000,0.000000,-20.141602,-8.056641
cobot_dynamixel_driver/joint_states|name|J1,J2,J3,J4,J5,J6|pos|0.006597,-1.267658,1.296275,-0.001715,-1.398518,-0.031587|vel|0.000000,-0.000000,0.000000,0.000000,0.000000,0.000000|eff|0.000000,0.000000,0.000000,0.000000,-20.141602,0.000000
cobot_dynamixel_driver/joint_states|name|J1,J2,J3,J4,J5,J6|pos|0.006597,-1.267658,1.296275,-0.001715,-1.398518,-0.031587|vel|0.000000,-0.000000,0.000000,0.000000,0.000000,0.000000|eff|0.000000,0.000000,0.000000,0.000000,-20.141602,-8.056641
cobot_dynamixel_driver/joint_states|name|J1,J2,J3,J4,J5,J6|pos|0.006597,-1.267658,1.296275,-0.001715,-1.398518,-0.031587|vel|0.000000,-0.000000,0.000000,0.000000,0.000000,0.000000|eff|0.000000,0.000000,0.000000,0.000000,-20.141602,-8.056641
cobot_dynamixel_driver/joint_states|name|J1,J2,J3,J4,J5,J6|pos|0.006597,-1.267658,1.296275,-0.001715,-1.398518,-0.031587|vel|0.000000,-0.000000,0.000000,0.000000,0.000000,0.000000|eff|0.000000,0.000000,0.000000,0.000000,-20.141602,8.056641
cobot_dynamixel_driver/joint_states|name|J1,J2,J3,J4,J5,J6|pos|0.006597,-1.267658,1.296275,-0.001715,-1.398518,-0.031587|vel|0.000000,-0.000000,0.000000,0.000000,0.000000,0.000000|eff|0.000000,0.000000,0.000000,0.000000,-20.141602,-8.056641
cobot_dynamixel_driver/joint_states|name|J1,J2,J3,J4,J5,J6|pos|0.006597,-1.267658,1.296275,-0.001715,-1.398518,-0.031587|vel|0.000000,-0.000000,0.000000,0.000000,0.000000,0.000000|eff|0.000000,0.000000,0.000000,0.000000,-20.141602,0.000000
cobot_dynamixel_driver/joint_states|name|J1,J2,J3,J4,J5,J6|pos|0.006597,-1.267658,1.296275,-0.001715,-1.398518,-0.031587|vel|0.000000,-0.000000,0.000000,0.000000,0.000000,0.000000|eff|0.000000,0.000000,0.000000,0.000000,-20.141602,-8.056641
cobot_dynamixel_driver/joint_states|name|J1,J2,J3,J4,J5,J6|pos|0.006597,-1.267658,1.296275,-0.001715,-1.398518,-0.031587|vel|0.000000,-0.000000,0.000000,0.000000,0.000000,0.000000|eff|0.000000,0.000000,0.000000,0.000000,-20.141602,8.056641
cobot_dynamixel_driver/joint_states|name|J1,J2,J3,J4,J5,J6|pos|0.006597,-1.267658,1.296275,-0.001715,-1.398518,-0.031587|vel|0.000000,-0.000000,0.000000,0.000000,0.000000,0.000000|eff|0.000000,0.000000,0.000000,0.000000,-20.141602,-8.056641
cobot_dynamixel_driver/joint_states|name|J1,J2,J3,J4,J5,J6|pos|0.006597,-1.267658,1.296275,-0.001715,-1.398518,-0.031587|vel|0.000000,-0.000000,0.000000,0.000000,0.000000,0.000000|eff|0.000000,0.000000,0.000000,0.000000,-20.141602,-8.056641
cobot_dynamixel_driver/joint_states|name|J1,J2,J3,J4,J5,J6|pos|0.006597,-1.267658,1.296275,-0.001715,-1.398518,-0.031587|vel|0.000000,-0.000000,0.000000,0.000000,0.000000,0.000000|eff|0.000000,0.000000,0.000000,0.000000,-20.141602,-8.056641
cobot_dynamixel_driver/joint_states|name|J1,J2,J3,J4,J5,J6|pos|0.006597,-1.267658,1.296275,-0.001715,-1.398518,-0.031587|vel|0.000000,-0.000000,0.000000,0.000000,0.000000,0.000000|eff|0.000000,0.000000,0.000000,0.000000,-20.141602,-8.056641
cobot_dynamixel_driver/joint_states|name|J1,J2,J3,J4,J5,J6|pos|0.006597,-1.267658,1.296275,-0.001715,-1.398518,-0.031587|vel|0.000000,-0.000000,0.000000,0.000000,0.000000,0.000000|eff|0.000000,0.000000,0.000000,0.000000,-20.141602,8.056641
cobot_dynamixel_driver/joint_states|name|J1,J2,J3,J4,J5,J6|pos|0.006597,-1.267658,1.296275,-0.001715,-1.398518,-0.031587|vel|0.000000,-0.000000,0.000000,0.000000,0.000000,0.000000|eff|0.000000,0.000000,0.000000,0.000000,-20.141602,0.000000
cobot_dynamixel_driver/joint_states|name|J1,J2,J3,J4,J5,J6|pos|0.006597,-1.267658,1.296275,-0.001715,-1.398518,-0.031587|vel|0.000000,-0.000000,0.000000,0.000000,0.000000,0.000000|eff|0.000000,0.000000,0.000000,0.000000,-20.141602,-8.056641
cobot_dynamixel_driver/joint_states|name|J1,J2,J3,J4,J5,J6|pos|0.006597,-1.267658,1.296275,-0.001715,-1.398518,-0.031587|vel|0.000000,-0.000000,0.000000,0.000000,0.000000,0.000000|eff|0.000000,0.000000,0.000000,0.000000,-20.141602,8.056641
cobot_dynamixel_driver/joint_states|name|J1,J2,J3,J4,J5,J6|pos|0.006597,-1.267658,1.296275,-0.001715,-1.398518,-0.031587|vel|0.000000,-0.000000,0.000000,0.000000,0.000000,0.000000|eff|0.000000,0.000000,0.000000,0.000000,-20.141602,24.169922
cobot_dynamixel_driver/joint_states|name|J1,J2,J3,J4,J5,J6|pos|0.006597,-1.267658,1.296275,-0.001715,-1.398518,-0.031587|vel|0.000000,-0.000000,0.000000,0.000000,0.000000,0.000000|eff|0.000000,0.000000,0.000000,0.000000,-20.141602,0.000000
cobot_dynamixel_driver/joint_states|name|J1,J2,J3,J4,J5,J6|pos|0.006597,-1.267658,1.296275,-0.001715,-1.398518,-0.031587|vel|0.000000,-0.000000,0.000000,0.000000,0.000000,0.000000|eff|0.000000,0.000000,0.000000,0.000000,-20.141602,-8.056641
cobot_dynamixel_driver/joint_states|name|J1,J2,J3,J4,J5,J6|pos|0.006597,-1.267658,1.296275,-0.001715,-1.398518,-0.031587|vel|0.000000,-0.000000,0.000000,0.000000,0.000000,0.000000|eff|0.000000,0.000000,0.000000,0.000000,-20.141602,0.000000
cobot_dynamixel_driver/joint_states|name|J1,J2,J3,J4,J5,J6|pos|0.006597,-1.267658,1.296275,-0.001715,-1.398518,-0.031587|vel|0.000000,-0.000000,0.000000,0.000000,0.000000,0.000000|eff|0.000000,0.000000,0.000000,0.000000,-20.141602,-8.056641
cobot_dynamixel_driver/joint_states|name|J1,J2,J3,J4,J5,J6|pos|0.006597,-1.267658,1.296275,-0.001715,-1.398518,-0.031587|vel|0.000000,-0.000000,0.000000,0.000000,0.000000,0.000000|eff|0.000000,0.000000,0.000000,0.000000,-20.141602,8.056641
cobot_dynamixel_driver/joint_states|name|J1,J2,J3,J4,J5,J6|pos|0.006597,-1.267658,1.296275,-0.001715,-1.398518,-0.031587|vel|0.000000,-0.000000,0.000000,0.000000,0.000000,0.000000|eff|0.000000,0.000000,0.000000,0.000000,-20.141602,8.056641
cobot_dynamixel_driver/joint_states|name|J1,J2,J3,J4,J5,J6|pos|0.006597,-1.267658,1.296275,-0.001715,-1.398518,-0.031587|vel|0.000000,-0.000000,0.000000,0.000000,0.000000,0.000000|eff|0.000000,0.000000,0.000000,0.000000,-20.141602,0.000000
cobot_dynamixel_driver/joint_states|name|J1,J2,J3,J4,J5,J6|pos|0.006597,-1.267658,1.296275,-0.001715,-1.398518,-0.031587|vel|0.000000,-0.000000,0.000000,0.000000,0.000000,0.000000|eff|0.000000,0.000000,0.000000,0.000000,-20.141602,-8.056641
cobot_dynamixel_driver/joint_states|name|J1,J2,J3,J4,J5,J6|pos|0.006597,-1.267658,1.296275,-0.001715,-1.398518,-0.031587|vel|0.000000,-0.000000,0.000000,0.000000,0.000000,0.000000|eff|0.000000,0.000000,0.000000,0.000000,-20.141602,8.056641
cobot_dynamixel_driver/joint_states|name|J1,J2,J3,J4,J5,J6|pos|0.006597,-1.267658,1.296275,-0.001715,-1.398518,-0.031587|vel|0.000000,-0.000000,0.000000,0.000000,0.000000,0.000000|eff|0.000000,0.000000,0.000000,0.000000,-20.141602,8.056641
cobot_dynamixel_driver/joint_states|name|J1,J2,J3,J4,J5,J6|pos|0.006597,-1.267658,1.296275,-0.001715,-1.398518,-0.031587|vel|0.000000,-0.000000,0.000000,0.000000,0.000000,0.000000|eff|0.000000,0.000000,0.000000,0.000000,-20.141602,0.000000
cobot_dynamixel_driver/joint_states|name|J1,J2,J3,J4,J5,J6|pos|0.006597,-1.267658,1.296275,-0.001715,-1.398518,-0.031587|vel|0.000000,-0.000000,0.000000,0.000000,0.000000,0.000000|eff|0.000000,0.000000,0.000000,0.000000,-20.141602,8.056641
cobot_dynamixel_driver/joint_states|name|J1,J2,J3,J4,J5,J6|pos|0.006597,-1.267658,1.296275,-0.001715,-1.398518,-0.031587|vel|0.000000,-0.000000,0.000000,0.000000,0.000000,0.000000|eff|0.000000,0.000000,0.000000,0.000000,-20.141602,8.056641
cobot_dynamixel_driver/joint_states|name|J1,J2,J3,J4,J5,J6|pos|0.006597,-1.267658,1.296275,-0.001715,-1.398518,-0.031587|vel|0.000000,-0.000000,0.000000,0.000000,0.000000,0.000000|eff|0.000000,0.000000,0.000000,0.000000,-20.141602,8.056641
cobot_dynamixel_driver/joint_states|name|J1,J2,J3,J4,J5,J6|pos|0.006597,-1.267658,1.296275,-0.001715,-1.398518,-0.031587|vel|0.000000,-0.000000,0.000000,0.000000,0.000000,0.000000|eff|0.000000,0.000000,0.000000,0.000000,-20.141602,-8.056641
cobot_dynamixel_driver/joint_states|name|J1,J2,J3,J4,J5,J6|pos|0.006597,-1.267658,1.296275,-0.001715,-1.398518,-0.031587|vel|0.000000,-0.000000,0.000000,0.000000,0.000000,0.000000|eff|0.000000,0.000000,0.000000,0.000000,-20.141602,0.000000
cobot_dynamixel_driver/joint_states|name|J1,J2,J3,J4,J5,J6|pos|0.006597,-1.267658,1.296275,-0.001715,-1.398518,-0.031587|vel|0.000000,-0.000000,0.000000,0.000000,0.000000,0.000000|eff|0.000000,0.000000,0.000000,0.000000,-20.141602,0.000000
cobot_dynamixel_driver/joint_states|name|J1,J2,J3,J4,J5,J6|pos|0.006597,-1.267658,1.296275,-0.001715,-1.398518,-0.031587|vel|0.000000,-0.000000,0.000000,0.000000,0.000000,0.000000|eff|0.000000,0.000000,0.000000,0.000000,-20.141602,-8.056641
cobot_dynamixel_driver/joint_states|name|J1,J2,J3,J4,J5,J6|pos|0.006597,-1.267658,1.296275,-0.001715,-1.398518,-0.031587|vel|0.000000,-0.000000,0.000000,0.000000,0.000000,0.000000|eff|0.000000,0.000000,0.000000,0.000000,-20.141602,-8.056641
cobot_dynamixel_driver/joint_states|name|J1,J2,J3,J4,J5,J6|pos|0.006597,-1.267658,1.296275,-0.001715,-1.398518,-0.031587|vel|0.000000,-0.000000,0.000000,0.000000,0.000000,0.000000|eff|0.000000,0.000000,0.000000,0.000000,-20.141602,0.000000
cobot_dynamixel_driver/joint_states|name|J1,J2,J3,J4,J5,J6|pos|0.006597,-1.267658,1.296275,-0.001715,-1.398518,-0.031587|vel|0.000000,-0.000000,0.000000,0.000000,0.000000,0.000000|eff|0.000000,0.000000,0.000000,0.000000,-20.141602,8.056641
cobot_dynamixel_driver/joint_states|name|J1,J2,J3,J4,J5,J6|pos|0.006597,-1.267658,1.296275,-0.001715,-1.398518,-0.031587|vel|0.000000,-0.000000,0.000000,0.000000,0.000000,0.000000|eff|0.000000,0.000000,0.000000,0.000000,-20.141602,-8.056641
cobot_dynamixel_driver/joint_states|name|J1,J2,J3,J4,J5,J6|pos|0.006597,-1.267658,1.296275,-0.001715,-1.398518,-0.031587|vel|0.000000,-0.000000,0.000000,0.000000,0.000000,0.000000|eff|0.000000,0.000000,0.000000,0.000000,-20.141602,20.141602
cobot_dynamixel_driver/joint_states|name|J1,J2,J3,J4,J5,J6|pos|0.006597,-1.267658,1.296275,-0.001715,-1.398518,-0.031587|vel|0.000000,-0.000000,0.000000,0.000000,0.000000,0.000000|eff|0.000000,0.000000,0.000000,0.000000,-20.141602,0.000000
cobot_dynamixel_driver/joint_states|name|J1,J2,J3,J4,J5,J6|pos|0.006597,-1.267658,1.296275,-0.001715,-1.398518,-0.031587|vel|0.000000,-0.000000,0.000000,0.000000,0.000000,0.000000|eff|0.000000,0.000000,0.000000,0.000000,-20.141602,0.000000
cobot_dynamixel_driver/joint_states|name|J1,J2,J3,J4,J5,J6|pos|0.006597,-1.267658,1.296275,-0.001715,-1.398518,-0.031587|vel|0.000000,-0.000000,0.000000,0.000000,0.000000,0.000000|eff|0.000000,0.000000,0.000000,0.000000,-20.141602,-8.056641
cobot_dynamixel_driver/joint_states|name|J1,J2,J3,J4,J5,J6|pos|0.006597,-1.267658,1.296275,-0.001715,-1.398518,-0.031587|vel|0.000000,-0.000000,0.000000,0.000000,0.000000,0.000000|eff|0.000000,0.000000,0.000000,0.000000,-20.141602,8.056641
cobot_dynamixel_driver/joint_states|name|J1,J2,J3,J4,J5,J6|pos|0.006597,-1.267658,1.296275,-0.001715,-1.398518,-0.031587|vel|0.000000,-0.000000,0.000000,0.000000,0.000000,0.000000|eff|0.000000,0.000000,0.000000,0.000000,-20.141602,0.000000
cobot_dynamixel_driver/joint_states|name|J1,J2,J3,J4,J5,J6|pos|0.006597,-1.267658,1.296275,-0.001715,-1.398518,-0.031587|vel|0.000000,-0.000000,0.000000,0.000000,0.000000,0.000000|eff|0.000000,0.000000,0.000000,0.000000,-20.141602,-8.056641
cobot_dynamixel_driver/joint_states|name|J1,J2,J3,J4,J5,J6|pos|0.006597,-1.267658,1.296275,-0.001715,-1.398518,-0.031587|vel|0.000000,-0.000000,0.000000,0.000000,0.000000,0.000000|eff|0.000000,0.000000,0.000000,0.000000,-20.141602,-8.056641
cobot_dynamixel_driver/joint_states|name|J1,J2,J3,J4,J5,J6|pos|0.006597,-1.267658,1.296275,-0.001715,-1.398518,-0.031587|vel|0.000000,-0.000000,0.000000,0.000000,0.000000,0.000000|eff|0.000000,0.000000,0.000000,0.000000,-20.141602,0.000000
cobot_dynamixel_driver/joint_states|name|J1,J2,J3,J4,J5,J6|pos|0.006597,-1.267658,1.296275,-0.001715,-1.398518,-0.031587|vel|0.000000,-0.000000,0.000000,0.000000,0.000000,0.000000|eff|0.000000,0.000000,0.000000,0.000000,-20.141602,-8.056641
cobot_dynamixel_driver/joint_states|name|J1,J2,J3,J4,J5,J6|pos|0.006597,-1.267658,1.296275,-0.001715,-1.398518,-0.031587|vel|0.000000,-0.000000,0.000000,0.000000,0.000000,0.000000|eff|0.000000,0.000000,0.000000,0.000000,-20.141602,-8.056641
cobot_dynamixel_driver/goal|-:J1,J2,J3,J4,J5,J6:0.000000,0.000000,0.000000,0.000000,0.000000,0.000000:0.700000,0.700000,0.700000,0.700000,0.700000,0.700000:pos_vel_
cobot_dynamixel_driver/joint_states|name|J1,J2,J3,J4,J5,J6|pos|0.007198,-1.267658,1.296275,-0.001715,-1.397484,-0.031587|vel|0.000000,-0.000000,0.000000,0.000000,0.000000,0.000000|eff|0.000000,0.000000,0.000000,0.000000,0.000000,24.169922
cobot_dynamixel_driver/joint_states|name|J1,J2,J3,J4,J5,J6|pos|0.004757,-1.259121,1.287975,-0.001164,-1.383087,-0.020520|vel|-0.031088,0.236397,-0.267068,0.006468,0.287824,0.148910|eff|-241.699219,-1917.480469,-1627.441406,112.792969,76.538086,16.113281
cobot_dynamixel_driver/joint_states|name|J1,J2,J3,J4,J5,J6|pos|0.002554,-1.221441,1.248180,-0.000739,-1.342606,-0.010446|vel|-0.013771,0.513479,-0.521825,0.003130,0.526356,0.069629|eff|-306.152344,-1111.816406,-1289.062500,128.906250,104.736328,48.339844
cobot_dynamixel_driver/joint_states|name|J1,J2,J3,J4,J5,J6|pos|0.001264,-1.166861,1.194339,-0.000413,-1.289113,-0.005378|vel|-0.009389,0.618846,-0.599025,0.001043,0.583232,0.033436|eff|-225.585938,-1353.515625,-1192.382812,177.246094,44.311523,52.368164
cobot_dynamixel_driver/joint_states|name|J1,J2,J3,J4,J5,J6|pos|0.000613,-1.105835,1.133938,-0.000200,-1.228877,-0.002772|vel|-0.003130,0.638250,-0.652021,0.001461,0.639418,0.017235|eff|-209.472656,-1724.121094,-1015.136719,112.792969,72.509766,48.339844
cobot_dynamixel_driver/joint_states|name|J1,J2,J3,J4,J5,J6|pos|0.000225,-1.041116,1.069820,-0.000163,-1.165290,-0.001448|vel|-0.004173,0.681649,-0.692916,0.000209,0.766612,0.007583|eff|-96.679688,-1321.289062,-2014.160156,177.246094,48.339844,64.453125
cobot_dynamixel_driver/joint_states|name|J1,J2,J3,J4,J5,J6|pos|0.000100,-0.975333,1.003962,-0.000100,-1.099863,-0.000724|vel|-0.002295,0.693333,-0.725882,0.000626,0.679748,0.007239|eff|-145.019531,-1305.175781,-1256.835938,128.906250,72.509766,52.368164
cobot_dynamixel_driver/joint_states|name|J1,J2,J3,J4,J5,J6|pos|0.000063,-0.908448,0.936839,-0.000050,-1.033566,-0.000476|vel|-0.000417,0.672885,-0.692290,0.000417,0.728006,0.006894|eff|-145.019531,-499.511719,-757.324219,209.472656,96.679688,52.368164
cobot_dynamixel_driver/joint_states|name|J1,J2,J3,J4,J5,J6|pos|-0.000025,-0.840837,0.869579,-0.000025,-0.966938,-0.000414|vel|-0.000626,0.672260,-0.680397,0.000209,0.676990,0.006205|eff|-225.585938,-999.023438,-1820.800781,225.585938,100.708008,0.000000
cobot_dynamixel_driver/joint_states|name|J1,J2,J3,J4,J5,J6|pos|-0.000050,-0.773138,0.801905,0.000000,-0.899669,-0.000414|vel|-0.000626,0.709190,-0.619263,0.000209,0.715252,0.000000|eff|-145.019531,-1321.289062,-1998.046875,225.585938,0.000000,32.226562
cobot_dynamixel_driver/joint_states|name|J1,J2,J3,J4,J5,J6|pos|-0.000063,-0.705415,0.734357,0.000013,-0.832711,-0.000269|vel|-0.000209,0.683526,-0.731724,0.000000,0.822109,0.005515|eff|-145.019531,-3222.656250,-966.796875,128.906250,40.283203,36.254883
cobot_dynamixel_driver/joint_states|name|J1,J2,J3,J4,J5,J6|pos|-0.000063,-0.637478,0.666708,0.000013,-0.765918,-0.000228|vel|0.000000,0.679979,-0.610291,0.000000,0.659066,0.004481|eff|-145.019531,-2094.726562,-966.796875,161.132812,149.047852,20.141602
cobot_dynamixel_driver/joint_states|name|J1,J2,J3,J4,J5,J6|pos|-0.000063,-0.569542,0.598534,0.000013,-0.698049,-0.000228|vel|0.000000,0.719622,-0.696463,0.000000,0.626319,0.000000|eff|-80.566406,-757.324219,-1595.214844,128.906250,32.226562,28.198242
cobot_dynamixel_driver/joint_states|name|J1,J2,J3,J4,J5,J6|pos|-0.000063,-0.501630,0.531236,0.000013,-0.630884,-0.000228|vel|0.000000,0.677476,-0.731724,0.000000,0.711460,0.000000|eff|-128.906250,0.000000,-596.191406,128.906250,64.453125,36.254883
cobot_dynamixel_driver/joint_states|name|J1,J2,J3,J4,J5,J6|pos|-0.000063,-0.434120,0.463562,0.000013,-0.563511,-0.000228|vel|0.000000,0.715658,-0.719831,0.000000,0.728006,0.000000|eff|-64.453125,-1675.781250,-1015.136719,145.019531,80.566406,44.311523
cobot_dynamixel_driver/joint_states|name|J1,J2,J3,J4,J5,J6|pos|-0.000063,-0.366146,0.395426,0.000013,-0.496925,-0.000083|vel|0.000000,0.701679,-0.724004,0.000000,0.708702,0.003792|eff|-128.906250,-354.492188,-934.570312,145.019531,56.396484,28.198242
cobot_dynamixel_driver/joint_states|name|J1,J2,J3,J4,J5,J6|pos|-0.000063,-0.298247,0.327652,0.000025,-0.429201,-0.000083|vel|-0.000626,0.720457,-0.711068,0.000000,0.677680,0.000000|eff|0.000000,-354.492188,-773.437500,177.246094,20.141602,0.000000
cobot_dynamixel_driver/joint_states|name|J1,J2,J3,J4,J5,J6|pos|-0.000063,-0.230298,0.259703,0.000025,-0.361684,-0.000083|vel|0.000626,0.729220,-0.701887,0.000000,0.729384,0.000000|eff|-128.906250,338.378906,-1095.703125,128.906250,0.000000,0.000000
cobot_dynamixel_driver/joint_states|name|J1,J2,J3,J4,J5,J6|pos|-0.000063,-0.162537,0.191992,0.000025,-0.294498,-0.000083|vel|0.000000,0.635538,-0.589635,0.000000,0.666994,0.000000|eff|0.000000,563.964844,-886.230469,145.019531,16.113281,0.000000
cobot_dynamixel_driver/joint_states|name|J1,J2,J3,J4,J5,J6|pos|-0.000050,-0.094763,0.124118,0.000025,-0.227456,-0.000083|vel|0.000000,0.660367,-0.683735,0.000000,0.601846,0.000000|eff|-64.453125,1015.136719,-854.003906,128.906250,72.509766,12.084961
cobot_dynamixel_driver/joint_states|name|J1,J2,J3,J4,J5,J6|pos|-0.000050,-0.046468,0.063693,0.000025,-0.160229,-0.000083|vel|0.000000,0.333626,-0.472793,0.000000,0.616323,0.000000|eff|0.000000,322.265625,-451.171875,161.132812,76.538086,28.198242
cobot_dynamixel_driver/joint_states|name|J1,J2,J3,J4,J5,J6|pos|-0.000050,-0.023346,0.032622,0.000025,-0.092939,-0.000083|vel|0.000000,0.159197,-0.222626,0.000000,0.689399,0.000000|eff|-64.453125,290.039062,-902.343750,128.906250,36.254883,28.198242
cobot_dynamixel_driver/joint_states|name|J1,J2,J3,J4,J5,J6|pos|-0.000050,-0.012030,0.016787,0.000025,-0.047204,-0.000083|vel|0.000000,0.082624,-0.102654,0.000000,0.315400,0.000000|eff|0.000000,241.699219,-854.003906,128.906250,8.056641,32.226562
cobot_dynamixel_driver/joint_states|name|J1,J2,J3,J4,J5,J6|pos|-0.000038,-0.006222,0.008750,0.000038,-0.024367,-0.000083|vel|0.000000,0.046528,-0.047154,0.000000,0.173729,0.000000|eff|0.000000,241.699219,-950.683594,128.906250,52.368164,0.000000
cobot_dynamixel_driver/joint_states|name|J1,J2,J3,J4,J5,J6|pos|-0.000038,-0.003242,0.004431,0.000038,-0.012515,-0.000083|vel|0.000000,0.023368,-0.032758,0.000000,0.088243,0.000000|eff|0.000000,128.906250,-918.457031,145.019531,60.424805,32.226562
cobot_dynamixel_driver/joint_states|name|J1,J2,J3,J4,J5,J6|pos|-0.000038,-0.001602,0.002241,0.000038,-0.006454,-0.000083|vel|0.000000,0.012727,-0.012102,0.000000,0.048258,0.000000|eff|0.000000,177.246094,-886.230469,128.906250,72.509766,36.254883
cobot_dynamixel_driver/joint_states|name|J1,J2,J3,J4,J5,J6|pos|-0.000025,-0.000839,0.001064,0.000038,-0.003372,-0.000083|vel|0.000000,0.006259,-0.004799,0.000000,0.022750,0.000000|eff|0.000000,273.925781,-886.230469,128.906250,88.623047,36.254883
cobot_dynamixel_driver/joint_states|name|J1,J2,J3,J4,J5,J6|pos|-0.000013,-0.000463,0.000351,0.000038,-0.001738,-0.000083|vel|0.000000,0.002712,-0.005216,0.000000,0.014133,0.000000|eff|-96.679688,193.359375,-789.550781,128.906250,76.538086,44.311523
cobot_dynamixel_driver/joint_states|name|J1,J2,J3,J4,J5,J6|pos|-0.000013,-0.000150,0.000300,0.000038,-0.000869,-0.000021|vel|0.000000,0.003130,-0.000835,0.000000,0.007239,0.000000|eff|-96.679688,209.472656,-805.664062,128.906250,76.538086,48.339844
cobot_dynamixel_driver/joint_states|name|J1,J2,J3,J4,J5,J6|pos|-0.000013,0.000038,0.000238,0.000038,-0.000496,0.000041|vel|0.000000,0.003756,-0.000417,0.000000,0.005170,0.002758|eff|-96.679688,418.945312,-837.890625,128.906250,68.481445,28.198242
cobot_dynamixel_driver/joint_states|name|J1,J2,J3,J4,J5,J6|pos|-0.000013,0.000038,0.000200,0.000038,-0.000496,0.000041|vel|0.000000,-0.000000,-0.000417,0.000000,0.005170,0.000000|eff|-64.453125,338.378906,-854.003906,48.339844,52.368164,28.198242
cobot_dynamixel_driver/joint_states|name|J1,J2,J3,J4,J5,J6|pos|0.000000,0.000038,0.000163,0.000038,-0.000352,0.000041|vel|0.000000,-0.000000,-0.000209,0.000000,0.003447,0.000000|eff|0.000000,290.039062,-918.457031,128.906250,80.566406,0.000000
cobot_dynamixel_driver/joint_states|name|J1,J2,J3,J4,J5,J6|pos|0.000000,0.000038,0.000138,0.000038,-0.000290,0.000041|vel|0.000000,-0.000000,-0.000209,0.000000,0.004136,0.000000|eff|0.000000,338.378906,-902.343750,128.906250,52.368164,12.084961
cobot_dynamixel_driver/joint_states|name|J1,J2,J3,J4,J5,J6|pos|0.000000,0.000038,0.000113,0.000038,-0.000290,0.000041|vel|0.000000,-0.000000,-0.000209,0.000000,0.000000,0.000000|eff|-96.679688,370.605469,-950.683594,80.566406,68.481445,20.141602
cobot_dynamixel_driver/joint_states|name|J1,J2,J3,J4,J5,J6|pos|0.000000,0.000038,0.000088,0.000038,-0.000228,0.000041|vel|0.000000,-0.000000,0.000000,0.000000,0.001034,0.000000|eff|0.000000,402.832031,-950.683594,80.566406,72.509766,-8.056641
cobot_dynamixel_driver/joint_states|name|J1,J2,J3,J4,J5,J6|pos|0.000000,0.000038,0.000088,0.000038,-0.000124,0.000041|vel|0.000000,-0.000000,0.000000,0.000000,0.001379,0.000000|eff|0.000000,338.378906,-982.910156,0.000000,72.509766,12.084961
cobot_dynamixel_driver/joint_states|name|J1,J2,J3,J4,J5,J6|pos|0.000000,0.000038,0.000088,0.000038,-0.000124,0.000041|vel|0.000000,-0.000000,0.000000,0.000000,0.000000,0.000000|eff|-80.566406,290.039062,-982.910156,0.000000,76.538086,12.084961
cobot_dynamixel_driver/joint_states|name|J1,J2,J3,J4,J5,J6|pos|0.000000,0.000038,0.000075,0.000038,-0.000083,0.000041|vel|0.000000,-0.000000,0.000000,0.000000,0.000345,0.000000|eff|-96.679688,418.945312,-1015.136719,0.000000,76.538086,0.000000
cobot_dynamixel_driver/joint_states|name|J1,J2,J3,J4,J5,J6|pos|0.000000,0.000038,0.000075,0.000038,-0.000021,0.000041|vel|0.000000,-0.000000,0.000000,0.000000,0.001723,0.000000|eff|0.000000,402.832031,-1031.250000,0.000000,68.481445,12.084961
cobot_dynamixel_driver/joint_states|name|J1,J2,J3,J4,J5,J6|pos|0.000000,0.000025,0.000050,0.000038,-0.000021,0.000041|vel|0.000000,-0.000000,0.000000,0.000000,0.000000,0.000000|eff|0.000000,257.812500,-1047.363281,112.792969,60.424805,28.198242
cobot_dynamixel_driver/joint_states|name|J1,J2,J3,J4,J5,J6|pos|0.000000,0.000025,0.000025,0.000038,-0.000021,0.000041|vel|0.000000,-0.000000,0.000000,0.000000,0.000000,0.000000|eff|0.000000,435.058594,-1031.250000,112.792969,60.424805,12.084961
cobot_dynamixel_driver/joint_states|name|J1,J2,J3,J4,J5,J6|pos|0.000000,0.000025,-0.000088,0.000025,-0.000021,0.000041|vel|0.000000,-0.000000,-0.001669,0.000000,0.000000,0.000000|eff|0.000000,354.492188,-982.910156,0.000000,60.424805,0.000000
cobot_dynamixel_driver/joint_states|name|J1,J2,J3,J4,J5,J6|pos|0.000000,0.000025,-0.000100,0.000025,-0.000021,0.000041|vel|0.000000,-0.000000,-0.000417,0.000000,0.000000,0.000000|eff|0.000000,354.492188,-966.796875,96.679688,60.424805,12.084961
cobot_dynamixel_driver/joint_states|name|J1,J2,J3,J4,J5,J6|pos|0.000000,0.000025,-0.000100,0.000025,-0.000021,0.000041|vel|0.000000,-0.000000,0.000000,0.000000,0.000000,0.000000|eff|0.000000,354.492188,-966.796875,0.000000,60.424805,28.198242
cobot_dynamixel_driver/joint_states|name|J1,J2,J3,J4,J5,J6|pos|0.000000,0.000025,-0.000100,0.000025,-0.000021,0.000041|vel|0.000000,-0.000000,0.000000,0.000000,0.000000,0.000000|eff|0.000000,241.699219,-950.683594,112.792969,60.424805,20.141602
cobot_dynamixel_driver/joint_states|name|J1,J2,J3,J4,J5,J6|pos|0.000000,0.000025,-0.000100,0.000025,-0.000021,0.000041|vel|0.000000,-0.000000,0.000000,0.000000,0.000000,0.000000|eff|-96.679688,435.058594,-886.230469,64.453125,60.424805,-8.056641
cobot_dynamixel_driver/joint_states|name|J1,J2,J3,J4,J5,J6|pos|0.000000,0.000025,-0.000100,0.000025,-0.000021,0.000041|vel|0.000000,-0.000000,0.000000,0.000000,0.000000,0.000000|eff|-32.226562,418.945312,-886.230469,32.226562,60.424805,28.198242
cobot_dynamixel_driver/joint_states|name|J1,J2,J3,J4,J5,J6|pos|0.000000,0.000025,-0.000100,0.000025,-0.000021,0.000041|vel|0.000000,-0.000000,0.000000,0.000000,0.000000,0.000000|eff|0.000000,418.945312,-870.117188,32.226562,60.424805,0.000000
cobot_dynamixel_driver/joint_states|name|J1,J2,J3,J4,J5,J6|pos|0.000000,0.000025,-0.000100,0.000025,-0.000021,0.000041|vel|0.000000,-0.000000,0.000000,0.000000,0.000000,0.000000|eff|0.000000,225.585938,-821.777344,0.000000,60.424805,24.169922
cobot_dynamixel_driver/joint_states|name|J1,J2,J3,J4,J5,J6|pos|0.000000,0.000025,-0.000100,0.000025,-0.000021,0.000041|vel|0.000000,-0.000000,0.000000,0.000000,0.000000,0.000000|eff|0.000000,257.812500,-870.117188,0.000000,60.424805,-8.056641
cobot_dynamixel_driver/joint_states|name|J1,J2,J3,J4,J5,J6|pos|0.000000,0.000025,-0.000100,0.000025,-0.000021,0.000041|vel|0.000000,-0.000000,0.000000,0.000000,0.000000,0.000000|eff|0.000000,290.039062,-854.003906,0.000000,60.424805,12.084961
cobot_dynamixel_driver/joint_states|name|J1,J2,J3,J4,J5,J6|pos|0.000000,0.000025,-0.000100,0.000025,-0.000021,0.000041|vel|0.000000,-0.000000,0.000000,0.000000,0.000000,0.000000|eff|-96.679688,435.058594,-789.550781,64.453125,60.424805,28.198242
cobot_dynamixel_driver/joint_states|name|J1,J2,J3,J4,J5,J6|pos|0.000000,0.000025,-0.000100,0.000025,-0.000021,0.000041|vel|0.000000,-0.000000,0.000000,0.000000,0.000000,0.000000|eff|0.000000,435.058594,-789.550781,0.000000,60.424805,-8.056641
cobot_dynamixel_driver/joint_states|name|J1,J2,J3,J4,J5,J6|pos|0.000000,0.000025,-0.000100,0.000025,-0.000021,0.000041|vel|0.000000,-0.000000,0.000000,0.000000,0.000000,0.000000|eff|-64.453125,290.039062,-741.210938,112.792969,60.424805,12.084961
cobot_dynamixel_driver/joint_states|name|J1,J2,J3,J4,J5,J6|pos|0.000000,0.000025,-0.000100,0.000025,-0.000021,0.000041|vel|0.000000,-0.000000,0.000000,0.000000,0.000000,0.000000|eff|0.000000,435.058594,-789.550781,64.453125,60.424805,28.198242
cobot_dynamixel_driver/joint_states|name|J1,J2,J3,J4,J5,J6|pos|0.000000,0.000025,-0.000100,0.000025,-0.000021,0.000041|vel|0.000000,-0.000000,0.000000,0.000000,0.000000,0.000000|eff|0.000000,435.058594,-757.324219,64.453125,60.424805,20.141602
cobot_dynamixel_driver/joint_states|name|J1,J2,J3,J4,J5,J6|pos|0.000000,0.000025,-0.000100,0.000025,-0.000021,0.000041|vel|0.000000,-0.000000,0.000000,0.000000,0.000000,0.000000|eff|0.000000,418.945312,-757.324219,64.453125,60.424805,28.198242
cobot_dynamixel_driver/joint_states|name|J1,J2,J3,J4,J5,J6|pos|0.000000,0.000025,-0.000100,0.000025,-0.000021,0.000041|vel|0.000000,-0.000000,0.000000,0.000000,0.000000,0.000000|eff|-64.453125,225.585938,-692.871094,32.226562,60.424805,12.084961
cobot_dynamixel_driver/joint_states|name|J1,J2,J3,J4,J5,J6|pos|0.000000,0.000025,-0.000100,0.000025,-0.000021,0.000041|vel|0.000000,-0.000000,0.000000,0.000000,0.000000,0.000000|eff|0.000000,402.832031,-692.871094,96.679688,60.424805,0.000000
cobot_dynamixel_driver/joint_states|name|J1,J2,J3,J4,J5,J6|pos|0.000000,0.000025,-0.000100,0.000025,-0.000021,0.000041|vel|0.000000,-0.000000,0.000000,0.000000,0.000000,0.000000|eff|-64.453125,402.832031,-676.757812,96.679688,60.424805,8.056641
cobot_dynamixel_driver/joint_states|name|J1,J2,J3,J4,J5,J6|pos|0.000000,0.000025,-0.000100,0.000025,-0.000021,0.000041|vel|0.000000,-0.000000,0.000000,0.000000,0.000000,0.000000|eff|0.000000,402.832031,-628.417969,0.000000,60.424805,0.000000
cobot_dynamixel_driver/joint_states|name|J1,J2,J3,J4,J5,J6|pos|0.000000,0.000025,-0.000100,0.000025,-0.000021,0.000041|vel|0.000000,-0.000000,0.000000,0.000000,0.000000,0.000000|eff|-96.679688,241.699219,-660.644531,0.000000,60.424805,12.084961
cobot_dynamixel_driver/joint_states|name|J1,J2,J3,J4,J5,J6|pos|0.000000,0.000025,-0.000088,0.000025,-0.000021,0.000041|vel|0.000000,-0.000000,0.000000,0.000000,0.000000,0.000000|eff|0.000000,435.058594,-612.304688,96.679688,60.424805,20.141602
cobot_dynamixel_driver/joint_states|name|J1,J2,J3,J4,J5,J6|pos|0.000000,0.000025,-0.000088,0.000025,-0.000021,0.000041|vel|0.000000,-0.000000,0.000000,0.000000,0.000000,0.000000|eff|0.000000,290.039062,-660.644531,0.000000,60.424805,28.198242
cobot_dynamixel_driver/joint_states|name|J1,J2,J3,J4,J5,J6|pos|0.000000,0.000025,-0.000088,0.000025,-0.000021,0.000041|vel|0.000000,-0.000000,0.000000,0.000000,0.000000,0.000000|eff|0.000000,338.378906,-580.078125,64.453125,60.424805,28.198242
cobot_dynamixel_driver/joint_states|name|J1,J2,J3,J4,J5,J6|pos|0.000000,0.000025,-0.000088,0.000025,-0.000021,0.000041|vel|0.000000,-0.000000,0.000000,0.000000,0.000000,0.000000|eff|0.000000,435.058594,-580.078125,112.792969,60.424805,28.198242
cobot_dynamixel_driver/joint_states|name|J1,J2,J3,J4,J5,J6|pos|0.000000,0.000025,-0.000075,0.000025,-0.000021,0.000041|vel|0.000000,-0.000000,0.000000,0.000000,0.000000,0.000000|eff|0.000000,435.058594,-580.078125,64.453125,60.424805,0.000000
cobot_dynamixel_driver/joint_states|name|J1,J2,J3,J4,J5,J6|pos|0.000000,0.000025,-0.000063,0.000025,-0.000021,0.000041|vel|0.000000,-0.000000,0.000000,0.000000,0.000000,0.000000|eff|0.000000,435.058594,-580.078125,0.000000,60.424805,24.169922
cobot_dynamixel_driver/joint_states|name|J1,J2,J3,J4,J5,J6|pos|0.000000,0.000025,-0.000025,0.000025,-0.000021,0.000041|vel|0.000000,-0.000000,0.000626,0.000000,0.000000,0.000000|eff|-32.226562,418.945312,-580.078125,0.000000,60.424805,-8.056641
cobot_dynamixel_driver/joint_states|name|J1,J2,J3,J4,J5,J6|pos|0.000000,0.000025,-0.000025,0.000025,-0.000021,0.000041|vel|0.000000,-0.000000,0.000000,0.000000,0.000000,0.000000|eff|-32.226562,435.058594,-580.078125,64.453125,60.424805,0.000000
cobot_dynamixel_driver/joint_states|name|J1,J2,J3,J4,J5,J6|pos|0.000000,0.000025,-0.000025,0.000025,-0.000021,0.000041|vel|0.000000,-0.000000,0.000000,0.000000,0.000000,0.000000|eff|-96.679688,257.812500,-580.078125,0.000000,60.424805,12.084961
cobot_dynamixel_driver/joint_states|name|J1,J2,J3,J4,J5,J6|pos|0.000000,0.000025,-0.000025,0.000025,-0.000021,0.000041|vel|0.000000,-0.000000,0.000000,0.000000,0.000000,0.000000|eff|0.000000,370.605469,-580.078125,96.679688,60.424805,-8.056641
cobot_dynamixel_driver/joint_states|name|J1,J2,J3,J4,J5,J6|pos|0.000000,0.000025,-0.000025,0.000025,-0.000021,0.000041|vel|0.000000,-0.000000,0.000000,0.000000,0.000000,0.000000|eff|0.000000,257.812500,-580.078125,0.000000,60.424805,0.000000
cobot_dynamixel_driver/joint_states|name|J1,J2,J3,J4,J5,J6|pos|0.000000,0.000025,-0.000025,0.000025,-0.000021,0.000041|vel|0.000000,-0.000000,0.000000,0.000000,0.000000,0.000000|eff|-96.679688,435.058594,-580.078125,0.000000,60.424805,20.141602
cobot_dynamixel_driver/joint_states|name|J1,J2,J3,J4,J5,J6|pos|0.000000,0.000025,-0.000025,0.000025,0.000000,0.000041|vel|0.000000,-0.000000,0.000000,0.000000,0.000000,0.000000|eff|0.000000,257.812500,-580.078125,0.000000,60.424805,-8.056641
cobot_dynamixel_driver/joint_states|name|J1,J2,J3,J4,J5,J6|pos|0.000000,0.000025,-0.000025,0.000025,0.000000,0.000041|vel|0.000000,-0.000000,0.000000,0.000000,0.000000,0.000000|eff|0.000000,370.605469,-580.078125,0.000000,60.424805,0.000000
cobot_dynamixel_driver/joint_states|name|J1,J2,J3,J4,J5,J6|pos|0.000000,0.000025,-0.000025,0.000025,0.000000,0.000041|vel|0.000000,-0.000000,0.000000,0.000000,0.000000,0.000000|eff|0.000000,257.812500,-580.078125,32.226562,60.424805,0.000000
cobot_dynamixel_driver/joint_states|name|J1,J2,J3,J4,J5,J6|pos|0.000000,0.000025,-0.000025,0.000025,0.000000,0.000041|vel|0.000000,-0.000000,0.000000,0.000000,0.000000,0.000000|eff|0.000000,225.585938,-580.078125,80.566406,60.424805,24.169922
cobot_dynamixel_driver/joint_states|name|J1,J2,J3,J4,J5,J6|pos|0.000000,0.000025,-0.000025,0.000025,0.000000,0.000041|vel|0.000000,-0.000000,0.000000,0.000000,0.000000,0.000000|eff|-64.453125,418.945312,-580.078125,0.000000,60.424805,0.000000
cobot_dynamixel_driver/joint_states|name|J1,J2,J3,J4,J5,J6|pos|0.000000,0.000025,-0.000025,0.000025,0.000000,0.000041|vel|0.000000,-0.000000,0.000000,0.000000,0.000000,0.000000|eff|0.000000,435.058594,-580.078125,32.226562,60.424805,-8.056641
cobot_dynamixel_driver/joint_states|name|J1,J2,J3,J4,J5,J6|pos|0.000000,0.000025,-0.000025,0.000025,0.000000,0.000041|vel|0.000000,-0.000000,0.000000,0.000000,0.000000,0.000000|eff|0.000000,225.585938,-580.078125,0.000000,60.424805,20.141602
cobot_dynamixel_driver/joint_states|name|J1,J2,J3,J4,J5,J6|pos|0.000000,0.000025,-0.000025,0.000025,0.000000,0.000041|vel|0.000000,-0.000000,0.000000,0.000000,0.000000,0.000000|eff|0.000000,435.058594,-580.078125,0.000000,60.424805,0.000000
cobot_dynamixel_driver/joint_states|name|J1,J2,J3,J4,J5,J6|pos|0.000000,0.000025,-0.000025,0.000025,0.000000,0.000041|vel|0.000000,-0.000000,0.000000,0.000000,0.000000,0.000000|eff|-96.679688,370.605469,-580.078125,112.792969,60.424805,20.141602
cobot_dynamixel_driver/joint_states|name|J1,J2,J3,J4,J5,J6|pos|0.000000,0.000025,-0.000025,0.000025,0.000000,0.000041|vel|0.000000,-0.000000,0.000000,0.000000,0.000000,0.000000|eff|-64.453125,354.492188,-580.078125,96.679688,60.424805,20.141602
cobot_dynamixel_driver/joint_states|name|J1,J2,J3,J4,J5,J6|pos|0.000000,0.000025,-0.000025,0.000025,0.000000,0.000041|vel|0.000000,-0.000000,0.000000,0.000000,0.000000,0.000000|eff|0.000000,290.039062,-580.078125,96.679688,60.424805,0.000000
cobot_dynamixel_driver/joint_states|name|J1,J2,J3,J4,J5,J6|pos|0.000000,0.000025,-0.000025,0.000025,0.000000,0.000041|vel|0.000000,-0.000000,0.000000,0.000000,0.000000,0.000000|eff|0.000000,418.945312,-580.078125,0.000000,60.424805,0.000000
cobot_dynamixel_driver/joint_states|name|J1,J2,J3,J4,J5,J6|pos|0.000000,0.000025,-0.000025,0.000025,0.000000,0.000041|vel|0.000000,-0.000000,0.000000,0.000000,0.000000,0.000000|eff|-64.453125,418.945312,-580.078125,64.453125,60.424805,12.084961
cobot_dynamixel_driver/joint_states|name|J1,J2,J3,J4,J5,J6|pos|0.000000,0.000025,-0.000025,0.000025,0.000000,0.000041|vel|0.000000,-0.000000,0.000000,0.000000,0.000000,0.000000|eff|0.000000,306.152344,-580.078125,64.453125,60.424805,0.000000
cobot_dynamixel_driver/joint_states|name|J1,J2,J3,J4,J5,J6|pos|0.000000,0.000025,-0.000025,0.000025,0.000000,0.000041|vel|0.000000,-0.000000,0.000000,0.000000,0.000000,0.000000|eff|0.000000,257.812500,-580.078125,64.453125,60.424805,0.000000
cobot_dynamixel_driver/joint_states|name|J1,J2,J3,J4,J5,J6|pos|0.000000,0.000025,-0.000025,0.000025,0.000000,0.000041|vel|0.000000,-0.000000,0.000000,0.000000,0.000000,0.000000|eff|0.000000,306.152344,-580.078125,64.453125,60.424805,0.000000
cobot_dynamixel_driver/joint_states|name|J1,J2,J3,J4,J5,J6|pos|0.000000,0.000025,-0.000025,0.000025,0.000000,0.000041|vel|0.000000,-0.000000,0.000000,0.000000,0.000000,0.000000|eff|-80.566406,354.492188,-580.078125,0.000000,60.424805,24.169922
cobot_dynamixel_driver/joint_states|name|J1,J2,J3,J4,J5,J6|pos|0.000000,0.000025,-0.000025,0.000025,0.000000,0.000041|vel|0.000000,-0.000000,0.000000,0.000000,0.000000,0.000000|eff|0.000000,354.492188,-580.078125,0.000000,60.424805,0.000000
cobot_dynamixel_driver/joint_states|name|J1,J2,J3,J4,J5,J6|pos|0.000000,0.000025,-0.000025,0.000025,0.000000,0.000041|vel|0.000000,-0.000000,0.000000,0.000000,0.000000,0.000000|eff|0.000000,435.058594,-580.078125,64.453125,60.424805,0.000000
cobot_dynamixel_driver/joint_states|name|J1,J2,J3,J4,J5,J6|pos|0.000000,0.000025,-0.000025,0.000025,0.000000,0.000041|vel|0.000000,-0.000000,0.000000,0.000000,0.000000,0.000000|eff|0.000000,370.605469,-580.078125,32.226562,60.424805,0.000000
cobot_dynamixel_driver/joint_states|name|J1,J2,J3,J4,J5,J6|pos|0.000000,0.000025,-0.000025,0.000025,0.000000,0.000041|vel|0.000000,-0.000000,0.000000,0.000000,0.000000,0.000000|eff|0.000000,435.058594,-580.078125,96.679688,56.396484,0.000000
cobot_dynamixel_driver/joint_states|name|J1,J2,J3,J4,J5,J6|pos|0.000000,0.000025,-0.000025,0.000025,0.000000,0.000041|vel|0.000000,-0.000000,0.000000,0.000000,0.000000,0.000000|eff|0.000000,386.718750,-580.078125,112.792969,68.481445,0.000000
cobot_dynamixel_driver/joint_states|name|J1,J2,J3,J4,J5,J6|pos|0.000000,0.000025,-0.000025,0.000025,0.000000,0.000041|vel|0.000000,-0.000000,0.000000,0.000000,0.000000,0.000000|eff|0.000000,418.945312,-580.078125,112.792969,56.396484,-8.056641
cobot_dynamixel_driver/joint_states|name|J1,J2,J3,J4,J5,J6|pos|0.000000,0.000025,-0.000025,0.000025,0.000000,0.000041|vel|0.000000,-0.000000,0.000000,0.000000,0.000000,0.000000|eff|0.000000,306.152344,-580.078125,0.000000,56.396484,20.141602
cobot_dynamixel_driver/joint_states|name|J1,J2,J3,J4,J5,J6|pos|0.000000,0.000025,-0.000025,0.000025,0.000000,0.000041|vel|0.000000,-0.000000,0.000000,0.000000,0.000000,0.000000|eff|0.000000,354.492188,-580.078125,96.679688,56.396484,12.084961
cobot_dynamixel_driver/joint_states|name|J1,J2,J3,J4,J5,J6|pos|0.000000,0.000025,-0.000025,0.000025,0.000000,0.000041|vel|0.000000,-0.000000,0.000000,0.000000,0.000000,0.000000|eff|-32.226562,435.058594,-580.078125,0.000000,68.481445,12.084961
cobot_dynamixel_driver/joint_states|name|J1,J2,J3,J4,J5,J6|pos|0.000000,0.000025,-0.000025,0.000025,0.000000,0.000041|vel|0.000000,-0.000000,0.000000,0.000000,0.000000,0.000000|eff|0.000000,418.945312,-580.078125,96.679688,60.424805,0.000000
cobot_dynamixel_driver/joint_states|name|J1,J2,J3,J4,J5,J6|pos|0.000000,0.000025,-0.000025,0.000025,0.000000,0.000041|vel|0.000000,-0.000000,0.000000,0.000000,0.000000,0.000000|eff|0.000000,402.832031,-580.078125,0.000000,60.424805,12.084961
cobot_dynamixel_driver/joint_states|name|J1,J2,J3,J4,J5,J6|pos|0.000000,0.000025,-0.000025,0.000025,0.000000,0.000041|vel|0.000000,-0.000000,0.000000,0.000000,0.000000,0.000000|eff|0.000000,370.605469,-580.078125,64.453125,60.424805,0.000000
cobot_dynamixel_driver/joint_states|name|J1,J2,J3,J4,J5,J6|pos|0.000000,0.000025,-0.000025,0.000025,0.000000,0.000041|vel|0.000000,-0.000000,0.000000,0.000000,0.000000,0.000000|eff|0.000000,435.058594,-580.078125,0.000000,60.424805,-8.056641
cobot_dynamixel_driver/joint_states|name|J1,J2,J3,J4,J5,J6|pos|0.000000,0.000025,-0.000025,0.000025,0.000000,0.000041|vel|0.000000,-0.000000,0.000000,0.000000,0.000000,0.000000|eff|0.000000,290.039062,-580.078125,96.679688,60.424805,12.084961
cobot_dynamixel_driver/joint_states|name|J1,J2,J3,J4,J5,J6|pos|0.000000,0.000025,-0.000025,0.000025,0.000000,0.000041|vel|0.000000,-0.000000,0.000000,0.000000,0.000000,0.000000|eff|0.000000,370.605469,-580.078125,64.453125,60.424805,0.000000
cobot_dynamixel_driver/joint_states|name|J1,J2,J3,J4,J5,J6|pos|0.000000,0.000025,-0.000025,0.000025,0.000000,0.000041|vel|0.000000,-0.000000,0.000000,0.000000,0.000000,0.000000|eff|0.000000,435.058594,-580.078125,64.453125,60.424805,24.169922
cobot_dynamixel_driver/joint_states|name|J1,J2,J3,J4,J5,J6|pos|0.000000,0.000025,-0.000025,0.000025,0.000000,0.000041|vel|0.000000,-0.000000,0.000000,0.000000,0.000000,0.000000|eff|0.000000,435.058594,-580.078125,32.226562,60.424805,0.000000
cobot_dynamixel_driver/joint_states|name|J1,J2,J3,J4,J5,J6|pos|0.000000,0.000025,-0.000025,0.000025,0.000000,0.000041|vel|0.000000,-0.000000,0.000000,0.000000,0.000000,0.000000|eff|0.000000,257.812500,-580.078125,112.792969,60.424805,-8.056641
cobot_dynamixel_driver/joint_states|name|J1,J2,J3,J4,J5,J6|pos|0.000000,0.000025,-0.000025,0.000025,0.000000,0.000041|vel|0.000000,-0.000000,0.000000,0.000000,0.000000,0.000000|eff|0.000000,386.718750,-580.078125,32.226562,60.424805,-8.056641
cobot_dynamixel_driver/goal|-:J1,J2,J3,J4,J5,J6:0.000000,0.000000,0.000000,0.000000,0.000000,18.089513:vel_
cobot_dynamixel_driver/joint_states|name|J1,J2,J3,J4,J5,J6|pos|0.000000,0.000025,-0.000025,0.000025,0.000000,0.000041|vel|0.000000,-0.000000,0.000000,0.000000,0.000000,0.000000|eff|0.000000,354.492188,-580.078125,96.679688,60.424805,-8.056641
cobot_dynamixel_driver/goal|-:J1,J2,J3,J4,J5,J6:0.000000,0.000000,0.000000,0.000000,0.000000,-1.418280:vel_
cobot_dynamixel_driver/joint_states|name|J1,J2,J3,J4,J5,J6|pos|0.000013,0.001377,0.002303,0.000025,-0.000021,0.000041|vel|0.000000,0.001252,0.002504,0.000000,0.000000,0.000000|eff|0.000000,290.039062,-370.605469,0.000000,0.000000,-8.056641
cobot_dynamixel_driver/goal|-:J1,J2,J3,J4,J5,J6:0.000000,0.000000,0.000000,0.000000,0.000000,-1.423645:vel_
cobot_dynamixel_driver/joint_states|name|J1,J2,J3,J4,J5,J6|pos|0.000013,0.001377,0.002303,0.000025,-0.000021,-0.010053|vel|0.000000,0.000417,0.000000,0.000000,0.000000,0.033436|eff|0.000000,225.585938,-306.152344,0.000000,-8.056641,-475.341797
cobot_dynamixel_driver/goal|-:J1,J2,J3,J4,J5,J6:0.000000,0.000000,0.000000,0.000000,0.000000,-1.197127:vel_
cobot_dynamixel_driver/joint_states|name|J1,J2,J3,J4,J5,J6|pos|0.000025,0.001377,0.002303,0.000025,-0.000021,-0.040316|vel|0.000000,-0.000000,0.000000,0.000000,0.000000,-0.643899|eff|0.000000,225.585938,-386.718750,0.000000,0.000000,1393.798828
cobot_dynamixel_driver/goal|-:J1,J2,J3,J4,J5,J6:0.000000,0.000000,0.000000,0.000000,0.000000,-1.110581:vel_
cobot_dynamixel_driver/joint_states|name|J1,J2,J3,J4,J5,J6|pos|0.000025,0.001377,0.002303,0.000025,-0.000021,-0.090643|vel|0.000000,-0.000000,0.000000,0.000000,0.000000,-0.870367|eff|0.000000,370.605469,-370.605469,0.000000,0.000000,-1792.602539
cobot_dynamixel_driver/goal|-:J1,J2,J3,J4,J5,J6:0.000000,0.000000,0.000000,0.000000,0.000000,-0.977536:vel_
cobot_dynamixel_driver/joint_states|name|J1,J2,J3,J4,J5,J6|pos|0.000025,0.001377,0.002303,0.000025,-0.000021,-0.160725|vel|0.000000,-0.000000,0.000000,0.000000,0.000000,-0.920348|eff|0.000000,306.152344,-370.605469,0.000000,0.000000,-3182.373047
cobot_dynamixel_driver/goal|-:J1,J2,J3,J4,J5,J6:0.000000,0.000000,0.000000,0.000000,0.000000,-0.830566:vel_
cobot_dynamixel_driver/joint_states|name|J1,J2,J3,J4,J5,J6|pos|0.000025,0.001377,0.002303,0.000025,-0.000021,-0.241130|vel|0.000000,-0.000000,0.000000,0.000000,0.000000,-0.740415|eff|0.000000,322.265625,-370.605469,0.000000,0.000000,-3536.865234
cobot_dynamixel_driver/goal|-:J1,J2,J3,J4,J5,J6:0.000000,0.000000,0.000000,0.000000,0.000000,-0.667909:vel_
cobot_dynamixel_driver/joint_states|name|J1,J2,J3,J4,J5,J6|pos|0.000025,0.001377,0.002303,0.000025,-0.000021,-0.313694|vel|0.000000,-0.000000,0.000000,0.000000,0.000000,-0.438113|eff|0.000000,225.585938,-386.718750,0.000000,0.000000,-2086.669922
cobot_dynamixel_driver/goal|-:J1,J2,J3,J4,J5,J6:0.000000,0.000000,0.000000,0.000000,0.000000,-0.493661:vel_
cobot_dynamixel_driver/joint_states|name|J1,J2,J3,J4,J5,J6|pos|0.000025,0.001377,0.002303,0.000025,-0.000041,-0.370786|vel|0.000000,-0.000000,0.000000,0.000000,0.000000,-0.279207|eff|0.000000,225.585938,-386.718750,0.000000,12.084961,-1538.818359
cobot_dynamixel_driver/goal|-:J1,J2,J3,J4,J5,J6:0.000000,0.000000,0.000000,0.000000,0.000000,-0.311801:vel_
cobot_dynamixel_driver/joint_states|name|J1,J2,J3,J4,J5,J6|pos|0.000025,0.001390,0.002303,0.000025,-0.000041,-0.411350|vel|0.000000,-0.000000,0.000000,0.000000,0.000000,-0.132020|eff|0.000000,225.585938,-306.152344,0.000000,-8.056641,1510.620117
cobot_dynamixel_driver/goal|-:J1,J2,J3,J4,J5,J6:0.000000,0.000000,0.000000,0.000000,0.000000,-0.120894:vel_
cobot_dynamixel_driver/joint_states|name|J1,J2,J3,J4,J5,J6|pos|0.000025,0.001390,0.002303,0.000013,-0.000041,-0.432697|vel|0.000000,-0.000000,0.000000,0.000000,0.000000,0.183725|eff|0.000000,306.152344,-386.718750,0.000000,0.000000,-2400.878906
cobot_dynamixel_driver/goal|-:J1,J2,J3,J4,J5,J6:0.000000,0.000000,0.000000,0.000000,0.000000,0.066873:vel_
cobot_dynamixel_driver/joint_states|name|J1,J2,J3,J4,J5,J6|pos|0.000025,0.001390,0.002303,0.000013,-0.000041,-0.437413|vel|0.000000,-0.000000,0.000000,0.000000,0.000000,0.039296|eff|0.000000,225.585938,-386.718750,0.000000,0.000000,3460.327148
cobot_dynamixel_driver/goal|-:J1,J2,J3,J4,J5,J6:0.000000,0.000000,0.000000,0.000000,0.000000,0.259099:vel_
cobot_dynamixel_driver/joint_states|name|J1,J2,J3,J4,J5,J6|pos|0.000025,0.001390,0.002303,0.000013,-0.000041,-0.423926|vel|0.000000,-0.000000,0.000000,0.000000,0.000000,0.317813|eff|0.000000,225.585938,-370.605469,0.000000,0.000000,3548.950195
cobot_dynamixel_driver/goal|-:J1,J2,J3,J4,J5,J6:0.000000,0.000000,0.000000,0.000000,0.000000,0.446108:vel_
cobot_dynamixel_driver/joint_states|name|J1,J2,J3,J4,J5,J6|pos|0.000025,0.001390,0.002303,0.000013,-0.000041,-0.391616|vel|0.000000,-0.000000,0.000000,0.000000,0.000000,0.303680|eff|0.000000,257.812500,-386.718750,0.000000,0.000000,-3053.466797
cobot_dynamixel_driver/goal|-:J1,J2,J3,J4,J5,J6:0.000000,0.000000,0.000000,0.000000,0.000000,0.626034:vel_
cobot_dynamixel_driver/joint_states|name|J1,J2,J3,J4,J5,J6|pos|0.000025,0.001390,0.002303,0.000013,-0.000041,-0.341536|vel|0.000000,-0.000000,0.000000,0.000000,0.000000,0.628732|eff|0.000000,241.699219,-354.492188,0.000000,0.000000,-3520.751953
cobot_dynamixel_driver/goal|-:J1,J2,J3,J4,J5,J6:0.000000,0.000000,0.000000,0.000000,0.000000,0.794819:vel_
cobot_dynamixel_driver/joint_states|name|J1,J2,J3,J4,J5,J6|pos|0.000025,0.001390,0.002303,0.000013,-0.000041,-0.274143|vel|0.000000,-0.000000,0.000000,0.000000,0.000000,0.909318|eff|0.000000,225.585938,-386.718750,0.000000,-8.056641,-3242.797852
cobot_dynamixel_driver/goal|-:J1,J2,J3,J4,J5,J6:0.000000,0.000000,0.000000,0.000000,0.000000,0.952676:vel_
cobot_dynamixel_driver/joint_states|name|J1,J2,J3,J4,J5,J6|pos|0.000025,0.001390,0.002303,0.000013,-0.000041,-0.189975|vel|0.000000,-0.000000,0.000000,0.000000,0.000000,0.924484|eff|0.000000,257.812500,-386.718750,0.000000,0.000000,-3355.590820
cobot_dynamixel_driver/goal|-:J1,J2,J3,J4,J5,J6:0.000000,0.000000,0.000000,0.000000,0.000000,1.097020:vel_
cobot_dynamixel_driver/joint_states|name|J1,J2,J3,J4,J5,J6|pos|0.000025,0.001390,0.002303,0.000013,-0.000041,-0.090374|vel|0.000000,-0.000000,0.000000,0.000000,0.000000,0.900355|eff|0.000000,386.718750,-338.378906,0.000000,0.000000,-2018.188477
cobot_dynamixel_driver/goal|-:J1,J2,J3,J4,J5,J6:0.000000,0.000000,0.000000,0.000000,0.000000,1.221850:vel_
cobot_dynamixel_driver/joint_states|name|J1,J2,J3,J4,J5,J6|pos|0.000025,0.001390,0.002303,0.000013,-0.000041,0.023106|vel|0.000000,-0.000000,0.000000,0.000000,0.000000,0.998940|eff|0.000000,225.585938,-386.718750,0.000000,-8.056641,-2074.584961
cobot_dynamixel_driver/goal|-:J1,J2,J3,J4,J5,J6:0.000000,0.000000,0.000000,0.000000,0.000000,1.328479:vel_
cobot_dynamixel_driver/joint_states|name|J1,J2,J3,J4,J5,J6|pos|0.000025,0.001390,0.002303,0.000013,-0.000041,0.147445|vel|0.000000,-0.000000,0.000000,0.000000,0.000000,1.147850|eff|0.000000,241.699219,-370.605469,0.000000,0.000000,2694.946289
cobot_dynamixel_driver/goal|-:J1,J2,J3,J4,J5,J6:0.000000,0.000000,0.000000,0.000000,0.000000,1.413514:vel_
cobot_dynamixel_driver/joint_states|name|J1,J2,J3,J4,J5,J6|pos|0.000025,0.001390,0.002303,0.000013,-0.000062,0.277805|vel|0.000000,-0.000000,0.000000,0.000000,0.000000,1.110622|eff|0.000000,241.699219,-354.492188,0.000000,0.000000,-8.056641
cobot_dynamixel_driver/goal|-:J1,J2,J3,J4,J5,J6:0.000000,0.000000,0.000000,0.000000,0.000000,1.477523:vel_
cobot_dynamixel_driver/joint_states|name|J1,J2,J3,J4,J5,J6|pos|0.000025,0.001390,0.002303,0.000013,-0.000062,0.375853|vel|0.000000,-0.000000,0.000000,0.000000,0.000000,0.841757|eff|0.000000,386.718750,-386.718750,0.000000,0.000000,-8.056641
cobot_dynamixel_driver/goal|-:J1,J2,J3,J4,J5,J6:0.000000,0.000000,0.000000,0.000000,0.000000,1.517316:vel_
cobot_dynamixel_driver/joint_states|name|J1,J2,J3,J4,J5,J6|pos|0.000025,0.001390,0.002303,0.000013,-0.000062,0.443970|vel|0.000000,-0.000000,0.000000,0.000000,0.000000,0.598399|eff|0.000000,225.585938,-370.605469,0.000000,-8.056641,-8.056641
cobot_dynamixel_driver/goal|-:J1,J2,J3,J4,J5,J6:0.000000,0.000000,0.000000,0.000000,0.000000,1.533033:vel_
cobot_dynamixel_driver/joint_states|name|J1,J2,J3,J4,J5,J6|pos|0.000025,0.001390,0.002303,0.000013,-0.000062,0.484245|vel|0.000000,-0.000000,0.000000,0.000000,0.000000,0.269555|eff|0.000000,290.039062,-386.718750,0.000000,0.000000,-8.056641
cobot_dynamixel_driver/goal|-:J1,J2,J3,J4,J5,J6:0.000000,0.000000,0.000000,0.000000,0.000000,1.525052:vel_
cobot_dynamixel_driver/joint_states|name|J1,J2,J3,J4,J5,J6|pos|0.000038,0.001390,0.002303,0.000013,-0.000062,0.495167|vel|0.000000,-0.000000,0.000000,0.000000,0.000000,-0.003792|eff|0.000000,257.812500,-386.718750,0.000000,0.000000,-8.056641
cobot_dynamixel_driver/goal|-:J1,J2,J3,J4,J5,J6:0.000000,0.000000,0.000000,0.000000,0.000000,1.492767:vel_
cobot_dynamixel_driver/joint_states|name|J1,J2,J3,J4,J5,J6|pos|0.000038,0.001390,0.002303,0.000013,-0.000062,0.495167|vel|0.000000,-0.000000,0.000000,0.000000,0.000000,-0.003792|eff|0.000000,370.605469,-370.605469,0.000000,0.000000,-8.056641
cobot_dynamixel_driver/goal|-:J1,J2,J3,J4,J5,J6:0.000000,0.000000,0.000000,0.000000,0.000000,1.437842:vel_
cobot_dynamixel_driver/joint_states|name|J1,J2,J3,J4,J5,J6|pos|0.000038,0.001390,0.002303,0.000013,-0.000062,0.495167|vel|0.000000,-0.000000,0.000000,0.000000,0.005170,0.000000|eff|0.000000,225.585938,-338.378906,0.000000,20.141602,-8.056641
cobot_dynamixel_driver/goal|-:J1,J2,J3,J4,J5,J6:0.000000,0.000000,0.000000,0.000000,0.000000,1.360340:vel_
cobot_dynamixel_driver/joint_states|name|J1,J2,J3,J4,J5,J6|pos|0.000038,0.001390,0.002303,0.000013,-0.000062,0.495167|vel|0.000000,-0.000000,0.000000,0.000000,-0.000689,0.000000|eff|0.000000,225.585938,-370.605469,0.000000,16.113281,-8.056641
cobot_dynamixel_driver/goal|-:J1,J2,J3,J4,J5,J6:0.000000,0.000000,0.000000,0.000000,0.000000,1.262023:vel_
cobot_dynamixel_driver/joint_states|name|J1,J2,J3,J4,J5,J6|pos|0.000038,0.001390,0.002303,0.000013,-0.000062,0.495167|vel|0.000000,-0.000000,0.000000,0.000000,0.000000,0.000000|eff|0.000000,225.585938,-370.605469,0.000000,16.113281,-8.056641
cobot_dynamixel_driver/goal|-:J1,J2,J3,J4,J5,J6:0.000000,0.000000,0.000000,0.000000,0.000000,1.140095:vel_
cobot_dynamixel_driver/joint_states|name|J1,J2,J3,J4,J5,J6|pos|0.000038,0.001390,0.002303,0.000013,-0.000062,0.495167|vel|0.000000,-0.000000,0.000000,0.000000,0.000000,0.000000|eff|0.000000,241.699219,-370.605469,0.000000,16.113281,-8.056641
cobot_dynamixel_driver/goal|-:J1,J2,J3,J4,J5,J6:0.000000,0.000000,0.000000,0.000000,0.000000,1.001802:vel_
cobot_dynamixel_driver/joint_states|name|J1,J2,J3,J4,J5,J6|pos|0.000038,0.001390,0.002303,0.000013,-0.000062,0.495167|vel|0.000000,-0.000000,0.000000,0.000000,0.000000,0.000000|eff|0.000000,241.699219,-386.718750,0.000000,16.113281,-8.056641
cobot_dynamixel_driver/goal|-:J1,J2,J3,J4,J5,J6:0.000000,0.000000,0.000000,0.000000,0.000000,0.850435:vel_
cobot_dynamixel_driver/joint_states|name|J1,J2,J3,J4,J5,J6|pos|0.000038,0.001390,0.002303,0.000013,-0.000062,0.495167|vel|0.000000,-0.000000,0.000000,0.000000,0.000000,0.000000|eff|0.000000,241.699219,-386.718750,0.000000,20.141602,-8.056641
cobot_dynamixel_driver/goal|-:J1,J2,J3,J4,J5,J6:0.000000,0.000000,0.000000,0.000000,0.000000,0.682532:vel_
cobot_dynamixel_driver/joint_states|name|J1,J2,J3,J4,J5,J6|pos|0.000038,0.001390,0.002303,0.000013,-0.000062,0.495167|vel|0.000000,-0.000000,0.000000,0.000000,0.000000,0.000000|eff|0.000000,225.585938,-370.605469,0.000000,16.113281,-8.056641
cobot_dynamixel_driver/goal|-:J1,J2,J3,J4,J5,J6:0.000000,0.000000,0.000000,0.000000,0.000000,0.504439:vel_
cobot_dynamixel_driver/joint_states|name|J1,J2,J3,J4,J5,J6|pos|0.000038,0.001390,0.002303,0.000013,-0.000062,0.495167|vel|0.000000,-0.000000,0.000000,0.000000,0.000000,0.000000|eff|0.000000,386.718750,-370.605469,0.000000,28.198242,-8.056641
cobot_dynamixel_driver/goal|-:J1,J2,J3,J4,J5,J6:0.000000,0.000000,0.000000,0.000000,0.000000,0.316805:vel_
cobot_dynamixel_driver/joint_states|name|J1,J2,J3,J4,J5,J6|pos|0.000038,0.001390,0.002303,0.000013,-0.000062,0.495167|vel|0.000000,-0.000000,0.000000,0.000000,0.000000,0.000000|eff|0.000000,225.585938,-322.265625,0.000000,36.254883,-8.056641
cobot_dynamixel_driver/goal|-:J1,J2,J3,J4,J5,J6:0.000000,0.000000,0.000000,0.000000,0.000000,0.125476:vel_
cobot_dynamixel_driver/joint_states|name|J1,J2,J3,J4,J5,J6|pos|0.000038,0.001390,0.002303,0.000013,-0.000062,0.495167|vel|0.000000,-0.000000,0.000000,0.000000,0.000000,0.000000|eff|0.000000,241.699219,-386.718750,0.000000,16.113281,-8.056641
cobot_dynamixel_driver/goal|-:J1,J2,J3,J4,J5,J6:0.000000,0.000000,0.000000,0.000000,0.000000,-0.070091:vel_
cobot_dynamixel_driver/joint_states|name|J1,J2,J3,J4,J5,J6|pos|0.000038,0.001390,0.002303,0.000013,-0.000062,0.495167|vel|0.000000,-0.000000,0.000000,0.000000,0.000000,0.000000|eff|0.000000,322.265625,-386.718750,0.000000,36.254883,-8.056641
cobot_dynamixel_driver/goal|-:J1,J2,J3,J4,J5,J6:0.000000,0.000000,0.000000,0.000000,0.000000,-0.267223:vel_
cobot_dynamixel_driver/joint_states|name|J1,J2,J3,J4,J5,J6|pos|0.000038,0.001390,0.002303,0.000013,-0.000062,0.495167|vel|0.000000,-0.000000,0.000000,0.000000,0.000000,0.000000|eff|0.000000,241.699219,-386.718750,0.000000,16.113281,-8.056641
cobot_dynamixel_driver/goal|-:J1,J2,J3,J4,J5,J6:0.000000,0.000000,0.000000,0.000000,0.000000,-0.456917:vel_
cobot_dynamixel_driver/joint_states|name|J1,J2,J3,J4,J5,J6|pos|0.000038,0.001390,0.002303,0.000013,-0.000062,0.495167|vel|0.000000,-0.000000,0.000000,0.000000,0.000000,0.000000|eff|0.000000,418.945312,-370.605469,0.000000,28.198242,-8.056641
cobot_dynamixel_driver/goal|-:J1,J2,J3,J4,J5,J6:0.000000,0.000000,0.000000,0.000000,0.000000,-0.641629:vel_
cobot_dynamixel_driver/joint_states|name|J1,J2,J3,J4,J5,J6|pos|0.000038,0.001390,0.002303,0.000013,-0.000062,0.495167|vel|0.000000,-0.000000,0.000000,0.000000,0.000000,0.000000|eff|0.000000,225.585938,-386.718750,0.000000,16.113281,-8.056641
cobot_dynamixel_driver/goal|-:J1,J2,J3,J4,J5,J6:0.000000,0.000000,0.000000,0.000000,0.000000,-0.816656:vel_
cobot_dynamixel_driver/joint_states|name|J1,J2,J3,J4,J5,J6|pos|0.000038,0.001390,0.002303,0.000013,-0.000062,0.495167|vel|0.000000,-0.000000,0.000000,0.000000,0.000000,0.000000|eff|0.000000,322.265625,-322.265625,0.000000,28.198242,-8.056641
cobot_dynamixel_driver/goal|-:J1,J2,J3,J4,J5,J6:0.000000,0.000000,0.000000,0.000000,0.000000,-0.977754:vel_
cobot_dynamixel_driver/joint_states|name|J1,J2,J3,J4,J5,J6|pos|0.000038,0.001390,0.002303,0.000013,-0.000062,0.495167|vel|0.000000,-0.000000,0.000000,0.000000,0.000000,0.000000|eff|0.000000,273.925781,-386.718750,0.000000,20.141602,-8.056641
cobot_dynamixel_driver/goal|-:J1,J2,J3,J4,J5,J6:0.000000,0.000000,0.000000,0.000000,0.000000,-1.125414:vel_
cobot_dynamixel_driver/joint_states|name|J1,J2,J3,J4,J5,J6|pos|0.000038,0.001390,0.002303,0.000013,-0.000062,0.495167|vel|0.000000,-0.000000,0.000000,0.000000,0.000000,0.000000|eff|0.000000,322.265625,-386.718750,0.000000,20.141602,-8.056641
cobot_dynamixel_driver/goal|-:J1,J2,J3,J4,J5,J6:0.000000,0.000000,0.000000,0.000000,0.000000,-1.255719:vel_
cobot_dynamixel_driver/joint_states|name|J1,J2,J3,J4,J5,J6|pos|0.000038,0.001390,0.002303,0.000013,-0.000062,0.495167|vel|0.000000,-0.000000,0.000000,0.000000,0.000000,0.000000|eff|0.000000,241.699219,-370.605469,0.000000,16.113281,-8.056641
cobot_dynamixel_driver/goal|-:J1,J2,J3,J4,J5,J6:0.000000,0.000000,0.000000,0.000000,0.000000,-1.366532:vel_
cobot_dynamixel_driver/joint_states|name|J1,J2,J3,J4,J5,J6|pos|0.000038,0.001390,0.002303,0.000013,-0.000062,0.495167|vel|0.000000,-0.000000,0.000000,0.000000,0.000000,0.000000|eff|0.000000,225.585938,-370.605469,0.000000,20.141602,-8.056641
cobot_dynamixel_driver/goal|-:J1,J2,J3,J4,J5,J6:0.000000,0.000000,0.000000,0.000000,0.000000,-1.456050:vel_
cobot_dynamixel_driver/joint_states|name|J1,J2,J3,J4,J5,J6|pos|0.000038,0.001390,0.002303,0.000013,-0.000062,0.495167|vel|0.000000,-0.000000,0.000000,0.000000,0.000000,0.000000|eff|0.000000,225.585938,-370.605469,0.000000,16.113281,-8.056641
cobot_dynamixel_driver/goal|-:J1,J2,J3,J4,J5,J6:0.000000,0.000000,0.000000,0.000000,0.000000,-1.523326:vel_
cobot_dynamixel_driver/joint_states|name|J1,J2,J3,J4,J5,J6|pos|0.000038,0.001390,0.002303,0.000013,-0.000062,0.495167|vel|0.000000,-0.000000,0.000000,0.000000,0.000000,0.000000|eff|0.000000,241.699219,-370.605469,0.000000,16.113281,-8.056641
cobot_dynamixel_driver/goal|-:J1,J2,J3,J4,J5,J6:0.000000,0.000000,0.000000,0.000000,0.000000,-1.565635:vel_
cobot_dynamixel_driver/joint_states|name|J1,J2,J3,J4,J5,J6|pos|0.000038,0.001390,0.002303,0.000013,-0.000062,0.495167|vel|0.000000,-0.000000,0.000000,0.000000,0.000000,0.000000|eff|0.000000,225.585938,-338.378906,0.000000,20.141602,-8.056641
cobot_dynamixel_driver/goal|-:J1,J2,J3,J4,J5,J6:0.000000,0.000000,0.000000,0.000000,0.000000,-1.583960:vel_
cobot_dynamixel_driver/joint_states|name|J1,J2,J3,J4,J5,J6|pos|0.000038,0.001390,0.002303,0.000013,-0.000062,0.495167|vel|0.000000,-0.000000,0.000000,0.000000,0.000000,0.000000|eff|0.000000,257.812500,-370.605469,0.000000,28.198242,-8.056641
cobot_dynamixel_driver/goal|-:J1,J2,J3,J4,J5,J6:0.000000,0.000000,0.000000,0.000000,0.000000,-1.577631:vel_
cobot_dynamixel_driver/joint_states|name|J1,J2,J3,J4,J5,J6|pos|0.000038,0.001390,0.002303,0.000013,-0.000062,0.495167|vel|0.000000,-0.000000,0.000000,0.000000,0.000000,0.000000|eff|0.000000,241.699219,-386.718750,0.000000,24.169922,-8.056641
cobot_dynamixel_driver/goal|-:J1,J2,J3,J4,J5,J6:0.000000,0.000000,0.000000,0.000000,0.000000,-5.211915:vel_
cobot_dynamixel_driver/joint_states|name|J1,J2,J3,J4,J5,J6|pos|0.000038,0.001390,0.002303,0.000013,-0.000062,0.495167|vel|0.000000,-0.000000,0.000000,0.000000,0.000000,0.000000|eff|0.000000,225.585938,-386.718750,0.000000,16.113281,-8.056641
cobot_dynamixel_driver/goal|-:J1,J2,J3,J4,J5,J6:0.000000,0.000000,0.000000,0.000000,0.000000,-1.430988:vel_
cobot_dynamixel_driver/joint_states|name|J1,J2,J3,J4,J5,J6|pos|0.000038,0.001390,0.002303,0.000013,-0.000062,0.495167|vel|0.000000,-0.000000,0.000000,0.000000,0.000000,0.000000|eff|0.000000,241.699219,-386.718750,0.000000,28.198242,-8.056641
cobot_dynamixel_driver/goal|-:J1,J2,J3,J4,J5,J6:0.000000,0.000000,0.000000,0.000000,0.000000,-1.388212:vel_
cobot_dynamixel_driver/joint_states|name|J1,J2,J3,J4,J5,J6|pos|0.000038,0.001390,0.002303,0.000013,-0.000062,0.495167|vel|0.000000,-0.000000,0.000000,0.000000,0.000000,0.000000|eff|0.000000,257.812500,-306.152344,0.000000,32.226562,-8.056641
cobot_dynamixel_driver/goal|-:J1,J2,J3,J4,J5,J6:0.000000,0.000000,0.000000,0.000000,0.000000,-1.314823:vel_
cobot_dynamixel_driver/joint_states|name|J1,J2,J3,J4,J5,J6|pos|0.000038,0.001390,0.002303,0.000013,-0.000062,0.495167|vel|0.000000,-0.000000,0.000000,0.000000,0.000000,0.000000|eff|0.000000,225.585938,-370.605469,0.000000,20.141602,-8.056641
cobot_dynamixel_driver/goal|-:J1,J2,J3,J4,J5,J6:0.000000,0.000000,0.000000,0.000000,0.000000,-1.221138:vel_
cobot_dynamixel_driver/joint_states|name|J1,J2,J3,J4,J5,J6|pos|0.000038,0.001390,0.002303,0.000013,-0.000062,0.495167|vel|0.000000,-0.000000,0.000000,0.000000,0.000000,0.000000|eff|0.000000,241.699219,-386.718750,0.000000,36.254883,-8.056641
cobot_dynamixel_driver/goal|-:J1,J2,J3,J4,J5,J6:0.000000,0.000000,0.000000,0.000000,0.000000,-1.104524:vel_
cobot_dynamixel_driver/joint_states|name|J1,J2,J3,J4,J5,J6|pos|0.000038,0.001390,0.002303,0.000013,-0.000062,0.495167|vel|0.000000,-0.000000,0.000000,0.000000,0.000000,0.000000|eff|0.000000,241.699219,-386.718750,0.000000,16.113281,-8.056641
cobot_dynamixel_driver/goal|-:J1,J2,J3,J4,J5,J6:0.000000,0.000000,0.000000,0.000000,0.000000,-0.969367:vel_
cobot_dynamixel_driver/joint_states|name|J1,J2,J3,J4,J5,J6|pos|0.000038,0.001390,0.002303,0.000013,-0.000062,0.495167|vel|0.000000,-0.000000,0.000000,0.000000,0.000000,0.000000|eff|0.000000,418.945312,-370.605469,0.000000,28.198242,-8.056641
cobot_dynamixel_driver/goal|-:J1,J2,J3,J4,J5,J6:0.000000,0.000000,0.000000,0.000000,0.000000,-0.819650:vel_
cobot_dynamixel_driver/joint_states|name|J1,J2,J3,J4,J5,J6|pos|0.000038,0.001390,0.002303,0.000013,-0.000062,0.495167|vel|0.000000,-0.000000,0.000000,0.000000,0.000000,0.000000|eff|0.000000,257.812500,-338.378906,0.000000,20.141602,-8.056641
cobot_dynamixel_driver/goal|-:J1,J2,J3,J4,J5,J6:0.000000,0.000000,0.000000,0.000000,0.000000,-0.653019:vel_
cobot_dynamixel_driver/joint_states|name|J1,J2,J3,J4,J5,J6|pos|0.000038,0.001390,0.002303,0.000013,-0.000062,0.495167|vel|0.000000,-0.000000,0.000000,0.000000,0.000000,0.000000|eff|0.000000,225.585938,-338.378906,0.000000,32.226562,-8.056641
cobot_dynamixel_driver/goal|-:J1,J2,J3,J4,J5,J6:0.000000,0.000000,0.000000,0.000000,0.000000,-0.478895:vel_
cobot_dynamixel_driver/joint_states|name|J1,J2,J3,J4,J5,J6|pos|0.000038,0.001390,0.002303,0.000013,-0.000062,0.495167|vel|0.000000,-0.000000,0.000000,0.000000,0.000000,0.000000|eff|0.000000,241.699219,-386.718750,0.000000,36.254883,-8.056641
cobot_dynamixel_driver/goal|-:J1,J2,J3,J4,J5,J6:0.000000,0.000000,0.000000,0.000000,0.000000,-0.294262:vel_
cobot_dynamixel_driver/joint_states|name|J1,J2,J3,J4,J5,J6|pos|0.000038,0.001390,0.002303,0.000013,-0.000062,0.495167|vel|0.000000,-0.000000,0.000000,0.000000,0.000000,0.000000|eff|0.000000,322.265625,-370.605469,0.000000,20.141602,-8.056641
cobot_dynamixel_driver/goal|-:J1,J2,J3,J4,J5,J6:0.000000,0.000000,0.000000,0.000000,0.000000,-0.106656:vel_
cobot_dynamixel_driver/joint_states|name|J1,J2,J3,J4,J5,J6|pos|0.000038,0.001390,0.002303,0.000013,-0.000062,0.495167|vel|0.000000,-0.000000,0.000000,0.000000,0.000000,0.000000|eff|0.000000,241.699219,-386.718750,0.000000,32.226562,-8.056641
cobot_dynamixel_driver/goal|-:J1,J2,J3,J4,J5,J6:0.000000,0.000000,0.000000,0.000000,0.000000,0.081691:vel_
cobot_dynamixel_driver/joint_states|name|J1,J2,J3,J4,J5,J6|pos|0.000038,0.001390,0.002303,0.000013,-0.000062,0.495167|vel|0.000000,-0.000000,0.000000,0.000000,0.000000,0.000000|eff|0.000000,322.265625,-386.718750,0.000000,20.141602,-8.056641
cobot_dynamixel_driver/goal|-:J1,J2,J3,J4,J5,J6:0.000000,0.000000,0.000000,0.000000,0.000000,0.270888:vel_
cobot_dynamixel_driver/joint_states|name|J1,J2,J3,J4,J5,J6|pos|0.000038,0.001390,0.002303,0.000013,-0.000062,0.495167|vel|0.000000,-0.000000,0.000000,0.000000,0.000000,0.000000|eff|0.000000,225.585938,-386.718750,0.000000,16.113281,-8.056641
cobot_dynamixel_driver/goal|-:J1,J2,J3,J4,J5,J6:0.000000,0.000000,0.000000,0.000000,0.000000,0.457984:vel_
cobot_dynamixel_driver/joint_states|name|J1,J2,J3,J4,J5,J6|pos|0.000038,0.001390,0.002303,0.000013,-0.000062,0.495167|vel|0.000000,-0.000000,0.000000,0.000000,0.000000,0.000000|eff|0.000000,257.812500,-386.718750,0.000000,20.141602,-8.056641
cobot_dynamixel_driver/goal|-:J1,J2,J3,J4,J5,J6:0.000000,0.000000,0.000000,0.000000,0.000000,0.636569:vel_
cobot_dynamixel_driver/joint_states|name|J1,J2,J3,J4,J5,J6|pos|0.000038,0.001390,0.002303,0.000013,-0.000062,0.495167|vel|0.000000,-0.000000,0.000000,0.000000,0.000000,0.000000|eff|0.000000,322.265625,-370.605469,0.000000,16.113281,-8.056641
cobot_dynamixel_driver/goal|-:J1,J2,J3,J4,J5,J6:0.000000,0.000000,0.000000,0.000000,0.000000,0.803790:vel_
cobot_dynamixel_driver/joint_states|name|J1,J2,J3,J4,J5,J6|pos|0.000038,0.001390,0.002303,0.000013,-0.000062,0.495167|vel|0.000000,-0.000000,0.000000,0.000000,0.000000,0.000000|eff|0.000000,273.925781,-386.718750,0.000000,20.141602,-8.056641
cobot_dynamixel_driver/goal|-:J1,J2,J3,J4,J5,J6:0.000000,0.000000,0.000000,0.000000,0.000000,0.958743:vel_
cobot_dynamixel_driver/joint_states|name|J1,J2,J3,J4,J5,J6|pos|0.000038,0.001390,0.002303,0.000013,-0.000062,0.495167|vel|0.000000,-0.000000,0.000000,0.000000,0.000000,0.000000|eff|0.000000,290.039062,-386.718750,0.000000,44.311523,-8.056641
cobot_dynamixel_driver/goal|-:J1,J2,J3,J4,J5,J6:0.000000,0.000000,0.000000,0.000000,0.000000,1.099403:vel_
cobot_dynamixel_driver/joint_states|name|J1,J2,J3,J4,J5,J6|pos|0.000038,0.001390,0.002303,0.000013,-0.000062,0.495167|vel|0.000000,-0.000000,0.000000,0.000000,0.000000,0.000000|eff|0.000000,225.585938,-386.718750,0.000000,32.226562,-8.056641
cobot_dynamixel_driver/goal|-:J1,J2,J3,J4,J5,J6:0.000000,0.000000,0.000000,0.000000,0.000000,1.224010:vel_
cobot_dynamixel_driver/joint_states|name|J1,J2,J3,J4,J5,J6|pos|0.000038,0.001390,0.002303,0.000013,-0.000062,0.495167|vel|0.000000,-0.000000,0.000000,0.000000,0.000000,0.000000|eff|0.000000,241.699219,-386.718750,0.000000,16.113281,-8.056641
cobot_dynamixel_driver/goal|-:J1,J2,J3,J4,J5,J6:0.000000,0.000000,0.000000,0.000000,0.000000,1.330343:vel_
cobot_dynamixel_driver/joint_states|name|J1,J2,J3,J4,J5,J6|pos|0.000038,0.001390,0.002303,0.000013,-0.000062,0.495167|vel|0.000000,-0.000000,0.000000,0.000000,0.000000,0.000000|eff|0.000000,225.585938,-322.265625,0.000000,20.141602,-8.056641
cobot_dynamixel_driver/goal|-:J1,J2,J3,J4,J5,J6:0.000000,0.000000,0.000000,0.000000,0.000000,1.414322:vel_
cobot_dynamixel_driver/joint_states|name|J1,J2,J3,J4,J5,J6|pos|0.000038,0.001390,0.002303,0.000013,-0.000062,0.495167|vel|0.000000,-0.000000,0.000000,0.000000,0.000000,0.000000|eff|0.000000,225.585938,-354.492188,0.000000,20.141602,-8.056641
cobot_dynamixel_driver/goal|-:J1,J2,J3,J4,J5,J6:0.000000,0.000000,0.000000,0.000000,0.000000,1.475982:vel_
cobot_dynamixel_driver/joint_states|name|J1,J2,J3,J4,J5,J6|pos|0.000038,0.001390,0.002303,0.000013,-0.000062,0.495167|vel|0.000000,-0.000000,0.000000,0.000000,0.000000,0.000000|eff|0.000000,225.585938,-386.718750,0.000000,28.198242,-8.056641
cobot_dynamixel_driver/goal|-:J1,J2,J3,J4,J5,J6:0.000000,0.000000,0.000000,0.000000,0.000000,1.515167:vel_
cobot_dynamixel_driver/joint_states|name|J1,J2,J3,J4,J5,J6|pos|0.000038,0.001390,0.002303,0.000013,-0.000062,0.495167|vel|0.000000,-0.000000,0.000000,0.000000,0.000000,0.000000|eff|0.000000,225.585938,-386.718750,0.000000,32.226562,-8.056641
cobot_dynamixel_driver/goal|-:J1,J2,J3,J4,J5,J6:0.000000,0.000000,0.000000,0.000000,0.000000,1.530040:vel_
cobot_dynamixel_driver/joint_states|name|J1,J2,J3,J4,J5,J6|pos|0.000038,0.001402,0.002303,0.000013,-0.000062,0.495167|vel|0.000000,-0.000000,0.000000,0.000000,0.000000,0.000000|eff|0.000000,386.718750,-386.718750,0.000000,16.113281,-8.056641
cobot_dynamixel_driver/goal|-:J1,J2,J3,J4,J5,J6:0.000000,0.000000,0.000000,0.000000,0.000000,1.520761:vel_
cobot_dynamixel_driver/joint_states|name|J1,J2,J3,J4,J5,J6|pos|0.000038,0.001402,0.002303,0.000013,-0.000062,0.495167|vel|0.000000,-0.000000,0.000000,0.000000,0.000000,0.000000|eff|0.000000,225.585938,-386.718750,0.000000,16.113281,-8.056641
cobot_dynamixel_driver/goal|-:J1,J2,J3,J4,J5,J6:0.000000,0.000000,0.000000,0.000000,0.000000,1.487669:vel_
cobot_dynamixel_driver/joint_states|name|J1,J2,J3,J4,J5,J6|pos|0.000038,0.001402,0.002303,0.000013,-0.000062,0.495167|vel|0.000000,-0.000000,0.000000,0.000000,0.000000,0.000000|eff|0.000000,225.585938,-386.718750,0.000000,16.113281,-8.056641
cobot_dynamixel_driver/goal|-:J1,J2,J3,J4,J5,J6:0.000000,0.000000,0.000000,0.000000,0.000000,1.430681:vel_
cobot_dynamixel_driver/joint_states|name|J1,J2,J3,J4,J5,J6|pos|0.000038,0.001402,0.002303,0.000013,-0.000062,0.495167|vel|0.000000,-0.000000,0.000000,0.000000,0.000000,0.000000|eff|0.000000,225.585938,-386.718750,0.000000,16.113281,-8.056641
cobot_dynamixel_driver/goal|-:J1,J2,J3,J4,J5,J6:0.000000,0.000000,0.000000,0.000000,0.000000,1.350846:vel_
cobot_dynamixel_driver/joint_states|name|J1,J2,J3,J4,J5,J6|pos|0.000038,0.001402,0.002303,0.000013,-0.000062,0.495167|vel|0.000000,-0.000000,0.000000,0.000000,0.000000,0.000000|eff|0.000000,290.039062,-338.378906,0.000000,16.113281,-8.056641
cobot_dynamixel_driver/goal|-:J1,J2,J3,J4,J5,J6:0.000000,0.000000,0.000000,0.000000,0.000000,1.249349:vel_
cobot_dynamixel_driver/joint_states|name|J1,J2,J3,J4,J5,J6|pos|0.000038,0.001402,0.002303,0.000013,-0.000062,0.495167|vel|0.000000,-0.000000,0.000000,0.000000,0.000000,0.000000|eff|0.000000,322.265625,-370.605469,0.000000,32.226562,-8.056641
cobot_dynamixel_driver/goal|-:J1,J2,J3,J4,J5,J6:0.000000,0.000000,0.000000,0.000000,0.000000,1.127753:vel_
cobot_dynamixel_driver/joint_states|name|J1,J2,J3,J4,J5,J6|pos|0.000038,0.001402,0.002303,0.000013,-0.000062,0.495167|vel|0.000000,-0.000000,0.000000,0.000000,0.000000,0.000000|eff|0.000000,225.585938,-370.605469,0.000000,20.141602,-8.056641
cobot_dynamixel_driver/goal|-:J1,J2,J3,J4,J5,J6:0.000000,0.000000,0.000000,0.000000,0.000000,0.986425:vel_
cobot_dynamixel_driver/joint_states|name|J1,J2,J3,J4,J5,J6|pos|0.000038,0.001402,0.002303,0.000013,-0.000062,0.495167|vel|0.000000,-0.000000,0.000000,0.000000,0.000000,0.000000|eff|0.000000,225.585938,-386.718750,0.000000,32.226562,-8.056641
cobot_dynamixel_driver/goal|-:J1,J2,J3,J4,J5,J6:0.000000,0.000000,0.000000,0.000000,0.000000,0.833520:vel_
cobot_dynamixel_driver/joint_states|name|J1,J2,J3,J4,J5,J6|pos|0.000038,0.001402,0.002303,0.000013,-0.000062,0.495167|vel|0.000000,-0.000000,0.000000,0.000000,0.000000,0.000000|eff|0.000000,241.699219,-370.605469,0.000000,16.113281,-8.056641
cobot_dynamixel_driver/goal|-:J1,J2,J3,J4,J5,J6:0.000000,0.000000,0.000000,0.000000,0.000000,0.664319:vel_
cobot_dynamixel_driver/joint_states|name|J1,J2,J3,J4,J5,J6|pos|0.000038,0.001402,0.002303,0.000013,-0.000062,0.495167|vel|0.000000,-0.000000,0.000000,0.000000,0.000000,0.000000|eff|0.000000,322.265625,-386.718750,0.000000,40.283203,-8.056641
cobot_dynamixel_driver/goal|-:J1,J2,J3,J4,J5,J6:0.000000,0.000000,0.000000,0.000000,0.000000,0.482199:vel_
cobot_dynamixel_driver/joint_states|name|J1,J2,J3,J4,J5,J6|pos|0.000038,0.001402,0.002303,0.000013,-0.000062,0.495167|vel|0.000000,-0.000000,0.000000,0.000000,0.000000,0.000000|eff|0.000000,225.585938,-386.718750,0.000000,28.198242,-8.056641
cobot_dynamixel_driver/goal|-:J1,J2,J3,J4,J5,J6:0.000000,0.000000,0.000000,0.000000,0.000000,0.295453:vel_
cobot_dynamixel_driver/joint_states|name|J1,J2,J3,J4,J5,J6|pos|0.000038,0.001402,0.002303,0.000013,-0.000062,0.495167|vel|0.000000,-0.000000,0.000000,0.000000,0.000000,0.000000|eff|0.000000,225.585938,-370.605469,0.000000,28.198242,-8.056641
cobot_dynamixel_driver/goal|-:J1,J2,J3,J4,J5,J6:0.000000,0.000000,0.000000,0.000000,0.000000,0.101950:vel_
cobot_dynamixel_driver/joint_states|name|J1,J2,J3,J4,J5,J6|pos|0.000038,0.001402,0.002303,0.000013,-0.000062,0.495167|vel|0.000000,-0.000000,0.000000,0.000000,0.000000,0.000000|eff|0.000000,273.925781,-370.605469,0.000000,36.254883,-8.056641
cobot_dynamixel_driver/goal|-:J1,J2,J3,J4,J5,J6:0.000000,0.000000,0.000000,0.000000,0.000000,-0.092002:vel_
cobot_dynamixel_driver/joint_states|name|J1,J2,J3,J4,J5,J6|pos|0.000038,0.001402,0.002303,0.000013,-0.000062,0.495167|vel|0.000000,-0.000000,0.000000,0.000000,0.000000,0.000000|eff|0.000000,241.699219,-370.605469,0.000000,20.141602,-8.056641
cobot_dynamixel_driver/goal|-:J1,J2,J3,J4,J5,J6:0.000000,0.000000,0.000000,0.000000,0.000000,-0.286719:vel_
cobot_dynamixel_driver/joint_states|name|J1,J2,J3,J4,J5,J6|pos|0.000038,0.001402,0.002303,0.000013,-0.000062,0.495167|vel|0.000000,-0.000000,0.000000,0.000000,0.000000,0.000000|eff|0.000000,273.925781,-386.718750,0.000000,16.113281,-8.056641
cobot_dynamixel_driver/goal|-:J1,J2,J3,J4,J5,J6:0.000000,0.000000,0.000000,0.000000,0.000000,-0.479244:vel_
cobot_dynamixel_driver/joint_states|name|J1,J2,J3,J4,J5,J6|pos|0.000038,0.001402,0.002303,0.000013,-0.000062,0.495167|vel|0.000000,-0.000000,0.000000,0.000000,0.000000,0.000000|eff|0.000000,290.039062,-386.718750,0.000000,16.113281,-8.056641
cobot_dynamixel_driver/goal|-:J1,J2,J3,J4,J5,J6:0.000000,0.000000,0.000000,0.000000,0.000000,-0.661638:vel_
cobot_dynamixel_driver/joint_states|name|J1,J2,J3,J4,J5,J6|pos|0.000038,0.001402,0.002303,0.000013,-0.000062,0.495167|vel|0.000000,-0.000000,0.000000,0.000000,0.000000,0.000000|eff|0.000000,241.699219,-386.718750,0.000000,16.113281,-8.056641
cobot_dynamixel_driver/goal|-:J1,J2,J3,J4,J5,J6:0.000000,0.000000,0.000000,0.000000,0.000000,-0.835288:vel_
cobot_dynamixel_driver/joint_states|name|J1,J2,J3,J4,J5,J6|pos|0.000038,0.001402,0.002303,0.000013,-0.000062,0.495167|vel|0.000000,-0.000000,0.000000,0.000000,0.000000,0.000000|eff|0.000000,306.152344,-306.152344,0.000000,16.113281,-8.056641
cobot_dynamixel_driver/goal|-:J1,J2,J3,J4,J5,J6:0.000000,0.000000,0.000000,0.000000,0.000000,-0.994920:vel_
cobot_dynamixel_driver/joint_states|name|J1,J2,J3,J4,J5,J6|pos|0.000038,0.001402,0.002303,0.000013,-0.000062,0.495167|vel|0.000000,-0.000000,0.000000,0.000000,0.000000,0.000000|eff|0.000000,225.585938,-370.605469,0.000000,16.113281,-8.056641
cobot_dynamixel_driver/goal|-:J1,J2,J3,J4,J5,J6:0.000000,0.000000,0.000000,0.000000,0.000000,-1.140700:vel_
cobot_dynamixel_driver/joint_states|name|J1,J2,J3,J4,J5,J6|pos|0.000038,0.001402,0.002303,0.000013,-0.000062,0.495167|vel|0.000000,-0.000000,0.000000,0.000000,0.000000,0.000000|eff|0.000000,322.265625,-370.605469,0.000000,28.198242,-8.056641
cobot_dynamixel_driver/goal|-:J1,J2,J3,J4,J5,J6:0.000000,0.000000,0.000000,0.000000,0.000000,-1.268950:vel_
cobot_dynamixel_driver/joint_states|name|J1,J2,J3,J4,J5,J6|pos|0.000038,0.001402,0.002303,0.000013,-0.000062,0.495167|vel|0.000000,-0.000000,0.000000,0.000000,0.000000,0.000000|eff|0.000000,225.585938,-386.718750,0.000000,16.113281,-8.056641
cobot_dynamixel_driver/goal|-:J1,J2,J3,J4,J5,J6:0.000000,0.000000,0.000000,0.000000,0.000000,-1.376583:vel_
cobot_dynamixel_driver/joint_states|name|J1,J2,J3,J4,J5,J6|pos|0.000038,0.001402,0.002303,0.000013,-0.000062,0.495167|vel|0.000000,-0.000000,0.000000,0.000000,0.000000,0.000000|eff|0.000000,225.585938,-370.605469,0.000000,16.113281,-8.056641
cobot_dynamixel_driver/goal|-:J1,J2,J3,J4,J5,J6:0.000000,0.000000,0.000000,0.000000,0.000000,-1.463812:vel_
cobot_dynamixel_driver/joint_states|name|J1,J2,J3,J4,J5,J6|pos|0.000038,0.001402,0.002303,0.000013,-0.000062,0.495167|vel|0.000000,-0.000000,0.000000,0.000000,0.000000,0.000000|eff|0.000000,338.378906,-386.718750,0.000000,28.198242,-8.056641
cobot_dynamixel_driver/goal|-:J1,J2,J3,J4,J5,J6:0.000000,0.000000,0.000000,0.000000,0.000000,-1.528363:vel_
cobot_dynamixel_driver/joint_states|name|J1,J2,J3,J4,J5,J6|pos|0.000038,0.001402,0.002303,0.000013,-0.000062,0.495167|vel|0.000000,-0.000000,0.000000,0.000000,0.000000,0.000000|eff|0.000000,225.585938,-370.605469,0.000000,40.283203,-8.056641
cobot_dynamixel_driver/goal|-:J1,J2,J3,J4,J5,J6:0.000000,0.000000,0.000000,0.000000,0.000000,-1.568560:vel_
cobot_dynamixel_driver/joint_states|name|J1,J2,J3,J4,J5,J6|pos|0.000038,0.001402,0.002303,0.000013,-0.000062,0.495167|vel|0.000000,-0.000000,0.000000,0.000000,0.000000,0.000000|eff|0.000000,273.925781,-386.718750,0.000000,40.283203,-8.056641
cobot_dynamixel_driver/goal|-:J1,J2,J3,J4,J5,J6:0.000000,0.000000,0.000000,0.000000,0.000000,-1.584458:vel_
cobot_dynamixel_driver/joint_states|name|J1,J2,J3,J4,J5,J6|pos|0.000038,0.001402,0.002303,0.000013,-0.000062,0.495167|vel|0.000000,-0.000000,0.000000,0.000000,0.000000,0.000000|eff|0.000000,225.585938,-354.492188,0.000000,16.113281,-8.056641
cobot_dynamixel_driver/goal|-:J1,J2,J3,J4,J5,J6:0.000000,0.000000,0.000000,0.000000,0.000000,-5.207834:vel_
cobot_dynamixel_driver/joint_states|name|J1,J2,J3,J4,J5,J6|pos|0.000038,0.001402,0.002303,0.000013,-0.000062,0.495167|vel|0.000000,-0.000000,0.000000,0.000000,0.000000,0.000000|eff|0.000000,241.699219,-338.378906,0.000000,20.141602,-8.056641
cobot_dynamixel_driver/goal|-:J1,J2,J3,J4,J5,J6:0.000000,0.000000,0.000000,0.000000,0.000000,-1.430730:vel_
cobot_dynamixel_driver/joint_states|name|J1,J2,J3,J4,J5,J6|pos|0.000038,0.001402,0.002303,0.000013,-0.000062,0.495167|vel|0.000000,-0.000000,0.000000,0.000000,0.000000,0.000000|eff|0.000000,225.585938,-370.605469,0.000000,40.283203,-8.056641
cobot_dynamixel_driver/goal|-:J1,J2,J3,J4,J5,J6:0.000000,0.000000,0.000000,0.000000,0.000000,-1.389124:vel_
cobot_dynamixel_driver/joint_states|name|J1,J2,J3,J4,J5,J6|pos|0.000038,0.001402,0.002303,0.000013,-0.000062,0.495167|vel|0.000000,-0.000000,0.000000,0.000000,0.000000,0.000000|eff|0.000000,241.699219,-386.718750,0.000000,28.198242,-8.056641
cobot_dynamixel_driver/goal|-:J1,J2,J3,J4,J5,J6:0.000000,0.000000,0.000000,0.000000,0.000000,-1.316144:vel_
cobot_dynamixel_driver/joint_states|name|J1,J2,J3,J4,J5,J6|pos|0.000038,0.001415,0.002303,0.000013,-0.000062,0.495167|vel|0.000000,-0.000000,0.000000,0.000000,0.000000,0.000000|eff|0.000000,225.585938,-370.605469,0.000000,20.141602,-8.056641
cobot_dynamixel_driver/goal|-:J1,J2,J3,J4,J5,J6:0.000000,0.000000,0.000000,0.000000,0.000000,-1.221851:vel_
cobot_dynamixel_driver/joint_states|name|J1,J2,J3,J4,J5,J6|pos|0.000038,0.001415,0.002303,0.000013,-0.000062,0.495167|vel|0.000000,-0.000000,0.000000,0.000000,0.000000,0.000000|eff|0.000000,225.585938,-386.718750,0.000000,16.113281,-8.056641
cobot_dynamixel_driver/goal|-:J1,J2,J3,J4,J5,J6:0.000000,0.000000,0.000000,0.000000,0.000000,-1.105124:vel_
cobot_dynamixel_driver/joint_states|name|J1,J2,J3,J4,J5,J6|pos|0.000038,0.001415,0.002303,0.000013,-0.000062,0.495167|vel|0.000000,-0.000000,0.000000,0.000000,0.000000,0.000000|eff|0.000000,290.039062,-386.718750,0.000000,20.141602,-8.056641
cobot_dynamixel_driver/goal|-:J1,J2,J3,J4,J5,J6:0.000000,0.000000,0.000000,0.000000,0.000000,-0.971223:vel_
cobot_dynamixel_driver/joint_states|name|J1,J2,J3,J4,J5,J6|pos|0.000038,0.001415,0.002303,0.000013,-0.000062,0.495167|vel|0.000000,-0.000000,0.000000,0.000000,0.000000,0.000000|eff|0.000000,290.039062,-386.718750,0.000000,32.226562,-8.056641
cobot_dynamixel_driver/goal|-:J1,J2,J3,J4,J5,J6:0.000000,0.000000,0.000000,0.000000,0.000000,-0.820084:vel_
cobot_dynamixel_driver/joint_states|name|J1,J2,J3,J4,J5,J6|pos|0.000038,0.001415,0.002303,0.000013,-0.000062,0.495167|vel|0.000000,-0.000000,0.000000,0.000000,0.000000,0.000000|eff|0.000000,322.265625,-386.718750,0.000000,20.141602,-8.056641
cobot_dynamixel_driver/goal|-:J1,J2,J3,J4,J5,J6:0.000000,0.000000,0.000000,0.000000,0.000000,-0.655346:vel_
cobot_dynamixel_driver/joint_states|name|J1,J2,J3,J4,J5,J6|pos|0.000050,0.001415,0.002303,0.000013,-0.000062,0.495167|vel|0.000000,-0.000000,0.000000,0.000000,0.000000,0.000000|eff|0.000000,241.699219,-386.718750,0.000000,16.113281,-8.056641
cobot_dynamixel_driver/goal|-:J1,J2,J3,J4,J5,J6:0.000000,0.000000,0.000000,0.000000,0.000000,-0.481273:vel_
cobot_dynamixel_driver/joint_states|name|J1,J2,J3,J4,J5,J6|pos|0.000050,0.001415,0.002303,0.000013,-0.000062,0.495167|vel|0.000000,-0.000000,0.000000,0.000000,0.000000,0.000000|eff|0.000000,225.585938,-370.605469,0.000000,20.141602,-8.056641
cobot_dynamixel_driver/goal|-:J1,J2,J3,J4,J5,J6:0.000000,0.000000,0.000000,0.000000,0.000000,-0.296766:vel_
cobot_dynamixel_driver/joint_states|name|J1,J2,J3,J4,J5,J6|pos|0.000050,0.001415,0.002303,0.000013,-0.000062,0.495167|vel|0.000000,-0.000000,0.000000,0.000000,0.000000,0.000000|eff|0.000000,241.699219,-370.605469,0.000000,20.141602,-8.056641
cobot_dynamixel_driver/goal|-:J1,J2,J3,J4,J5,J6:0.000000,0.000000,0.000000,0.000000,0.000000,-0.108630:vel_
cobot_dynamixel_driver/joint_states|name|J1,J2,J3,J4,J5,J6|pos|0.000050,0.001415,0.002303,0.000013,-0.000062,0.495167|vel|0.000000,-0.000000,0.000000,0.000000,0.000000,0.000000|eff|0.000000,322.265625,-306.152344,0.000000,20.141602,-8.056641
cobot_dynamixel_driver/goal|-:J1,J2,J3,J4,J5,J6:0.000000,0.000000,0.000000,0.000000,0.000000,0.079738:vel_
cobot_dynamixel_driver/joint_states|name|J1,J2,J3,J4,J5,J6|pos|0.000050,0.001415,0.002303,0.000013,-0.000062,0.495167|vel|0.000000,-0.000000,0.000000,0.000000,0.000000,0.000000|eff|0.000000,386.718750,-386.718750,0.000000,16.113281,-8.056641
cobot_dynamixel_driver/goal|-:J1,J2,J3,J4,J5,J6:0.000000,0.000000,0.000000,0.000000,0.000000,0.269302:vel_
cobot_dynamixel_driver/joint_states|name|J1,J2,J3,J4,J5,J6|pos|0.000050,0.001415,0.002303,0.000013,-0.000062,0.495167|vel|0.000000,-0.000000,0.000000,0.000000,0.000000,0.000000|eff|0.000000,241.699219,-370.605469,0.000000,16.113281,-8.056641
cobot_dynamixel_driver/goal|-:J1,J2,J3,J4,J5,J6:0.000000,0.000000,0.000000,0.000000,0.000000,0.453577:vel_
cobot_dynamixel_driver/joint_states|name|J1,J2,J3,J4,J5,J6|pos|0.000050,0.001415,0.002303,0.000013,-0.000062,0.495167|vel|0.000000,-0.000000,0.000000,0.000000,0.000000,0.000000|eff|0.000000,290.039062,-322.265625,0.000000,16.113281,-8.056641
cobot_dynamixel_driver/goal|-:J1,J2,J3,J4,J5,J6:0.000000,0.000000,0.000000,0.000000,0.000000,0.632244:vel_
cobot_dynamixel_driver/joint_states|name|J1,J2,J3,J4,J5,J6|pos|0.000050,0.001415,0.002303,0.000013,-0.000062,0.495167|vel|0.000000,-0.000000,0.000000,0.000000,0.000000,0.000000|eff|0.000000,241.699219,-386.718750,0.000000,20.141602,-8.056641
cobot_dynamixel_driver/goal|-:J1,J2,J3,J4,J5,J6:0.000000,0.000000,0.000000,0.000000,0.000000,0.801595:vel_
cobot_dynamixel_driver/joint_states|name|J1,J2,J3,J4,J5,J6|pos|0.000050,0.001415,0.002303,0.000013,-0.000062,0.495167|vel|0.000000,-0.000000,0.000000,0.000000,0.000000,0.000000|eff|0.000000,370.605469,-370.605469,0.000000,32.226562,-8.056641
cobot_dynamixel_driver/goal|-:J1,J2,J3,J4,J5,J6:0.000000,0.000000,0.000000,0.000000,0.000000,0.957621:vel_
cobot_dynamixel_driver/joint_states|name|J1,J2,J3,J4,J5,J6|pos|0.000050,0.001415,0.002303,0.000013,-0.000062,0.495167|vel|0.000000,-0.000000,0.000000,0.000000,0.000000,0.000000|eff|0.000000,241.699219,-370.605469,0.000000,32.226562,-8.056641
cobot_dynamixel_driver/goal|-:J1,J2,J3,J4,J5,J6:0.000000,0.000000,0.000000,0.000000,0.000000,1.099335:vel_
cobot_dynamixel_driver/joint_states|name|J1,J2,J3,J4,J5,J6|pos|0.000050,0.001415,0.002303,0.000013,-0.000062,0.495167|vel|0.000000,-0.000000,0.000000,0.000000,0.000000,0.000000|eff|0.000000,386.718750,-322.265625,0.000000,24.169922,-8.056641
cobot_dynamixel_driver/goal|-:J1,J2,J3,J4,J5,J6:0.000000,0.000000,0.000000,0.000000,0.000000,1.222900:vel_
cobot_dynamixel_driver/joint_states|name|J1,J2,J3,J4,J5,J6|pos|0.000050,0.001415,0.002303,0.000013,-0.000062,0.495167|vel|0.000000,-0.000000,0.000000,0.000000,0.000000,0.000000|eff|0.000000,225.585938,-386.718750,0.000000,16.113281,-8.056641
cobot_dynamixel_driver/goal|-:J1,J2,J3,J4,J5,J6:0.000000,0.000000,0.000000,0.000000,0.000000,1.328471:vel_
cobot_dynamixel_driver/joint_states|name|J1,J2,J3,J4,J5,J6|pos|0.000050,0.001415,0.002303,0.000013,-0.000062,0.495167|vel|0.000000,-0.000000,0.000000,0.000000,0.000000,0.000000|eff|0.000000,225.585938,-386.718750,0.000000,24.169922,-8.056641
cobot_dynamixel_driver/goal|-:J1,J2,J3,J4,J5,J6:0.000000,0.000000,0.000000,0.000000,0.000000,1.413879:vel_
cobot_dynamixel_driver/joint_states|name|J1,J2,J3,J4,J5,J6|pos|0.000050,0.001415,0.002303,0.000013,-0.000062,0.495167|vel|0.000000,-0.000000,0.000000,0.000000,0.000000,0.000000|eff|0.000000,273.925781,-386.718750,0.000000,20.141602,-8.056641
cobot_dynamixel_driver/goal|-:J1,J2,J3,J4,J5,J6:0.000000,0.000000,0.000000,0.000000,0.000000,1.475368:vel_
cobot_dynamixel_driver/joint_states|name|J1,J2,J3,J4,J5,J6|pos|0.000050,0.001415,0.002303,0.000013,-0.000062,0.495167|vel|0.000000,-0.000000,0.000000,0.000000,0.000000,0.000000|eff|0.000000,241.699219,-338.378906,0.000000,28.198242,-8.056641
cobot_dynamixel_driver/goal|-:J1,J2,J3,J4,J5,J6:0.000000,0.000000,0.000000,0.000000,0.000000,1.514826:vel_
cobot_dynamixel_driver/joint_states|name|J1,J2,J3,J4,J5,J6|pos|0.000050,0.001415,0.002303,0.000013,-0.000062,0.495167|vel|0.000000,-0.000000,0.000000,0.000000,0.000000,0.000000|eff|0.000000,225.585938,-370.605469,0.000000,16.113281,-8.056641
cobot_dynamixel_driver/goal|-:J1,J2,J3,J4,J5,J6:0.000000,0.000000,0.000000,0.000000,0.000000,1.529990:vel_
cobot_dynamixel_driver/joint_states|name|J1,J2,J3,J4,J5,J6|pos|0.000050,0.001415,0.002303,0.000013,-0.000062,0.495167|vel|0.000000,-0.000000,0.000000,0.000000,0.000000,0.000000|eff|0.000000,370.605469,-386.718750,0.000000,36.254883,-8.056641
cobot_dynamixel_driver/goal|-:J1,J2,J3,J4,J5,J6:0.000000,0.000000,0.000000,0.000000,0.000000,1.520821:vel_
cobot_dynamixel_driver/joint_states|name|J1,J2,J3,J4,J5,J6|pos|0.000050,0.001415,0.002303,0.000013,-0.000062,0.495167|vel|0.000000,-0.000000,0.000000,0.000000,0.000000,0.000000|eff|0.000000,241.699219,-386.718750,0.000000,16.113281,-8.056641
cobot_dynamixel_driver/goal|-:J1,J2,J3,J4,J5,J6:0.000000,0.000000,0.000000,0.000000,0.000000,1.487938:vel_
cobot_dynamixel_driver/joint_states|name|J1,J2,J3,J4,J5,J6|pos|0.000050,0.001415,0.002303,0.000013,-0.000062,0.495167|vel|0.000000,-0.000000,0.000000,0.000000,0.000000,0.000000|eff|0.000000,386.718750,-386.718750,0.000000,36.254883,-8.056641
cobot_dynamixel_driver/goal|-:J1,J2,J3,J4,J5,J6:0.000000,0.000000,0.000000,0.000000,0.000000,1.431095:vel_
cobot_dynamixel_driver/joint_states|name|J1,J2,J3,J4,J5,J6|pos|0.000050,0.001415,0.002303,0.000013,-0.000062,0.495167|vel|0.000000,-0.000000,0.000000,0.000000,0.000000,0.000000|eff|0.000000,322.265625,-386.718750,0.000000,36.254883,-8.056641
cobot_dynamixel_driver/goal|-:J1,J2,J3,J4,J5,J6:0.000000,0.000000,0.000000,0.000000,0.000000,1.352292:vel_
cobot_dynamixel_driver/joint_states|name|J1,J2,J3,J4,J5,J6|pos|0.000050,0.001415,0.002303,0.000013,-0.000062,0.495167|vel|0.000000,-0.000000,0.000000,0.000000,0.000000,0.000000|eff|0.000000,290.039062,-370.605469,0.000000,20.141602,-8.056641
cobot_dynamixel_driver/goal|-:J1,J2,J3,J4,J5,J6:0.000000,0.000000,0.000000,0.000000,0.000000,1.250036:vel_
cobot_dynamixel_driver/joint_states|name|J1,J2,J3,J4,J5,J6|pos|0.000050,0.001415,0.002303,0.000013,-0.000062,0.495167|vel|0.000000,-0.000000,0.000000,0.000000,0.000000,0.000000|eff|0.000000,241.699219,-386.718750,0.000000,44.311523,-8.056641
cobot_dynamixel_driver/goal|-:J1,J2,J3,J4,J5,J6:0.000000,0.000000,0.000000,0.000000,0.000000,1.128553:vel_
cobot_dynamixel_driver/joint_states|name|J1,J2,J3,J4,J5,J6|pos|0.000050,0.001415,0.002303,0.000013,-0.000062,0.495167|vel|0.000000,-0.000000,0.000000,0.000000,0.000000,0.000000|eff|0.000000,241.699219,-386.718750,0.000000,24.169922,-8.056641
cobot_dynamixel_driver/goal|-:J1,J2,J3,J4,J5,J6:0.000000,0.000000,0.000000,0.000000,0.000000,0.990317:vel_
cobot_dynamixel_driver/joint_states|name|J1,J2,J3,J4,J5,J6|pos|0.000050,0.001415,0.002303,0.000013,-0.000062,0.495167|vel|0.000000,-0.000000,0.000000,0.000000,0.000000,0.000000|eff|0.000000,225.585938,-354.492188,0.000000,16.113281,-8.056641
cobot_dynamixel_driver/goal|-:J1,J2,J3,J4,J5,J6:0.000000,0.000000,0.000000,0.000000,0.000000,0.834796:vel_
cobot_dynamixel_driver/joint_states|name|J1,J2,J3,J4,J5,J6|pos|0.000050,0.001415,0.002303,0.000013,-0.000062,0.495167|vel|0.000000,-0.000000,0.000000,0.000000,0.000000,0.000000|eff|0.000000,322.265625,-386.718750,0.000000,20.141602,-8.056641
cobot_dynamixel_driver/goal|-:J1,J2,J3,J4,J5,J6:0.000000,0.000000,0.000000,0.000000,0.000000,0.666013:vel_
cobot_dynamixel_driver/joint_states|name|J1,J2,J3,J4,J5,J6|pos|0.000050,0.001415,0.002303,0.000013,-0.000062,0.495167|vel|0.000000,-0.000000,0.000000,0.000000,0.000000,0.000000|eff|0.000000,225.585938,-370.605469,0.000000,20.141602,-8.056641
cobot_dynamixel_driver/goal|-:J1,J2,J3,J4,J5,J6:0.000000,0.000000,0.000000,0.000000,0.000000,0.485841:vel_
cobot_dynamixel_driver/joint_states|name|J1,J2,J3,J4,J5,J6|pos|0.000050,0.001415,0.002303,0.000013,-0.000062,0.495167|vel|0.000000,-0.000000,0.000000,0.000000,0.000000,0.000000|eff|0.000000,290.039062,-386.718750,0.000000,20.141602,-8.056641
cobot_dynamixel_driver/goal|-:J1,J2,J3,J4,J5,J6:0.000000,0.000000,0.000000,0.000000,0.000000,0.297833:vel_
cobot_dynamixel_driver/joint_states|name|J1,J2,J3,J4,J5,J6|pos|0.000050,0.001415,0.002303,0.000013,-0.000062,0.495167|vel|0.000000,-0.000000,0.000000,0.000000,0.000000,0.000000|eff|0.000000,225.585938,-386.718750,0.000000,24.169922,-8.056641
cobot_dynamixel_driver/goal|-:J1,J2,J3,J4,J5,J6:0.000000,0.000000,0.000000,0.000000,0.000000,0.104262:vel_
cobot_dynamixel_driver/joint_states|name|J1,J2,J3,J4,J5,J6|pos|0.000050,0.001415,0.002303,0.000013,-0.000062,0.495167|vel|0.000000,-0.000000,0.000000,0.000000,0.000000,0.000000|eff|0.000000,257.812500,-386.718750,0.000000,40.283203,-8.056641
cobot_dynamixel_driver/goal|-:J1,J2,J3,J4,J5,J6:0.000000,0.000000,0.000000,0.000000,0.000000,-0.091492:vel_
cobot_dynamixel_driver/joint_states|name|J1,J2,J3,J4,J5,J6|pos|0.000050,0.001415,0.002303,0.000013,-0.000062,0.495167|vel|0.000000,-0.000000,0.000000,0.000000,0.000000,0.000000|eff|0.000000,241.699219,-386.718750,0.000000,20.141602,-8.056641
cobot_dynamixel_driver/goal|-:J1,J2,J3,J4,J5,J6:0.000000,0.000000,0.000000,0.000000,0.000000,-0.284763:vel_
cobot_dynamixel_driver/joint_states|name|J1,J2,J3,J4,J5,J6|pos|0.000050,0.001415,0.002303,0.000013,-0.000062,0.495167|vel|0.000000,-0.000000,0.000000,0.000000,0.000000,0.000000|eff|0.000000,322.265625,-306.152344,0.000000,24.169922,-8.056641
cobot_dynamixel_driver/goal|-:J1,J2,J3,J4,J5,J6:0.000000,0.000000,0.000000,0.000000,0.000000,-0.475702:vel_
cobot_dynamixel_driver/joint_states|name|J1,J2,J3,J4,J5,J6|pos|0.000050,0.001415,0.002303,0.000013,-0.000062,0.495167|vel|0.000000,-0.000000,0.000000,0.000000,0.000000,0.000000|eff|0.000000,273.925781,-386.718750,0.000000,40.283203,-8.056641
cobot_dynamixel_driver/goal|-:J1,J2,J3,J4,J5,J6:0.000000,0.000000,0.000000,0.000000,0.000000,-0.658114:vel_
cobot_dynamixel_driver/joint_states|name|J1,J2,J3,J4,J5,J6|pos|0.000050,0.001415,0.002303,0.000013,-0.000062,0.495167|vel|0.000000,-0.000000,0.000000,0.000000,0.000000,0.000000|eff|0.000000,386.718750,-354.492188,0.000000,16.113281,-8.056641
cobot_dynamixel_driver/goal|-:J1,J2,J3,J4,J5,J6:0.000000,0.000000,0.000000,0.000000,0.000000,-0.835205:vel_
cobot_dynamixel_driver/joint_states|name|J1,J2,J3,J4,J5,J6|pos|0.000050,0.001415,0.002303,0.000013,-0.000062,0.495167|vel|0.000000,-0.000000,0.000000,0.000000,0.000000,0.000000|eff|0.000000,225.585938,-386.718750,0.000000,20.141602,-8.056641
cobot_dynamixel_driver/goal|-:J1,J2,J3,J4,J5,J6:0.000000,0.000000,0.000000,0.000000,0.000000,-0.994937:vel_
cobot_dynamixel_driver/joint_states|name|J1,J2,J3,J4,J5,J6|pos|0.000050,0.001415,0.002303,0.000013,-0.000062,0.495167|vel|0.000000,-0.000000,0.000000,0.000000,0.000000,0.000000|eff|0.000000,225.585938,-338.378906,0.000000,28.198242,-8.056641
cobot_dynamixel_driver/goal|-:J1,J2,J3,J4,J5,J6:0.000000,0.000000,0.000000,0.000000,0.000000,-1.139361:vel_
cobot_dynamixel_driver/joint_states|name|J1,J2,J3,J4,J5,J6|pos|0.000050,0.001415,0.002303,0.000013,-0.000062,0.495167|vel|0.000000,-0.000000,0.000000,0.000000,0.000000,0.000000|eff|0.000000,241.699219,-370.605469,0.000000,40.283203,-8.056641
cobot_dynamixel_driver/goal|-:J1,J2,J3,J4,J5,J6:0.000000,0.000000,0.000000,0.000000,0.000000,-1.268854:vel_
cobot_dynamixel_driver/joint_states|name|J1,J2,J3,J4,J5,J6|pos|0.000050,0.001415,0.002303,0.000013,-0.000062,0.495167|vel|0.000000,-0.000000,0.000000,0.000000,0.000000,0.000000|eff|0.000000,225.585938,-354.492188,0.000000,16.113281,-8.056641
cobot_dynamixel_driver/goal|-:J1,J2,J3,J4,J5,J6:0.000000,0.000000,0.000000,0.000000,0.000000,-1.377504:vel_
cobot_dynamixel_driver/joint_states|name|J1,J2,J3,J4,J5,J6|pos|0.000050,0.001415,0.002303,0.000013,-0.000062,0.495167|vel|0.000000,-0.000000,0.000000,0.000000,0.000000,0.000000|eff|0.000000,370.605469,-370.605469,0.000000,16.113281,-8.056641
cobot_dynamixel_driver/goal|-:J1,J2,J3,J4,J5,J6:0.000000,0.000000,0.000000,0.000000,0.000000,-1.463157:vel_
cobot_dynamixel_driver/joint_states|name|J1,J2,J3,J4,J5,J6|pos|0.000050,0.001415,0.002303,0.000013,-0.000062,0.495167|vel|0.000000,-0.000000,0.000000,0.000000,0.000000,0.000000|eff|0.000000,225.585938,-306.152344,0.000000,44.311523,-8.056641
cobot_dynamixel_driver/goal|-:J1,J2,J3,J4,J5,J6:0.000000,0.000000,0.000000,0.000000,0.000000,-1.527694:vel_
cobot_dynamixel_driver/joint_states|name|J1,J2,J3,J4,J5,J6|pos|0.000050,0.001415,0.002303,0.000013,-0.000062,0.495167|vel|0.000000,-0.000000,0.000000,0.000000,0.000000,0.000000|eff|0.000000,225.585938,-386.718750,0.000000,24.169922,-8.056641
cobot_dynamixel_driver/goal|-:J1,J2,J3,J4,J5,J6:0.000000,0.000000,0.000000,0.000000,0.000000,-1.568376:vel_
cobot_dynamixel_driver/joint_states|name|J1,J2,J3,J4,J5,J6|pos|0.000050,0.001415,0.002303,0.000013,-0.000062,0.495167|vel|0.000000,-0.000000,0.000000,0.000000,0.000000,0.000000|eff|0.000000,225.585938,-386.718750,0.000000,20.141602,-8.056641
cobot_dynamixel_driver/goal|-:J1,J2,J3,J4,J5,J6:0.000000,0.000000,0.000000,0.000000,0.000000,-1.584439:vel_
cobot_dynamixel_driver/joint_states|name|J1,J2,J3,J4,J5,J6|pos|0.000050,0.001415,0.002303,0.000013,-0.000062,0.495167|vel|0.000000,-0.000000,0.000000,0.000000,0.000000,0.000000|eff|0.000000,225.585938,-338.378906,0.000000,16.113281,-8.056641
cobot_dynamixel_driver/goal|-:J1,J2,J3,J4,J5,J6:0.000000,0.000000,0.000000,0.000000,0.000000,-1.575546:vel_
cobot_dynamixel_driver/joint_states|name|J1,J2,J3,J4,J5,J6|pos|0.000050,0.001415,0.002303,0.000013,-0.000062,0.495167|vel|0.000000,-0.000000,0.000000,0.000000,0.000000,0.000000|eff|0.000000,273.925781,-386.718750,0.000000,24.169922,-8.056641
cobot_dynamixel_driver/goal|-:J1,J2,J3,J4,J5,J6:0.000000,0.000000,0.000000,0.000000,0.000000,-5.253649:vel_
cobot_dynamixel_driver/joint_states|name|J1,J2,J3,J4,J5,J6|pos|0.000050,0.001415,0.002303,0.000013,-0.000062,0.495167|vel|0.000000,-0.000000,0.000000,0.000000,0.000000,0.000000|eff|0.000000,257.812500,-370.605469,0.000000,20.141602,-8.056641
cobot_dynamixel_driver/goal|-:J1,J2,J3,J4,J5,J6:0.000000,0.000000,0.000000,0.000000,0.000000,-1.431823:vel_
cobot_dynamixel_driver/joint_states|name|J1,J2,J3,J4,J5,J6|pos|0.000050,0.001415,0.002303,0.000013,-0.000062,0.495167|vel|0.000000,-0.000000,0.000000,0.000000,0.000000,0.000000|eff|0.000000,241.699219,-322.265625,0.000000,20.141602,-8.056641
cobot_dynamixel_driver/goal|-:J1,J2,J3,J4,J5,J6:0.000000,0.000000,0.000000,0.000000,0.000000,-1.388525:vel_
cobot_dynamixel_driver/joint_states|name|J1,J2,J3,J4,J5,J6|pos|0.000050,0.001415,0.002303,0.000013,-0.000062,0.495167|vel|0.000000,-0.000000,0.000000,0.000000,0.000000,0.000000|eff|0.000000,322.265625,-338.378906,0.000000,16.113281,-8.056641
cobot_dynamixel_driver/goal|-:J1,J2,J3,J4,J5,J6:0.000000,0.000000,0.000000,0.000000,0.000000,-1.316592:vel_
cobot_dynamixel_driver/joint_states|name|J1,J2,J3,J4,J5,J6|pos|0.000050,0.001415,0.002303,0.000013,-0.000062,0.495167|vel|0.000000,-0.000000,0.000000,0.000000,0.000000,0.000000|eff|0.000000,241.699219,-386.718750,0.000000,36.254883,-8.056641
cobot_dynamixel_driver/goal|-:J1,J2,J3,J4,J5,J6:0.000000,0.000000,0.000000,0.000000,0.000000,-1.220905:vel_
cobot_dynamixel_driver/joint_states|name|J1,J2,J3,J4,J5,J6|pos|0.000050,0.001415,0.002303,0.000013,-0.000062,0.495167|vel|0.000000,-0.000000,0.000000,0.000000,0.000000,0.000000|eff|0.000000,273.925781,-370.605469,0.000000,24.169922,-8.056641
cobot_dynamixel_driver/goal|-:J1,J2,J3,J4,J5,J6:0.000000,0.000000,0.000000,0.000000,0.000000,-1.105591:vel_
cobot_dynamixel_driver/joint_states|name|J1,J2,J3,J4,J5,J6|pos|0.000050,0.001415,0.002303,0.000013,-0.000062,0.495167|vel|0.000000,-0.000000,0.000000,0.000000,0.000000,0.000000|eff|0.000000,225.585938,-386.718750,0.000000,44.311523,-8.056641
cobot_dynamixel_driver/goal|-:J1,J2,J3,J4,J5,J6:0.000000,0.000000,0.000000,0.000000,0.000000,-0.969045:vel_
cobot_dynamixel_driver/joint_states|name|J1,J2,J3,J4,J5,J6|pos|0.000050,0.001415,0.002303,0.000013,-0.000062,0.495167|vel|0.000000,-0.000000,0.000000,0.000000,0.000000,0.000000|eff|0.000000,241.699219,-386.718750,0.000000,16.113281,-8.056641
cobot_dynamixel_driver/goal|-:J1,J2,J3,J4,J5,J6:0.000000,0.000000,0.000000,0.000000,0.000000,-0.819300:vel_
cobot_dynamixel_driver/joint_states|name|J1,J2,J3,J4,J5,J6|pos|0.000050,0.001415,0.002303,0.000013,-0.000062,0.495167|vel|0.000000,-0.000000,0.000000,0.000000,0.000000,0.000000|eff|0.000000,322.265625,-386.718750,0.000000,20.141602,-8.056641
cobot_dynamixel_driver/goal|-:J1,J2,J3,J4,J5,J6:0.000000,0.000000,0.000000,0.000000,0.000000,-0.656138:vel_
