surachairobotic/cobot/cobot_dynamixel_driver/log/2018-12-19T06:34:19.502527_driver_log.txt
cobot_dynamixel_driver/joint_states|name|J1,J2,J3,J4,J5,J6|pos|0.058085,-1.266694,1.294497,0.001014,-1.724789,-0.000083|vel|0.000000,-0.000000,0.000000,0.000000,0.000000,0.000000|eff|0.000000,0.000000,0.000000,0.000000,0.000000,12.084961
cobot_dynamixel_driver/joint_states|name|J1,J2,J3,J4,J5,J6|pos|0.058085,-1.266694,1.294497,0.001014,-1.724789,-0.000083|vel|0.000000,-0.000000,0.000000,0.000000,0.000000,0.000000|eff|0.000000,0.000000,0.000000,0.000000,0.000000,-8.056641
cobot_dynamixel_driver/joint_states|name|J1,J2,J3,J4,J5,J6|pos|0.058085,-1.266694,1.294497,0.001014,-1.724789,-0.000083|vel|0.000000,-0.000000,0.000000,0.000000,0.000000,0.000000|eff|0.000000,0.000000,0.000000,0.000000,0.000000,-8.056641
cobot_dynamixel_driver/joint_states|name|J1,J2,J3,J4,J5,J6|pos|0.058085,-1.266694,1.294497,0.001014,-1.724789,-0.000083|vel|0.000000,-0.000000,0.000000,0.000000,0.000000,0.000000|eff|0.000000,0.000000,0.000000,0.000000,0.000000,-8.056641
cobot_dynamixel_driver/joint_states|name|J1,J2,J3,J4,J5,J6|pos|0.058085,-1.266694,1.294497,0.001014,-1.724789,-0.000083|vel|0.000000,-0.000000,0.000000,0.000000,0.000000,0.000000|eff|0.000000,0.000000,0.000000,0.000000,0.000000,-8.056641
cobot_dynamixel_driver/joint_states|name|J1,J2,J3,J4,J5,J6|pos|0.058085,-1.266694,1.294497,0.001014,-1.724789,-0.000083|vel|0.000000,-0.000000,0.000000,0.000000,0.000000,0.000000|eff|0.000000,0.000000,0.000000,0.000000,0.000000,8.056641
cobot_dynamixel_driver/joint_states|name|J1,J2,J3,J4,J5,J6|pos|0.058085,-1.266694,1.294497,0.001014,-1.724789,-0.000083|vel|0.000000,-0.000000,0.000000,0.000000,0.000000,0.000000|eff|0.000000,0.000000,0.000000,0.000000,0.000000,-8.056641
cobot_dynamixel_driver/joint_states|name|J1,J2,J3,J4,J5,J6|pos|0.058085,-1.266694,1.294497,0.001014,-1.724789,-0.000083|vel|0.000000,-0.000000,0.000000,0.000000,0.000000,0.000000|eff|0.000000,0.000000,0.000000,0.000000,0.000000,-8.056641
cobot_dynamixel_driver/joint_states|name|J1,J2,J3,J4,J5,J6|pos|0.058085,-1.266694,1.294497,0.001014,-1.724789,-0.000083|vel|0.000000,-0.000000,0.000000,0.000000,0.000000,0.000000|eff|0.000000,0.000000,0.000000,0.000000,0.000000,-8.056641
cobot_dynamixel_driver/joint_states|name|J1,J2,J3,J4,J5,J6|pos|0.058085,-1.266694,1.294497,0.001014,-1.724789,-0.000083|vel|0.000000,-0.000000,0.000000,0.000000,0.000000,0.000000|eff|0.000000,0.000000,0.000000,0.000000,0.000000,-8.056641
cobot_dynamixel_driver/joint_states|name|J1,J2,J3,J4,J5,J6|pos|0.058085,-1.266694,1.294497,0.001014,-1.724789,-0.000083|vel|0.000000,-0.000000,0.000000,0.000000,0.000000,0.000000|eff|0.000000,0.000000,0.000000,0.000000,0.000000,-8.056641
cobot_dynamixel_driver/joint_states|name|J1,J2,J3,J4,J5,J6|pos|0.058085,-1.266694,1.294497,0.001014,-1.724789,-0.000083|vel|0.000000,-0.000000,0.000000,0.000000,0.000000,0.000000|eff|0.000000,0.000000,0.000000,0.000000,0.000000,-8.056641
cobot_dynamixel_driver/joint_states|name|J1,J2,J3,J4,J5,J6|pos|0.058085,-1.266694,1.294497,0.001014,-1.724789,-0.000083|vel|0.000000,-0.000000,0.000000,0.000000,0.000000,0.000000|eff|0.000000,0.000000,0.000000,0.000000,0.000000,-8.056641
cobot_dynamixel_driver/joint_states|name|J1,J2,J3,J4,J5,J6|pos|0.058085,-1.266694,1.294497,0.001014,-1.724789,-0.000083|vel|0.000000,-0.000000,0.000000,0.000000,0.000000,0.000000|eff|0.000000,0.000000,0.000000,0.000000,0.000000,0.000000
cobot_dynamixel_driver/joint_states|name|J1,J2,J3,J4,J5,J6|pos|0.058085,-1.266694,1.294497,0.001014,-1.724789,-0.000083|vel|0.000000,-0.000000,0.000000,0.000000,0.000000,0.000000|eff|0.000000,0.000000,0.000000,0.000000,0.000000,0.000000
cobot_dynamixel_driver/joint_states|name|J1,J2,J3,J4,J5,J6|pos|0.058085,-1.266694,1.294497,0.001014,-1.724789,-0.000083|vel|0.000000,-0.000000,0.000000,0.000000,0.000000,0.000000|eff|0.000000,0.000000,0.000000,0.000000,0.000000,0.000000
cobot_dynamixel_driver/joint_states|name|J1,J2,J3,J4,J5,J6|pos|0.058085,-1.266694,1.294497,0.001014,-1.724789,-0.000083|vel|0.000000,-0.000000,0.000000,0.000000,0.000000,0.000000|eff|0.000000,0.000000,0.000000,0.000000,0.000000,0.000000
cobot_dynamixel_driver/joint_states|name|J1,J2,J3,J4,J5,J6|pos|0.058085,-1.266694,1.294497,0.001014,-1.724789,-0.000083|vel|0.000000,-0.000000,0.000000,0.000000,0.000000,0.000000|eff|0.000000,0.000000,0.000000,0.000000,0.000000,0.000000
cobot_dynamixel_driver/joint_states|name|J1,J2,J3,J4,J5,J6|pos|0.058085,-1.266694,1.294497,0.001014,-1.724789,-0.000083|vel|0.000000,-0.000000,0.000000,0.000000,0.000000,0.000000|eff|0.000000,0.000000,0.000000,0.000000,0.000000,-8.056641
cobot_dynamixel_driver/joint_states|name|J1,J2,J3,J4,J5,J6|pos|0.058085,-1.266694,1.294497,0.001014,-1.724789,-0.000083|vel|0.000000,-0.000000,0.000000,0.000000,0.000000,0.000000|eff|0.000000,0.000000,0.000000,0.000000,0.000000,0.000000
cobot_dynamixel_driver/joint_states|name|J1,J2,J3,J4,J5,J6|pos|0.058085,-1.266694,1.294497,0.001014,-1.724789,-0.000083|vel|0.000000,-0.000000,0.000000,0.000000,0.000000,0.000000|eff|0.000000,0.000000,0.000000,0.000000,0.000000,0.000000
cobot_dynamixel_driver/joint_states|name|J1,J2,J3,J4,J5,J6|pos|0.058085,-1.266694,1.294497,0.001014,-1.724789,-0.000083|vel|0.000000,-0.000000,0.000000,0.000000,0.000000,0.000000|eff|0.000000,0.000000,0.000000,0.000000,0.000000,8.056641
cobot_dynamixel_driver/joint_states|name|J1,J2,J3,J4,J5,J6|pos|0.058085,-1.266694,1.294497,0.001014,-1.724789,-0.000083|vel|0.000000,-0.000000,0.000000,0.000000,0.000000,0.000000|eff|0.000000,0.000000,0.000000,0.000000,0.000000,12.084961
cobot_dynamixel_driver/joint_states|name|J1,J2,J3,J4,J5,J6|pos|0.058085,-1.266694,1.294497,0.001014,-1.724789,-0.000083|vel|0.000000,-0.000000,0.000000,0.000000,0.000000,0.000000|eff|0.000000,0.000000,0.000000,0.000000,0.000000,12.084961
cobot_dynamixel_driver/joint_states|name|J1,J2,J3,J4,J5,J6|pos|0.058085,-1.266694,1.294497,0.001014,-1.724789,-0.000083|vel|0.000000,-0.000000,0.000000,0.000000,0.000000,0.000000|eff|0.000000,0.000000,0.000000,0.000000,0.000000,0.000000
cobot_dynamixel_driver/joint_states|name|J1,J2,J3,J4,J5,J6|pos|0.058085,-1.266694,1.294497,0.001014,-1.724789,-0.000083|vel|0.000000,-0.000000,0.000000,0.000000,0.000000,0.000000|eff|0.000000,0.000000,0.000000,0.000000,0.000000,0.000000
cobot_dynamixel_driver/joint_states|name|J1,J2,J3,J4,J5,J6|pos|0.058085,-1.266694,1.294497,0.001014,-1.724789,-0.000083|vel|0.000000,-0.000000,0.000000,0.000000,0.000000,0.000000|eff|0.000000,0.000000,0.000000,0.000000,0.000000,8.056641
cobot_dynamixel_driver/joint_states|name|J1,J2,J3,J4,J5,J6|pos|0.058085,-1.266694,1.294497,0.001014,-1.724789,-0.000083|vel|0.000000,-0.000000,0.000000,0.000000,0.000000,0.000000|eff|0.000000,0.000000,0.000000,0.000000,0.000000,0.000000
cobot_dynamixel_driver/joint_states|name|J1,J2,J3,J4,J5,J6|pos|0.058085,-1.266694,1.294497,0.001014,-1.724789,-0.000083|vel|0.000000,-0.000000,0.000000,0.000000,0.000000,0.000000|eff|0.000000,0.000000,0.000000,0.000000,0.000000,0.000000
cobot_dynamixel_driver/joint_states|name|J1,J2,J3,J4,J5,J6|pos|0.058085,-1.266694,1.294497,0.001014,-1.724789,-0.000083|vel|0.000000,-0.000000,0.000000,0.000000,0.000000,0.000000|eff|0.000000,0.000000,0.000000,0.000000,0.000000,0.000000
cobot_dynamixel_driver/joint_states|name|J1,J2,J3,J4,J5,J6|pos|0.058085,-1.266694,1.294497,0.001014,-1.724789,-0.000083|vel|0.000000,-0.000000,0.000000,0.000000,0.000000,0.000000|eff|0.000000,0.000000,0.000000,0.000000,0.000000,0.000000
cobot_dynamixel_driver/joint_states|name|J1,J2,J3,J4,J5,J6|pos|0.058085,-1.266694,1.294497,0.001014,-1.724789,-0.000083|vel|0.000000,-0.000000,0.000000,0.000000,0.000000,0.000000|eff|0.000000,0.000000,0.000000,0.000000,0.000000,8.056641
cobot_dynamixel_driver/joint_states|name|J1,J2,J3,J4,J5,J6|pos|0.058085,-1.266694,1.294497,0.001014,-1.724789,-0.000083|vel|0.000000,-0.000000,0.000000,0.000000,0.000000,0.000000|eff|0.000000,0.000000,0.000000,0.000000,0.000000,-8.056641
cobot_dynamixel_driver/joint_states|name|J1,J2,J3,J4,J5,J6|pos|0.058085,-1.266694,1.294497,0.001014,-1.724789,-0.000083|vel|0.000000,-0.000000,0.000000,0.000000,0.000000,0.000000|eff|0.000000,0.000000,0.000000,0.000000,0.000000,-8.056641
cobot_dynamixel_driver/joint_states|name|J1,J2,J3,J4,J5,J6|pos|0.058085,-1.266694,1.294497,0.001014,-1.724789,-0.000083|vel|0.000000,-0.000000,0.000000,0.000000,0.000000,0.000000|eff|0.000000,0.000000,0.000000,0.000000,0.000000,0.000000
cobot_dynamixel_driver/joint_states|name|J1,J2,J3,J4,J5,J6|pos|0.058085,-1.266694,1.294497,0.001014,-1.724789,-0.000083|vel|0.000000,-0.000000,0.000000,0.000000,0.000000,0.000000|eff|0.000000,0.000000,0.000000,0.000000,0.000000,-8.056641
cobot_dynamixel_driver/joint_states|name|J1,J2,J3,J4,J5,J6|pos|0.058085,-1.266694,1.294497,0.001014,-1.724789,-0.000083|vel|0.000000,-0.000000,0.000000,0.000000,0.000000,0.000000|eff|0.000000,0.000000,0.000000,0.000000,0.000000,-8.056641
cobot_dynamixel_driver/joint_states|name|J1,J2,J3,J4,J5,J6|pos|0.058085,-1.266694,1.294497,0.001014,-1.724789,-0.000083|vel|0.000000,-0.000000,0.000000,0.000000,0.000000,0.000000|eff|0.000000,0.000000,0.000000,0.000000,0.000000,-8.056641
cobot_dynamixel_driver/joint_states|name|J1,J2,J3,J4,J5,J6|pos|0.058085,-1.266694,1.294497,0.001014,-1.724789,-0.000083|vel|0.000000,-0.000000,0.000000,0.000000,0.000000,0.000000|eff|0.000000,0.000000,0.000000,0.000000,0.000000,8.056641
cobot_dynamixel_driver/joint_states|name|J1,J2,J3,J4,J5,J6|pos|0.058085,-1.266694,1.294497,0.001014,-1.724789,-0.000083|vel|0.000000,-0.000000,0.000000,0.000000,0.000000,0.000000|eff|0.000000,0.000000,0.000000,0.000000,0.000000,-8.056641
cobot_dynamixel_driver/joint_states|name|J1,J2,J3,J4,J5,J6|pos|0.058085,-1.266694,1.294497,0.001014,-1.724789,-0.000083|vel|0.000000,-0.000000,0.000000,0.000000,0.000000,0.000000|eff|0.000000,0.000000,0.000000,0.000000,0.000000,12.084961
cobot_dynamixel_driver/joint_states|name|J1,J2,J3,J4,J5,J6|pos|0.058085,-1.266694,1.294497,0.001014,-1.724789,-0.000083|vel|0.000000,-0.000000,0.000000,0.000000,0.000000,0.000000|eff|0.000000,0.000000,0.000000,0.000000,0.000000,0.000000
cobot_dynamixel_driver/joint_states|name|J1,J2,J3,J4,J5,J6|pos|0.058085,-1.266694,1.294497,0.001014,-1.724789,-0.000083|vel|0.000000,-0.000000,0.000000,0.000000,0.000000,0.000000|eff|0.000000,0.000000,0.000000,0.000000,0.000000,12.084961
cobot_dynamixel_driver/joint_states|name|J1,J2,J3,J4,J5,J6|pos|0.058085,-1.266694,1.294497,0.001014,-1.724789,-0.000083|vel|0.000000,-0.000000,0.000000,0.000000,0.000000,0.000000|eff|0.000000,0.000000,0.000000,0.000000,0.000000,12.084961
cobot_dynamixel_driver/joint_states|name|J1,J2,J3,J4,J5,J6|pos|0.058085,-1.266694,1.294497,0.001014,-1.724789,-0.000083|vel|0.000000,-0.000000,0.000000,0.000000,0.000000,0.000000|eff|0.000000,0.000000,0.000000,0.000000,0.000000,-8.056641
cobot_dynamixel_driver/joint_states|name|J1,J2,J3,J4,J5,J6|pos|0.058085,-1.266694,1.294497,0.001014,-1.724789,-0.000083|vel|0.000000,-0.000000,0.000000,0.000000,0.000000,0.000000|eff|0.000000,0.000000,0.000000,0.000000,0.000000,12.084961
cobot_dynamixel_driver/goal|-:J1,J2,J3,J4,J5,J6:1.047198,0.000000,0.000000,0.000000,0.000000,0.000000:0.500000,0.500000,0.500000,0.500000,0.500000,0.500000:pos_vel_
cobot_dynamixel_driver/joint_states|name|J1,J2,J3,J4,J5,J6|pos|0.056783,-1.266694,1.296275,0.001014,-1.726423,-0.000083|vel|0.000000,-0.000000,0.000000,0.000000,0.000000,0.000000|eff|0.000000,0.000000,0.000000,0.000000,0.000000,-8.056641
cobot_dynamixel_driver/goal|-:J1,J2,J3,J4,J5,J6:1.047198,0.000000,0.000000,0.000000,0.000000,0.000000:0.500000,0.500000,0.500000,0.500000,0.500000,0.500000:pos_vel_
cobot_dynamixel_driver/goal|-:J1,J2,J3,J4,J5,J6:1.047198,0.000000,0.000000,0.000000,0.000000,0.000000:0.500000,0.500000,0.500000,0.500000,0.500000,0.500000:pos_vel_
cobot_dynamixel_driver/goal|-:J1,J2,J3,J4,J5,J6:1.047198,0.000000,0.000000,0.000000,0.000000,0.000000:0.500000,0.500000,0.500000,0.500000,0.500000,0.500000:pos_vel_
cobot_dynamixel_driver/goal|-:J1,J2,J3,J4,J5,J6:1.047198,0.000000,0.000000,0.000000,0.000000,0.000000:0.500000,0.500000,0.500000,0.500000,0.500000,0.500000:pos_vel_
cobot_dynamixel_driver/goal|-:J1,J2,J3,J4,J5,J6:1.047198,0.000000,0.000000,0.000000,0.000000,0.000000:0.500000,0.500000,0.500000,0.500000,0.500000,0.500000:pos_vel_
cobot_dynamixel_driver/goal|-:J1,J2,J3,J4,J5,J6:1.047198,0.000000,0.000000,0.000000,0.000000,0.000000:0.500000,0.500000,0.500000,0.500000,0.500000,0.500000:pos_vel_
cobot_dynamixel_driver/goal|-:J1,J2,J3,J4,J5,J6:1.047198,0.000000,0.000000,0.000000,0.000000,0.000000:0.500000,0.500000,0.500000,0.500000,0.500000,0.500000:pos_vel_
cobot_dynamixel_driver/goal|-:J1,J2,J3,J4,J5,J6:1.047198,0.000000,0.000000,0.000000,0.000000,0.000000:0.500000,0.500000,0.500000,0.500000,0.500000,0.500000:pos_vel_
cobot_dynamixel_driver/goal|-:J1,J2,J3,J4,J5,J6:1.047198,0.000000,0.000000,0.000000,0.000000,0.000000:0.500000,0.500000,0.500000,0.500000,0.500000,0.500000:pos_vel_
cobot_dynamixel_driver/goal|-:J1,J2,J3,J4,J5,J6:1.047198,0.000000,0.000000,0.000000,0.000000,0.000000:0.500000,0.500000,0.500000,0.500000,0.500000,0.500000:pos_vel_
cobot_dynamixel_driver/goal|-:J1,J2,J3,J4,J5,J6:1.047198,0.000000,0.000000,0.000000,0.000000,0.000000:0.500000,0.500000,0.500000,0.500000,0.500000,0.500000:pos_vel_
cobot_dynamixel_driver/goal|-:J1,J2,J3,J4,J5,J6:1.047198,0.000000,0.000000,0.000000,0.000000,0.000000:0.500000,0.500000,0.500000,0.500000,0.500000,0.500000:pos_vel_
cobot_dynamixel_driver/goal|-:J1,J2,J3,J4,J5,J6:1.047198,0.000000,0.000000,0.000000,0.000000,0.000000:0.500000,0.500000,0.500000,0.500000,0.500000,0.500000:pos_vel_
cobot_dynamixel_driver/goal|-:J1,J2,J3,J4,J5,J6:1.047198,0.000000,0.000000,0.000000,0.000000,0.000000:0.500000,0.500000,0.500000,0.500000,0.500000,0.500000:pos_vel_
cobot_dynamixel_driver/goal|-:J1,J2,J3,J4,J5,J6:1.047198,0.000000,0.000000,0.000000,0.000000,0.000000:0.500000,0.500000,0.500000,0.500000,0.500000,0.500000:pos_vel_
cobot_dynamixel_driver/goal|-:J1,J2,J3,J4,J5,J6:1.047198,0.000000,0.000000,0.000000,0.000000,0.000000:0.500000,0.500000,0.500000,0.500000,0.500000,0.500000:pos_vel_
cobot_dynamixel_driver/goal|-:J1,J2,J3,J4,J5,J6:1.047198,0.000000,0.000000,0.000000,0.000000,0.000000:0.500000,0.500000,0.500000,0.500000,0.500000,0.500000:pos_vel_
cobot_dynamixel_driver/goal|-:J1,J2,J3,J4,J5,J6:1.047198,0.000000,0.000000,0.000000,0.000000,0.000000:0.500000,0.500000,0.500000,0.500000,0.500000,0.500000:pos_vel_
cobot_dynamixel_driver/goal|-:J1,J2,J3,J4,J5,J6:1.047198,0.000000,0.000000,0.000000,0.000000,0.000000:0.500000,0.500000,0.500000,0.500000,0.500000,0.500000:pos_vel_
cobot_dynamixel_driver/goal|-:J1,J2,J3,J4,J5,J6:1.047198,0.000000,0.000000,0.000000,0.000000,0.000000:0.500000,0.500000,0.500000,0.500000,0.500000,0.500000:pos_vel_
cobot_dynamixel_driver/goal|-:J1,J2,J3,J4,J5,J6:1.047198,0.000000,0.000000,0.000000,0.000000,0.000000:0.500000,0.500000,0.500000,0.500000,0.500000,0.500000:pos_vel_
cobot_dynamixel_driver/goal|-:J1,J2,J3,J4,J5,J6:1.047198,0.000000,0.000000,0.000000,0.000000,0.000000:0.500000,0.500000,0.500000,0.500000,0.500000,0.500000:pos_vel_
cobot_dynamixel_driver/goal|-:J1,J2,J3,J4,J5,J6:1.047198,0.000000,0.000000,0.000000,0.000000,0.000000:0.500000,0.500000,0.500000,0.500000,0.500000,0.500000:pos_vel_
cobot_dynamixel_driver/goal|-:J1,J2,J3,J4,J5,J6:1.047198,0.000000,0.000000,0.000000,0.000000,0.000000:0.500000,0.500000,0.500000,0.500000,0.500000,0.500000:pos_vel_
cobot_dynamixel_driver/goal|-:J1,J2,J3,J4,J5,J6:1.047198,0.000000,0.000000,0.000000,0.000000,0.000000:0.500000,0.500000,0.500000,0.500000,0.500000,0.500000:pos_vel_
cobot_dynamixel_driver/goal|-:J1,J2,J3,J4,J5,J6:1.047198,0.000000,0.000000,0.000000,0.000000,0.000000:0.500000,0.500000,0.500000,0.500000,0.500000,0.500000:pos_vel_
cobot_dynamixel_driver/goal|-:J1,J2,J3,J4,J5,J6:1.047198,0.000000,0.000000,0.000000,0.000000,0.000000:0.500000,0.500000,0.500000,0.500000,0.500000,0.500000:pos_vel_
cobot_dynamixel_driver/goal|-:J1,J2,J3,J4,J5,J6:1.047198,0.000000,0.000000,0.000000,0.000000,0.000000:0.500000,0.500000,0.500000,0.500000,0.500000,0.500000:pos_vel_
cobot_dynamixel_driver/joint_states|name|J1,J2,J3,J4,J5,J6|pos|0.056845,-1.266632,1.296162,0.000989,-1.726133,-0.000083|vel|0.009598,0.013353,-0.020030,0.000000,0.042053,0.000000|eff|386.718750,-370.605469,-257.812500,-112.792969,112.792969,12.084961
cobot_dynamixel_driver/joint_states|name|J1,J2,J3,J4,J5,J6|pos|0.057384,-1.266006,1.295574,0.000889,-1.724809,-0.000083|vel|0.052788,0.054457,-0.056543,-0.008137,0.105133,0.000000|eff|708.984375,-660.644531,-531.738281,0.000000,68.481445,0.000000
cobot_dynamixel_driver/joint_states|name|J1,J2,J3,J4,J5,J6|pos|0.058773,-1.264654,1.294284,0.000889,-1.722534,-0.000083|vel|0.112878,0.104741,-0.088883,0.001878,0.176486,0.000000|eff|773.437500,-837.890625,-870.117188,-96.679688,88.623047,12.084961
cobot_dynamixel_driver/joint_states|name|J1,J2,J3,J4,J5,J6|pos|0.061152,-1.262526,1.292494,0.000889,-1.719431,-0.000083|vel|0.145009,0.127900,-0.128109,-0.001878,0.199926,0.000000|eff|982.910156,-1401.855469,-1417.968750,-80.566406,72.509766,-8.056641
cobot_dynamixel_driver/joint_states|name|J1,J2,J3,J4,J5,J6|pos|0.064594,-1.259571,1.289502,0.000876,-1.715191,-0.000083|vel|0.209481,0.179227,-0.212611,-0.001878,0.230604,0.000000|eff|1095.703125,-1579.101562,-1530.761719,-161.132812,48.339844,-8.056641
cobot_dynamixel_driver/joint_states|name|J1,J2,J3,J4,J5,J6|pos|0.070615,-1.254239,1.283168,0.000839,-1.708716,-0.000083|vel|0.253714,0.235771,-0.285846,-0.001461,0.300578,0.000000|eff|837.890625,-1724.121094,-1240.722656,-225.585938,48.339844,-8.056641
cobot_dynamixel_driver/joint_states|name|J1,J2,J3,J4,J5,J6|pos|0.075522,-1.249694,1.277986,0.000764,-1.703690,-0.000083|vel|0.302329,0.286472,-0.307962,-0.004173,0.308506,0.000000|eff|580.078125,-2143.066406,-1127.929688,-209.472656,60.424805,-8.056641
cobot_dynamixel_driver/joint_states|name|J1,J2,J3,J4,J5,J6|pos|0.081181,-1.244061,1.272315,0.000689,-1.697980,-0.000083|vel|0.310675,0.332165,-0.283968,-0.003547,0.325052,0.000000|eff|1079.589844,-1305.175781,-1047.363281,-161.132812,60.424805,0.000000
cobot_dynamixel_driver/joint_states|name|J1,J2,J3,J4,J5,J6|pos|0.088241,-1.236938,1.265092,0.000626,-1.690761,-0.000083|vel|0.351987,0.327367,-0.363880,-0.002921,0.306438,0.000000|eff|547.851562,-1740.234375,-1305.175781,-161.132812,48.339844,0.000000
cobot_dynamixel_driver/joint_states|name|J1,J2,J3,J4,J5,J6|pos|0.093787,-1.230980,1.259121,0.000576,-1.684928,-0.000083|vel|0.370556,0.384744,-0.358455,-0.004382,0.326086,0.000000|eff|870.117188,-1949.707031,-1256.835938,-128.906250,44.311523,12.084961
cobot_dynamixel_driver/joint_states|name|J1,J2,J3,J4,J5,J6|pos|0.101022,-1.223970,1.252186,0.000501,-1.678122,-0.000083|vel|0.384118,0.380363,-0.392882,-0.003338,0.422946,0.000000|eff|1240.722656,-1691.894531,-1127.929688,-225.585938,44.311523,12.084961
cobot_dynamixel_driver/joint_states|name|J1,J2,J3,J4,J5,J6|pos|0.108583,-1.216346,1.244600,0.000426,-1.670655,-0.000083|vel|0.433568,0.417293,-0.405192,-0.003547,0.443973,0.000000|eff|1434.082031,-2126.953125,-1305.175781,-161.132812,16.113281,12.084961
cobot_dynamixel_driver/joint_states|name|J1,J2,J3,J4,J5,J6|pos|0.118886,-1.205893,1.234022,0.000351,-1.660147,-0.000083|vel|0.426265,0.410199,-0.404566,-0.002921,0.405367,0.000000|eff|1756.347656,-1353.515625,-1450.195312,-161.132812,60.424805,16.113281
cobot_dynamixel_driver/joint_states|name|J1,J2,J3,J4,J5,J6|pos|0.126246,-1.198470,1.226974,0.000313,-1.653362,-0.000083|vel|0.425848,0.457145,-0.460275,-0.002086,0.418465,0.000000|eff|1401.855469,-2255.859375,-1256.835938,-161.132812,32.226562,16.113281
cobot_dynamixel_driver/joint_states|name|J1,J2,J3,J4,J5,J6|pos|0.136111,-1.188205,1.216496,0.000250,-1.643040,-0.000083|vel|0.434611,0.444000,-0.410617,-0.002086,0.436390,0.000000|eff|837.890625,-1127.929688,-1144.042969,-161.132812,12.084961,0.000000
cobot_dynamixel_driver/joint_states|name|J1,J2,J3,J4,J5,J6|pos|0.144172,-1.179968,1.208710,0.000213,-1.635448,-0.000083|vel|0.442540,0.455893,-0.397472,-0.002086,0.373310,0.000000|eff|418.945312,-1901.367188,-757.324219,-161.132812,44.311523,0.000000
cobot_dynamixel_driver/joint_states|name|J1,J2,J3,J4,J5,J6|pos|0.152434,-1.171618,1.200435,0.000175,-1.627298,-0.000083|vel|0.444000,0.442748,-0.447964,-0.002295,0.467068,0.000000|eff|612.304688,-2094.726562,-821.777344,-161.132812,16.113281,12.084961
cobot_dynamixel_driver/joint_states|name|J1,J2,J3,J4,J5,J6|pos|0.159482,-1.164070,1.192974,0.000138,-1.619872,-0.000083|vel|0.447964,0.476132,-0.474254,-0.002086,0.484303,0.000000|eff|547.851562,-2513.671875,-773.437500,-161.132812,0.000000,16.113281
cobot_dynamixel_driver/joint_states|name|J1,J2,J3,J4,J5,J6|pos|0.167018,-1.156434,1.185476,0.000113,-1.612426,-0.000083|vel|0.463404,0.470290,-0.476549,-0.002086,0.477064,0.000000|eff|209.472656,-773.437500,-854.003906,-177.246094,16.113281,12.084961
cobot_dynamixel_driver/joint_states|name|J1,J2,J3,J4,J5,J6|pos|0.175906,-1.147333,1.176513,0.000088,-1.603614,-0.000083|vel|0.468829,0.472585,-0.470707,-0.001461,0.453625,0.000000|eff|1530.761719,-725.097656,-2126.953125,-177.246094,16.113281,0.000000
cobot_dynamixel_driver/joint_states|name|J1,J2,J3,J4,J5,J6|pos|0.185908,-1.137731,1.166661,0.000063,-1.594202,-0.000083|vel|0.493032,0.491989,-0.489068,-0.000835,0.395371,0.000000|eff|563.964844,-837.890625,-966.796875,-145.019531,36.254883,12.084961
cobot_dynamixel_driver/joint_states|name|J1,J2,J3,J4,J5,J6|pos|0.194195,-1.129394,1.158850,0.000050,-1.586031,-0.000083|vel|0.481139,0.477384,-0.491989,-0.000835,0.462242,0.000000|eff|1079.589844,-741.210938,-1111.816406,-145.019531,0.000000,12.084961
cobot_dynamixel_driver/joint_states|name|J1,J2,J3,J4,J5,J6|pos|0.203459,-1.120156,1.149536,0.000038,-1.576888,-0.000083|vel|0.429186,0.483017,-0.498457,-0.000835,0.413640,0.000000|eff|1981.933594,-1224.609375,-1337.402344,-112.792969,-16.113281,12.084961
cobot_dynamixel_driver/joint_states|name|J1,J2,J3,J4,J5,J6|pos|0.213148,-1.110379,1.139371,0.000025,-1.567290,-0.000083|vel|0.485521,0.461318,-0.439827,-0.000835,0.495678,0.000000|eff|193.359375,-1289.062500,-821.777344,-96.679688,20.141602,16.113281
cobot_dynamixel_driver/joint_states|name|J1,J2,J3,J4,J5,J6|pos|0.221898,-1.101479,1.130947,0.000025,-1.558478,-0.000083|vel|0.470707,0.479887,-0.478844,-0.000835,0.432253,0.000000|eff|821.777344,-1627.441406,-1434.082031,-112.792969,28.198242,20.141602
cobot_dynamixel_driver/joint_states|name|J1,J2,J3,J4,J5,J6|pos|0.231299,-1.092240,1.121182,0.000025,-1.548777,-0.000083|vel|0.467786,0.494284,-0.498040,-0.000209,0.528080,0.000000|eff|1321.289062,-2078.613281,-1450.195312,-112.792969,44.311523,20.141602
cobot_dynamixel_driver/joint_states|name|J1,J2,J3,J4,J5,J6|pos|0.241239,-1.082188,1.111493,0.000025,-1.538993,-0.000062|vel|0.489068,0.494701,-0.485938,-0.000209,0.469826,0.000000|eff|112.792969,-1643.554688,-1047.363281,-112.792969,40.283203,24.169922
cobot_dynamixel_driver/joint_states|name|J1,J2,J3,J4,J5,J6|pos|0.250289,-1.073187,1.102856,0.000025,-1.530615,-0.000062|vel|0.509098,0.488025,-0.503256,-0.000209,0.501193,0.000000|eff|1482.421875,-789.550781,-1369.628906,-80.566406,20.141602,24.169922
cobot_dynamixel_driver/joint_states|name|J1,J2,J3,J4,J5,J6|pos|0.259778,-1.063661,1.093379,0.000013,-1.521265,-0.000062|vel|0.488650,0.505551,-0.499917,-0.000209,0.471204,0.000000|eff|1998.046875,-612.304688,-1514.648438,-145.019531,16.113281,16.113281
cobot_dynamixel_driver/joint_states|name|J1,J2,J3,J4,J5,J6|pos|0.269192,-1.054047,1.083290,0.000013,-1.511357,-0.000062|vel|0.481556,0.531214,-0.493449,-0.000209,0.541868,0.000000|eff|741.210938,-1869.140625,-708.984375,-80.566406,0.000000,20.141602
cobot_dynamixel_driver/joint_states|name|J1,J2,J3,J4,J5,J6|pos|0.278743,-1.044521,1.074264,0.000013,-1.502441,-0.000062|vel|0.486355,0.504716,-0.498040,-0.000209,0.514292,0.000000|eff|821.777344,-1498.535156,-773.437500,-96.679688,36.254883,20.141602
cobot_dynamixel_driver/joint_states|name|J1,J2,J3,J4,J5,J6|pos|0.288395,-1.035007,1.064688,0.000013,-1.492864,-0.000062|vel|0.480305,0.496579,-0.521408,0.000000,0.549107,0.000000|eff|80.566406,-2271.972656,-837.890625,-161.132812,16.113281,20.141602
cobot_dynamixel_driver/joint_states|name|J1,J2,J3,J4,J5,J6|pos|0.299348,-1.023978,1.053196,0.000013,-1.481984,-0.000041|vel|0.481556,0.495953,-0.497205,0.000000,0.479477,0.000000|eff|2255.859375,-854.003906,-1788.574219,-96.679688,32.226562,24.169922
cobot_dynamixel_driver/joint_states|name|J1,J2,J3,J4,J5,J6|pos|0.308887,-1.014352,1.044208,0.000000,-1.472468,-0.000041|vel|0.512436,0.512436,-0.493867,0.000000,0.484648,0.000000|eff|1353.515625,-1272.949219,-1562.988281,-80.566406,28.198242,16.113281
cobot_dynamixel_driver/joint_states|name|J1,J2,J3,J4,J5,J6|pos|0.317550,-1.005652,1.035107,0.000000,-1.463863,-0.000041|vel|0.487190,0.467994,-0.507846,0.000000,0.479477,0.000000|eff|257.812500,-2062.500000,-757.324219,-96.679688,0.000000,28.198242
cobot_dynamixel_driver/joint_states|name|J1,J2,J3,J4,J5,J6|pos|0.327214,-0.996100,1.025405,0.000000,-1.453893,-0.000041|vel|0.476758,0.469455,-0.491363,0.000000,0.477754,0.000000|eff|870.117188,-870.117188,-1176.269531,-80.566406,16.113281,12.084961
cobot_dynamixel_driver/joint_states|name|J1,J2,J3,J4,J5,J6|pos|0.337717,-0.985585,1.014840,0.000000,-1.443343,-0.000041|vel|0.472793,0.478635,-0.490111,0.000000,0.479133,0.000000|eff|1369.628906,-531.738281,-1385.742188,-193.359375,16.113281,24.169922
cobot_dynamixel_driver/joint_states|name|J1,J2,J3,J4,J5,J6|pos|0.346317,-0.976947,1.006591,0.000000,-1.435193,-0.000041|vel|0.570649,0.477384,-0.520991,0.000000,0.443628,0.000000|eff|1933.593750,-821.777344,-1337.402344,-80.566406,16.113281,16.113281
cobot_dynamixel_driver/joint_states|name|J1,J2,J3,J4,J5,J6|pos|0.356482,-0.966870,0.996050,0.000000,-1.424685,-0.000041|vel|0.479470,0.511184,-0.535387,0.000000,0.543936,0.000000|eff|1385.742188,-515.625000,-1450.195312,-80.566406,16.113281,20.141602
cobot_dynamixel_driver/joint_states|name|J1,J2,J3,J4,J5,J6|pos|0.365219,-0.958070,0.988013,-0.000013,-1.416535,-0.000041|vel|0.476340,0.489068,-0.438993,0.000000,0.485682,0.000000|eff|757.324219,-982.910156,-1530.761719,-177.246094,0.000000,20.141602
cobot_dynamixel_driver/joint_states|name|J1,J2,J3,J4,J5,J6|pos|0.374833,-0.947943,0.977811,-0.000013,-1.406503,-0.000041|vel|0.491780,0.516818,-0.449842,0.000000,0.482924,0.000000|eff|435.058594,-1933.593750,-870.117188,-96.679688,20.141602,20.141602
cobot_dynamixel_driver/joint_states|name|J1,J2,J3,J4,J5,J6|pos|0.384422,-0.938767,0.968673,-0.000013,-1.397422,-0.000041|vel|0.505759,0.507637,-0.514731,0.000000,0.480167,0.000000|eff|225.585938,-1514.648438,-886.230469,-161.132812,0.000000,20.141602
cobot_dynamixel_driver/joint_states|name|J1,J2,J3,J4,J5,J6|pos|0.394574,-0.928627,0.958458,-0.000013,-1.387327,-0.000041|vel|0.514314,0.494075,-0.422509,0.000000,0.487750,0.000000|eff|1160.156250,-1643.554688,-1047.363281,-80.566406,20.141602,20.141602
cobot_dynamixel_driver/joint_states|name|J1,J2,J3,J4,J5,J6|pos|0.403788,-0.919401,0.948781,-0.000013,-1.377791,-0.000041|vel|0.503464,0.486147,-0.531214,0.000000,0.476375,0.000000|eff|531.738281,-1853.027344,-821.777344,-193.359375,16.113281,20.141602
cobot_dynamixel_driver/joint_states|name|J1,J2,J3,J4,J5,J6|pos|0.413477,-0.909724,0.939142,-0.000025,-1.368752,-0.000041|vel|0.505968,0.499500,-0.529128,0.000000,0.513602,0.000000|eff|273.925781,-2110.839844,-708.984375,-80.566406,36.254883,20.141602
cobot_dynamixel_driver/joint_states|name|J1,J2,J3,J4,J5,J6|pos|0.423579,-0.899610,0.929441,-0.000025,-1.358699,-0.000041|vel|0.495536,0.511810,-0.507429,0.000000,0.550485,0.000000|eff|1724.121094,-902.343750,-1530.761719,-193.359375,52.368164,20.141602
cobot_dynamixel_driver/joint_states|name|J1,J2,J3,J4,J5,J6|pos|0.432818,-0.890384,0.920403,-0.000025,-1.349535,-0.000041|vel|0.472376,0.461944,-0.470081,0.000000,0.515671,0.000000|eff|1562.988281,-628.417969,-1256.835938,-112.792969,0.000000,20.141602
cobot_dynamixel_driver/joint_states|name|J1,J2,J3,J4,J5,J6|pos|0.442532,-0.880720,0.910713,-0.000025,-1.339937,-0.000041|vel|0.504925,0.479679,-0.514731,0.000000,0.480856,0.000000|eff|1160.156250,-1546.875000,-1595.214844,-128.906250,28.198242,20.141602
cobot_dynamixel_driver/joint_states|name|J1,J2,J3,J4,J5,J6|pos|0.452709,-0.870643,0.900511,-0.000025,-1.329822,-0.000041|vel|0.468412,0.506385,-0.502838,0.000000,0.531527,0.000000|eff|1820.800781,-547.851562,-1337.402344,-96.679688,8.056641,20.141602
cobot_dynamixel_driver/joint_states|name|J1,J2,J3,J4,J5,J6|pos|0.461797,-0.861417,0.891348,-0.000025,-1.320741,-0.000041|vel|0.496162,0.501587,-0.515983,0.000000,0.500504,0.000000|eff|854.003906,-499.511719,-918.457031,-145.019531,32.226562,20.141602
cobot_dynamixel_driver/joint_states|name|J1,J2,J3,J4,J5,J6|pos|0.471962,-0.851302,0.881120,-0.000038,-1.310667,-0.000021|vel|0.502421,0.478844,-0.493658,0.000000,0.525322,0.000000|eff|193.359375,-2400.878906,-757.324219,-161.132812,-8.056641,24.169922
cobot_dynamixel_driver/joint_states|name|J1,J2,J3,J4,J5,J6|pos|0.481676,-0.841175,0.870956,-0.000038,-1.300552,-0.000021|vel|0.499291,0.447547,-0.510767,0.000000,0.486027,0.000000|eff|1756.347656,-467.285156,-1450.195312,-80.566406,52.368164,24.169922
cobot_dynamixel_driver/joint_states|name|J1,J2,J3,J4,J5,J6|pos|0.490902,-0.832349,0.862418,-0.000038,-1.291906,-0.000021|vel|0.458814,0.505551,-0.516400,0.000000,0.435011,0.000000|eff|386.718750,-1417.968750,-741.210938,-145.019531,56.396484,20.141602
cobot_dynamixel_driver/joint_states|name|J1,J2,J3,J4,J5,J6|pos|0.500479,-0.822185,0.852141,-0.000038,-1.281873,-0.000021|vel|0.503047,0.506385,-0.502630,0.000000,0.460863,0.000000|eff|2030.273438,-1369.628906,-1562.988281,-177.246094,32.226562,20.141602
cobot_dynamixel_driver/joint_states|name|J1,J2,J3,J4,J5,J6|pos|0.510193,-0.812934,0.842514,-0.000038,-1.272730,-0.000021|vel|0.522869,0.502004,-0.516609,0.000000,0.513602,0.000000|eff|757.324219,-1627.441406,-1659.667969,-177.246094,8.056641,20.141602
cobot_dynamixel_driver/joint_states|name|J1,J2,J3,J4,J5,J6|pos|0.520408,-0.802719,0.832787,-0.000038,-1.262719,-0.000021|vel|0.502212,0.460483,-0.502212,0.000000,0.514981,0.000000|eff|950.683594,-483.398438,-1031.250000,-161.132812,32.226562,20.141602
cobot_dynamixel_driver/joint_states|name|J1,J2,J3,J4,J5,J6|pos|0.532037,-0.791139,0.820582,-0.000038,-1.250680,-0.000021|vel|0.495327,0.531214,-0.508472,0.000000,0.483269,0.000000|eff|1611.328125,-1482.421875,-1482.421875,-96.679688,16.113281,24.169922
cobot_dynamixel_driver/joint_states|name|J1,J2,J3,J4,J5,J6|pos|0.541175,-0.781500,0.811394,-0.000038,-1.241599,-0.000021|vel|0.523703,0.512228,-0.550827,0.000000,0.441905,0.000000|eff|1949.707031,-1369.628906,-1434.082031,-96.679688,16.113281,20.141602
cobot_dynamixel_driver/joint_states|name|J1,J2,J3,J4,J5,J6|pos|0.550414,-0.772825,0.802268,-0.000038,-1.232497,-0.000021|vel|0.522034,0.475714,-0.513897,0.000000,0.483958,0.000000|eff|757.324219,-499.511719,-1127.929688,-128.906250,24.169922,20.141602
cobot_dynamixel_driver/joint_states|name|J1,J2,J3,J4,J5,J6|pos|0.558688,-0.763962,0.794044,-0.000038,-1.224306,-0.000021|vel|0.522869,0.525372,-0.527876,0.000000,0.484648,0.000000|eff|1208.496094,-386.718750,-1111.816406,-96.679688,20.141602,20.141602
cobot_dynamixel_driver/joint_states|name|J1,J2,J3,J4,J5,J6|pos|0.568415,-0.754761,0.784868,-0.000038,-1.215142,-0.000021|vel|0.471959,0.466534,-0.492197,0.000000,0.478443,0.000000|eff|1482.421875,-499.511719,-1111.816406,-128.906250,32.226562,16.113281
cobot_dynamixel_driver/joint_states|name|J1,J2,J3,J4,J5,J6|pos|0.579957,-0.743270,0.773188,-0.000050,-1.203662,-0.000021|vel|0.497205,0.505968,-0.445878,0.000000,0.487750,0.000000|eff|1498.535156,-515.625000,-1369.628906,-128.906250,16.113281,20.141602
cobot_dynamixel_driver/joint_states|name|J1,J2,J3,J4,J5,J6|pos|0.588607,-0.734482,0.764438,-0.000050,-1.194995,-0.000021|vel|0.520156,0.495327,-0.553331,0.000000,0.563929,0.000000|eff|563.964844,-1998.046875,-725.097656,-80.566406,28.198242,20.141602
cobot_dynamixel_driver/joint_states|name|J1,J2,J3,J4,J5,J6|pos|0.597332,-0.725807,0.755262,-0.000050,-1.185872,-0.000021|vel|0.474045,0.496788,-0.502212,0.000000,0.520496,0.000000|eff|725.097656,-370.605469,-1095.703125,-161.132812,24.169922,20.141602
cobot_dynamixel_driver/joint_states|name|J1,J2,J3,J4,J5,J6|pos|0.607071,-0.716105,0.746074,-0.000050,-1.176812,-0.000021|vel|0.499917,0.493032,-0.485312,0.000000,0.550485,0.000000|eff|1691.894531,-708.984375,-1466.308594,-96.679688,40.283203,20.141602
cobot_dynamixel_driver/joint_states|name|J1,J2,J3,J4,J5,J6|pos|0.616785,-0.706316,0.736510,-0.000050,-1.167173,-0.000021|vel|0.502421,0.501795,-0.514314,0.000000,0.518428,0.000000|eff|241.699219,-2014.160156,-1417.968750,-177.246094,32.226562,24.169922
cobot_dynamixel_driver/joint_states|name|J1,J2,J3,J4,J5,J6|pos|0.626399,-0.696602,0.726220,-0.000050,-1.157595,-0.000021|vel|0.506177,0.517026,-0.502004,0.000000,0.507053,0.000000|eff|483.398438,-193.359375,-854.003906,-177.246094,-8.056641,20.141602
cobot_dynamixel_driver/joint_states|name|J1,J2,J3,J4,J5,J6|pos|0.636151,-0.686888,0.716493,-0.000050,-1.147935,-0.000021|vel|0.492197,0.508055,-0.510350,0.000000,0.486716,0.000000|eff|1369.628906,-741.210938,-1256.835938,-80.566406,48.339844,20.141602
cobot_dynamixel_driver/joint_states|name|J1,J2,J3,J4,J5,J6|pos|0.645853,-0.677249,0.707255,-0.000050,-1.138317,-0.000021|vel|0.492615,0.494284,-0.491154,0.000000,0.429840,0.000000|eff|708.984375,-1530.761719,-725.097656,-80.566406,8.056641,20.141602
cobot_dynamixel_driver/joint_states|name|J1,J2,J3,J4,J5,J6|pos|0.659423,-0.663716,0.693197,-0.000050,-1.124416,-0.000021|vel|0.446921,0.513271,-0.504299,0.000000,0.492576,0.000000|eff|499.511719,-1901.367188,-837.890625,-145.019531,52.368164,16.113281
cobot_dynamixel_driver/joint_states|name|J1,J2,J3,J4,J5,J6|pos|0.668123,-0.655054,0.684421,-0.000050,-1.116287,-0.000021|vel|0.490737,0.517444,-0.488442,0.000000,0.485682,0.000000|eff|209.472656,-966.796875,-821.777344,-80.566406,36.254883,12.084961
cobot_dynamixel_driver/joint_states|name|J1,J2,J3,J4,J5,J6|pos|0.676873,-0.646329,0.675796,-0.000050,-1.107144,-0.000021|vel|0.506177,0.474045,-0.457771,0.000000,0.519462,0.000000|eff|2014.160156,-547.851562,-1546.875000,-128.906250,24.169922,12.084961
cobot_dynamixel_driver/joint_states|name|J1,J2,J3,J4,J5,J6|pos|0.685623,-0.637503,0.667572,-0.000050,-1.098994,-0.000021|vel|0.508472,0.462987,-0.412912,0.000000,0.514981,0.000000|eff|322.265625,-1385.742188,-1337.402344,-80.566406,36.254883,24.169922
cobot_dynamixel_driver/joint_states|name|J1,J2,J3,J4,J5,J6|pos|0.694373,-0.628853,0.658333,-0.000050,-1.090285,-0.000021|vel|0.489902,0.523077,-0.493032,0.000000,0.448799,0.000000|eff|628.417969,-306.152344,-934.570312,-80.566406,8.056641,16.113281
cobot_dynamixel_driver/joint_states|name|J1,J2,J3,J4,J5,J6|pos|0.703987,-0.619239,0.649108,-0.000050,-1.080667,-0.000021|vel|0.486564,0.519113,-0.509098,0.000000,0.535319,0.000000|eff|1498.535156,-402.832031,-1401.855469,-80.566406,32.226562,20.141602
cobot_dynamixel_driver/joint_states|name|J1,J2,J3,J4,J5,J6|pos|0.713614,-0.609537,0.639318,-0.000050,-1.071027,-0.000021|vel|0.484478,0.482391,-0.521408,0.000000,0.504296,0.000000|eff|2062.500000,-1063.476562,-870.117188,-80.566406,32.226562,24.169922
cobot_dynamixel_driver/joint_states|name|J1,J2,J3,J4,J5,J6|pos|0.725293,-0.597870,0.627726,-0.000050,-1.059485,-0.000021|vel|0.513062,0.524329,-0.497831,0.000000,0.520152,0.000000|eff|741.210938,-1353.515625,-692.871094,-161.132812,0.000000,24.169922
cobot_dynamixel_driver/joint_states|name|J1,J2,J3,J4,J5,J6|pos|0.735508,-0.587180,0.617199,-0.000050,-1.048956,-0.000021|vel|0.482391,0.485729,-0.444209,0.000000,0.522220,0.000000|eff|451.171875,-1724.121094,-1224.609375,-128.906250,8.056641,20.141602
cobot_dynamixel_driver/joint_states|name|J1,J2,J3,J4,J5,J6|pos|0.743708,-0.579394,0.608886,-0.000050,-1.040847,-0.000021|vel|0.522034,0.481556,-0.503256,0.000000,0.494989,0.000000|eff|2126.953125,-1031.250000,-1901.367188,-80.566406,72.509766,12.084961
cobot_dynamixel_driver/joint_states|name|J1,J2,J3,J4,J5,J6|pos|0.752408,-0.570143,0.600186,-0.000050,-1.032118,0.000000|vel|0.473002,0.505759,-0.465699,0.000000,0.444318,0.000000|eff|209.472656,-32.226562,-805.664062,-161.132812,28.198242,20.141602
cobot_dynamixel_driver/joint_states|name|J1,J2,J3,J4,J5,J6|pos|0.762185,-0.560929,0.590447,-0.000050,-1.023016,0.000000|vel|0.464239,0.526416,-0.502838,0.000000,0.491886,0.000000|eff|676.757812,-80.566406,-982.910156,-80.566406,28.198242,24.169922
cobot_dynamixel_driver/joint_states|name|J1,J2,J3,J4,J5,J6|pos|0.771861,-0.551290,0.581221,-0.000050,-1.013418,0.000000|vel|0.499500,0.498874,-0.504299,0.000000,0.432253,0.000000|eff|1546.875000,-547.851562,-1450.195312,-161.132812,32.226562,24.169922
cobot_dynamixel_driver/joint_states|name|J1,J2,J3,J4,J5,J6|pos|0.782489,-0.540161,0.570080,-0.000050,-1.002331,0.000000|vel|0.488025,0.515566,-0.518278,0.000000,0.445697,0.000000|eff|64.453125,-1611.328125,-805.664062,-96.679688,32.226562,28.198242
cobot_dynamixel_driver/joint_states|name|J1,J2,J3,J4,J5,J6|pos|0.791227,-0.531987,0.561330,-0.000050,-0.993747,0.000000|vel|0.509306,0.491572,-0.517026,0.000000,0.495678,0.000000|eff|435.058594,-934.570312,-982.910156,-80.566406,28.198242,24.169922
cobot_dynamixel_driver/joint_states|name|J1,J2,J3,J4,J5,J6|pos|0.800941,-0.522273,0.552267,-0.000050,-0.984624,0.000000|vel|0.502212,0.507011,-0.481765,0.000000,0.483269,0.000000|eff|1127.929688,80.566406,-1127.929688,-80.566406,28.198242,20.141602
cobot_dynamixel_driver/joint_states|name|J1,J2,J3,J4,J5,J6|pos|0.810668,-0.512033,0.542139,-0.000050,-0.974530,0.000000|vel|0.492197,0.478009,-0.460900,0.000000,0.483958,0.000000|eff|0.000000,-1804.687500,-1095.703125,-161.132812,28.198242,20.141602
cobot_dynamixel_driver/joint_states|name|J1,J2,J3,J4,J5,J6|pos|0.820845,-0.501881,0.531975,-0.000050,-0.964435,0.000000|vel|0.494910,0.503882,-0.524329,0.000000,0.516360,0.000000|eff|1305.175781,-741.210938,-1450.195312,-80.566406,8.056641,20.141602
cobot_dynamixel_driver/joint_states|name|J1,J2,J3,J4,J5,J6|pos|0.830434,-0.492717,0.522235,-0.000050,-0.954817,0.000000|vel|0.494284,0.506594,-0.508263,0.000000,0.492576,0.000000|eff|225.585938,-1643.554688,-1417.968750,-80.566406,8.056641,16.113281
cobot_dynamixel_driver/joint_states|name|J1,J2,J3,J4,J5,J6|pos|0.841049,-0.481601,0.511495,-0.000050,-0.944226,0.000000|vel|0.462361,0.503673,-0.495536,0.000000,0.503951,0.000000|eff|322.265625,-982.910156,-950.683594,-80.566406,16.113281,16.113281
cobot_dynamixel_driver/joint_states|name|J1,J2,J3,J4,J5,J6|pos|0.849825,-0.473364,0.502807,-0.000050,-0.936034,0.000000|vel|0.486773,0.406652,-0.505968,0.000000,0.538766,0.000000|eff|725.097656,32.226562,-999.023438,-80.566406,40.283203,24.169922
cobot_dynamixel_driver/joint_states|name|J1,J2,J3,J4,J5,J6|pos|0.859051,-0.464101,0.494207,-0.000050,-0.926933,0.000000|vel|0.556461,0.507429,-0.473419,0.000000,0.563929,0.000000|eff|273.925781,-306.152344,-805.664062,-80.566406,16.113281,24.169922
cobot_dynamixel_driver/joint_states|name|J1,J2,J3,J4,J5,J6|pos|0.868702,-0.454299,0.484418,-0.000050,-0.917314,0.000000|vel|0.476549,0.525372,-0.501795,0.000000,0.524288,0.000000|eff|999.023438,-64.453125,-1047.363281,-80.566406,36.254883,16.113281
cobot_dynamixel_driver/joint_states|name|J1,J2,J3,J4,J5,J6|pos|0.878892,-0.444109,0.474278,-0.000050,-0.907178,0.000000|vel|0.513688,0.493032,-0.455893,0.000000,0.494989,0.000000|eff|209.472656,0.000000,-708.984375,-80.566406,8.056641,24.169922
cobot_dynamixel_driver/joint_states|name|J1,J2,J3,J4,J5,J6|pos|0.888143,-0.434958,0.465002,-0.000050,-0.898077,0.000000|vel|0.493032,0.501378,-0.543733,0.000000,0.484303,0.000000|eff|96.679688,-1530.761719,-692.871094,-80.566406,56.396484,24.169922
cobot_dynamixel_driver/joint_states|name|J1,J2,J3,J4,J5,J6|pos|0.897832,-0.425382,0.455163,-0.000050,-0.888541,0.000000|vel|0.503256,0.498666,-0.500543,0.000000,0.474996,0.000000|eff|692.871094,64.453125,-1208.496094,-80.566406,20.141602,16.113281
cobot_dynamixel_driver/joint_states|name|J1,J2,J3,J4,J5,J6|pos|0.907521,-0.415680,0.444873,-0.000050,-0.878405,0.000000|vel|0.519322,0.529545,-0.500752,0.000000,0.553932,0.000000|eff|1820.800781,-902.343750,-660.644531,-80.566406,16.113281,16.113281
cobot_dynamixel_driver/joint_states|name|J1,J2,J3,J4,J5,J6|pos|0.917223,-0.405503,0.435209,-0.000050,-0.868807,0.000000|vel|0.517652,0.488859,-0.496788,0.000000,0.547038,0.000000|eff|354.492188,-451.171875,-1047.363281,-80.566406,28.198242,24.169922
cobot_dynamixel_driver/joint_states|name|J1,J2,J3,J4,J5,J6|pos|0.926937,-0.396239,0.426183,-0.000050,-0.859705,0.000000|vel|0.480513,0.477801,-0.451511,0.000000,0.511190,0.000000|eff|418.945312,0.000000,-918.457031,-80.566406,36.254883,28.198242
cobot_dynamixel_driver/joint_states|name|J1,J2,J3,J4,J5,J6|pos|0.936664,-0.385949,0.416081,-0.000050,-0.849611,0.000000|vel|0.472376,0.519322,-0.437949,0.000000,0.490508,0.000000|eff|918.457031,-1417.968750,-1643.554688,-80.566406,32.226562,20.141602
cobot_dynamixel_driver/joint_states|name|J1,J2,J3,J4,J5,J6|pos|0.947292,-0.375772,0.405415,-0.000050,-0.839020,0.000000|vel|0.460066,0.516609,-0.457353,0.000000,0.498780,0.000000|eff|725.097656,-1772.460938,-1369.628906,-80.566406,28.198242,20.141602
cobot_dynamixel_driver/joint_states|name|J1,J2,J3,J4,J5,J6|pos|0.956443,-0.366596,0.396139,-0.000050,-0.829918,0.000000|vel|0.479053,0.492615,-0.491154,0.000000,0.494644,0.000000|eff|2078.613281,-1127.929688,-1385.742188,-80.566406,28.198242,28.198242
cobot_dynamixel_driver/joint_states|name|J1,J2,J3,J4,J5,J6|pos|0.966620,-0.356494,0.386425,-0.000050,-0.820341,0.000000|vel|0.459649,0.522243,-0.495744,0.000000,0.484648,0.000000|eff|225.585938,-338.378906,-886.230469,-64.453125,20.141602,20.141602
cobot_dynamixel_driver/joint_states|name|J1,J2,J3,J4,J5,J6|pos|0.975320,-0.347331,0.377299,-0.000050,-0.811198,0.000000|vel|0.495119,0.458188,-0.510976,0.000000,0.441216,0.000000|eff|483.398438,-1530.761719,-918.457031,-80.566406,24.169922,24.169922
cobot_dynamixel_driver/joint_states|name|J1,J2,J3,J4,J5,J6|pos|0.984671,-0.338080,0.367698,-0.000050,-0.801559,0.000000|vel|0.470707,0.507637,-0.521617,0.000000,0.482924,0.000000|eff|708.984375,-870.117188,-676.757812,-32.226562,12.084961,16.113281
cobot_dynamixel_driver/joint_states|name|J1,J2,J3,J4,J5,J6|pos|0.993046,-0.328353,0.358397,-0.000050,-0.792436,0.000000|vel|0.375564,0.501795,-0.518278,0.000000,0.405367,0.000000|eff|773.437500,370.605469,-837.890625,-64.453125,0.000000,24.169922
cobot_dynamixel_driver/joint_states|name|J1,J2,J3,J4,J5,J6|pos|1.000244,-0.318614,0.348207,-0.000050,-0.782859,0.000000|vel|0.348440,0.484478,-0.449216,0.000000,0.482235,0.000000|eff|612.304688,-354.492188,-1337.402344,-80.566406,32.226562,12.084961
cobot_dynamixel_driver/joint_states|name|J1,J2,J3,J4,J5,J6|pos|1.006478,-0.308900,0.338981,-0.000050,-0.773240,0.000000|vel|0.280004,0.492197,-0.482808,0.000000,0.445352,0.000000|eff|451.171875,-1514.648438,-1434.082031,-80.566406,48.339844,12.084961
cobot_dynamixel_driver/joint_states|name|J1,J2,J3,J4,J5,J6|pos|1.011848,-0.299186,0.328741,-0.000050,-0.763125,0.000000|vel|0.271449,0.515983,-0.534970,0.000000,0.416742,0.000000|eff|515.625000,322.265625,-918.457031,-80.566406,28.198242,24.169922
cobot_dynamixel_driver/joint_states|name|J1,J2,J3,J4,J5,J6|pos|1.016893,-0.288558,0.318564,-0.000050,-0.753010,0.000000|vel|0.232850,0.499500,-0.492823,0.000000,0.527046,0.000000|eff|338.378906,225.585938,-934.570312,-80.566406,20.141602,16.113281
cobot_dynamixel_driver/joint_states|name|J1,J2,J3,J4,J5,J6|pos|1.021012,-0.278455,0.308449,-0.000050,-0.743019,0.000000|vel|0.185904,0.441079,-0.501169,0.000000,0.484992,0.000000|eff|209.472656,-1176.269531,-676.757812,-64.453125,40.283203,24.169922
cobot_dynamixel_driver/joint_states|name|J1,J2,J3,J4,J5,J6|pos|1.023928,-0.270231,0.299774,-0.000050,-0.734372,0.000000|vel|0.164831,0.509932,-0.518904,0.000000,0.494989,0.000000|eff|145.019531,-692.871094,-692.871094,-80.566406,28.198242,28.198242
cobot_dynamixel_driver/joint_states|name|J1,J2,J3,J4,J5,J6|pos|1.026958,-0.260529,0.290561,-0.000050,-0.725209,0.000000|vel|0.149391,0.459649,-0.533718,0.000000,0.472239,0.000000|eff|193.359375,273.925781,-934.570312,-80.566406,40.283203,16.113281
cobot_dynamixel_driver/joint_states|name|J1,J2,J3,J4,J5,J6|pos|1.029549,-0.250878,0.280859,-0.000050,-0.715569,0.000000|vel|0.117259,0.497622,-0.502838,0.000000,0.481201,0.000000|eff|257.812500,-32.226562,-1417.968750,-80.566406,28.198242,16.113281
cobot_dynamixel_driver/joint_states|name|J1,J2,J3,J4,J5,J6|pos|1.031802,-0.241189,0.271145,-0.000050,-0.705971,0.000000|vel|0.104323,0.526416,-0.485729,0.000000,0.520841,0.000000|eff|290.039062,-1015.136719,-1369.628906,-64.453125,48.339844,20.141602
cobot_dynamixel_driver/joint_states|name|J1,J2,J3,J4,J5,J6|pos|1.033805,-0.231487,0.261005,-0.000050,-0.696311,0.000000|vel|0.094934,0.505551,-0.474462,0.000000,0.438113,0.000000|eff|257.812500,-354.492188,-773.437500,-32.226562,24.169922,16.113281
cobot_dynamixel_driver/joint_states|name|J1,J2,J3,J4,J5,J6|pos|1.035508,-0.221798,0.251854,-0.000050,-0.686734,0.000000|vel|0.081372,0.504716,-0.487399,0.000000,0.482924,0.000000|eff|225.585938,241.699219,-1111.816406,-64.453125,40.283203,28.198242
cobot_dynamixel_driver/joint_states|name|J1,J2,J3,J4,J5,J6|pos|1.037198,-0.210657,0.240212,-0.000050,-0.675295,0.000000|vel|0.071149,0.517652,-0.520156,0.000000,0.476720,0.000000|eff|161.132812,241.699219,-805.664062,-80.566406,32.226562,24.169922
cobot_dynamixel_driver/joint_states|name|J1,J2,J3,J4,J5,J6|pos|1.038262,-0.201894,0.231988,-0.000050,-0.667104,0.000000|vel|0.059673,0.526624,-0.520156,0.000000,0.432943,0.000000|eff|241.699219,451.171875,-805.664062,-80.566406,20.141602,24.169922
cobot_dynamixel_driver/joint_states|name|J1,J2,J3,J4,J5,J6|pos|1.039401,-0.192706,0.222199,-0.000050,-0.658002,0.000000|vel|0.056543,0.514523,-0.515149,0.000000,0.560482,0.000000|eff|209.472656,402.832031,-1047.363281,-32.226562,56.396484,20.141602
cobot_dynamixel_driver/joint_states|name|J1,J2,J3,J4,J5,J6|pos|1.040502,-0.181602,0.211470,-0.000050,-0.646935,0.000000|vel|0.047154,0.471124,-0.522869,0.000000,0.482235,0.000000|eff|193.359375,-596.191406,-1337.402344,-80.566406,40.283203,20.141602
cobot_dynamixel_driver/joint_states|name|J1,J2,J3,J4,J5,J6|pos|1.041291,-0.173365,0.202695,-0.000050,-0.638248,0.000000|vel|0.040477,0.503047,-0.529128,0.000000,0.455348,0.000000|eff|177.246094,-128.906250,-725.097656,-48.339844,28.198242,20.141602
cobot_dynamixel_driver/joint_states|name|J1,J2,J3,J4,J5,J6|pos|1.042030,-0.163651,0.193532,-0.000050,-0.629125,0.000000|vel|0.035679,0.527459,-0.509932,0.000000,0.523254,0.000000|eff|209.472656,-354.492188,-902.343750,-80.566406,48.339844,20.141602
cobot_dynamixel_driver/joint_states|name|J1,J2,J3,J4,J5,J6|pos|1.042693,-0.153486,0.183467,-0.000050,-0.619031,0.000000|vel|0.028585,0.502838,-0.520782,0.000000,0.557379,0.000000|eff|145.019531,-757.324219,-1691.894531,-32.226562,52.368164,12.084961
cobot_dynamixel_driver/joint_states|name|J1,J2,J3,J4,J5,J6|pos|1.043269,-0.143797,0.173315,-0.000050,-0.609391,0.000000|vel|0.026707,0.495744,-0.506803,0.000000,0.464655,0.000000|eff|225.585938,435.058594,-870.117188,0.000000,48.339844,20.141602
cobot_dynamixel_driver/joint_states|name|J1,J2,J3,J4,J5,J6|pos|1.043720,-0.134571,0.164577,-0.000050,-0.600248,0.000000|vel|0.022534,0.504299,-0.508055,0.000000,0.503951,0.000000|eff|257.812500,-1466.308594,-660.644531,-64.453125,56.396484,24.169922
cobot_dynamixel_driver/goal|-:J1,J2,J3,J4,J5,J6:1.047198,0.000000,0.000000,0.000000,0.000000,0.000000:0.500000,0.500000,0.500000,0.500000,0.500000,0.500000:pos_vel_
cobot_dynamixel_driver/joint_states|name|J1,J2,J3,J4,J5,J6|pos|1.044320,-0.120475,0.150582,-0.000050,-0.586286,0.000000|vel|0.019821,0.504925,-0.511393,0.000000,0.416052,0.000000|eff|241.699219,306.152344,-1015.136719,-80.566406,24.169922,16.113281
cobot_dynamixel_driver/joint_states|name|J1,J2,J3,J4,J5,J6|pos|1.044671,-0.112226,0.142295,-0.000050,-0.578219,0.000000|vel|0.020239,0.448590,-0.449634,0.000000,0.500159,0.000000|eff|193.359375,451.171875,-950.683594,-64.453125,40.283203,16.113281
cobot_dynamixel_driver/joint_states|name|J1,J2,J3,J4,J5,J6|pos|1.044984,-0.103488,0.133607,-0.000050,-0.569593,0.000000|vel|0.018361,0.461109,-0.504090,0.000000,0.450867,0.000000|eff|128.906250,-241.699219,-1353.515625,-80.566406,40.283203,28.198242
cobot_dynamixel_driver/joint_states|name|J1,J2,J3,J4,J5,J6|pos|1.045297,-0.094300,0.124018,-0.000050,-0.559933,0.000000|vel|0.014397,0.483852,-0.450468,0.000000,0.489818,0.000000|eff|145.019531,-902.343750,-1466.308594,-32.226562,16.113281,20.141602
cobot_dynamixel_driver/joint_states|name|J1,J2,J3,J4,J5,J6|pos|1.045535,-0.085587,0.115218,-0.000050,-0.551762,0.000000|vel|0.011476,0.519322,-0.519739,0.000000,0.483614,0.000000|eff|193.359375,-950.683594,-902.343750,-64.453125,16.113281,16.113281
cobot_dynamixel_driver/joint_states|name|J1,J2,J3,J4,J5,J6|pos|1.045722,-0.076386,0.106004,-0.000038,-0.542143,0.000000|vel|0.009806,0.484895,-0.499917,0.000000,0.526012,0.000000|eff|128.906250,-999.023438,-1321.289062,0.000000,12.084961,16.113281
cobot_dynamixel_driver/joint_states|name|J1,J2,J3,J4,J5,J6|pos|1.045923,-0.066872,0.096278,-0.000038,-0.533062,0.000000|vel|0.010850,0.463196,-0.478009,0.000000,0.564273,0.000000|eff|177.246094,-1015.136719,-660.644531,-64.453125,52.368164,28.198242
cobot_dynamixel_driver/joint_states|name|J1,J2,J3,J4,J5,J6|pos|1.046098,-0.057997,0.086526,-0.000038,-0.523444,0.000000|vel|0.007511,0.435654,-0.506594,0.000000,0.526701,0.000000|eff|96.679688,789.550781,-1095.703125,-48.339844,20.141602,16.113281
cobot_dynamixel_driver/joint_states|name|J1,J2,J3,J4,J5,J6|pos|1.046248,-0.049798,0.076837,-0.000038,-0.513349,0.000000|vel|0.006468,0.395177,-0.493032,0.000000,0.482235,0.000000|eff|161.132812,918.457031,-676.757812,-32.226562,36.254883,16.113281
cobot_dynamixel_driver/joint_states|name|J1,J2,J3,J4,J5,J6|pos|1.046336,-0.043351,0.067310,-0.000038,-0.504227,0.000000|vel|0.004590,0.329870,-0.441914,0.000000,0.492231,0.000000|eff|145.019531,757.324219,-1160.156250,-32.226562,60.424805,16.113281
cobot_dynamixel_driver/joint_states|name|J1,J2,J3,J4,J5,J6|pos|1.046411,-0.037630,0.058435,-0.000038,-0.494650,0.000000|vel|0.003547,0.259974,-0.432525,0.000000,0.477064,0.000000|eff|145.019531,48.339844,-612.304688,-32.226562,72.509766,24.169922
cobot_dynamixel_driver/joint_states|name|J1,J2,J3,J4,J5,J6|pos|1.046499,-0.032823,0.050686,-0.000038,-0.485052,0.000000|vel|0.004173,0.227008,-0.379737,0.000000,0.497057,0.000000|eff|128.906250,273.925781,-435.058594,0.000000,52.368164,20.141602
cobot_dynamixel_driver/joint_states|name|J1,J2,J3,J4,J5,J6|pos|1.046536,-0.028629,0.044127,-0.000038,-0.475391,0.000000|vel|0.002295,0.204265,-0.317769,0.000000,0.458106,0.000000|eff|161.132812,370.605469,-547.851562,-64.453125,40.283203,16.113281
cobot_dynamixel_driver/joint_states|name|J1,J2,J3,J4,J5,J6|pos|1.046586,-0.024999,0.038544,-0.000038,-0.465793,0.000000|vel|0.002295,0.179227,-0.271867,0.000000,0.526012,0.000000|eff|128.906250,128.906250,-773.437500,-32.226562,72.509766,16.113281
cobot_dynamixel_driver/joint_states|name|J1,J2,J3,J4,J5,J6|pos|1.046649,-0.021857,0.033787,-0.000038,-0.455720,0.000000|vel|0.003547,0.151269,-0.203430,0.000000,0.517049,0.000000|eff|161.132812,96.679688,-805.664062,0.000000,44.311523,20.141602
cobot_dynamixel_driver/joint_states|name|J1,J2,J3,J4,J5,J6|pos|1.046711,-0.018990,0.029493,-0.000038,-0.446080,0.000000|vel|0.002712,0.118720,-0.209481,0.000000,0.543591,0.000000|eff|161.132812,209.472656,-741.210938,-80.566406,64.453125,28.198242
cobot_dynamixel_driver/joint_states|name|J1,J2,J3,J4,J5,J6|pos|1.046774,-0.016762,0.025788,-0.000038,-0.436979,0.000000|vel|0.003130,0.115799,-0.157946,0.000000,0.491886,0.000000|eff|209.472656,193.359375,-805.664062,-32.226562,76.538086,24.169922
cobot_dynamixel_driver/joint_states|name|J1,J2,J3,J4,J5,J6|pos|1.046824,-0.014696,0.022620,-0.000038,-0.427277,0.000000|vel|0.002712,0.104115,-0.152521,0.000000,0.499125,0.000000|eff|290.039062,193.359375,-934.570312,0.000000,60.424805,24.169922
cobot_dynamixel_driver/joint_states|name|J1,J2,J3,J4,J5,J6|pos|1.046899,-0.012894,0.019879,-0.000038,-0.417245,0.000000|vel|0.003338,0.084711,-0.131030,0.000000,0.436390,0.000000|eff|96.679688,225.585938,-902.343750,-32.226562,60.424805,20.141602
cobot_dynamixel_driver/joint_states|name|J1,J2,J3,J4,J5,J6|pos|1.046974,-0.011241,0.017300,-0.000038,-0.407564,0.000000|vel|0.003547,0.077199,-0.123727,0.000000,0.485337,0.000000|eff|80.566406,225.585938,-854.003906,0.000000,36.254883,20.141602
cobot_dynamixel_driver/joint_states|name|J1,J2,J3,J4,J5,J6|pos|1.047024,-0.009927,0.015285,-0.000038,-0.398421,0.000000|vel|0.003338,0.070940,-0.090553,0.000000,0.464310,0.000000|eff|161.132812,193.359375,-902.343750,0.000000,64.453125,20.141602
cobot_dynamixel_driver/joint_states|name|J1,J2,J3,J4,J5,J6|pos|1.047037,-0.008688,0.013432,-0.000038,-0.388865,0.000000|vel|0.001669,0.059464,-0.094308,0.000000,0.481201,0.000000|eff|161.132812,209.472656,-886.230469,0.000000,48.339844,24.169922
cobot_dynamixel_driver/joint_states|name|J1,J2,J3,J4,J5,J6|pos|1.047062,-0.007624,0.011705,-0.000038,-0.379246,0.000000|vel|0.000835,0.049449,-0.078242,0.000000,0.512568,0.000000|eff|161.132812,177.246094,-870.117188,-32.226562,56.396484,24.169922
cobot_dynamixel_driver/joint_states|name|J1,J2,J3,J4,J5,J6|pos|1.047099,-0.006635,0.010240,-0.000038,-0.369151,0.000000|vel|0.001252,0.048615,-0.072400,0.000000,0.549451,0.000000|eff|193.359375,209.472656,-918.457031,0.000000,36.254883,24.169922
cobot_dynamixel_driver/joint_states|name|J1,J2,J3,J4,J5,J6|pos|1.047125,-0.005821,0.009001,-0.000038,-0.360050,0.000000|vel|0.001461,0.040895,-0.061133,0.000000,0.492231,0.000000|eff|161.132812,290.039062,-950.683594,0.000000,36.254883,24.169922
cobot_dynamixel_driver/joint_states|name|J1,J2,J3,J4,J5,J6|pos|1.047137,-0.005095,0.007987,-0.000038,-0.350410,0.000000|vel|0.001461,0.034009,-0.054248,0.000000,0.495678,0.000000|eff|0.000000,225.585938,-467.285156,0.000000,72.509766,20.141602
cobot_dynamixel_driver/joint_states|name|J1,J2,J3,J4,J5,J6|pos|1.047137,-0.004469,0.007048,-0.000038,-0.340750,0.000000|vel|0.001461,0.027750,-0.053205,0.000000,0.436390,0.000000|eff|48.339844,193.359375,-950.683594,0.000000,48.339844,12.084961
cobot_dynamixel_driver/joint_states|name|J1,J2,J3,J4,J5,J6|pos|1.047137,-0.003906,0.006159,-0.000038,-0.330656,0.000000|vel|0.001461,0.027959,-0.050075,0.000000,0.517739,0.000000|eff|0.000000,177.246094,-950.683594,-64.453125,48.339844,24.169922
cobot_dynamixel_driver/joint_states|name|J1,J2,J3,J4,J5,J6|pos|1.047137,-0.003443,0.005370,-0.000038,-0.321141,0.000000|vel|0.001461,0.021908,-0.037765,0.000000,0.466723,0.000000|eff|96.679688,161.132812,-934.570312,-32.226562,80.566406,28.198242
cobot_dynamixel_driver/joint_states|name|J1,J2,J3,J4,J5,J6|pos|1.047137,-0.003004,0.004657,-0.000038,-0.311501,0.000000|vel|0.001461,0.021908,-0.029211,0.000000,0.518428,0.000000|eff|161.132812,193.359375,-934.570312,-64.453125,48.339844,16.113281
cobot_dynamixel_driver/joint_states|name|J1,J2,J3,J4,J5,J6|pos|1.047137,-0.002591,0.004106,-0.000038,-0.302358,0.000000|vel|0.001461,0.019404,-0.033175,0.000000,0.500504,0.000000|eff|128.906250,225.585938,-902.343750,-32.226562,52.368164,16.113281
cobot_dynamixel_driver/joint_states|name|J1,J2,J3,J4,J5,J6|pos|1.047137,-0.002278,0.003580,-0.000038,-0.292760,0.000000|vel|0.000000,0.015023,-0.020239,0.000000,0.428462,0.000000|eff|209.472656,193.359375,-950.683594,0.000000,84.594727,20.141602
cobot_dynamixel_driver/joint_states|name|J1,J2,J3,J4,J5,J6|pos|1.047137,-0.001990,0.003155,-0.000038,-0.283162,0.000000|vel|0.000000,0.013771,-0.025455,0.000000,0.511534,0.000000|eff|193.359375,193.359375,-950.683594,0.000000,72.509766,16.113281
cobot_dynamixel_driver/joint_states|name|J1,J2,J3,J4,J5,J6|pos|1.047137,-0.001728,0.002679,-0.000038,-0.273088,0.000000|vel|0.000000,0.013562,-0.018570,0.000000,0.476375,0.000000|eff|128.906250,209.472656,-918.457031,0.000000,52.368164,16.113281
cobot_dynamixel_driver/joint_states|name|J1,J2,J3,J4,J5,J6|pos|1.047137,-0.001490,0.002391,-0.000038,-0.264008,0.000000|vel|0.000000,0.011058,-0.012936,0.000000,0.574959,0.000000|eff|96.679688,177.246094,-982.910156,0.000000,56.396484,24.169922
cobot_dynamixel_driver/joint_states|name|J1,J2,J3,J4,J5,J6|pos|1.047137,-0.001314,0.002091,-0.000038,-0.254347,0.000000|vel|0.000000,0.007720,-0.019195,0.000000,0.491886,0.000000|eff|209.472656,322.265625,-950.683594,0.000000,76.538086,28.198242
cobot_dynamixel_driver/joint_states|name|J1,J2,J3,J4,J5,J6|pos|1.047137,-0.001164,0.001765,-0.000025,-0.244708,0.000000|vel|0.000000,0.007094,-0.013979,0.000000,0.420189,0.000000|eff|209.472656,290.039062,-918.457031,0.000000,44.311523,24.169922
cobot_dynamixel_driver/joint_states|name|J1,J2,J3,J4,J5,J6|pos|1.047137,-0.001052,0.001652,-0.000025,-0.234634,0.000000|vel|0.000000,0.005216,-0.004173,0.000000,0.528769,0.000000|eff|209.472656,241.699219,-982.910156,0.000000,36.254883,24.169922
cobot_dynamixel_driver/joint_states|name|J1,J2,J3,J4,J5,J6|pos|1.047137,-0.000926,0.001527,-0.000025,-0.225016,0.000000|vel|0.000000,0.006259,-0.008137,0.000000,0.558069,0.000000|eff|48.339844,128.906250,-999.023438,0.000000,80.566406,16.113281
cobot_dynamixel_driver/joint_states|name|J1,J2,J3,J4,J5,J6|pos|1.047137,-0.000764,0.001302,-0.000025,-0.214445,0.000000|vel|0.000000,0.008137,-0.013979,0.000000,0.481890,0.000000|eff|193.359375,225.585938,-902.343750,0.000000,80.566406,28.198242
cobot_dynamixel_driver/joint_states|name|J1,J2,J3,J4,J5,J6|pos|1.047137,-0.000651,0.000989,-0.000025,-0.204806,0.000000|vel|0.000000,0.004382,-0.017109,0.000000,0.437424,0.000000|eff|48.339844,209.472656,-870.117188,0.000000,36.254883,28.198242
cobot_dynamixel_driver/joint_states|name|J1,J2,J3,J4,J5,J6|pos|1.047137,-0.000576,0.000739,-0.000025,-0.196201,0.000000|vel|0.000000,0.003756,-0.012102,0.000000,0.487750,0.000000|eff|48.339844,225.585938,-805.664062,0.000000,72.509766,24.169922
cobot_dynamixel_driver/joint_states|name|J1,J2,J3,J4,J5,J6|pos|1.047150,-0.000501,0.000663,-0.000025,-0.186065,0.000000|vel|0.000000,0.003547,-0.002921,0.000000,0.488784,0.000000|eff|193.359375,225.585938,-886.230469,0.000000,52.368164,16.113281
cobot_dynamixel_driver/joint_states|name|J1,J2,J3,J4,J5,J6|pos|1.047150,-0.000438,0.000663,-0.000025,-0.176943,0.000000|vel|0.000000,0.003338,-0.002921,0.000000,0.536697,0.000000|eff|112.792969,193.359375,-870.117188,0.000000,60.424805,16.113281
cobot_dynamixel_driver/joint_states|name|J1,J2,J3,J4,J5,J6|pos|1.047150,-0.000363,0.000651,-0.000025,-0.166890,0.000000|vel|0.000000,0.003338,-0.002921,0.000000,0.482924,0.000000|eff|209.472656,209.472656,-902.343750,0.000000,44.311523,24.169922
cobot_dynamixel_driver/joint_states|name|J1,J2,J3,J4,J5,J6|pos|1.047150,-0.000313,0.000651,-0.000025,-0.157767,0.000000|vel|0.000000,0.003130,-0.002921,0.000000,0.487405,0.000000|eff|193.359375,209.472656,-870.117188,0.000000,60.424805,16.113281
cobot_dynamixel_driver/joint_states|name|J1,J2,J3,J4,J5,J6|pos|1.047150,-0.000250,0.000651,-0.000025,-0.148211,0.000000|vel|0.000000,0.003338,-0.002921,0.000000,0.431909,0.000000|eff|209.472656,193.359375,-918.457031,0.000000,80.566406,24.169922
cobot_dynamixel_driver/joint_states|name|J1,J2,J3,J4,J5,J6|pos|1.047150,-0.000163,0.000638,-0.000025,-0.139026,0.000000|vel|0.000000,0.004590,-0.002921,0.000000,0.532216,0.000000|eff|0.000000,241.699219,-934.570312,0.000000,40.283203,24.169922
cobot_dynamixel_driver/joint_states|name|J1,J2,J3,J4,J5,J6|pos|1.047150,-0.000163,0.000638,-0.000025,-0.126967,0.000000|vel|0.000000,0.004590,0.000000,0.000000,0.476030,0.000000|eff|96.679688,322.265625,-918.457031,0.000000,68.481445,20.141602
cobot_dynamixel_driver/joint_states|name|J1,J2,J3,J4,J5,J6|pos|1.047150,-0.000163,0.000601,-0.000025,-0.118838,0.000000|vel|0.000000,0.004590,-0.001252,0.000000,0.525322,0.000000|eff|0.000000,402.832031,-934.570312,0.000000,84.594727,16.113281
cobot_dynamixel_driver/joint_states|name|J1,J2,J3,J4,J5,J6|pos|1.047150,-0.000163,0.000476,-0.000025,-0.109757,0.000000|vel|0.000000,0.000417,-0.007929,0.000000,0.492921,0.000000|eff|48.339844,322.265625,-870.117188,0.000000,88.623047,20.141602
cobot_dynamixel_driver/joint_states|name|J1,J2,J3,J4,J5,J6|pos|1.047150,-0.000163,0.000313,-0.000025,-0.098711,0.000000|vel|0.000000,0.000417,-0.008763,0.000000,0.499470,0.000000|eff|48.339844,273.925781,-902.343750,0.000000,60.424805,20.141602
cobot_dynamixel_driver/joint_states|name|J1,J2,J3,J4,J5,J6|pos|1.047150,-0.000150,0.000175,-0.000025,-0.090540,0.000000|vel|0.000000,0.000417,-0.008972,0.000000,0.500849,0.000000|eff|0.000000,209.472656,-870.117188,0.000000,88.623047,24.169922
cobot_dynamixel_driver/joint_states|name|J1,J2,J3,J4,J5,J6|pos|1.047150,-0.000150,0.000025,-0.000025,-0.080942,0.000000|vel|0.000000,0.000417,-0.006051,0.000000,0.557379,0.000000|eff|48.339844,209.472656,-757.324219,0.000000,76.538086,20.141602
cobot_dynamixel_driver/joint_states|name|J1,J2,J3,J4,J5,J6|pos|1.047150,-0.000150,-0.000050,-0.000025,-0.071344,0.000000|vel|0.000000,0.000417,-0.003338,0.000000,0.517739,0.000000|eff|0.000000,193.359375,-789.550781,0.000000,56.396484,24.169922
cobot_dynamixel_driver/joint_states|name|J1,J2,J3,J4,J5,J6|pos|1.047162,-0.000150,-0.000075,-0.000025,-0.061249,0.000000|vel|0.000000,0.000417,-0.001878,0.000000,0.447420,0.000000|eff|193.359375,386.718750,-805.664062,0.000000,-8.056641,24.169922
cobot_dynamixel_driver/joint_states|name|J1,J2,J3,J4,J5,J6|pos|1.047162,-0.000150,-0.000075,-0.000025,-0.054092,0.000000|vel|0.000000,-0.000000,-0.001878,0.000000,0.343321,0.000000|eff|193.359375,241.699219,-773.437500,0.000000,-24.169922,16.113281
cobot_dynamixel_driver/joint_states|name|J1,J2,J3,J4,J5,J6|pos|1.047162,-0.000150,-0.000075,-0.000025,-0.047349,0.000000|vel|0.000000,-0.000000,-0.001878,0.000000,0.341253,0.000000|eff|128.906250,225.585938,-741.210938,0.000000,16.113281,16.113281
cobot_dynamixel_driver/joint_states|name|J1,J2,J3,J4,J5,J6|pos|1.047175,-0.000138,-0.000075,-0.000025,-0.041495,0.000000|vel|0.000000,-0.000000,-0.001878,0.000000,0.278173,0.000000|eff|0.000000,225.585938,-741.210938,0.000000,32.226562,16.113281
cobot_dynamixel_driver/joint_states|name|J1,J2,J3,J4,J5,J6|pos|1.047175,-0.000138,-0.000075,-0.000025,-0.036282,0.000000|vel|0.000000,-0.000000,-0.001878,0.000000,0.282654,0.000000|eff|209.472656,209.472656,-741.210938,0.000000,12.084961,16.113281
cobot_dynamixel_driver/joint_states|name|J1,J2,J3,J4,J5,J6|pos|1.047175,-0.000125,-0.000075,-0.000025,-0.031814,0.000000|vel|0.000000,0.000209,-0.001878,0.000000,0.192342,0.000000|eff|209.472656,225.585938,-741.210938,0.000000,28.198242,16.113281
cobot_dynamixel_driver/joint_states|name|J1,J2,J3,J4,J5,J6|pos|1.047175,-0.000100,-0.000075,-0.000025,-0.027884,0.000000|vel|0.000000,0.000209,0.000000,0.000000,0.186827,0.000000|eff|96.679688,225.585938,-741.210938,0.000000,36.254883,20.141602
cobot_dynamixel_driver/joint_states|name|J1,J2,J3,J4,J5,J6|pos|1.047175,-0.000088,-0.000075,-0.000025,-0.024471,0.000000|vel|0.000000,0.001043,0.000000,0.000000,0.179933,0.000000|eff|209.472656,225.585938,-757.324219,0.000000,48.339844,16.113281
cobot_dynamixel_driver/joint_states|name|J1,J2,J3,J4,J5,J6|pos|1.047175,-0.000063,-0.000075,-0.000025,-0.021451,0.000000|vel|0.000000,0.000835,0.000000,0.000000,0.150634,0.000000|eff|161.132812,225.585938,-725.097656,0.000000,56.396484,16.113281
cobot_dynamixel_driver/joint_states|name|J1,J2,J3,J4,J5,J6|pos|1.047187,-0.000038,-0.000075,-0.000025,-0.018162,0.000000|vel|0.000000,0.000835,0.000000,0.000000,0.128918,0.000000|eff|193.359375,225.585938,-708.984375,0.000000,52.368164,24.169922
cobot_dynamixel_driver/joint_states|name|J1,J2,J3,J4,J5,J6|pos|1.047187,-0.000025,-0.000075,-0.000025,-0.015990,0.000000|vel|0.000000,0.001043,0.000000,0.000000,0.092724,0.000000|eff|112.792969,225.585938,-741.210938,0.000000,44.311523,16.113281
cobot_dynamixel_driver/joint_states|name|J1,J2,J3,J4,J5,J6|pos|1.047187,-0.000013,-0.000075,-0.000025,-0.014087,0.000000|vel|0.000000,0.001043,0.000000,0.000000,0.095827,0.000000|eff|209.472656,273.925781,-741.210938,0.000000,60.424805,28.198242
cobot_dynamixel_driver/joint_states|name|J1,J2,J3,J4,J5,J6|pos|1.047187,-0.000013,-0.000075,-0.000025,-0.012515,0.000000|vel|0.000000,0.001043,0.000000,0.000000,0.082728,0.000000|eff|96.679688,273.925781,-741.210938,0.000000,56.396484,16.113281
cobot_dynamixel_driver/joint_states|name|J1,J2,J3,J4,J5,J6|pos|1.047187,-0.000013,-0.000075,-0.000025,-0.011046,0.000000|vel|0.000000,0.001043,0.000000,0.000000,0.068595,0.000000|eff|209.472656,225.585938,-741.210938,0.000000,56.396484,28.198242
cobot_dynamixel_driver/joint_states|name|J1,J2,J3,J4,J5,J6|pos|1.047187,-0.000000,-0.000075,-0.000025,-0.009660,0.000000|vel|0.000000,0.001043,0.000000,0.000000,0.065838,0.000000|eff|209.472656,354.492188,-741.210938,0.000000,56.396484,16.113281
cobot_dynamixel_driver/joint_states|name|J1,J2,J3,J4,J5,J6|pos|1.047187,-0.000000,-0.000075,-0.000025,-0.008274,0.000000|vel|0.000000,0.001043,0.000000,0.000000,0.054118,0.000000|eff|0.000000,354.492188,-692.871094,0.000000,68.481445,16.113281
cobot_dynamixel_driver/joint_states|name|J1,J2,J3,J4,J5,J6|pos|1.047187,-0.000000,-0.000075,-0.000013,-0.007364,0.000000|vel|0.000000,-0.000000,0.000000,0.000000,0.055497,0.000000|eff|225.585938,193.359375,-725.097656,0.000000,64.453125,12.084961
cobot_dynamixel_driver/joint_states|name|J1,J2,J3,J4,J5,J6|pos|1.047187,-0.000000,-0.000075,-0.000013,-0.006619,0.000000|vel|0.000000,-0.000000,0.000000,0.000000,0.043777,0.000000|eff|209.472656,193.359375,-741.210938,0.000000,76.538086,28.198242
cobot_dynamixel_driver/joint_states|name|J1,J2,J3,J4,J5,J6|pos|1.047187,-0.000000,-0.000075,-0.000013,-0.005771,0.000000|vel|0.000000,-0.000000,0.000000,0.000000,0.039985,0.000000|eff|209.472656,257.812500,-725.097656,0.000000,76.538086,28.198242
cobot_dynamixel_driver/joint_states|name|J1,J2,J3,J4,J5,J6|pos|1.047187,-0.000000,-0.000075,-0.000013,-0.005006,0.000000|vel|0.000000,-0.000000,0.000000,0.000000,0.031712,0.000000|eff|209.472656,306.152344,-676.757812,0.000000,72.509766,16.113281
cobot_dynamixel_driver/joint_states|name|J1,J2,J3,J4,J5,J6|pos|1.047187,-0.000000,-0.000075,-0.000013,-0.004427,0.000000|vel|0.000000,-0.000000,0.000000,0.000000,0.024818,0.000000|eff|209.472656,386.718750,-660.644531,0.000000,68.481445,24.169922
cobot_dynamixel_driver/joint_states|name|J1,J2,J3,J4,J5,J6|pos|1.047187,-0.000000,-0.000075,-0.000013,-0.003847,0.000000|vel|0.000000,-0.000000,0.000000,0.000000,0.026887,0.000000|eff|48.339844,354.492188,-741.210938,0.000000,68.481445,24.169922
cobot_dynamixel_driver/joint_states|name|J1,J2,J3,J4,J5,J6|pos|1.047200,-0.000000,-0.000075,-0.000013,-0.003392,0.000000|vel|0.000000,-0.000000,0.000000,0.000000,0.020337,0.000000|eff|209.472656,386.718750,-660.644531,0.000000,80.566406,12.084961
cobot_dynamixel_driver/joint_states|name|J1,J2,J3,J4,J5,J6|pos|1.047200,-0.000000,-0.000075,-0.000013,-0.002999,0.000000|vel|0.000000,-0.000000,0.000000,0.000000,0.021371,0.000000|eff|193.359375,322.265625,-676.757812,0.000000,72.509766,24.169922
cobot_dynamixel_driver/joint_states|name|J1,J2,J3,J4,J5,J6|pos|1.047200,-0.000000,-0.000075,-0.000013,-0.002668,0.000000|vel|0.000000,-0.000000,0.000000,0.000000,0.018614,0.000000|eff|128.906250,241.699219,-660.644531,0.000000,80.566406,20.141602
cobot_dynamixel_driver/joint_states|name|J1,J2,J3,J4,J5,J6|pos|1.047200,-0.000000,-0.000075,-0.000013,-0.002275,0.000000|vel|0.000000,-0.000000,0.000000,0.000000,0.018269,0.000000|eff|128.906250,209.472656,-692.871094,0.000000,64.453125,24.169922
cobot_dynamixel_driver/joint_states|name|J1,J2,J3,J4,J5,J6|pos|1.047200,-0.000000,-0.000075,-0.000013,-0.001986,0.000000|vel|0.000000,-0.000000,0.000000,0.000000,0.011030,0.000000|eff|177.246094,257.812500,-725.097656,0.000000,68.481445,16.113281
cobot_dynamixel_driver/joint_states|name|J1,J2,J3,J4,J5,J6|pos|1.047200,-0.000000,-0.000075,-0.000013,-0.001696,0.000000|vel|0.000000,-0.000000,0.000000,0.000000,0.010686,0.000000|eff|209.472656,290.039062,-676.757812,0.000000,72.509766,16.113281
cobot_dynamixel_driver/joint_states|name|J1,J2,J3,J4,J5,J6|pos|1.047200,-0.000000,-0.000075,-0.000013,-0.001448,0.000000|vel|0.000000,-0.000000,0.000000,0.000000,0.009652,0.000000|eff|193.359375,354.492188,-725.097656,0.000000,76.538086,16.113281
cobot_dynamixel_driver/joint_states|name|J1,J2,J3,J4,J5,J6|pos|1.047200,-0.000000,-0.000075,-0.000013,-0.001303,0.000000|vel|0.000000,-0.000000,0.000000,0.000000,0.008617,0.000000|eff|193.359375,354.492188,-660.644531,0.000000,76.538086,12.084961
cobot_dynamixel_driver/joint_states|name|J1,J2,J3,J4,J5,J6|pos|1.047200,-0.000000,-0.000075,-0.000013,-0.001138,0.000000|vel|0.000000,-0.000000,0.000000,0.000000,0.006894,0.000000|eff|128.906250,225.585938,-708.984375,0.000000,84.594727,24.169922
cobot_dynamixel_driver/joint_states|name|J1,J2,J3,J4,J5,J6|pos|1.047200,-0.000000,-0.000075,-0.000013,-0.000993,0.000000|vel|0.000000,-0.000000,0.000000,0.000000,0.008273,0.000000|eff|193.359375,241.699219,-644.531250,0.000000,84.594727,20.141602
cobot_dynamixel_driver/joint_states|name|J1,J2,J3,J4,J5,J6|pos|1.047200,-0.000000,-0.000075,-0.000013,-0.000848,0.000000|vel|0.000000,-0.000000,0.000000,0.000000,0.008273,0.000000|eff|177.246094,354.492188,-676.757812,0.000000,80.566406,12.084961
cobot_dynamixel_driver/joint_states|name|J1,J2,J3,J4,J5,J6|pos|1.047200,-0.000000,-0.000075,-0.000013,-0.000765,0.000000|vel|0.000000,-0.000000,0.000000,0.000000,0.005170,0.000000|eff|209.472656,354.492188,-708.984375,0.000000,72.509766,28.198242
cobot_dynamixel_driver/joint_states|name|J1,J2,J3,J4,J5,J6|pos|1.047200,-0.000000,-0.000075,-0.000013,-0.000703,0.000000|vel|0.000000,-0.000000,0.000000,0.000000,0.002758,0.000000|eff|209.472656,209.472656,-660.644531,0.000000,76.538086,24.169922
cobot_dynamixel_driver/joint_states|name|J1,J2,J3,J4,J5,J6|pos|1.047200,-0.000000,-0.000075,-0.000013,-0.000641,0.000000|vel|0.000000,-0.000000,0.000000,0.000000,0.003102,0.000000|eff|48.339844,209.472656,-660.644531,0.000000,80.566406,24.169922
cobot_dynamixel_driver/joint_states|name|J1,J2,J3,J4,J5,J6|pos|1.047200,-0.000000,-0.000075,-0.000013,-0.000517,0.000000|vel|0.000000,-0.000000,0.000000,0.000000,0.007239,0.000000|eff|209.472656,177.246094,-644.531250,0.000000,76.538086,16.113281
cobot_dynamixel_driver/joint_states|name|J1,J2,J3,J4,J5,J6|pos|1.047200,-0.000000,-0.000075,-0.000013,-0.000455,0.000000|vel|0.000000,-0.000000,0.000000,0.000000,0.003792,0.000000|eff|0.000000,354.492188,-644.531250,0.000000,72.509766,16.113281
cobot_dynamixel_driver/joint_states|name|J1,J2,J3,J4,J5,J6|pos|1.047200,-0.000000,-0.000075,-0.000013,-0.000434,0.000000|vel|0.000000,-0.000000,0.000000,0.000000,0.003792,0.000000|eff|209.472656,322.265625,-660.644531,0.000000,68.481445,28.198242
cobot_dynamixel_driver/joint_states|name|J1,J2,J3,J4,J5,J6|pos|1.047200,-0.000000,-0.000075,-0.000013,-0.000434,0.000000|vel|0.000000,-0.000000,0.000000,0.000000,0.003792,0.000000|eff|96.679688,193.359375,-692.871094,0.000000,68.481445,24.169922
cobot_dynamixel_driver/joint_states|name|J1,J2,J3,J4,J5,J6|pos|1.047200,0.000013,-0.000075,-0.000013,-0.000434,0.000000|vel|0.000000,-0.000000,0.000000,0.000000,0.003792,0.000000|eff|32.226562,273.925781,-708.984375,0.000000,60.424805,20.141602
cobot_dynamixel_driver/joint_states|name|J1,J2,J3,J4,J5,J6|pos|1.047212,0.000013,-0.000075,-0.000013,-0.000372,0.000000|vel|0.000000,-0.000000,0.000000,0.000000,0.000345,0.000000|eff|177.246094,209.472656,-644.531250,0.000000,76.538086,20.141602
cobot_dynamixel_driver/joint_states|name|J1,J2,J3,J4,J5,J6|pos|1.047212,0.000050,-0.000063,-0.000013,-0.000310,0.000000|vel|0.000000,-0.000000,0.000000,0.000000,0.003792,0.000000|eff|161.132812,273.925781,-644.531250,0.000000,68.481445,24.169922
cobot_dynamixel_driver/joint_states|name|J1,J2,J3,J4,J5,J6|pos|1.047237,0.000063,-0.000075,-0.000013,-0.000269,0.000000|vel|0.000000,-0.001878,0.000000,0.000000,0.002758,0.000000|eff|161.132812,306.152344,-644.531250,0.000000,64.453125,16.113281
cobot_dynamixel_driver/joint_states|name|J1,J2,J3,J4,J5,J6|pos|1.047262,0.000063,-0.000075,-0.000013,-0.000269,0.000000|vel|0.001461,0.001043,0.000000,0.000000,0.002758,0.000000|eff|145.019531,241.699219,-596.191406,0.000000,60.424805,24.169922
cobot_dynamixel_driver/joint_states|name|J1,J2,J3,J4,J5,J6|pos|1.047262,0.000188,-0.000063,-0.000013,-0.000269,0.000000|vel|0.001461,0.007303,0.000000,0.000000,0.002758,0.000000|eff|32.226562,386.718750,-644.531250,0.000000,60.424805,12.084961
cobot_dynamixel_driver/joint_states|name|J1,J2,J3,J4,J5,J6|pos|1.047262,0.000225,-0.000063,-0.000013,-0.000269,0.000000|vel|-0.000417,-0.004590,0.000000,0.000000,0.002758,0.000000|eff|177.246094,354.492188,-644.531250,0.000000,56.396484,24.169922
cobot_dynamixel_driver/joint_states|name|J1,J2,J3,J4,J5,J6|pos|1.047262,0.000225,-0.000063,-0.000013,-0.000269,0.000000|vel|0.000417,-0.004590,0.000000,0.000000,0.002758,0.000000|eff|96.679688,338.378906,-644.531250,0.000000,56.396484,20.141602
cobot_dynamixel_driver/joint_states|name|J1,J2,J3,J4,J5,J6|pos|1.047275,0.000213,-0.000063,-0.000013,-0.000269,0.000000|vel|0.000417,-0.004590,0.000000,0.000000,0.002758,0.000000|eff|161.132812,354.492188,-644.531250,0.000000,52.368164,24.169922
cobot_dynamixel_driver/joint_states|name|J1,J2,J3,J4,J5,J6|pos|1.047287,0.000238,-0.000063,-0.000013,-0.000269,0.000000|vel|0.000417,0.000417,0.000000,0.000000,0.000000,0.000000|eff|145.019531,386.718750,-644.531250,0.000000,60.424805,20.141602
cobot_dynamixel_driver/joint_states|name|J1,J2,J3,J4,J5,J6|pos|1.047300,0.000250,-0.000063,-0.000013,-0.000269,0.000000|vel|0.000417,0.000417,0.000000,0.000000,0.000000,0.000000|eff|193.359375,451.171875,-644.531250,0.000000,72.509766,20.141602
cobot_dynamixel_driver/joint_states|name|J1,J2,J3,J4,J5,J6|pos|1.047300,0.000250,-0.000063,-0.000013,-0.000269,0.000000|vel|0.000417,0.000417,0.000000,0.000000,0.000000,0.000000|eff|112.792969,257.812500,-596.191406,0.000000,68.481445,20.141602
cobot_dynamixel_driver/joint_states|name|J1,J2,J3,J4,J5,J6|pos|1.047300,0.000250,-0.000063,-0.000013,-0.000228,0.000000|vel|0.000417,0.000417,0.000000,0.000000,0.000000,0.000000|eff|96.679688,467.285156,-612.304688,0.000000,64.453125,12.084961
cobot_dynamixel_driver/joint_states|name|J1,J2,J3,J4,J5,J6|pos|1.047300,0.000238,-0.000063,-0.000013,-0.000228,0.000000|vel|0.000417,-0.000209,0.000000,0.000000,0.000000,0.000000|eff|96.679688,402.832031,-644.531250,0.000000,72.509766,24.169922
cobot_dynamixel_driver/joint_states|name|J1,J2,J3,J4,J5,J6|pos|1.047300,0.000238,-0.000063,-0.000013,-0.000228,0.000000|vel|0.000417,-0.000209,0.000000,0.000000,0.000000,0.000000|eff|32.226562,467.285156,-644.531250,0.000000,72.509766,24.169922
cobot_dynamixel_driver/joint_states|name|J1,J2,J3,J4,J5,J6|pos|1.047300,0.000238,-0.000063,-0.000013,-0.000207,0.000000|vel|0.000000,0.000209,0.000000,0.000000,0.000345,0.000000|eff|128.906250,451.171875,-644.531250,0.000000,72.509766,24.169922
cobot_dynamixel_driver/joint_states|name|J1,J2,J3,J4,J5,J6|pos|1.047300,0.000238,-0.000063,-0.000013,-0.000165,0.000000|vel|0.000000,-0.000417,0.000000,0.000000,0.000345,0.000000|eff|128.906250,273.925781,-644.531250,0.000000,72.509766,12.084961
cobot_dynamixel_driver/joint_states|name|J1,J2,J3,J4,J5,J6|pos|1.047300,0.000238,-0.000063,-0.000013,-0.000103,0.000000|vel|0.000000,-0.000417,0.000000,0.000000,0.002413,0.000000|eff|96.679688,386.718750,-644.531250,0.000000,76.538086,20.141602
cobot_dynamixel_driver/joint_states|name|J1,J2,J3,J4,J5,J6|pos|1.047300,0.000238,-0.000063,-0.000013,-0.000083,0.000000|vel|0.000000,-0.000417,0.000000,0.000000,0.002413,0.000000|eff|128.906250,290.039062,-580.078125,0.000000,68.481445,12.084961
cobot_dynamixel_driver/joint_states|name|J1,J2,J3,J4,J5,J6|pos|1.047300,0.000238,-0.000063,-0.000013,-0.000083,0.000000|vel|0.000000,-0.000417,0.000000,0.000000,0.002413,0.000000|eff|0.000000,467.285156,-628.417969,0.000000,68.481445,20.141602
cobot_dynamixel_driver/joint_states|name|J1,J2,J3,J4,J5,J6|pos|1.047300,0.000238,-0.000063,-0.000013,-0.000083,0.000000|vel|0.000000,0.000417,0.000000,0.000000,0.002413,0.000000|eff|96.679688,402.832031,-580.078125,0.000000,56.396484,24.169922
cobot_dynamixel_driver/joint_states|name|J1,J2,J3,J4,J5,J6|pos|1.047300,0.000225,-0.000063,-0.000013,-0.000083,0.000000|vel|0.000000,-0.000000,0.000000,0.000000,0.002413,0.000000|eff|0.000000,338.378906,-644.531250,0.000000,52.368164,24.169922
cobot_dynamixel_driver/joint_states|name|J1,J2,J3,J4,J5,J6|pos|1.047287,0.000225,-0.000063,-0.000013,-0.000083,0.000000|vel|0.000000,-0.000000,0.000000,0.000000,0.002413,0.000000|eff|96.679688,467.285156,-563.964844,0.000000,48.339844,12.084961
cobot_dynamixel_driver/joint_states|name|J1,J2,J3,J4,J5,J6|pos|1.047287,0.000225,-0.000063,-0.000013,-0.000083,0.000000|vel|0.000000,-0.000000,0.000000,0.000000,0.000000,0.000000|eff|0.000000,483.398438,-644.531250,0.000000,52.368164,24.169922
cobot_dynamixel_driver/joint_states|name|J1,J2,J3,J4,J5,J6|pos|1.047287,0.000225,-0.000063,-0.000013,-0.000083,0.000000|vel|0.000000,-0.000000,0.000000,0.000000,0.000000,0.000000|eff|96.679688,483.398438,-580.078125,0.000000,48.339844,24.169922
cobot_dynamixel_driver/joint_states|name|J1,J2,J3,J4,J5,J6|pos|1.047287,0.000213,-0.000063,-0.000013,-0.000083,0.000000|vel|0.000000,-0.000000,0.000000,0.000000,0.000000,0.000000|eff|0.000000,467.285156,-563.964844,0.000000,56.396484,24.169922
cobot_dynamixel_driver/joint_states|name|J1,J2,J3,J4,J5,J6|pos|1.047287,0.000213,-0.000050,-0.000013,-0.000083,0.000000|vel|0.000000,-0.000000,0.000000,0.000000,0.000000,0.000000|eff|128.906250,467.285156,-596.191406,0.000000,52.368164,24.169922
cobot_dynamixel_driver/joint_states|name|J1,J2,J3,J4,J5,J6|pos|1.047287,0.000213,-0.000050,-0.000013,-0.000083,0.000000|vel|0.000000,-0.000000,0.000000,0.000000,0.000000,0.000000|eff|128.906250,483.398438,-596.191406,0.000000,48.339844,24.169922
cobot_dynamixel_driver/joint_states|name|J1,J2,J3,J4,J5,J6|pos|1.047287,0.000200,-0.000050,-0.000013,-0.000083,0.000000|vel|0.000000,-0.000000,0.000000,0.000000,0.000000,0.000000|eff|0.000000,483.398438,-628.417969,0.000000,52.368164,24.169922
cobot_dynamixel_driver/joint_states|name|J1,J2,J3,J4,J5,J6|pos|1.047287,0.000200,-0.000050,-0.000013,-0.000083,0.000000|vel|0.000000,0.000626,0.000000,0.000000,0.000000,0.000000|eff|0.000000,499.511719,-612.304688,0.000000,52.368164,20.141602
cobot_dynamixel_driver/goal|-:J1,J2,J3,J4,J5,J6:1.047198,0.000000,0.000000,0.000000,0.000000,0.000000:0.500000,0.500000,0.500000,0.500000,0.500000,0.500000:pos_vel_
cobot_dynamixel_driver/joint_states|name|J1,J2,J3,J4,J5,J6|pos|1.047287,0.000200,-0.000050,-0.000013,-0.000083,0.000000|vel|0.000000,-0.001252,0.000000,0.000000,0.000000,0.000000|eff|0.000000,483.398438,-628.417969,0.000000,56.396484,24.169922
cobot_dynamixel_driver/joint_states|name|J1,J2,J3,J4,J5,J6|pos|1.047287,0.000200,-0.000050,-0.000013,-0.000083,0.000000|vel|0.000000,-0.001252,0.000000,0.000000,0.000000,0.000000|eff|0.000000,483.398438,-580.078125,0.000000,56.396484,24.169922
cobot_dynamixel_driver/joint_states|name|J1,J2,J3,J4,J5,J6|pos|1.047287,0.000200,-0.000050,-0.000013,-0.000083,0.000000|vel|0.000000,-0.001252,0.000000,0.000000,0.000000,0.000000|eff|0.000000,483.398438,-628.417969,0.000000,56.396484,20.141602
cobot_dynamixel_driver/joint_states|name|J1,J2,J3,J4,J5,J6|pos|1.047287,0.000200,-0.000050,-0.000013,-0.000083,0.000000|vel|0.000000,-0.001252,0.000000,0.000000,0.000000,0.000000|eff|0.000000,483.398438,-612.304688,0.000000,56.396484,20.141602
cobot_dynamixel_driver/joint_states|name|J1,J2,J3,J4,J5,J6|pos|1.047287,0.000200,-0.000050,-0.000013,-0.000083,0.000000|vel|0.000000,-0.001252,0.000000,0.000000,0.000000,0.000000|eff|0.000000,483.398438,-547.851562,0.000000,56.396484,20.141602
cobot_dynamixel_driver/joint_states|name|J1,J2,J3,J4,J5,J6|pos|1.047287,0.000200,-0.000050,-0.000013,-0.000083,0.000000|vel|0.000000,-0.001252,0.000000,0.000000,0.000000,0.000000|eff|0.000000,483.398438,-644.531250,0.000000,56.396484,16.113281
cobot_dynamixel_driver/joint_states|name|J1,J2,J3,J4,J5,J6|pos|1.047287,0.000200,-0.000050,-0.000013,-0.000083,0.000000|vel|0.000000,-0.000000,0.000000,0.000000,0.000000,0.000000|eff|0.000000,467.285156,-596.191406,0.000000,68.481445,16.113281
cobot_dynamixel_driver/joint_states|name|J1,J2,J3,J4,J5,J6|pos|1.047275,0.000188,-0.000050,-0.000013,-0.000083,0.000000|vel|0.000000,-0.000000,0.000000,0.000000,0.000000,0.000000|eff|0.000000,483.398438,-596.191406,0.000000,60.424805,20.141602
cobot_dynamixel_driver/joint_states|name|J1,J2,J3,J4,J5,J6|pos|1.047275,0.000188,-0.000050,-0.000013,-0.000083,0.000000|vel|0.000000,-0.000000,0.000000,0.000000,0.000000,0.000000|eff|0.000000,531.738281,-596.191406,0.000000,56.396484,24.169922
cobot_dynamixel_driver/joint_states|name|J1,J2,J3,J4,J5,J6|pos|1.047275,0.000188,-0.000050,-0.000013,-0.000083,0.000000|vel|0.000000,-0.000000,0.000000,0.000000,0.000000,0.000000|eff|0.000000,499.511719,-547.851562,0.000000,56.396484,24.169922
cobot_dynamixel_driver/joint_states|name|J1,J2,J3,J4,J5,J6|pos|1.047275,0.000188,-0.000050,-0.000013,-0.000083,0.000000|vel|0.000000,-0.000000,0.000000,0.000000,0.000000,0.000000|eff|0.000000,499.511719,-580.078125,0.000000,64.453125,24.169922
cobot_dynamixel_driver/joint_states|name|J1,J2,J3,J4,J5,J6|pos|1.047275,0.000175,-0.000050,-0.000013,-0.000083,0.000000|vel|0.000000,-0.000000,0.000000,0.000000,0.000000,0.000000|eff|128.906250,451.171875,-612.304688,0.000000,60.424805,24.169922
cobot_dynamixel_driver/joint_states|name|J1,J2,J3,J4,J5,J6|pos|1.047275,0.000175,-0.000050,-0.000013,-0.000083,0.000000|vel|0.000000,-0.000000,0.000000,0.000000,0.000000,0.000000|eff|96.679688,435.058594,-612.304688,0.000000,64.453125,24.169922
cobot_dynamixel_driver/joint_states|name|J1,J2,J3,J4,J5,J6|pos|1.047275,0.000175,-0.000050,-0.000013,-0.000083,0.000000|vel|0.000000,-0.000000,0.000000,0.000000,0.000000,0.000000|eff|0.000000,515.625000,-547.851562,0.000000,64.453125,12.084961
cobot_dynamixel_driver/joint_states|name|J1,J2,J3,J4,J5,J6|pos|1.047275,0.000163,-0.000050,-0.000013,-0.000083,0.000000|vel|0.000000,-0.000000,0.000000,0.000000,0.000000,0.000000|eff|0.000000,531.738281,-628.417969,0.000000,68.481445,24.169922
cobot_dynamixel_driver/joint_states|name|J1,J2,J3,J4,J5,J6|pos|1.047275,0.000163,-0.000050,-0.000013,-0.000083,0.000000|vel|0.000000,-0.000000,0.000000,0.000000,0.000000,0.000000|eff|64.453125,451.171875,-596.191406,0.000000,60.424805,24.169922
cobot_dynamixel_driver/joint_states|name|J1,J2,J3,J4,J5,J6|pos|1.047262,0.000163,-0.000050,-0.000013,-0.000083,0.000000|vel|0.000000,-0.000000,0.000000,0.000000,0.000000,0.000000|eff|0.000000,531.738281,-547.851562,0.000000,68.481445,24.169922
cobot_dynamixel_driver/joint_states|name|J1,J2,J3,J4,J5,J6|pos|1.047262,0.000163,-0.000050,-0.000013,-0.000083,0.000000|vel|0.000000,-0.000000,0.000000,0.000000,0.000000,0.000000|eff|0.000000,451.171875,-547.851562,0.000000,68.481445,12.084961
cobot_dynamixel_driver/joint_states|name|J1,J2,J3,J4,J5,J6|pos|1.047262,0.000150,-0.000050,-0.000013,-0.000083,0.000000|vel|0.000000,-0.000000,0.000000,0.000000,0.000000,0.000000|eff|0.000000,531.738281,-612.304688,0.000000,68.481445,20.141602
cobot_dynamixel_driver/joint_states|name|J1,J2,J3,J4,J5,J6|pos|1.047262,0.000150,-0.000050,-0.000013,-0.000083,0.000000|vel|0.000000,-0.000000,0.000000,0.000000,0.000000,0.000000|eff|0.000000,515.625000,-628.417969,0.000000,68.481445,24.169922
cobot_dynamixel_driver/joint_states|name|J1,J2,J3,J4,J5,J6|pos|1.047262,0.000150,-0.000038,-0.000013,-0.000083,0.000000|vel|0.000000,-0.000000,0.000000,0.000000,0.000000,0.000000|eff|0.000000,547.851562,-596.191406,0.000000,68.481445,24.169922
cobot_dynamixel_driver/joint_states|name|J1,J2,J3,J4,J5,J6|pos|1.047262,0.000138,-0.000038,-0.000013,-0.000083,0.000000|vel|0.000000,-0.000000,0.000000,0.000000,0.000000,0.000000|eff|0.000000,628.417969,-580.078125,0.000000,68.481445,24.169922
cobot_dynamixel_driver/joint_states|name|J1,J2,J3,J4,J5,J6|pos|1.047250,0.000138,-0.000038,-0.000013,-0.000083,0.000000|vel|0.000000,-0.000000,0.000000,0.000000,0.000000,0.000000|eff|0.000000,644.531250,-628.417969,0.000000,68.481445,20.141602
cobot_dynamixel_driver/joint_states|name|J1,J2,J3,J4,J5,J6|pos|1.047250,0.000138,-0.000038,-0.000013,-0.000083,0.000000|vel|0.000000,-0.000000,0.000000,0.000000,0.000000,0.000000|eff|0.000000,628.417969,-563.964844,0.000000,68.481445,24.169922
cobot_dynamixel_driver/joint_states|name|J1,J2,J3,J4,J5,J6|pos|1.047237,0.000138,-0.000038,-0.000013,-0.000062,0.000000|vel|0.000000,-0.000000,0.000000,0.000000,0.000000,0.000000|eff|0.000000,547.851562,-547.851562,0.000000,72.509766,20.141602
cobot_dynamixel_driver/joint_states|name|J1,J2,J3,J4,J5,J6|pos|1.047237,0.000125,-0.000038,-0.000013,-0.000062,0.000000|vel|0.000000,-0.000000,0.000000,0.000000,0.000000,0.000000|eff|0.000000,644.531250,-580.078125,0.000000,72.509766,24.169922
cobot_dynamixel_driver/joint_states|name|J1,J2,J3,J4,J5,J6|pos|1.047237,0.000125,-0.000038,-0.000013,-0.000062,0.000000|vel|-0.000209,-0.000000,0.000000,0.000000,0.000000,0.000000|eff|0.000000,628.417969,-547.851562,0.000000,72.509766,20.141602
cobot_dynamixel_driver/joint_states|name|J1,J2,J3,J4,J5,J6|pos|1.047225,0.000113,-0.000038,-0.000013,-0.000062,0.000000|vel|-0.000209,-0.000000,0.000000,0.000000,0.000000,0.000000|eff|0.000000,660.644531,-596.191406,0.000000,76.538086,16.113281
cobot_dynamixel_driver/joint_states|name|J1,J2,J3,J4,J5,J6|pos|1.047225,0.000113,-0.000038,-0.000013,-0.000062,0.000000|vel|-0.000209,-0.000000,0.000000,0.000000,0.000000,0.000000|eff|0.000000,483.398438,-547.851562,0.000000,64.453125,20.141602
cobot_dynamixel_driver/joint_states|name|J1,J2,J3,J4,J5,J6|pos|1.047225,0.000113,-0.000038,-0.000013,-0.000062,0.000000|vel|-0.000209,-0.000000,0.000000,0.000000,0.000000,0.000000|eff|0.000000,515.625000,-547.851562,0.000000,76.538086,12.084961
cobot_dynamixel_driver/joint_states|name|J1,J2,J3,J4,J5,J6|pos|1.047225,0.000113,-0.000038,-0.000013,-0.000041,0.000000|vel|-0.000209,-0.000000,0.000000,0.000000,0.000000,0.000000|eff|0.000000,499.511719,-547.851562,0.000000,76.538086,24.169922
cobot_dynamixel_driver/joint_states|name|J1,J2,J3,J4,J5,J6|pos|1.047225,0.000100,-0.000038,-0.000013,-0.000041,0.000000|vel|-0.000209,-0.000000,0.000000,0.000000,0.000000,0.000000|eff|0.000000,596.191406,-563.964844,0.000000,76.538086,20.141602
cobot_dynamixel_driver/joint_states|name|J1,J2,J3,J4,J5,J6|pos|1.047212,0.000100,-0.000038,-0.000013,-0.000041,0.000000|vel|0.000000,-0.000000,0.000000,0.000000,0.000000,0.000000|eff|0.000000,596.191406,-547.851562,0.000000,80.566406,12.084961
cobot_dynamixel_driver/joint_states|name|J1,J2,J3,J4,J5,J6|pos|1.047212,0.000100,-0.000038,-0.000013,-0.000041,0.000000|vel|0.000000,-0.000000,0.000000,0.000000,0.000000,0.000000|eff|0.000000,676.757812,-547.851562,0.000000,72.509766,16.113281
cobot_dynamixel_driver/joint_states|name|J1,J2,J3,J4,J5,J6|pos|1.047212,0.000100,-0.000038,-0.000013,-0.000041,0.000000|vel|0.000000,-0.000000,0.000000,0.000000,0.000000,0.000000|eff|0.000000,692.871094,-547.851562,0.000000,72.509766,20.141602
cobot_dynamixel_driver/joint_states|name|J1,J2,J3,J4,J5,J6|pos|1.047212,0.000100,-0.000038,-0.000013,-0.000041,0.000000|vel|0.000000,-0.000000,0.000000,0.000000,0.000000,0.000000|eff|0.000000,596.191406,-547.851562,0.000000,76.538086,24.169922
cobot_dynamixel_driver/joint_states|name|J1,J2,J3,J4,J5,J6|pos|1.047212,0.000088,-0.000038,-0.000013,-0.000041,0.000000|vel|0.000000,-0.000000,0.000000,0.000000,0.000000,0.000000|eff|0.000000,596.191406,-547.851562,0.000000,76.538086,12.084961
cobot_dynamixel_driver/joint_states|name|J1,J2,J3,J4,J5,J6|pos|1.047212,0.000088,-0.000038,-0.000013,-0.000041,0.000000|vel|0.000000,-0.000000,0.000000,0.000000,0.000000,0.000000|eff|0.000000,499.511719,-596.191406,0.000000,76.538086,24.169922
cobot_dynamixel_driver/joint_states|name|J1,J2,J3,J4,J5,J6|pos|1.047212,0.000075,-0.000038,-0.000013,-0.000021,0.000000|vel|0.000000,-0.000000,0.000000,0.000000,0.000000,0.000000|eff|0.000000,692.871094,-547.851562,0.000000,76.538086,24.169922
cobot_dynamixel_driver/joint_states|name|J1,J2,J3,J4,J5,J6|pos|1.047212,0.000075,-0.000038,-0.000013,-0.000021,0.000000|vel|0.000000,-0.000000,0.000000,0.000000,0.000000,0.000000|eff|0.000000,531.738281,-547.851562,0.000000,72.509766,24.169922
cobot_dynamixel_driver/joint_states|name|J1,J2,J3,J4,J5,J6|pos|1.047212,0.000075,-0.000025,-0.000013,-0.000021,0.000000|vel|0.000000,-0.000000,0.000000,0.000000,0.000000,0.000000|eff|0.000000,612.304688,-547.851562,0.000000,76.538086,24.169922
cobot_dynamixel_driver/joint_states|name|J1,J2,J3,J4,J5,J6|pos|1.047212,0.000075,-0.000025,-0.000013,-0.000021,0.000000|vel|0.000000,-0.000000,0.000000,0.000000,0.000000,0.000000|eff|0.000000,628.417969,-531.738281,0.000000,80.566406,16.113281
cobot_dynamixel_driver/joint_states|name|J1,J2,J3,J4,J5,J6|pos|1.047212,0.000075,-0.000025,-0.000013,-0.000021,0.000000|vel|0.000000,-0.000000,0.000000,0.000000,0.000000,0.000000|eff|0.000000,547.851562,-531.738281,0.000000,76.538086,20.141602
cobot_dynamixel_driver/joint_states|name|J1,J2,J3,J4,J5,J6|pos|1.047212,0.000075,-0.000025,-0.000013,-0.000021,0.000000|vel|0.000000,-0.000000,0.000000,0.000000,0.000000,0.000000|eff|0.000000,596.191406,-547.851562,0.000000,76.538086,24.169922
cobot_dynamixel_driver/joint_states|name|J1,J2,J3,J4,J5,J6|pos|1.047212,0.000075,-0.000025,-0.000013,-0.000021,0.000000|vel|0.000000,-0.000000,0.000000,0.000000,0.000000,0.000000|eff|0.000000,628.417969,-547.851562,0.000000,76.538086,24.169922
cobot_dynamixel_driver/joint_states|name|J1,J2,J3,J4,J5,J6|pos|1.047212,0.000063,-0.000025,-0.000013,-0.000021,0.000000|vel|0.000000,-0.000000,0.000000,0.000000,0.000000,0.000000|eff|0.000000,692.871094,-547.851562,0.000000,72.509766,12.084961
cobot_dynamixel_driver/joint_states|name|J1,J2,J3,J4,J5,J6|pos|1.047212,0.000063,-0.000025,-0.000013,-0.000021,0.000000|vel|0.000000,-0.000000,0.000000,0.000000,0.000000,0.000000|eff|0.000000,499.511719,-547.851562,0.000000,68.481445,24.169922
cobot_dynamixel_driver/joint_states|name|J1,J2,J3,J4,J5,J6|pos|1.047212,0.000063,-0.000025,-0.000013,-0.000021,0.000000|vel|0.000000,-0.000000,0.000000,0.000000,0.000000,0.000000|eff|0.000000,692.871094,-547.851562,0.000000,72.509766,20.141602
cobot_dynamixel_driver/joint_states|name|J1,J2,J3,J4,J5,J6|pos|1.047212,0.000063,-0.000025,-0.000013,-0.000021,0.000000|vel|0.000000,-0.000000,0.000000,0.000000,0.000000,0.000000|eff|0.000000,676.757812,-547.851562,0.000000,68.481445,24.169922
cobot_dynamixel_driver/joint_states|name|J1,J2,J3,J4,J5,J6|pos|1.047212,0.000063,-0.000025,-0.000013,-0.000021,0.000000|vel|0.000000,-0.000000,0.000000,0.000000,0.000000,0.000000|eff|0.000000,515.625000,-547.851562,0.000000,80.566406,24.169922
cobot_dynamixel_driver/joint_states|name|J1,J2,J3,J4,J5,J6|pos|1.047212,0.000063,-0.000025,-0.000013,-0.000021,0.000000|vel|0.000000,-0.000000,0.000000,0.000000,0.000000,0.000000|eff|0.000000,531.738281,-547.851562,0.000000,72.509766,20.141602
cobot_dynamixel_driver/joint_states|name|J1,J2,J3,J4,J5,J6|pos|1.047200,0.000063,-0.000025,-0.000013,-0.000021,0.000000|vel|0.000000,-0.000000,0.000000,0.000000,0.000000,0.000000|eff|0.000000,692.871094,-563.964844,0.000000,80.566406,16.113281
cobot_dynamixel_driver/joint_states|name|J1,J2,J3,J4,J5,J6|pos|1.047200,0.000063,-0.000025,-0.000013,-0.000021,0.000000|vel|0.000000,-0.000000,0.000000,0.000000,0.000000,0.000000|eff|0.000000,676.757812,-531.738281,0.000000,80.566406,24.169922
cobot_dynamixel_driver/joint_states|name|J1,J2,J3,J4,J5,J6|pos|1.047200,0.000050,-0.000025,-0.000013,-0.000021,0.000000|vel|0.000000,-0.000000,0.000000,0.000000,0.000000,0.000000|eff|0.000000,515.625000,-547.851562,0.000000,68.481445,24.169922
cobot_dynamixel_driver/joint_states|name|J1,J2,J3,J4,J5,J6|pos|1.047200,0.000050,-0.000025,-0.000013,-0.000021,0.000000|vel|0.000000,-0.000000,0.000000,0.000000,0.000000,0.000000|eff|0.000000,676.757812,-531.738281,0.000000,80.566406,12.084961
cobot_dynamixel_driver/joint_states|name|J1,J2,J3,J4,J5,J6|pos|1.047200,0.000050,-0.000025,-0.000013,-0.000021,0.000000|vel|0.000000,-0.000000,0.000000,0.000000,0.000000,0.000000|eff|0.000000,644.531250,-547.851562,0.000000,80.566406,16.113281
cobot_dynamixel_driver/joint_states|name|J1,J2,J3,J4,J5,J6|pos|1.047200,0.000050,-0.000025,-0.000013,-0.000021,0.000000|vel|0.000000,-0.000000,0.000000,0.000000,0.000000,0.000000|eff|0.000000,580.078125,-531.738281,0.000000,80.566406,24.169922
cobot_dynamixel_driver/joint_states|name|J1,J2,J3,J4,J5,J6|pos|1.047200,0.000050,-0.000025,-0.000013,-0.000021,0.000000|vel|0.000000,-0.000000,0.000000,0.000000,0.000000,0.000000|eff|0.000000,676.757812,-547.851562,0.000000,68.481445,24.169922
cobot_dynamixel_driver/joint_states|name|J1,J2,J3,J4,J5,J6|pos|1.047200,0.000050,-0.000025,-0.000013,-0.000021,0.000000|vel|0.000000,-0.000000,0.000000,0.000000,0.000000,0.000000|eff|0.000000,628.417969,-531.738281,0.000000,80.566406,24.169922
cobot_dynamixel_driver/joint_states|name|J1,J2,J3,J4,J5,J6|pos|1.047200,0.000050,-0.000025,-0.000013,-0.000021,0.000000|vel|0.000000,-0.000000,0.000000,0.000000,0.000000,0.000000|eff|0.000000,580.078125,-547.851562,0.000000,72.509766,24.169922
cobot_dynamixel_driver/joint_states|name|J1,J2,J3,J4,J5,J6|pos|1.047200,0.000050,-0.000025,-0.000013,-0.000021,0.000000|vel|0.000000,-0.000000,0.000000,0.000000,0.000000,0.000000|eff|0.000000,692.871094,-531.738281,0.000000,72.509766,12.084961
cobot_dynamixel_driver/joint_states|name|J1,J2,J3,J4,J5,J6|pos|1.047200,0.000038,-0.000025,-0.000013,-0.000021,0.000000|vel|0.000000,-0.000000,0.000000,0.000000,0.000000,0.000000|eff|0.000000,612.304688,-547.851562,0.000000,80.566406,24.169922
cobot_dynamixel_driver/joint_states|name|J1,J2,J3,J4,J5,J6|pos|1.047200,0.000038,-0.000025,-0.000013,-0.000021,0.000000|vel|0.000000,-0.000000,0.000000,0.000000,0.000000,0.000000|eff|0.000000,708.984375,-531.738281,0.000000,68.481445,20.141602
cobot_dynamixel_driver/joint_states|name|J1,J2,J3,J4,J5,J6|pos|1.047200,0.000038,-0.000025,-0.000013,-0.000021,0.000000|vel|0.000000,-0.000000,0.000000,0.000000,0.000000,0.000000|eff|0.000000,612.304688,-547.851562,0.000000,80.566406,24.169922
cobot_dynamixel_driver/joint_states|name|J1,J2,J3,J4,J5,J6|pos|1.047200,0.000038,-0.000025,-0.000013,-0.000021,0.000000|vel|0.000000,-0.000000,0.000000,0.000000,0.000000,0.000000|eff|0.000000,531.738281,-547.851562,0.000000,80.566406,12.084961
cobot_dynamixel_driver/joint_states|name|J1,J2,J3,J4,J5,J6|pos|1.047200,0.000038,-0.000025,-0.000013,-0.000021,0.000000|vel|0.000000,-0.000000,0.000000,0.000000,0.000000,0.000000|eff|0.000000,628.417969,-547.851562,0.000000,72.509766,24.169922
cobot_dynamixel_driver/joint_states|name|J1,J2,J3,J4,J5,J6|pos|1.047200,0.000038,-0.000025,-0.000013,-0.000021,0.000000|vel|0.000000,-0.000000,0.000000,0.000000,0.000000,0.000000|eff|0.000000,676.757812,-547.851562,0.000000,80.566406,24.169922
cobot_dynamixel_driver/joint_states|name|J1,J2,J3,J4,J5,J6|pos|1.047200,0.000038,-0.000025,-0.000013,-0.000021,0.000000|vel|0.000000,-0.000000,0.000000,0.000000,0.000000,0.000000|eff|0.000000,531.738281,-547.851562,0.000000,80.566406,24.169922
cobot_dynamixel_driver/joint_states|name|J1,J2,J3,J4,J5,J6|pos|1.047200,0.000038,-0.000025,-0.000013,-0.000021,0.000000|vel|0.000000,-0.000000,0.000000,0.000000,0.000000,0.000000|eff|0.000000,692.871094,-531.738281,0.000000,80.566406,24.169922
cobot_dynamixel_driver/joint_states|name|J1,J2,J3,J4,J5,J6|pos|1.047200,0.000038,-0.000025,-0.000013,-0.000021,0.000000|vel|0.000000,-0.000000,0.000000,0.000000,0.000000,0.000000|eff|0.000000,644.531250,-531.738281,0.000000,76.538086,16.113281
cobot_dynamixel_driver/joint_states|name|J1,J2,J3,J4,J5,J6|pos|1.047200,0.000038,-0.000025,-0.000013,-0.000021,0.000000|vel|0.000000,-0.000000,0.000000,0.000000,0.000000,0.000000|eff|0.000000,692.871094,-547.851562,0.000000,80.566406,24.169922
cobot_dynamixel_driver/joint_states|name|J1,J2,J3,J4,J5,J6|pos|1.047200,0.000038,-0.000025,-0.000013,-0.000021,0.000000|vel|0.000000,-0.000000,0.000000,0.000000,0.000000,0.000000|eff|0.000000,531.738281,-547.851562,0.000000,68.481445,12.084961
cobot_dynamixel_driver/joint_states|name|J1,J2,J3,J4,J5,J6|pos|1.047200,0.000025,-0.000025,-0.000013,-0.000021,0.000000|vel|0.000000,-0.000000,0.000000,0.000000,0.000000,0.000000|eff|0.000000,692.871094,-531.738281,0.000000,76.538086,12.084961
cobot_dynamixel_driver/joint_states|name|J1,J2,J3,J4,J5,J6|pos|1.047200,0.000025,-0.000025,-0.000013,-0.000021,0.000000|vel|0.000000,-0.000000,0.000000,0.000000,0.000000,0.000000|eff|0.000000,612.304688,-547.851562,0.000000,80.566406,24.169922
cobot_dynamixel_driver/joint_states|name|J1,J2,J3,J4,J5,J6|pos|1.047200,0.000025,-0.000025,-0.000013,-0.000021,0.000000|vel|0.000000,-0.000000,0.000000,0.000000,0.000000,0.000000|eff|0.000000,660.644531,-547.851562,0.000000,76.538086,12.084961
cobot_dynamixel_driver/joint_states|name|J1,J2,J3,J4,J5,J6|pos|1.047200,0.000025,-0.000025,-0.000013,-0.000021,0.000000|vel|0.000000,-0.000000,0.000000,0.000000,0.000000,0.000000|eff|0.000000,644.531250,-547.851562,0.000000,80.566406,16.113281
cobot_dynamixel_driver/joint_states|name|J1,J2,J3,J4,J5,J6|pos|1.047200,0.000025,-0.000025,-0.000013,-0.000021,0.000000|vel|0.000000,-0.000000,0.000000,0.000000,0.000000,0.000000|eff|0.000000,692.871094,-547.851562,0.000000,72.509766,12.084961
cobot_dynamixel_driver/joint_states|name|J1,J2,J3,J4,J5,J6|pos|1.047200,0.000025,-0.000025,-0.000013,-0.000021,0.000000|vel|0.000000,-0.000000,0.000000,0.000000,0.000000,0.000000|eff|0.000000,692.871094,-531.738281,0.000000,72.509766,16.113281
cobot_dynamixel_driver/joint_states|name|J1,J2,J3,J4,J5,J6|pos|1.047200,0.000025,-0.000025,-0.000013,-0.000021,0.000000|vel|0.000000,-0.000000,0.000000,0.000000,0.000000,0.000000|eff|0.000000,692.871094,-547.851562,0.000000,68.481445,24.169922
cobot_dynamixel_driver/joint_states|name|J1,J2,J3,J4,J5,J6|pos|1.047200,0.000025,-0.000025,-0.000013,-0.000021,0.000000|vel|0.000000,-0.000000,0.000000,0.000000,0.000000,0.000000|eff|0.000000,708.984375,-547.851562,0.000000,80.566406,20.141602
cobot_dynamixel_driver/joint_states|name|J1,J2,J3,J4,J5,J6|pos|1.047200,0.000025,-0.000025,-0.000013,-0.000021,0.000000|vel|0.000000,-0.000000,0.000000,0.000000,0.000000,0.000000|eff|0.000000,692.871094,-531.738281,0.000000,72.509766,12.084961
cobot_dynamixel_driver/joint_states|name|J1,J2,J3,J4,J5,J6|pos|1.047200,0.000025,-0.000025,-0.000013,-0.000021,0.000000|vel|0.000000,-0.000000,0.000000,0.000000,0.000000,0.000000|eff|0.000000,692.871094,-547.851562,0.000000,80.566406,24.169922
cobot_dynamixel_driver/joint_states|name|J1,J2,J3,J4,J5,J6|pos|1.047200,0.000025,-0.000025,-0.000013,-0.000021,0.000000|vel|0.000000,-0.000000,0.000000,0.000000,0.000000,0.000000|eff|0.000000,708.984375,-547.851562,0.000000,72.509766,24.169922
cobot_dynamixel_driver/joint_states|name|J1,J2,J3,J4,J5,J6|pos|1.047200,0.000025,-0.000025,-0.000013,-0.000021,0.000000|vel|0.000000,-0.000000,0.000000,0.000000,0.000000,0.000000|eff|0.000000,660.644531,-547.851562,0.000000,72.509766,12.084961
cobot_dynamixel_driver/joint_states|name|J1,J2,J3,J4,J5,J6|pos|1.047200,0.000025,-0.000025,-0.000013,-0.000021,0.000000|vel|0.000000,-0.000000,0.000000,0.000000,0.000000,0.000000|eff|0.000000,660.644531,-547.851562,0.000000,76.538086,20.141602
cobot_dynamixel_driver/joint_states|name|J1,J2,J3,J4,J5,J6|pos|1.047200,0.000025,-0.000025,-0.000013,-0.000021,0.000000|vel|0.000000,-0.000000,0.000000,0.000000,0.000000,0.000000|eff|0.000000,692.871094,-547.851562,0.000000,80.566406,24.169922
cobot_dynamixel_driver/joint_states|name|J1,J2,J3,J4,J5,J6|pos|1.047200,0.000025,-0.000025,-0.000013,-0.000021,0.000000|vel|0.000000,-0.000000,0.000000,0.000000,0.000000,0.000000|eff|0.000000,531.738281,-547.851562,0.000000,76.538086,12.084961
cobot_dynamixel_driver/joint_states|name|J1,J2,J3,J4,J5,J6|pos|1.047200,0.000025,-0.000025,-0.000013,-0.000021,0.000000|vel|0.000000,-0.000000,0.000000,0.000000,0.000000,0.000000|eff|0.000000,563.964844,-531.738281,0.000000,76.538086,24.169922
