surachairobotic/cobot/cobot_dynamixel_driver/log/2018-12-11T11:23:32.345153_driver_log.txt
cobot_dynamixel_driver/joint_states|name|J1,J2,J3,J4,J5,J6|pos|-0.230248,-1.267658,1.261386,0.001014,-1.468373,-0.000083|vel|0.000000,-0.000000,0.000000,0.000000,0.000000,0.000000|eff|0.000000,0.000000,0.000000,0.000000,0.000000,0.000000
cobot_dynamixel_driver/joint_states|name|J1,J2,J3,J4,J5,J6|pos|-0.230248,-1.267658,1.261386,0.001014,-1.468373,-0.000083|vel|0.000000,-0.000000,0.000000,0.000000,0.000000,0.000000|eff|0.000000,0.000000,0.000000,0.000000,0.000000,0.000000
cobot_dynamixel_driver/joint_states|name|J1,J2,J3,J4,J5,J6|pos|-0.230248,-1.267658,1.261386,0.001014,-1.468373,-0.000083|vel|0.000000,-0.000000,0.000000,0.000000,0.000000,0.000000|eff|0.000000,0.000000,0.000000,0.000000,0.000000,0.000000
cobot_dynamixel_driver/joint_states|name|J1,J2,J3,J4,J5,J6|pos|-0.230248,-1.267658,1.261386,0.001014,-1.468373,-0.000083|vel|0.000000,-0.000000,0.000000,0.000000,0.000000,0.000000|eff|0.000000,0.000000,0.000000,0.000000,0.000000,0.000000
cobot_dynamixel_driver/joint_states|name|J1,J2,J3,J4,J5,J6|pos|-0.230248,-1.267658,1.261386,0.001014,-1.468373,-0.000083|vel|0.000000,-0.000000,0.000000,0.000000,0.000000,0.000000|eff|0.000000,0.000000,0.000000,0.000000,0.000000,0.000000
cobot_dynamixel_driver/joint_states|name|J1,J2,J3,J4,J5,J6|pos|-0.230248,-1.267658,1.261386,0.001014,-1.468373,-0.000083|vel|0.000000,-0.000000,0.000000,0.000000,0.000000,0.000000|eff|0.000000,0.000000,0.000000,0.000000,0.000000,0.000000
cobot_dynamixel_driver/joint_states|name|J1,J2,J3,J4,J5,J6|pos|-0.230248,-1.267658,1.261386,0.001014,-1.468373,-0.000083|vel|0.000000,-0.000000,0.000000,0.000000,0.000000,0.000000|eff|0.000000,0.000000,0.000000,0.000000,0.000000,0.000000
cobot_dynamixel_driver/joint_states|name|J1,J2,J3,J4,J5,J6|pos|-0.230248,-1.267658,1.261386,0.001014,-1.468373,-0.000083|vel|0.000000,-0.000000,0.000000,0.000000,0.000000,0.000000|eff|0.000000,0.000000,0.000000,0.000000,0.000000,0.000000
cobot_dynamixel_driver/joint_states|name|J1,J2,J3,J4,J5,J6|pos|-0.230248,-1.267658,1.261386,0.001014,-1.468373,-0.000083|vel|0.000000,-0.000000,0.000000,0.000000,0.000000,0.000000|eff|0.000000,0.000000,0.000000,0.000000,0.000000,0.000000
cobot_dynamixel_driver/joint_states|name|J1,J2,J3,J4,J5,J6|pos|-0.230248,-1.267658,1.261386,0.001014,-1.468373,-0.000083|vel|0.000000,-0.000000,0.000000,0.000000,0.000000,0.000000|eff|0.000000,0.000000,0.000000,0.000000,0.000000,0.000000
cobot_dynamixel_driver/joint_states|name|J1,J2,J3,J4,J5,J6|pos|-0.230248,-1.267658,1.261386,0.001014,-1.468373,-0.000083|vel|0.000000,-0.000000,0.000000,0.000000,0.000000,0.000000|eff|0.000000,0.000000,0.000000,0.000000,0.000000,0.000000
cobot_dynamixel_driver/joint_states|name|J1,J2,J3,J4,J5,J6|pos|-0.230248,-1.267658,1.261386,0.001014,-1.468373,-0.000083|vel|0.000000,-0.000000,0.000000,0.000000,0.000000,0.000000|eff|0.000000,0.000000,0.000000,0.000000,0.000000,0.000000
cobot_dynamixel_driver/joint_states|name|J1,J2,J3,J4,J5,J6|pos|-0.230248,-1.267658,1.261386,0.001014,-1.468373,-0.000083|vel|0.000000,-0.000000,0.000000,0.000000,0.000000,0.000000|eff|0.000000,0.000000,0.000000,0.000000,0.000000,0.000000
cobot_dynamixel_driver/joint_states|name|J1,J2,J3,J4,J5,J6|pos|-0.230248,-1.267658,1.261386,0.001014,-1.468373,-0.000083|vel|0.000000,-0.000000,0.000000,0.000000,0.000000,0.000000|eff|0.000000,0.000000,0.000000,0.000000,0.000000,0.000000
cobot_dynamixel_driver/joint_states|name|J1,J2,J3,J4,J5,J6|pos|-0.230248,-1.267658,1.261386,0.001014,-1.468373,-0.000083|vel|0.000000,-0.000000,0.000000,0.000000,0.000000,0.000000|eff|0.000000,0.000000,0.000000,0.000000,0.000000,0.000000
cobot_dynamixel_driver/joint_states|name|J1,J2,J3,J4,J5,J6|pos|-0.230248,-1.267658,1.261386,0.001014,-1.468373,-0.000083|vel|0.000000,-0.000000,0.000000,0.000000,0.000000,0.000000|eff|0.000000,0.000000,0.000000,0.000000,0.000000,0.000000
cobot_dynamixel_driver/joint_states|name|J1,J2,J3,J4,J5,J6|pos|-0.230248,-1.267658,1.261386,0.001014,-1.468373,-0.000083|vel|0.000000,-0.000000,0.000000,0.000000,0.000000,0.000000|eff|0.000000,0.000000,0.000000,0.000000,0.000000,0.000000
cobot_dynamixel_driver/joint_states|name|J1,J2,J3,J4,J5,J6|pos|-0.230248,-1.267658,1.261386,0.001014,-1.468373,-0.000083|vel|0.000000,-0.000000,0.000000,0.000000,0.000000,0.000000|eff|0.000000,0.000000,0.000000,0.000000,0.000000,0.000000
cobot_dynamixel_driver/joint_states|name|J1,J2,J3,J4,J5,J6|pos|-0.230248,-1.267658,1.261386,0.001014,-1.468373,-0.000083|vel|0.000000,-0.000000,0.000000,0.000000,0.000000,0.000000|eff|0.000000,0.000000,0.000000,0.000000,0.000000,0.000000
cobot_dynamixel_driver/joint_states|name|J1,J2,J3,J4,J5,J6|pos|-0.230248,-1.267658,1.261386,0.001014,-1.468373,-0.000083|vel|0.000000,-0.000000,0.000000,0.000000,0.000000,0.000000|eff|0.000000,0.000000,0.000000,0.000000,0.000000,0.000000
cobot_dynamixel_driver/joint_states|name|J1,J2,J3,J4,J5,J6|pos|-0.230248,-1.267658,1.261386,0.001014,-1.468373,-0.000083|vel|0.000000,-0.000000,0.000000,0.000000,0.000000,0.000000|eff|0.000000,0.000000,0.000000,0.000000,0.000000,0.000000
cobot_dynamixel_driver/joint_states|name|J1,J2,J3,J4,J5,J6|pos|-0.230248,-1.267658,1.261386,0.001014,-1.468373,-0.000083|vel|0.000000,-0.000000,0.000000,0.000000,0.000000,0.000000|eff|0.000000,0.000000,0.000000,0.000000,0.000000,0.000000
cobot_dynamixel_driver/joint_states|name|J1,J2,J3,J4,J5,J6|pos|-0.230248,-1.267658,1.261386,0.001014,-1.468373,-0.000083|vel|0.000000,-0.000000,0.000000,0.000000,0.000000,0.000000|eff|0.000000,0.000000,0.000000,0.000000,0.000000,0.000000
cobot_dynamixel_driver/joint_states|name|J1,J2,J3,J4,J5,J6|pos|-0.230248,-1.267658,1.261386,0.001014,-1.468373,-0.000083|vel|0.000000,-0.000000,0.000000,0.000000,0.000000,0.000000|eff|0.000000,0.000000,0.000000,0.000000,0.000000,0.000000
cobot_dynamixel_driver/joint_states|name|J1,J2,J3,J4,J5,J6|pos|-0.230248,-1.267658,1.261386,0.001014,-1.468373,-0.000083|vel|0.000000,-0.000000,0.000000,0.000000,0.000000,0.000000|eff|0.000000,0.000000,0.000000,0.000000,0.000000,0.000000
cobot_dynamixel_driver/joint_states|name|J1,J2,J3,J4,J5,J6|pos|-0.230248,-1.267658,1.261386,0.001014,-1.468373,-0.000083|vel|0.000000,-0.000000,0.000000,0.000000,0.000000,0.000000|eff|0.000000,0.000000,0.000000,0.000000,0.000000,0.000000
cobot_dynamixel_driver/joint_states|name|J1,J2,J3,J4,J5,J6|pos|-0.230248,-1.267658,1.261386,0.001014,-1.468373,-0.000083|vel|0.000000,-0.000000,0.000000,0.000000,0.000000,0.000000|eff|0.000000,0.000000,0.000000,0.000000,0.000000,0.000000
cobot_dynamixel_driver/joint_states|name|J1,J2,J3,J4,J5,J6|pos|-0.230248,-1.267658,1.261386,0.001014,-1.468373,-0.000083|vel|0.000000,-0.000000,0.000000,0.000000,0.000000,0.000000|eff|0.000000,0.000000,0.000000,0.000000,0.000000,0.000000
cobot_dynamixel_driver/joint_states|name|J1,J2,J3,J4,J5,J6|pos|-0.230248,-1.267658,1.261386,0.001014,-1.468373,-0.000083|vel|0.000000,-0.000000,0.000000,0.000000,0.000000,0.000000|eff|0.000000,0.000000,0.000000,0.000000,0.000000,0.000000
cobot_dynamixel_driver/joint_states|name|J1,J2,J3,J4,J5,J6|pos|-0.230248,-1.267658,1.261386,0.001014,-1.468373,-0.000083|vel|0.000000,-0.000000,0.000000,0.000000,0.000000,0.000000|eff|0.000000,0.000000,0.000000,0.000000,0.000000,0.000000
cobot_dynamixel_driver/joint_states|name|J1,J2,J3,J4,J5,J6|pos|-0.230248,-1.267658,1.261386,0.001014,-1.468373,-0.000083|vel|0.000000,-0.000000,0.000000,0.000000,0.000000,0.000000|eff|0.000000,0.000000,0.000000,0.000000,0.000000,0.000000
cobot_dynamixel_driver/joint_states|name|J1,J2,J3,J4,J5,J6|pos|-0.230248,-1.267658,1.261386,0.001014,-1.468373,-0.000083|vel|0.000000,-0.000000,0.000000,0.000000,0.000000,0.000000|eff|0.000000,0.000000,0.000000,0.000000,0.000000,0.000000
cobot_dynamixel_driver/joint_states|name|J1,J2,J3,J4,J5,J6|pos|-0.230248,-1.267658,1.261386,0.001014,-1.468373,-0.000083|vel|0.000000,-0.000000,0.000000,0.000000,0.000000,0.000000|eff|0.000000,0.000000,0.000000,0.000000,0.000000,0.000000
cobot_dynamixel_driver/joint_states|name|J1,J2,J3,J4,J5,J6|pos|-0.230248,-1.267658,1.261386,0.001014,-1.468373,-0.000083|vel|0.000000,-0.000000,0.000000,0.000000,0.000000,0.000000|eff|0.000000,0.000000,0.000000,0.000000,0.000000,0.000000
cobot_dynamixel_driver/joint_states|name|J1,J2,J3,J4,J5,J6|pos|-0.230248,-1.267658,1.261386,0.001014,-1.468373,-0.000083|vel|0.000000,-0.000000,0.000000,0.000000,0.000000,0.000000|eff|0.000000,0.000000,0.000000,0.000000,0.000000,0.000000
cobot_dynamixel_driver/joint_states|name|J1,J2,J3,J4,J5,J6|pos|-0.230248,-1.267658,1.261386,0.001014,-1.468373,-0.000083|vel|0.000000,-0.000000,0.000000,0.000000,0.000000,0.000000|eff|0.000000,0.000000,0.000000,0.000000,0.000000,0.000000
cobot_dynamixel_driver/joint_states|name|J1,J2,J3,J4,J5,J6|pos|-0.230248,-1.267658,1.261386,0.001014,-1.468373,-0.000083|vel|0.000000,-0.000000,0.000000,0.000000,0.000000,0.000000|eff|0.000000,0.000000,0.000000,0.000000,0.000000,0.000000
cobot_dynamixel_driver/joint_states|name|J1,J2,J3,J4,J5,J6|pos|-0.230248,-1.267658,1.261386,0.001014,-1.468373,-0.000083|vel|0.000000,-0.000000,0.000000,0.000000,0.000000,0.000000|eff|0.000000,0.000000,0.000000,0.000000,0.000000,0.000000
cobot_dynamixel_driver/joint_states|name|J1,J2,J3,J4,J5,J6|pos|-0.230248,-1.267658,1.261386,0.001014,-1.468373,-0.000083|vel|0.000000,-0.000000,0.000000,0.000000,0.000000,0.000000|eff|0.000000,0.000000,0.000000,0.000000,0.000000,0.000000
cobot_dynamixel_driver/joint_states|name|J1,J2,J3,J4,J5,J6|pos|-0.230248,-1.267658,1.261386,0.001014,-1.468373,-0.000083|vel|0.000000,-0.000000,0.000000,0.000000,0.000000,0.000000|eff|0.000000,0.000000,0.000000,0.000000,0.000000,0.000000
cobot_dynamixel_driver/joint_states|name|J1,J2,J3,J4,J5,J6|pos|-0.230248,-1.267658,1.261386,0.001014,-1.468373,-0.000083|vel|0.000000,-0.000000,0.000000,0.000000,0.000000,0.000000|eff|0.000000,0.000000,0.000000,0.000000,0.000000,0.000000
cobot_dynamixel_driver/joint_states|name|J1,J2,J3,J4,J5,J6|pos|-0.230248,-1.267658,1.261386,0.001014,-1.468373,-0.000083|vel|0.000000,-0.000000,0.000000,0.000000,0.000000,0.000000|eff|0.000000,0.000000,0.000000,0.000000,0.000000,0.000000
cobot_dynamixel_driver/joint_states|name|J1,J2,J3,J4,J5,J6|pos|-0.230248,-1.267658,1.261386,0.001014,-1.468373,-0.000083|vel|0.000000,-0.000000,0.000000,0.000000,0.000000,0.000000|eff|0.000000,0.000000,0.000000,0.000000,0.000000,0.000000
cobot_dynamixel_driver/joint_states|name|J1,J2,J3,J4,J5,J6|pos|-0.230248,-1.267658,1.261386,0.001014,-1.468373,-0.000083|vel|0.000000,-0.000000,0.000000,0.000000,0.000000,0.000000|eff|0.000000,0.000000,0.000000,0.000000,0.000000,0.000000
cobot_dynamixel_driver/joint_states|name|J1,J2,J3,J4,J5,J6|pos|-0.230248,-1.267658,1.261386,0.001014,-1.468373,-0.000083|vel|0.000000,-0.000000,0.000000,0.000000,0.000000,0.000000|eff|0.000000,0.000000,0.000000,0.000000,0.000000,0.000000
cobot_dynamixel_driver/joint_states|name|J1,J2,J3,J4,J5,J6|pos|-0.230248,-1.267658,1.261386,0.001014,-1.468373,-0.000083|vel|0.000000,-0.000000,0.000000,0.000000,0.000000,0.000000|eff|0.000000,0.000000,0.000000,0.000000,0.000000,0.000000
cobot_dynamixel_driver/joint_states|name|J1,J2,J3,J4,J5,J6|pos|-0.230248,-1.267658,1.261386,0.001014,-1.468373,-0.000083|vel|0.000000,-0.000000,0.000000,0.000000,0.000000,0.000000|eff|0.000000,0.000000,0.000000,0.000000,0.000000,0.000000
cobot_dynamixel_driver/joint_states|name|J1,J2,J3,J4,J5,J6|pos|-0.230248,-1.267658,1.261386,0.001014,-1.468373,-0.000083|vel|0.000000,-0.000000,0.000000,0.000000,0.000000,0.000000|eff|0.000000,0.000000,0.000000,0.000000,0.000000,0.000000
cobot_dynamixel_driver/joint_states|name|J1,J2,J3,J4,J5,J6|pos|-0.230248,-1.267658,1.261386,0.001014,-1.468373,-0.000083|vel|0.000000,-0.000000,0.000000,0.000000,0.000000,0.000000|eff|0.000000,0.000000,0.000000,0.000000,0.000000,0.000000
cobot_dynamixel_driver/joint_states|name|J1,J2,J3,J4,J5,J6|pos|-0.230248,-1.267658,1.261386,0.001014,-1.468373,-0.000083|vel|0.000000,-0.000000,0.000000,0.000000,0.000000,0.000000|eff|0.000000,0.000000,0.000000,0.000000,0.000000,0.000000
cobot_dynamixel_driver/joint_states|name|J1,J2,J3,J4,J5,J6|pos|-0.230248,-1.267658,1.261386,0.001014,-1.468373,-0.000083|vel|0.000000,-0.000000,0.000000,0.000000,0.000000,0.000000|eff|0.000000,0.000000,0.000000,0.000000,0.000000,0.000000
cobot_dynamixel_driver/joint_states|name|J1,J2,J3,J4,J5,J6|pos|-0.230248,-1.267658,1.261386,0.001014,-1.468373,-0.000083|vel|0.000000,-0.000000,0.000000,0.000000,0.000000,0.000000|eff|0.000000,0.000000,0.000000,0.000000,0.000000,0.000000
cobot_dynamixel_driver/joint_states|name|J1,J2,J3,J4,J5,J6|pos|-0.230248,-1.267658,1.261386,0.001014,-1.468373,-0.000083|vel|0.000000,-0.000000,0.000000,0.000000,0.000000,0.000000|eff|0.000000,0.000000,0.000000,0.000000,0.000000,0.000000
cobot_dynamixel_driver/joint_states|name|J1,J2,J3,J4,J5,J6|pos|-0.230248,-1.267658,1.261386,0.001014,-1.468373,-0.000083|vel|0.000000,-0.000000,0.000000,0.000000,0.000000,0.000000|eff|0.000000,0.000000,0.000000,0.000000,0.000000,0.000000
cobot_dynamixel_driver/joint_states|name|J1,J2,J3,J4,J5,J6|pos|-0.230248,-1.267658,1.261386,0.001014,-1.468373,-0.000083|vel|0.000000,-0.000000,0.000000,0.000000,0.000000,0.000000|eff|0.000000,0.000000,0.000000,0.000000,0.000000,0.000000
cobot_dynamixel_driver/joint_states|name|J1,J2,J3,J4,J5,J6|pos|-0.230248,-1.267658,1.261386,0.001014,-1.468373,-0.000083|vel|0.000000,-0.000000,0.000000,0.000000,0.000000,0.000000|eff|0.000000,0.000000,0.000000,0.000000,0.000000,0.000000
cobot_dynamixel_driver/joint_states|name|J1,J2,J3,J4,J5,J6|pos|-0.230248,-1.267658,1.261386,0.001014,-1.468373,-0.000083|vel|0.000000,-0.000000,0.000000,0.000000,0.000000,0.000000|eff|0.000000,0.000000,0.000000,0.000000,0.000000,0.000000
cobot_dynamixel_driver/joint_states|name|J1,J2,J3,J4,J5,J6|pos|-0.230248,-1.267658,1.261386,0.001014,-1.468373,-0.000083|vel|0.000000,-0.000000,0.000000,0.000000,0.000000,0.000000|eff|0.000000,0.000000,0.000000,0.000000,0.000000,0.000000
cobot_dynamixel_driver/joint_states|name|J1,J2,J3,J4,J5,J6|pos|-0.230248,-1.267658,1.261386,0.001014,-1.468373,-0.000083|vel|0.000000,-0.000000,0.000000,0.000000,0.000000,0.000000|eff|0.000000,0.000000,0.000000,0.000000,0.000000,0.000000
cobot_dynamixel_driver/joint_states|name|J1,J2,J3,J4,J5,J6|pos|-0.230248,-1.267658,1.261386,0.001014,-1.468373,-0.000083|vel|0.000000,-0.000000,0.000000,0.000000,0.000000,0.000000|eff|0.000000,0.000000,0.000000,0.000000,0.000000,0.000000
cobot_dynamixel_driver/joint_states|name|J1,J2,J3,J4,J5,J6|pos|-0.230248,-1.267658,1.261386,0.001014,-1.468373,-0.000083|vel|0.000000,-0.000000,0.000000,0.000000,0.000000,0.000000|eff|0.000000,0.000000,0.000000,0.000000,0.000000,0.000000
cobot_dynamixel_driver/joint_states|name|J1,J2,J3,J4,J5,J6|pos|-0.230248,-1.267658,1.261386,0.001014,-1.468373,-0.000083|vel|0.000000,-0.000000,0.000000,0.000000,0.000000,0.000000|eff|0.000000,0.000000,0.000000,0.000000,0.000000,0.000000
cobot_dynamixel_driver/joint_states|name|J1,J2,J3,J4,J5,J6|pos|-0.230248,-1.267658,1.261386,0.001014,-1.468373,-0.000083|vel|0.000000,-0.000000,0.000000,0.000000,0.000000,0.000000|eff|0.000000,0.000000,0.000000,0.000000,0.000000,0.000000
cobot_dynamixel_driver/joint_states|name|J1,J2,J3,J4,J5,J6|pos|-0.230248,-1.267658,1.261386,0.001014,-1.468373,-0.000083|vel|0.000000,-0.000000,0.000000,0.000000,0.000000,0.000000|eff|0.000000,0.000000,0.000000,0.000000,0.000000,0.000000
cobot_dynamixel_driver/joint_states|name|J1,J2,J3,J4,J5,J6|pos|-0.230248,-1.267658,1.261386,0.001014,-1.468373,-0.000083|vel|0.000000,-0.000000,0.000000,0.000000,0.000000,0.000000|eff|0.000000,0.000000,0.000000,0.000000,0.000000,0.000000
cobot_dynamixel_driver/joint_states|name|J1,J2,J3,J4,J5,J6|pos|-0.230248,-1.267658,1.261386,0.001014,-1.468373,-0.000083|vel|0.000000,-0.000000,0.000000,0.000000,0.000000,0.000000|eff|0.000000,0.000000,0.000000,0.000000,0.000000,0.000000
cobot_dynamixel_driver/joint_states|name|J1,J2,J3,J4,J5,J6|pos|-0.230248,-1.267658,1.261386,0.001014,-1.468373,-0.000083|vel|0.000000,-0.000000,0.000000,0.000000,0.000000,0.000000|eff|0.000000,0.000000,0.000000,0.000000,0.000000,0.000000
cobot_dynamixel_driver/joint_states|name|J1,J2,J3,J4,J5,J6|pos|-0.230248,-1.267658,1.261386,0.001014,-1.468373,-0.000083|vel|0.000000,-0.000000,0.000000,0.000000,0.000000,0.000000|eff|0.000000,0.000000,0.000000,0.000000,0.000000,0.000000
cobot_dynamixel_driver/joint_states|name|J1,J2,J3,J4,J5,J6|pos|-0.230248,-1.267658,1.261386,0.001014,-1.468373,-0.000083|vel|0.000000,-0.000000,0.000000,0.000000,0.000000,0.000000|eff|0.000000,0.000000,0.000000,0.000000,0.000000,0.000000
cobot_dynamixel_driver/joint_states|name|J1,J2,J3,J4,J5,J6|pos|-0.230248,-1.267658,1.261386,0.001014,-1.468373,-0.000083|vel|0.000000,-0.000000,0.000000,0.000000,0.000000,0.000000|eff|0.000000,0.000000,0.000000,0.000000,0.000000,0.000000
cobot_dynamixel_driver/joint_states|name|J1,J2,J3,J4,J5,J6|pos|-0.230248,-1.267658,1.261386,0.001014,-1.468373,-0.000083|vel|0.000000,-0.000000,0.000000,0.000000,0.000000,0.000000|eff|0.000000,0.000000,0.000000,0.000000,0.000000,0.000000
cobot_dynamixel_driver/joint_states|name|J1,J2,J3,J4,J5,J6|pos|-0.230248,-1.267658,1.261386,0.001014,-1.468373,-0.000083|vel|0.000000,-0.000000,0.000000,0.000000,0.000000,0.000000|eff|0.000000,0.000000,0.000000,0.000000,0.000000,0.000000
cobot_dynamixel_driver/joint_states|name|J1,J2,J3,J4,J5,J6|pos|-0.230248,-1.267658,1.261386,0.001014,-1.468373,-0.000083|vel|0.000000,-0.000000,0.000000,0.000000,0.000000,0.000000|eff|0.000000,0.000000,0.000000,0.000000,0.000000,0.000000
cobot_dynamixel_driver/joint_states|name|J1,J2,J3,J4,J5,J6|pos|-0.230248,-1.267658,1.261386,0.001014,-1.468373,-0.000083|vel|0.000000,-0.000000,0.000000,0.000000,0.000000,0.000000|eff|0.000000,0.000000,0.000000,0.000000,0.000000,0.000000
cobot_dynamixel_driver/joint_states|name|J1,J2,J3,J4,J5,J6|pos|-0.230248,-1.267658,1.261386,0.001014,-1.468373,-0.000083|vel|0.000000,-0.000000,0.000000,0.000000,0.000000,0.000000|eff|0.000000,-32.226562,0.000000,0.000000,0.000000,0.000000
cobot_dynamixel_driver/joint_states|name|J1,J2,J3,J4,J5,J6|pos|-0.230248,-1.267658,1.261386,0.001014,-1.468373,-0.000083|vel|0.000000,-0.000000,0.000000,0.000000,0.000000,0.000000|eff|0.000000,-32.226562,0.000000,0.000000,0.000000,0.000000
cobot_dynamixel_driver/joint_states|name|J1,J2,J3,J4,J5,J6|pos|-0.230248,-1.267658,1.261386,0.001014,-1.468373,-0.000083|vel|0.000000,-0.000000,0.000000,0.000000,0.000000,0.000000|eff|0.000000,0.000000,0.000000,0.000000,0.000000,0.000000
cobot_dynamixel_driver/joint_states|name|J1,J2,J3,J4,J5,J6|pos|-0.230248,-1.267658,1.261386,0.001014,-1.468373,-0.000083|vel|0.000000,-0.000000,0.000000,0.000000,0.000000,0.000000|eff|0.000000,0.000000,0.000000,0.000000,0.000000,0.000000
cobot_dynamixel_driver/joint_states|name|J1,J2,J3,J4,J5,J6|pos|-0.230248,-1.267658,1.261386,0.001014,-1.468373,-0.000083|vel|0.000000,-0.000000,0.000000,0.000000,0.000000,0.000000|eff|0.000000,0.000000,0.000000,0.000000,0.000000,0.000000
cobot_dynamixel_driver/joint_states|name|J1,J2,J3,J4,J5,J6|pos|-0.230248,-1.267658,1.261386,0.001014,-1.468373,-0.000083|vel|0.000000,-0.000000,0.000000,0.000000,0.000000,0.000000|eff|0.000000,0.000000,0.000000,0.000000,0.000000,0.000000
cobot_dynamixel_driver/joint_states|name|J1,J2,J3,J4,J5,J6|pos|-0.230248,-1.267658,1.261386,0.001014,-1.468373,-0.000083|vel|0.000000,-0.000000,0.000000,0.000000,0.000000,0.000000|eff|0.000000,0.000000,0.000000,0.000000,0.000000,0.000000
cobot_dynamixel_driver/joint_states|name|J1,J2,J3,J4,J5,J6|pos|-0.230248,-1.267658,1.261386,0.001014,-1.468373,-0.000083|vel|0.000000,-0.000000,0.000000,0.000000,0.000000,0.000000|eff|0.000000,0.000000,0.000000,0.000000,0.000000,0.000000
cobot_dynamixel_driver/joint_states|name|J1,J2,J3,J4,J5,J6|pos|-0.230248,-1.267658,1.261386,0.001014,-1.468373,-0.000083|vel|0.000000,-0.000000,0.000000,0.000000,0.000000,0.000000|eff|0.000000,0.000000,0.000000,0.000000,0.000000,0.000000
cobot_dynamixel_driver/joint_states|name|J1,J2,J3,J4,J5,J6|pos|-0.230248,-1.267658,1.261386,0.001014,-1.468373,-0.000083|vel|0.000000,-0.000000,0.000000,0.000000,0.000000,0.000000|eff|0.000000,0.000000,0.000000,0.000000,0.000000,0.000000
cobot_dynamixel_driver/joint_states|name|J1,J2,J3,J4,J5,J6|pos|-0.230248,-1.267658,1.261386,0.001014,-1.468373,-0.000083|vel|0.000000,-0.000000,0.000000,0.000000,0.000000,0.000000|eff|0.000000,0.000000,0.000000,0.000000,0.000000,0.000000
cobot_dynamixel_driver/joint_states|name|J1,J2,J3,J4,J5,J6|pos|-0.230248,-1.267658,1.261386,0.001014,-1.468373,-0.000083|vel|0.000000,-0.000000,0.000000,0.000000,0.000000,0.000000|eff|0.000000,0.000000,0.000000,0.000000,0.000000,0.000000
cobot_dynamixel_driver/joint_states|name|J1,J2,J3,J4,J5,J6|pos|-0.230248,-1.267658,1.261386,0.001014,-1.468373,-0.000083|vel|0.000000,-0.000000,0.000000,0.000000,0.000000,0.000000|eff|0.000000,0.000000,0.000000,0.000000,0.000000,0.000000
cobot_dynamixel_driver/joint_states|name|J1,J2,J3,J4,J5,J6|pos|-0.230248,-1.267658,1.261386,0.001014,-1.468373,-0.000083|vel|0.000000,-0.000000,0.000000,0.000000,0.000000,0.000000|eff|0.000000,0.000000,0.000000,0.000000,0.000000,0.000000
cobot_dynamixel_driver/joint_states|name|J1,J2,J3,J4,J5,J6|pos|-0.230248,-1.267658,1.261386,0.001014,-1.468373,-0.000083|vel|0.000000,-0.000000,0.000000,0.000000,0.000000,0.000000|eff|0.000000,0.000000,0.000000,0.000000,0.000000,0.000000
cobot_dynamixel_driver/joint_states|name|J1,J2,J3,J4,J5,J6|pos|-0.230248,-1.267658,1.261386,0.001014,-1.468373,-0.000083|vel|0.000000,-0.000000,0.000000,0.000000,0.000000,0.000000|eff|0.000000,0.000000,0.000000,0.000000,0.000000,0.000000
cobot_dynamixel_driver/joint_states|name|J1,J2,J3,J4,J5,J6|pos|-0.230248,-1.267658,1.261386,0.001014,-1.468373,-0.000083|vel|0.000000,-0.000000,0.000000,0.000000,0.000000,0.000000|eff|0.000000,0.000000,0.000000,0.000000,0.000000,0.000000
cobot_dynamixel_driver/joint_states|name|J1,J2,J3,J4,J5,J6|pos|-0.230248,-1.267658,1.261386,0.001014,-1.468373,-0.000083|vel|0.000000,-0.000000,0.000000,0.000000,0.000000,0.000000|eff|0.000000,0.000000,0.000000,0.000000,0.000000,0.000000
cobot_dynamixel_driver/joint_states|name|J1,J2,J3,J4,J5,J6|pos|-0.230248,-1.267658,1.261386,0.001014,-1.468373,-0.000083|vel|0.000000,-0.000000,0.000000,0.000000,0.000000,0.000000|eff|0.000000,0.000000,0.000000,0.000000,0.000000,0.000000
cobot_dynamixel_driver/joint_states|name|J1,J2,J3,J4,J5,J6|pos|-0.230248,-1.267658,1.261386,0.001014,-1.468373,-0.000083|vel|0.000000,-0.000000,0.000000,0.000000,0.000000,0.000000|eff|0.000000,0.000000,0.000000,0.000000,0.000000,0.000000
cobot_dynamixel_driver/joint_states|name|J1,J2,J3,J4,J5,J6|pos|-0.230248,-1.267658,1.261386,0.001014,-1.468373,-0.000083|vel|0.000000,-0.000000,0.000000,0.000000,0.000000,0.000000|eff|0.000000,0.000000,0.000000,0.000000,0.000000,0.000000
cobot_dynamixel_driver/joint_states|name|J1,J2,J3,J4,J5,J6|pos|-0.230248,-1.267658,1.261386,0.001014,-1.468373,-0.000083|vel|0.000000,-0.000000,0.000000,0.000000,0.000000,0.000000|eff|0.000000,0.000000,0.000000,0.000000,0.000000,0.000000
cobot_dynamixel_driver/joint_states|name|J1,J2,J3,J4,J5,J6|pos|-0.230248,-1.267658,1.261386,0.001014,-1.468373,-0.000083|vel|0.000000,-0.000000,0.000000,0.000000,0.000000,0.000000|eff|0.000000,0.000000,0.000000,0.000000,0.000000,0.000000
cobot_dynamixel_driver/joint_states|name|J1,J2,J3,J4,J5,J6|pos|-0.230248,-1.267658,1.261386,0.001014,-1.468373,-0.000083|vel|0.000000,-0.000000,0.000000,0.000000,0.000000,0.000000|eff|0.000000,0.000000,0.000000,0.000000,0.000000,0.000000
cobot_dynamixel_driver/joint_states|name|J1,J2,J3,J4,J5,J6|pos|-0.230248,-1.267658,1.261386,0.001014,-1.468373,-0.000083|vel|0.000000,-0.000000,0.000000,0.000000,0.000000,0.000000|eff|0.000000,0.000000,0.000000,0.000000,0.000000,0.000000
cobot_dynamixel_driver/joint_states|name|J1,J2,J3,J4,J5,J6|pos|-0.230248,-1.267658,1.261386,0.001014,-1.468373,-0.000083|vel|0.000000,-0.000000,0.000000,0.000000,0.000000,0.000000|eff|0.000000,0.000000,0.000000,0.000000,0.000000,0.000000
cobot_dynamixel_driver/joint_states|name|J1,J2,J3,J4,J5,J6|pos|-0.230248,-1.267658,1.261386,0.001014,-1.468373,-0.000083|vel|0.000000,-0.000000,0.000000,0.000000,0.000000,0.000000|eff|0.000000,0.000000,0.000000,0.000000,0.000000,0.000000
cobot_dynamixel_driver/joint_states|name|J1,J2,J3,J4,J5,J6|pos|-0.230248,-1.267658,1.261386,0.001014,-1.468373,-0.000083|vel|0.000000,-0.000000,0.000000,0.000000,0.000000,0.000000|eff|0.000000,0.000000,0.000000,0.000000,0.000000,0.000000
cobot_dynamixel_driver/joint_states|name|J1,J2,J3,J4,J5,J6|pos|-0.230248,-1.267658,1.261386,0.001014,-1.468373,-0.000083|vel|0.000000,-0.000000,0.000000,0.000000,0.000000,0.000000|eff|0.000000,0.000000,0.000000,0.000000,0.000000,0.000000
cobot_dynamixel_driver/joint_states|name|J1,J2,J3,J4,J5,J6|pos|-0.230248,-1.267658,1.261386,0.001014,-1.468373,-0.000083|vel|0.000000,-0.000000,0.000000,0.000000,0.000000,0.000000|eff|0.000000,0.000000,0.000000,0.000000,0.000000,0.000000
cobot_dynamixel_driver/joint_states|name|J1,J2,J3,J4,J5,J6|pos|-0.230248,-1.267658,1.261386,0.001014,-1.468373,-0.000083|vel|0.000000,-0.000000,0.000000,0.000000,0.000000,0.000000|eff|0.000000,0.000000,0.000000,0.000000,0.000000,0.000000
cobot_dynamixel_driver/joint_states|name|J1,J2,J3,J4,J5,J6|pos|-0.230248,-1.267658,1.261386,0.001014,-1.468373,-0.000083|vel|0.000000,-0.000000,0.000000,0.000000,0.000000,0.000000|eff|0.000000,0.000000,0.000000,0.000000,0.000000,0.000000
cobot_dynamixel_driver/joint_states|name|J1,J2,J3,J4,J5,J6|pos|-0.230248,-1.267658,1.261386,0.001014,-1.468373,-0.000083|vel|0.000000,-0.000000,0.000000,0.000000,0.000000,0.000000|eff|0.000000,0.000000,0.000000,0.000000,0.000000,0.000000
cobot_dynamixel_driver/joint_states|name|J1,J2,J3,J4,J5,J6|pos|-0.230248,-1.267658,1.261386,0.001014,-1.468373,-0.000083|vel|0.000000,-0.000000,0.000000,0.000000,0.000000,0.000000|eff|0.000000,0.000000,0.000000,0.000000,0.000000,0.000000
cobot_dynamixel_driver/joint_states|name|J1,J2,J3,J4,J5,J6|pos|-0.230248,-1.267658,1.261386,0.001014,-1.468373,-0.000083|vel|0.000000,-0.000000,0.000000,0.000000,0.000000,0.000000|eff|0.000000,0.000000,0.000000,0.000000,0.000000,0.000000
cobot_dynamixel_driver/joint_states|name|J1,J2,J3,J4,J5,J6|pos|-0.230248,-1.267658,1.261386,0.001014,-1.468373,-0.000083|vel|0.000000,-0.000000,0.000000,0.000000,0.000000,0.000000|eff|0.000000,0.000000,0.000000,0.000000,0.000000,0.000000
cobot_dynamixel_driver/joint_states|name|J1,J2,J3,J4,J5,J6|pos|-0.230248,-1.267658,1.261386,0.001014,-1.468373,-0.000083|vel|0.000000,-0.000000,0.000000,0.000000,0.000000,0.000000|eff|0.000000,0.000000,0.000000,0.000000,0.000000,0.000000
cobot_dynamixel_driver/joint_states|name|J1,J2,J3,J4,J5,J6|pos|-0.230248,-1.267658,1.261386,0.001014,-1.468373,-0.000083|vel|0.000000,-0.000000,0.000000,0.000000,0.000000,0.000000|eff|0.000000,0.000000,0.000000,0.000000,0.000000,0.000000
cobot_dynamixel_driver/joint_states|name|J1,J2,J3,J4,J5,J6|pos|-0.230248,-1.267658,1.261386,0.001014,-1.468373,-0.000083|vel|0.000000,-0.000000,0.000000,0.000000,0.000000,0.000000|eff|0.000000,0.000000,0.000000,0.000000,0.000000,0.000000
cobot_dynamixel_driver/joint_states|name|J1,J2,J3,J4,J5,J6|pos|-0.230248,-1.267658,1.261386,0.001014,-1.468373,-0.000083|vel|0.000000,-0.000000,0.000000,0.000000,0.000000,0.000000|eff|0.000000,0.000000,0.000000,0.000000,0.000000,0.000000
cobot_dynamixel_driver/joint_states|name|J1,J2,J3,J4,J5,J6|pos|-0.230248,-1.267658,1.261386,0.001014,-1.468373,-0.000083|vel|0.000000,-0.000000,0.000000,0.000000,0.000000,0.000000|eff|0.000000,0.000000,0.000000,0.000000,0.000000,0.000000
cobot_dynamixel_driver/joint_states|name|J1,J2,J3,J4,J5,J6|pos|-0.230248,-1.267658,1.261386,0.001014,-1.468373,-0.000083|vel|0.000000,-0.000000,0.000000,0.000000,0.000000,0.000000|eff|0.000000,0.000000,0.000000,0.000000,0.000000,0.000000
cobot_dynamixel_driver/joint_states|name|J1,J2,J3,J4,J5,J6|pos|-0.230248,-1.267658,1.261386,0.001014,-1.468373,-0.000083|vel|0.000000,-0.000000,0.000000,0.000000,0.000000,0.000000|eff|0.000000,0.000000,0.000000,0.000000,0.000000,0.000000
cobot_dynamixel_driver/joint_states|name|J1,J2,J3,J4,J5,J6|pos|-0.230248,-1.267658,1.261386,0.001014,-1.468373,-0.000083|vel|0.000000,-0.000000,0.000000,0.000000,0.000000,0.000000|eff|0.000000,0.000000,0.000000,0.000000,0.000000,0.000000
cobot_dynamixel_driver/joint_states|name|J1,J2,J3,J4,J5,J6|pos|-0.230248,-1.267658,1.261386,0.001014,-1.468373,-0.000083|vel|0.000000,-0.000000,0.000000,0.000000,0.000000,0.000000|eff|0.000000,0.000000,0.000000,0.000000,0.000000,0.000000
cobot_dynamixel_driver/joint_states|name|J1,J2,J3,J4,J5,J6|pos|-0.230248,-1.267658,1.261386,0.001014,-1.468373,-0.000083|vel|0.000000,-0.000000,0.000000,0.000000,0.000000,0.000000|eff|0.000000,0.000000,0.000000,0.000000,0.000000,0.000000
cobot_dynamixel_driver/joint_states|name|J1,J2,J3,J4,J5,J6|pos|-0.230248,-1.267658,1.261386,0.001014,-1.468373,-0.000083|vel|0.000000,-0.000000,0.000000,0.000000,0.000000,0.000000|eff|0.000000,0.000000,0.000000,0.000000,0.000000,0.000000
cobot_dynamixel_driver/joint_states|name|J1,J2,J3,J4,J5,J6|pos|-0.230248,-1.267658,1.261386,0.001014,-1.468373,-0.000083|vel|0.000000,-0.000000,0.000000,0.000000,0.000000,0.000000|eff|0.000000,0.000000,0.000000,0.000000,0.000000,0.000000
cobot_dynamixel_driver/joint_states|name|J1,J2,J3,J4,J5,J6|pos|-0.230248,-1.267658,1.261386,0.001014,-1.468373,-0.000083|vel|0.000000,-0.000000,0.000000,0.000000,0.000000,0.000000|eff|0.000000,0.000000,0.000000,0.000000,0.000000,0.000000
cobot_dynamixel_driver/joint_states|name|J1,J2,J3,J4,J5,J6|pos|-0.230248,-1.267658,1.261386,0.001014,-1.468373,-0.000083|vel|0.000000,-0.000000,0.000000,0.000000,0.000000,0.000000|eff|0.000000,0.000000,0.000000,0.000000,0.000000,0.000000
cobot_dynamixel_driver/joint_states|name|J1,J2,J3,J4,J5,J6|pos|-0.230248,-1.267658,1.261386,0.001014,-1.468373,-0.000083|vel|0.000000,-0.000000,0.000000,0.000000,0.000000,0.000000|eff|0.000000,0.000000,0.000000,0.000000,0.000000,0.000000
cobot_dynamixel_driver/joint_states|name|J1,J2,J3,J4,J5,J6|pos|-0.230248,-1.267658,1.261386,0.001014,-1.468373,-0.000083|vel|0.000000,-0.000000,0.000000,0.000000,0.000000,0.000000|eff|0.000000,0.000000,0.000000,0.000000,0.000000,0.000000
cobot_dynamixel_driver/joint_states|name|J1,J2,J3,J4,J5,J6|pos|-0.230248,-1.267658,1.261386,0.001014,-1.468373,-0.000083|vel|0.000000,-0.000000,0.000000,0.000000,0.000000,0.000000|eff|0.000000,0.000000,0.000000,0.000000,0.000000,0.000000
cobot_dynamixel_driver/joint_states|name|J1,J2,J3,J4,J5,J6|pos|-0.230248,-1.267658,1.261386,0.001014,-1.468373,-0.000083|vel|0.000000,-0.000000,0.000000,0.000000,0.000000,0.000000|eff|0.000000,0.000000,0.000000,0.000000,0.000000,0.000000
cobot_dynamixel_driver/joint_states|name|J1,J2,J3,J4,J5,J6|pos|-0.230248,-1.267658,1.261386,0.001014,-1.468373,-0.000083|vel|0.000000,-0.000000,0.000000,0.000000,0.000000,0.000000|eff|0.000000,0.000000,0.000000,0.000000,0.000000,0.000000
cobot_dynamixel_driver/joint_states|name|J1,J2,J3,J4,J5,J6|pos|-0.230248,-1.267658,1.261386,0.001014,-1.468373,-0.000083|vel|0.000000,-0.000000,0.000000,0.000000,0.000000,0.000000|eff|0.000000,0.000000,0.000000,0.000000,0.000000,0.000000
cobot_dynamixel_driver/joint_states|name|J1,J2,J3,J4,J5,J6|pos|-0.230248,-1.267658,1.261386,0.001014,-1.468373,-0.000083|vel|0.000000,-0.000000,0.000000,0.000000,0.000000,0.000000|eff|0.000000,0.000000,0.000000,0.000000,0.000000,0.000000
cobot_dynamixel_driver/joint_states|name|J1,J2,J3,J4,J5,J6|pos|-0.230248,-1.267658,1.261386,0.001014,-1.468373,-0.000083|vel|0.000000,-0.000000,0.000000,0.000000,0.000000,0.000000|eff|0.000000,0.000000,0.000000,0.000000,0.000000,0.000000
cobot_dynamixel_driver/joint_states|name|J1,J2,J3,J4,J5,J6|pos|-0.230248,-1.267658,1.261386,0.001014,-1.468373,-0.000083|vel|0.000000,-0.000000,0.000000,0.000000,0.000000,0.000000|eff|0.000000,0.000000,0.000000,0.000000,0.000000,0.000000
cobot_dynamixel_driver/joint_states|name|J1,J2,J3,J4,J5,J6|pos|-0.230248,-1.267658,1.261386,0.001014,-1.468373,-0.000083|vel|0.000000,-0.000000,0.000000,0.000000,0.000000,0.000000|eff|0.000000,0.000000,0.000000,0.000000,0.000000,0.000000
cobot_dynamixel_driver/joint_states|name|J1,J2,J3,J4,J5,J6|pos|-0.230248,-1.267658,1.261386,0.001014,-1.468373,-0.000083|vel|0.000000,-0.000000,0.000000,0.000000,0.000000,0.000000|eff|0.000000,0.000000,0.000000,0.000000,0.000000,0.000000
cobot_dynamixel_driver/joint_states|name|J1,J2,J3,J4,J5,J6|pos|-0.230248,-1.267658,1.261386,0.001014,-1.468373,-0.000083|vel|0.000000,-0.000000,0.000000,0.000000,0.000000,0.000000|eff|0.000000,0.000000,0.000000,0.000000,0.000000,0.000000
cobot_dynamixel_driver/joint_states|name|J1,J2,J3,J4,J5,J6|pos|-0.230248,-1.267658,1.261386,0.001014,-1.468373,-0.000083|vel|0.000000,-0.000000,0.000000,0.000000,0.000000,0.000000|eff|0.000000,0.000000,0.000000,0.000000,0.000000,0.000000
cobot_dynamixel_driver/joint_states|name|J1,J2,J3,J4,J5,J6|pos|-0.230248,-1.267658,1.261386,0.001014,-1.468373,-0.000083|vel|0.000000,-0.000000,0.000000,0.000000,0.000000,0.000000|eff|0.000000,0.000000,0.000000,0.000000,0.000000,0.000000
cobot_dynamixel_driver/joint_states|name|J1,J2,J3,J4,J5,J6|pos|-0.230248,-1.267658,1.261386,0.001014,-1.468373,-0.000083|vel|0.000000,-0.000000,0.000000,0.000000,0.000000,0.000000|eff|0.000000,0.000000,0.000000,0.000000,0.000000,0.000000
cobot_dynamixel_driver/joint_states|name|J1,J2,J3,J4,J5,J6|pos|-0.230248,-1.267658,1.261386,0.001014,-1.468373,-0.000083|vel|0.000000,-0.000000,0.000000,0.000000,0.000000,0.000000|eff|0.000000,0.000000,0.000000,0.000000,0.000000,0.000000
cobot_dynamixel_driver/joint_states|name|J1,J2,J3,J4,J5,J6|pos|-0.230248,-1.267658,1.261386,0.001014,-1.468373,-0.000083|vel|0.000000,-0.000000,0.000000,0.000000,0.000000,0.000000|eff|0.000000,0.000000,0.000000,0.000000,0.000000,0.000000
cobot_dynamixel_driver/joint_states|name|J1,J2,J3,J4,J5,J6|pos|-0.230248,-1.267658,1.261386,0.001014,-1.468373,-0.000083|vel|0.000000,-0.000000,0.000000,0.000000,0.000000,0.000000|eff|0.000000,0.000000,0.000000,0.000000,0.000000,0.000000
cobot_dynamixel_driver/joint_states|name|J1,J2,J3,J4,J5,J6|pos|-0.230248,-1.267658,1.261386,0.001014,-1.468373,-0.000083|vel|0.000000,-0.000000,0.000000,0.000000,0.000000,0.000000|eff|0.000000,0.000000,0.000000,0.000000,0.000000,0.000000
cobot_dynamixel_driver/joint_states|name|J1,J2,J3,J4,J5,J6|pos|-0.230248,-1.267658,1.261386,0.001014,-1.468373,-0.000083|vel|0.000000,-0.000000,0.000000,0.000000,0.000000,0.000000|eff|0.000000,0.000000,0.000000,0.000000,0.000000,0.000000
cobot_dynamixel_driver/joint_states|name|J1,J2,J3,J4,J5,J6|pos|-0.230248,-1.267658,1.261386,0.001014,-1.468373,-0.000083|vel|0.000000,-0.000000,0.000000,0.000000,0.000000,0.000000|eff|0.000000,0.000000,0.000000,0.000000,0.000000,0.000000
cobot_dynamixel_driver/joint_states|name|J1,J2,J3,J4,J5,J6|pos|-0.230248,-1.267658,1.261386,0.001014,-1.468373,-0.000083|vel|0.000000,-0.000000,0.000000,0.000000,0.000000,0.000000|eff|0.000000,0.000000,0.000000,0.000000,0.000000,0.000000
cobot_dynamixel_driver/joint_states|name|J1,J2,J3,J4,J5,J6|pos|-0.230248,-1.267658,1.261386,0.001014,-1.468373,-0.000083|vel|0.000000,-0.000000,0.000000,0.000000,0.000000,0.000000|eff|0.000000,0.000000,0.000000,0.000000,0.000000,0.000000
cobot_dynamixel_driver/joint_states|name|J1,J2,J3,J4,J5,J6|pos|-0.230248,-1.267658,1.261386,0.001014,-1.468373,-0.000083|vel|0.000000,-0.000000,0.000000,0.000000,0.000000,0.000000|eff|0.000000,0.000000,0.000000,0.000000,0.000000,0.000000
cobot_dynamixel_driver/joint_states|name|J1,J2,J3,J4,J5,J6|pos|-0.230248,-1.267658,1.261386,0.001014,-1.468373,-0.000083|vel|0.000000,-0.000000,0.000000,0.000000,0.000000,0.000000|eff|0.000000,0.000000,0.000000,0.000000,0.000000,0.000000
cobot_dynamixel_driver/joint_states|name|J1,J2,J3,J4,J5,J6|pos|-0.230248,-1.267658,1.261386,0.001014,-1.468373,-0.000083|vel|0.000000,-0.000000,0.000000,0.000000,0.000000,0.000000|eff|0.000000,0.000000,0.000000,0.000000,0.000000,0.000000
cobot_dynamixel_driver/joint_states|name|J1,J2,J3,J4,J5,J6|pos|-0.230248,-1.267658,1.261386,0.001014,-1.468373,-0.000083|vel|0.000000,-0.000000,0.000000,0.000000,0.000000,0.000000|eff|0.000000,0.000000,0.000000,0.000000,0.000000,0.000000
cobot_dynamixel_driver/joint_states|name|J1,J2,J3,J4,J5,J6|pos|-0.230248,-1.267658,1.261386,0.001014,-1.468373,-0.000083|vel|0.000000,-0.000000,0.000000,0.000000,0.000000,0.000000|eff|0.000000,0.000000,0.000000,0.000000,0.000000,0.000000
cobot_dynamixel_driver/joint_states|name|J1,J2,J3,J4,J5,J6|pos|-0.230248,-1.267658,1.261386,0.001014,-1.468373,-0.000083|vel|0.000000,-0.000000,0.000000,0.000000,0.000000,0.000000|eff|0.000000,0.000000,0.000000,0.000000,0.000000,0.000000
cobot_dynamixel_driver/joint_states|name|J1,J2,J3,J4,J5,J6|pos|-0.230248,-1.267658,1.261386,0.001014,-1.468373,-0.000083|vel|0.000000,-0.000000,0.000000,0.000000,0.000000,0.000000|eff|0.000000,0.000000,0.000000,0.000000,0.000000,0.000000
cobot_dynamixel_driver/joint_states|name|J1,J2,J3,J4,J5,J6|pos|-0.230248,-1.267658,1.261386,0.001014,-1.468373,-0.000083|vel|0.000000,-0.000000,0.000000,0.000000,0.000000,0.000000|eff|0.000000,0.000000,0.000000,0.000000,0.000000,0.000000
cobot_dynamixel_driver/joint_states|name|J1,J2,J3,J4,J5,J6|pos|-0.230248,-1.267658,1.261386,0.001014,-1.468373,-0.000083|vel|0.000000,-0.000000,0.000000,0.000000,0.000000,0.000000|eff|0.000000,0.000000,0.000000,0.000000,0.000000,0.000000
cobot_dynamixel_driver/joint_states|name|J1,J2,J3,J4,J5,J6|pos|-0.230248,-1.267658,1.261386,0.001014,-1.468373,-0.000083|vel|0.000000,-0.000000,0.000000,0.000000,0.000000,0.000000|eff|0.000000,0.000000,0.000000,0.000000,0.000000,0.000000
cobot_dynamixel_driver/joint_states|name|J1,J2,J3,J4,J5,J6|pos|-0.230248,-1.267658,1.261386,0.001014,-1.468373,-0.000083|vel|0.000000,-0.000000,0.000000,0.000000,0.000000,0.000000|eff|0.000000,0.000000,0.000000,0.000000,0.000000,0.000000
cobot_dynamixel_driver/joint_states|name|J1,J2,J3,J4,J5,J6|pos|-0.230248,-1.267658,1.261386,0.001014,-1.468373,-0.000083|vel|0.000000,-0.000000,0.000000,0.000000,0.000000,0.000000|eff|0.000000,0.000000,0.000000,0.000000,0.000000,0.000000
cobot_dynamixel_driver/joint_states|name|J1,J2,J3,J4,J5,J6|pos|-0.230248,-1.267658,1.261386,0.001014,-1.468373,-0.000083|vel|0.000000,-0.000000,0.000000,0.000000,0.000000,0.000000|eff|0.000000,0.000000,0.000000,0.000000,0.000000,0.000000
cobot_dynamixel_driver/joint_states|name|J1,J2,J3,J4,J5,J6|pos|-0.230248,-1.267658,1.261386,0.001014,-1.468373,-0.000083|vel|0.000000,-0.000000,0.000000,0.000000,0.000000,0.000000|eff|0.000000,0.000000,0.000000,0.000000,0.000000,0.000000
cobot_dynamixel_driver/joint_states|name|J1,J2,J3,J4,J5,J6|pos|-0.230248,-1.267658,1.261386,0.001014,-1.468373,-0.000083|vel|0.000000,-0.000000,0.000000,0.000000,0.000000,0.000000|eff|0.000000,0.000000,0.000000,0.000000,0.000000,0.000000
cobot_dynamixel_driver/joint_states|name|J1,J2,J3,J4,J5,J6|pos|-0.230248,-1.267658,1.261386,0.001014,-1.468373,-0.000083|vel|0.000000,-0.000000,0.000000,0.000000,0.000000,0.000000|eff|0.000000,0.000000,0.000000,0.000000,0.000000,0.000000
cobot_dynamixel_driver/joint_states|name|J1,J2,J3,J4,J5,J6|pos|-0.230248,-1.267658,1.261386,0.001014,-1.468373,-0.000083|vel|0.000000,-0.000000,0.000000,0.000000,0.000000,0.000000|eff|0.000000,0.000000,0.000000,0.000000,0.000000,0.000000
cobot_dynamixel_driver/joint_states|name|J1,J2,J3,J4,J5,J6|pos|-0.230248,-1.267658,1.261386,0.001014,-1.468373,-0.000083|vel|0.000000,-0.000000,0.000000,0.000000,0.000000,0.000000|eff|0.000000,0.000000,0.000000,0.000000,0.000000,0.000000
cobot_dynamixel_driver/joint_states|name|J1,J2,J3,J4,J5,J6|pos|-0.230248,-1.267658,1.261386,0.001014,-1.468373,-0.000083|vel|0.000000,-0.000000,0.000000,0.000000,0.000000,0.000000|eff|0.000000,0.000000,0.000000,0.000000,0.000000,0.000000
cobot_dynamixel_driver/joint_states|name|J1,J2,J3,J4,J5,J6|pos|-0.230248,-1.267658,1.261386,0.001014,-1.468373,-0.000083|vel|0.000000,-0.000000,0.000000,0.000000,0.000000,0.000000|eff|0.000000,0.000000,0.000000,0.000000,0.000000,0.000000
cobot_dynamixel_driver/joint_states|name|J1,J2,J3,J4,J5,J6|pos|-0.230248,-1.267658,1.261386,0.001014,-1.468373,-0.000083|vel|0.000000,-0.000000,0.000000,0.000000,0.000000,0.000000|eff|0.000000,0.000000,0.000000,0.000000,0.000000,0.000000
cobot_dynamixel_driver/joint_states|name|J1,J2,J3,J4,J5,J6|pos|-0.230248,-1.267658,1.261386,0.001014,-1.468373,-0.000083|vel|0.000000,-0.000000,0.000000,0.000000,0.000000,0.000000|eff|0.000000,0.000000,0.000000,0.000000,0.000000,0.000000
cobot_dynamixel_driver/joint_states|name|J1,J2,J3,J4,J5,J6|pos|-0.230248,-1.267658,1.261386,0.001014,-1.468373,-0.000083|vel|0.000000,-0.000000,0.000000,0.000000,0.000000,0.000000|eff|0.000000,0.000000,0.000000,0.000000,0.000000,0.000000
cobot_dynamixel_driver/joint_states|name|J1,J2,J3,J4,J5,J6|pos|-0.230248,-1.267658,1.261386,0.001014,-1.468373,-0.000083|vel|0.000000,-0.000000,0.000000,0.000000,0.000000,0.000000|eff|0.000000,0.000000,0.000000,0.000000,0.000000,0.000000
cobot_dynamixel_driver/joint_states|name|J1,J2,J3,J4,J5,J6|pos|-0.230248,-1.267658,1.261386,0.001014,-1.468373,-0.000083|vel|0.000000,-0.000000,0.000000,0.000000,0.000000,0.000000|eff|0.000000,0.000000,0.000000,0.000000,0.000000,0.000000
cobot_dynamixel_driver/goal|-:J1,J2,J3,J4,J5,J6:1.047198,0.000000,0.000000,0.000000,0.000000,0.000000:0.500000,0.500000,0.500000,0.500000,0.500000,0.500000:pos_vel_
cobot_dynamixel_driver/goal|-:J1,J2,J3,J4,J5,J6:1.047198,0.000000,0.000000,0.000000,0.000000,0.000000:0.500000,0.500000,0.500000,0.500000,0.500000,0.500000:pos_vel_
cobot_dynamixel_driver/joint_states|name|J1,J2,J3,J4,J5,J6|pos|-0.230248,-1.267658,1.260322,0.001014,-1.468373,-0.000083|vel|0.000000,-0.000000,0.000000,0.000000,0.000000,0.000000|eff|0.000000,0.000000,0.000000,0.000000,0.000000,0.000000
cobot_dynamixel_driver/goal|-:J1,J2,J3,J4,J5,J6:1.047198,0.000000,0.000000,0.000000,0.000000,0.000000:0.500000,0.500000,0.500000,0.500000,0.500000,0.500000:pos_vel_
cobot_dynamixel_driver/goal|-:J1,J2,J3,J4,J5,J6:1.047198,0.000000,0.000000,0.000000,0.000000,0.000000:0.500000,0.500000,0.500000,0.500000,0.500000,0.500000:pos_vel_
cobot_dynamixel_driver/goal|-:J1,J2,J3,J4,J5,J6:1.047198,0.000000,0.000000,0.000000,0.000000,0.000000:0.500000,0.500000,0.500000,0.500000,0.500000,0.500000:pos_vel_
cobot_dynamixel_driver/goal|-:J1,J2,J3,J4,J5,J6:1.047198,0.000000,0.000000,0.000000,0.000000,0.000000:0.500000,0.500000,0.500000,0.500000,0.500000,0.500000:pos_vel_
cobot_dynamixel_driver/goal|-:J1,J2,J3,J4,J5,J6:1.047198,0.000000,0.000000,0.000000,0.000000,0.000000:0.500000,0.500000,0.500000,0.500000,0.500000,0.500000:pos_vel_
cobot_dynamixel_driver/goal|-:J1,J2,J3,J4,J5,J6:1.047198,0.000000,0.000000,0.000000,0.000000,0.000000:0.500000,0.500000,0.500000,0.500000,0.500000,0.500000:pos_vel_
cobot_dynamixel_driver/goal|-:J1,J2,J3,J4,J5,J6:1.047198,0.000000,0.000000,0.000000,0.000000,0.000000:0.500000,0.500000,0.500000,0.500000,0.500000,0.500000:pos_vel_
cobot_dynamixel_driver/goal|-:J1,J2,J3,J4,J5,J6:1.047198,0.000000,0.000000,0.000000,0.000000,0.000000:0.500000,0.500000,0.500000,0.500000,0.500000,0.500000:pos_vel_
cobot_dynamixel_driver/goal|-:J1,J2,J3,J4,J5,J6:1.047198,0.000000,0.000000,0.000000,0.000000,0.000000:0.500000,0.500000,0.500000,0.500000,0.500000,0.500000:pos_vel_
cobot_dynamixel_driver/goal|-:J1,J2,J3,J4,J5,J6:1.047198,0.000000,0.000000,0.000000,0.000000,0.000000:0.500000,0.500000,0.500000,0.500000,0.500000,0.500000:pos_vel_
cobot_dynamixel_driver/goal|-:J1,J2,J3,J4,J5,J6:1.047198,0.000000,0.000000,0.000000,0.000000,0.000000:0.500000,0.500000,0.500000,0.500000,0.500000,0.500000:pos_vel_
cobot_dynamixel_driver/goal|-:J1,J2,J3,J4,J5,J6:1.047198,0.000000,0.000000,0.000000,0.000000,0.000000:0.500000,0.500000,0.500000,0.500000,0.500000,0.500000:pos_vel_
cobot_dynamixel_driver/goal|-:J1,J2,J3,J4,J5,J6:1.047198,0.000000,0.000000,0.000000,0.000000,0.000000:0.500000,0.500000,0.500000,0.500000,0.500000,0.500000:pos_vel_
cobot_dynamixel_driver/goal|-:J1,J2,J3,J4,J5,J6:1.047198,0.000000,0.000000,0.000000,0.000000,0.000000:0.500000,0.500000,0.500000,0.500000,0.500000,0.500000:pos_vel_
cobot_dynamixel_driver/goal|-:J1,J2,J3,J4,J5,J6:1.047198,0.000000,0.000000,0.000000,0.000000,0.000000:0.500000,0.500000,0.500000,0.500000,0.500000,0.500000:pos_vel_
cobot_dynamixel_driver/goal|-:J1,J2,J3,J4,J5,J6:1.047198,0.000000,0.000000,0.000000,0.000000,0.000000:0.500000,0.500000,0.500000,0.500000,0.500000,0.500000:pos_vel_
cobot_dynamixel_driver/goal|-:J1,J2,J3,J4,J5,J6:1.047198,0.000000,0.000000,0.000000,0.000000,0.000000:0.500000,0.500000,0.500000,0.500000,0.500000,0.500000:pos_vel_
cobot_dynamixel_driver/goal|-:J1,J2,J3,J4,J5,J6:1.047198,0.000000,0.000000,0.000000,0.000000,0.000000:0.500000,0.500000,0.500000,0.500000,0.500000,0.500000:pos_vel_
cobot_dynamixel_driver/goal|-:J1,J2,J3,J4,J5,J6:1.047198,0.000000,0.000000,0.000000,0.000000,0.000000:0.500000,0.500000,0.500000,0.500000,0.500000,0.500000:pos_vel_
cobot_dynamixel_driver/goal|-:J1,J2,J3,J4,J5,J6:1.047198,0.000000,0.000000,0.000000,0.000000,0.000000:0.500000,0.500000,0.500000,0.500000,0.500000,0.500000:pos_vel_
cobot_dynamixel_driver/goal|-:J1,J2,J3,J4,J5,J6:1.047198,0.000000,0.000000,0.000000,0.000000,0.000000:0.500000,0.500000,0.500000,0.500000,0.500000,0.500000:pos_vel_
cobot_dynamixel_driver/goal|-:J1,J2,J3,J4,J5,J6:1.047198,0.000000,0.000000,0.000000,0.000000,0.000000:0.500000,0.500000,0.500000,0.500000,0.500000,0.500000:pos_vel_
cobot_dynamixel_driver/goal|-:J1,J2,J3,J4,J5,J6:1.047198,0.000000,0.000000,0.000000,0.000000,0.000000:0.500000,0.500000,0.500000,0.500000,0.500000,0.500000:pos_vel_
cobot_dynamixel_driver/goal|-:J1,J2,J3,J4,J5,J6:1.047198,0.000000,0.000000,0.000000,0.000000,0.000000:0.500000,0.500000,0.500000,0.500000,0.500000,0.500000:pos_vel_
cobot_dynamixel_driver/goal|-:J1,J2,J3,J4,J5,J6:1.047198,0.000000,0.000000,0.000000,0.000000,0.000000:0.500000,0.500000,0.500000,0.500000,0.500000,0.500000:pos_vel_
cobot_dynamixel_driver/goal|-:J1,J2,J3,J4,J5,J6:1.047198,0.000000,0.000000,0.000000,0.000000,0.000000:0.500000,0.500000,0.500000,0.500000,0.500000,0.500000:pos_vel_
cobot_dynamixel_driver/goal|-:J1,J2,J3,J4,J5,J6:1.047198,0.000000,0.000000,0.000000,0.000000,0.000000:0.500000,0.500000,0.500000,0.500000,0.500000,0.500000:pos_vel_
cobot_dynamixel_driver/goal|-:J1,J2,J3,J4,J5,J6:1.047198,0.000000,0.000000,0.000000,0.000000,0.000000:0.500000,0.500000,0.500000,0.500000,0.500000,0.500000:pos_vel_
cobot_dynamixel_driver/goal|-:J1,J2,J3,J4,J5,J6:1.047198,0.000000,0.000000,0.000000,0.000000,0.000000:0.500000,0.500000,0.500000,0.500000,0.500000,0.500000:pos_vel_
cobot_dynamixel_driver/joint_states|name|J1,J2,J3,J4,J5,J6|pos|-0.230223,-1.267608,1.260310,0.000989,-1.468104,-0.000083|vel|0.009598,-0.000000,0.000000,0.000000,0.038606,0.000000|eff|435.058594,-499.511719,-306.152344,-112.792969,88.623047,0.000000
cobot_dynamixel_driver/joint_states|name|J1,J2,J3,J4,J5,J6|pos|-0.229760,-1.267107,1.259934,0.000876,-1.466966,-0.000083|vel|0.046320,0.047780,-0.044233,-0.009598,0.096516,0.000000|eff|708.984375,-676.757812,-660.644531,-64.453125,84.594727,0.000000
cobot_dynamixel_driver/joint_states|name|J1,J2,J3,J4,J5,J6|pos|-0.228408,-1.265818,1.258745,0.000876,-1.464773,-0.000083|vel|0.116008,0.094308,-0.088675,-0.009598,0.149255,0.000000|eff|918.457031,-934.570312,-1015.136719,0.000000,76.538086,0.000000
cobot_dynamixel_driver/joint_states|name|J1,J2,J3,J4,J5,J6|pos|-0.225992,-1.263665,1.256392,0.000864,-1.461381,-0.000083|vel|0.148974,0.125188,-0.157737,-0.001252,0.198892,0.000000|eff|1015.136719,-1514.648438,-1208.496094,-161.132812,64.453125,0.000000
cobot_dynamixel_driver/joint_states|name|J1,J2,J3,J4,J5,J6|pos|-0.222574,-1.260736,1.252974,0.000839,-1.457140,-0.000083|vel|0.194459,0.175055,-0.214071,-0.001252,0.231293,0.000000|eff|1015.136719,-1691.894531,-1192.382812,-112.792969,56.396484,0.000000
cobot_dynamixel_driver/joint_states|name|J1,J2,J3,J4,J5,J6|pos|-0.218105,-1.256730,1.248505,0.000789,-1.452238,-0.000083|vel|0.251002,0.238274,-0.251419,-0.003338,0.283688,0.000000|eff|1160.156250,-1611.328125,-1272.949219,-128.906250,44.311523,0.000000
cobot_dynamixel_driver/joint_states|name|J1,J2,J3,J4,J5,J6|pos|-0.212772,-1.251835,1.243172,0.000714,-1.446798,-0.000083|vel|0.292314,0.280421,-0.307962,-0.003756,0.325052,0.000000|eff|1305.175781,-1853.027344,-1305.175781,-145.019531,48.339844,0.000000
cobot_dynamixel_driver/joint_states|name|J1,J2,J3,J4,J5,J6|pos|-0.206926,-1.246027,1.237214,0.000663,-1.440820,-0.000083|vel|0.318186,0.291897,-0.321942,-0.002086,0.368484,0.000000|eff|1015.136719,-1708.007812,-1256.835938,-161.132812,36.254883,8.056641
cobot_dynamixel_driver/joint_states|name|J1,J2,J3,J4,J5,J6|pos|-0.200580,-1.239617,1.230654,0.000588,-1.434407,-0.000083|vel|0.322150,0.327993,-0.371600,-0.003756,0.360211,0.000000|eff|1111.816406,-1933.593750,-1272.949219,-145.019531,40.283203,8.056641
cobot_dynamixel_driver/joint_states|name|J1,J2,J3,J4,J5,J6|pos|-0.193745,-1.232732,1.223644,0.000513,-1.427560,-0.000083|vel|0.363045,0.342181,-0.363462,-0.003338,0.380548,0.000000|eff|531.738281,-1385.742188,-1208.496094,-145.019531,32.226562,8.056641
cobot_dynamixel_driver/joint_states|name|J1,J2,J3,J4,J5,J6|pos|-0.186547,-1.224996,1.216258,0.000463,-1.420052,-0.000083|vel|0.377650,0.382241,-0.376399,-0.002712,0.429840,0.000000|eff|563.964844,-1981.933594,-1353.515625,-145.019531,28.198242,0.000000
cobot_dynamixel_driver/joint_states|name|J1,J2,J3,J4,J5,J6|pos|-0.178998,-1.217773,1.208585,0.000413,-1.412977,-0.000083|vel|0.400184,0.440870,-0.424387,-0.002295,0.413984,0.000000|eff|547.851562,-1998.046875,-725.097656,-128.906250,56.396484,12.084961
cobot_dynamixel_driver/joint_states|name|J1,J2,J3,J4,J5,J6|pos|-0.171099,-1.209736,1.200723,0.000363,-1.405220,-0.000083|vel|0.435028,0.407487,-0.385788,-0.002086,0.440181,0.000000|eff|1675.781250,-1224.609375,-934.570312,-145.019531,28.198242,12.084961
cobot_dynamixel_driver/joint_states|name|J1,J2,J3,J4,J5,J6|pos|-0.163112,-1.201574,1.192674,0.000300,-1.397256,-0.000083|vel|0.396429,0.401853,-0.432107,-0.002921,0.426393,0.000000|eff|854.003906,-1127.929688,-982.910156,-145.019531,44.311523,12.084961
cobot_dynamixel_driver/joint_states|name|J1,J2,J3,J4,J5,J6|pos|-0.155038,-1.193162,1.184412,0.000263,-1.389044,-0.000083|vel|0.408113,0.452346,-0.428143,-0.002086,0.425359,0.000000|eff|467.285156,-1095.703125,-1321.289062,-145.019531,36.254883,12.084961
cobot_dynamixel_driver/joint_states|name|J1,J2,J3,J4,J5,J6|pos|-0.146588,-1.184500,1.175950,0.000238,-1.380708,-0.000083|vel|0.460900,0.437115,-0.430229,-0.001252,0.440526,0.000000|eff|660.644531,-2110.839844,-854.003906,-145.019531,20.141602,0.000000
cobot_dynamixel_driver/joint_states|name|J1,J2,J3,J4,J5,J6|pos|-0.137913,-1.175724,1.167437,0.000213,-1.372227,-0.000083|vel|0.454224,0.448173,-0.443791,-0.001252,0.436390,0.000000|eff|1482.421875,-1562.988281,-1015.136719,-112.792969,32.226562,12.084961
cobot_dynamixel_driver/joint_states|name|J1,J2,J3,J4,J5,J6|pos|-0.129050,-1.166886,1.158687,0.000200,-1.363601,-0.000083|vel|0.482600,0.482808,-0.395594,-0.000835,0.469136,0.000000|eff|128.906250,-1289.062500,-1498.535156,-96.679688,24.169922,12.084961
cobot_dynamixel_driver/joint_states|name|J1,J2,J3,J4,J5,J6|pos|-0.120100,-1.157948,1.149674,0.000188,-1.354893,-0.000083|vel|0.433776,0.465908,-0.449425,-0.000626,0.445352,0.000000|eff|1546.875000,-1047.363281,-870.117188,-161.132812,44.311523,12.084961
cobot_dynamixel_driver/joint_states|name|J1,J2,J3,J4,J5,J6|pos|-0.111187,-1.148898,1.140673,0.000150,-1.345977,-0.000083|vel|0.450677,0.440036,-0.462152,-0.001878,0.473962,0.000000|eff|370.605469,-2175.292969,-1579.101562,-161.132812,8.056641,12.084961
cobot_dynamixel_driver/joint_states|name|J1,J2,J3,J4,J5,J6|pos|-0.102124,-1.139759,1.131610,0.000113,-1.337020,-0.000083|vel|0.476132,0.472376,-0.493658,-0.002086,0.392613,0.000000|eff|918.457031,-1369.628906,-1369.628906,-161.132812,20.141602,12.084961
cobot_dynamixel_driver/joint_states|name|J1,J2,J3,J4,J5,J6|pos|-0.092985,-1.130483,1.122472,0.000100,-1.327960,-0.000083|vel|0.465491,0.447756,-0.477801,-0.002086,0.455693,0.000000|eff|1546.875000,-1063.476562,-1015.136719,-193.359375,32.226562,12.084961
cobot_dynamixel_driver/joint_states|name|J1,J2,J3,J4,J5,J6|pos|-0.083697,-1.121257,1.113333,0.000088,-1.318838,-0.000083|vel|0.471541,0.481348,-0.453389,-0.002086,0.469136,0.000000|eff|1401.855469,-918.457031,-821.777344,-112.792969,28.198242,12.084961
cobot_dynamixel_driver/joint_states|name|J1,J2,J3,J4,J5,J6|pos|-0.074421,-1.111856,1.104045,0.000088,-1.309674,-0.000062|vel|0.466951,0.458814,-0.505342,-0.002086,0.484992,0.000000|eff|1015.136719,-837.890625,-821.777344,-96.679688,64.453125,16.113281
cobot_dynamixel_driver/joint_states|name|J1,J2,J3,J4,J5,J6|pos|-0.065182,-1.102505,1.094681,0.000088,-1.300387,-0.000062|vel|0.477801,0.444209,-0.411451,-0.002086,0.537042,0.000000|eff|547.851562,-837.890625,-1240.722656,-145.019531,24.169922,16.113281
cobot_dynamixel_driver/joint_states|name|J1,J2,J3,J4,J5,J6|pos|-0.055856,-1.093242,1.085192,0.000088,-1.291161,-0.000041|vel|0.465699,0.551662,-0.421675,-0.002086,0.500504,0.000000|eff|402.832031,-773.437500,-692.871094,-145.019531,20.141602,16.113281
cobot_dynamixel_driver/joint_states|name|J1,J2,J3,J4,J5,J6|pos|-0.046393,-1.083640,1.075754,0.000088,-1.281811,-0.000041|vel|0.476132,0.518904,-0.500543,0.000000,0.420189,0.000000|eff|547.851562,-708.984375,-741.210938,-161.132812,16.113281,20.141602
cobot_dynamixel_driver/joint_states|name|J1,J2,J3,J4,J5,J6|pos|-0.036916,-1.074164,1.066277,0.000088,-1.272441,-0.000041|vel|0.504090,0.488233,-0.488442,0.000000,0.491197,0.000000|eff|837.890625,-1063.476562,-741.210938,-96.679688,12.084961,20.141602
cobot_dynamixel_driver/joint_states|name|J1,J2,J3,J4,J5,J6|pos|-0.027440,-1.064663,1.056864,0.000088,-1.263091,-0.000041|vel|0.474254,0.488859,-0.476549,0.000000,0.473962,0.000000|eff|1208.496094,-1321.289062,-886.230469,-145.019531,16.113281,16.113281
cobot_dynamixel_driver/joint_states|name|J1,J2,J3,J4,J5,J6|pos|-0.017939,-1.055111,1.047450,0.000088,-1.253720,-0.000041|vel|0.470707,0.497831,-0.500752,0.000000,0.473617,0.000000|eff|1498.535156,-1804.687500,-837.890625,-96.679688,40.283203,16.113281
cobot_dynamixel_driver/joint_states|name|J1,J2,J3,J4,J5,J6|pos|-0.008387,-1.045535,1.037986,0.000088,-1.244226,-0.000041|vel|0.518904,0.502004,-0.497205,0.000000,0.504296,0.000000|eff|2191.406250,-2594.238281,-1079.589844,-96.679688,60.424805,16.113281
cobot_dynamixel_driver/joint_states|name|J1,J2,J3,J4,J5,J6|pos|0.001214,-1.036021,1.028410,0.000088,-1.234731,-0.000041|vel|0.476758,0.529545,-0.517861,0.000000,0.505330,0.000000|eff|886.230469,-2159.179688,-1208.496094,-96.679688,16.113281,20.141602
cobot_dynamixel_driver/joint_states|name|J1,J2,J3,J4,J5,J6|pos|0.010841,-1.026419,1.018783,0.000088,-1.225319,-0.000041|vel|0.525164,0.505551,-0.485103,0.000000,0.447765,0.000000|eff|161.132812,-741.210938,-1611.328125,-96.679688,52.368164,16.113281
cobot_dynamixel_driver/joint_states|name|J1,J2,J3,J4,J5,J6|pos|0.020380,-1.016868,1.009182,0.000088,-1.215721,-0.000041|vel|0.489068,0.413746,-0.498248,0.000000,0.515671,0.000000|eff|612.304688,-725.097656,-1401.855469,-96.679688,12.084961,16.113281
cobot_dynamixel_driver/joint_states|name|J1,J2,J3,J4,J5,J6|pos|0.029956,-1.007254,0.999568,0.000088,-1.206247,-0.000041|vel|0.484060,0.455893,-0.457979,0.000000,0.497402,0.000000|eff|1289.062500,-1305.175781,-725.097656,-96.679688,36.254883,16.113281
cobot_dynamixel_driver/joint_states|name|J1,J2,J3,J4,J5,J6|pos|0.039620,-0.997703,0.990041,0.000088,-1.196856,-0.000021|vel|0.467786,0.484269,-0.382867,0.000000,0.484992,0.000000|eff|2255.859375,-2014.160156,-918.457031,-112.792969,68.481445,16.113281
cobot_dynamixel_driver/joint_states|name|J1,J2,J3,J4,J5,J6|pos|0.049184,-0.988101,0.980452,0.000088,-1.187279,-0.000021|vel|0.485938,0.473211,-0.536222,0.000000,0.476030,0.000000|eff|1047.363281,-2562.011719,-1047.363281,-145.019531,24.169922,12.084961
cobot_dynamixel_driver/joint_states|name|J1,J2,J3,J4,J5,J6|pos|0.058836,-0.978450,0.970889,0.000088,-1.177722,-0.000021|vel|0.503047,0.485312,-0.503256,0.000000,0.491197,0.000000|eff|209.472656,-660.644531,-1579.101562,-128.906250,-8.056641,16.113281
cobot_dynamixel_driver/joint_states|name|J1,J2,J3,J4,J5,J6|pos|0.068512,-0.968886,0.961124,0.000088,-1.168166,-0.000021|vel|0.474671,0.508472,-0.510976,0.000000,0.492921,0.000000|eff|966.796875,-676.757812,-854.003906,-177.246094,32.226562,16.113281
cobot_dynamixel_driver/joint_states|name|J1,J2,J3,J4,J5,J6|pos|0.078164,-0.959109,0.951485,0.000088,-1.158568,-0.000021|vel|0.470498,0.504299,-0.437949,0.000000,0.485682,0.000000|eff|1853.027344,-1788.574219,-789.550781,-112.792969,8.056641,16.113281
cobot_dynamixel_driver/joint_states|name|J1,J2,J3,J4,J5,J6|pos|0.087753,-0.949445,0.941796,0.000088,-1.148990,-0.000021|vel|0.505759,0.496996,-0.508472,0.000000,0.538076,0.000000|eff|1208.496094,-1579.101562,-1208.496094,-161.132812,32.226562,16.113281
cobot_dynamixel_driver/joint_states|name|J1,J2,J3,J4,J5,J6|pos|0.097404,-0.939781,0.932195,0.000075,-1.139434,-0.000021|vel|0.497622,0.464656,-0.482600,0.000000,0.479133,0.000000|eff|418.945312,-725.097656,-1611.328125,-177.246094,28.198242,16.113281
cobot_dynamixel_driver/joint_states|name|J1,J2,J3,J4,J5,J6|pos|0.107093,-0.930054,0.922618,0.000075,-1.129856,-0.000021|vel|0.491154,0.504716,-0.508263,0.000000,0.486371,0.000000|eff|902.343750,-1272.949219,-1353.515625,-161.132812,8.056641,8.056641
cobot_dynamixel_driver/joint_states|name|J1,J2,J3,J4,J5,J6|pos|0.116783,-0.920352,0.913017,0.000075,-1.120279,-0.000021|vel|0.525372,0.506803,-0.508055,0.000000,0.480511,0.000000|eff|2078.613281,-2400.878906,-773.437500,-128.906250,12.084961,16.113281
cobot_dynamixel_driver/joint_states|name|J1,J2,J3,J4,J5,J6|pos|0.126447,-0.910763,0.903303,0.000063,-1.110702,-0.000021|vel|0.504090,0.504716,-0.482808,0.000000,0.526356,0.000000|eff|451.171875,-1192.382812,-1095.703125,-128.906250,24.169922,16.113281
cobot_dynamixel_driver/joint_states|name|J1,J2,J3,J4,J5,J6|pos|0.136061,-0.901112,0.893601,0.000063,-1.101062,-0.000021|vel|0.508055,0.453806,-0.490320,0.000000,0.511190,0.000000|eff|370.605469,-660.644531,-1675.781250,-193.359375,16.113281,16.113281
cobot_dynamixel_driver/joint_states|name|J1,J2,J3,J4,J5,J6|pos|0.145750,-0.891410,0.883874,0.000063,-1.091568,-0.000021|vel|0.469455,0.493241,-0.460692,0.000000,0.480511,0.000000|eff|1208.496094,-1466.308594,-644.531250,-96.679688,32.226562,16.113281
cobot_dynamixel_driver/joint_states|name|J1,J2,J3,J4,J5,J6|pos|0.155414,-0.881734,0.874148,0.000050,-1.081970,-0.000021|vel|0.507429,0.519739,-0.486147,0.000000,0.582887,0.000000|eff|2094.726562,-2062.500000,-1015.136719,-161.132812,64.453125,16.113281
cobot_dynamixel_driver/joint_states|name|J1,J2,J3,J4,J5,J6|pos|0.165153,-0.872070,0.864584,0.000050,-1.072330,-0.000021|vel|0.498040,0.515566,-0.486773,0.000000,0.526356,0.000000|eff|225.585938,-515.625000,-1450.195312,-193.359375,0.000000,16.113281
cobot_dynamixel_driver/joint_states|name|J1,J2,J3,J4,J5,J6|pos|0.174729,-0.862443,0.854857,0.000038,-1.062794,-0.000021|vel|0.470081,0.498040,-0.462361,0.000000,0.492576,0.000000|eff|580.078125,-725.097656,-1724.121094,-96.679688,56.396484,16.113281
cobot_dynamixel_driver/joint_states|name|J1,J2,J3,J4,J5,J6|pos|0.185871,-0.851365,0.843753,0.000038,-1.051666,-0.000021|vel|0.491154,0.535596,-0.504716,-0.000209,0.525667,0.000000|eff|290.039062,-1643.554688,-1289.062500,-193.359375,36.254883,16.113281
cobot_dynamixel_driver/joint_states|name|J1,J2,J3,J4,J5,J6|pos|0.194145,-0.843153,0.835466,0.000013,-1.043536,-0.000021|vel|0.502838,0.523703,-0.447547,-0.000209,0.450178,0.000000|eff|48.339844,-821.777344,-1321.289062,-193.359375,8.056641,16.113281
cobot_dynamixel_driver/joint_states|name|J1,J2,J3,J4,J5,J6|pos|0.203872,-0.833351,0.825740,0.000000,-1.034000,-0.000021|vel|0.458397,0.532466,-0.512645,-0.001043,0.554622,0.000000|eff|225.585938,-435.058594,-1546.875000,-161.132812,20.141602,16.113281
cobot_dynamixel_driver/joint_states|name|J1,J2,J3,J4,J5,J6|pos|0.213473,-0.823637,0.816063,-0.000013,-1.024444,-0.000021|vel|0.470707,0.506385,-0.496370,-0.001043,0.442594,0.000000|eff|999.023438,-1289.062500,-676.757812,-96.679688,0.000000,16.113281
cobot_dynamixel_driver/joint_states|name|J1,J2,J3,J4,J5,J6|pos|0.223125,-0.813985,0.806424,-0.000013,-1.014846,-0.000021|vel|0.563555,0.487607,-0.494910,-0.000417,0.489129,0.000000|eff|1949.707031,-2368.652344,-918.457031,-96.679688,28.198242,16.113281
cobot_dynamixel_driver/joint_states|name|J1,J2,J3,J4,J5,J6|pos|0.232852,-0.804246,0.796823,-0.000013,-1.005144,-0.000021|vel|0.506803,0.533301,-0.523077,-0.000417,0.501193,0.000000|eff|209.472656,-354.492188,-1369.628906,-193.359375,32.226562,16.113281
cobot_dynamixel_driver/joint_states|name|J1,J2,J3,J4,J5,J6|pos|0.242578,-0.794557,0.787146,-0.000025,-0.995567,-0.000021|vel|0.488650,0.455476,-0.478844,-0.000417,0.480856,0.000000|eff|563.964844,-805.664062,-1740.234375,-193.359375,0.000000,16.113281
cobot_dynamixel_driver/joint_states|name|J1,J2,J3,J4,J5,J6|pos|0.252255,-0.784943,0.777432,-0.000025,-0.986031,-0.000021|vel|0.494284,0.477384,-0.521408,-0.000417,0.570133,0.000000|eff|1611.328125,-1659.667969,-660.644531,-112.792969,28.198242,16.113281
cobot_dynamixel_driver/joint_states|name|J1,J2,J3,J4,J5,J6|pos|0.261931,-0.775241,0.767743,-0.000025,-0.976371,-0.000021|vel|0.474254,0.479679,-0.457353,-0.000417,0.524288,0.000000|eff|1256.835938,-2320.312500,-1047.363281,-145.019531,36.254883,16.113281
cobot_dynamixel_driver/joint_states|name|J1,J2,J3,J4,J5,J6|pos|0.271645,-0.765477,0.758004,-0.000025,-0.966773,-0.000021|vel|0.502004,0.483852,-0.496788,-0.000417,0.493265,0.000000|eff|273.925781,-306.152344,-1708.007812,-96.679688,32.226562,16.113281
cobot_dynamixel_driver/joint_states|name|J1,J2,J3,J4,J5,J6|pos|0.281335,-0.755838,0.748289,-0.000025,-0.957133,-0.000021|vel|0.476340,0.483017,-0.502004,-0.000417,0.491542,0.000000|eff|1047.363281,-1127.929688,-773.437500,-177.246094,24.169922,16.113281
cobot_dynamixel_driver/joint_states|name|J1,J2,J3,J4,J5,J6|pos|0.291024,-0.746199,0.738713,-0.000025,-0.947515,-0.000021|vel|0.488859,0.497205,-0.454224,0.000000,0.425704,0.000000|eff|2014.160156,-1981.933594,-902.343750,-145.019531,16.113281,20.141602
cobot_dynamixel_driver/joint_states|name|J1,J2,J3,J4,J5,J6|pos|0.300663,-0.736510,0.728886,-0.000025,-0.938061,-0.000021|vel|0.494284,0.514731,-0.489485,0.000000,0.489474,0.000000|eff|547.851562,-692.871094,-1337.402344,-128.906250,8.056641,20.141602
cobot_dynamixel_driver/joint_states|name|J1,J2,J3,J4,J5,J6|pos|0.310389,-0.726871,0.719185,-0.000025,-0.928588,-0.000021|vel|0.492197,0.512019,-0.451929,0.000000,0.422257,0.000000|eff|676.757812,-596.191406,-1079.589844,-96.679688,28.198242,20.141602
cobot_dynamixel_driver/joint_states|name|J1,J2,J3,J4,J5,J6|pos|0.320091,-0.717169,0.709458,-0.000025,-0.919114,-0.000021|vel|0.516400,0.545402,-0.510767,0.000000,0.503261,0.000000|eff|1595.214844,-1305.175781,-773.437500,-177.246094,56.396484,20.141602
cobot_dynamixel_driver/joint_states|name|J1,J2,J3,J4,J5,J6|pos|0.329755,-0.707455,0.699744,-0.000025,-0.909454,-0.000021|vel|0.502630,0.497831,-0.509724,0.000000,0.438113,0.000000|eff|854.003906,-1772.460938,-1337.402344,-177.246094,56.396484,16.113281
cobot_dynamixel_driver/joint_states|name|J1,J2,J3,J4,J5,J6|pos|0.339419,-0.697703,0.690080,-0.000025,-0.899731,-0.000021|vel|0.492615,0.506385,-0.444835,0.000000,0.488784,0.000000|eff|257.812500,-322.265625,-1691.894531,-112.792969,36.254883,20.141602
cobot_dynamixel_driver/joint_states|name|J1,J2,J3,J4,J5,J6|pos|0.349108,-0.688014,0.680441,-0.000025,-0.890113,-0.000021|vel|0.485312,0.502838,-0.503047,0.000000,0.491542,0.000000|eff|966.796875,-1095.703125,-708.984375,-96.679688,52.368164,16.113281
cobot_dynamixel_driver/joint_states|name|J1,J2,J3,J4,J5,J6|pos|0.358810,-0.678250,0.670802,-0.000025,-0.880453,-0.000021|vel|0.521825,0.484686,-0.488859,0.000000,0.426049,0.000000|eff|2223.632812,-2400.878906,-918.457031,-96.679688,0.000000,20.141602
cobot_dynamixel_driver/joint_states|name|J1,J2,J3,J4,J5,J6|pos|0.368549,-0.668548,0.661125,-0.000025,-0.870855,-0.000021|vel|0.505134,0.509098,-0.527041,0.000000,0.490508,0.000000|eff|80.566406,-193.359375,-1385.742188,-112.792969,48.339844,12.084961
cobot_dynamixel_driver/joint_states|name|J1,J2,J3,J4,J5,J6|pos|0.378188,-0.658934,0.651386,-0.000025,-0.861215,-0.000021|vel|0.483434,0.496579,-0.515983,0.000000,0.460863,0.000000|eff|676.757812,-725.097656,-1546.875000,-145.019531,24.169922,12.084961
cobot_dynamixel_driver/joint_states|name|J1,J2,J3,J4,J5,J6|pos|0.387915,-0.649233,0.641697,-0.000025,-0.851597,-0.000021|vel|0.496579,0.490737,-0.502212,0.000000,0.489474,0.000000|eff|1708.007812,-1853.027344,-805.664062,-161.132812,20.141602,12.084961
cobot_dynamixel_driver/joint_states|name|J1,J2,J3,J4,J5,J6|pos|0.397641,-0.639443,0.631945,-0.000025,-0.841999,-0.000021|vel|0.464865,0.527459,-0.528502,0.000000,0.516705,0.000000|eff|692.871094,-193.359375,-1289.062500,-161.132812,28.198242,12.084961
cobot_dynamixel_driver/joint_states|name|J1,J2,J3,J4,J5,J6|pos|0.407293,-0.629817,0.622281,-0.000025,-0.832338,-0.000021|vel|0.498457,0.441705,-0.539560,0.000000,0.481201,0.000000|eff|257.812500,-370.605469,-1256.835938,-96.679688,28.198242,20.141602
cobot_dynamixel_driver/joint_states|name|J1,J2,J3,J4,J5,J6|pos|0.416920,-0.620190,0.612642,-0.000025,-0.822720,-0.000021|vel|0.552079,0.455684,-0.501378,0.000000,0.488439,0.000000|eff|966.796875,-1144.042969,-837.890625,-161.132812,56.396484,12.084961
cobot_dynamixel_driver/joint_states|name|J1,J2,J3,J4,J5,J6|pos|0.426634,-0.610489,0.602878,-0.000025,-0.813101,-0.000021|vel|0.490946,0.511184,-0.519739,0.000000,0.487750,0.000000|eff|1272.949219,-1353.515625,-1272.949219,-193.359375,0.000000,12.084961
cobot_dynamixel_driver/joint_states|name|J1,J2,J3,J4,J5,J6|pos|0.436385,-0.600825,0.593139,-0.000038,-0.803420,-0.000021|vel|0.507011,0.510350,-0.518696,0.000000,0.525667,0.000000|eff|0.000000,-435.058594,-1611.328125,-161.132812,28.198242,12.084961
cobot_dynamixel_driver/joint_states|name|J1,J2,J3,J4,J5,J6|pos|0.446087,-0.591098,0.583462,-0.000038,-0.793802,-0.000021|vel|0.497414,0.465699,-0.517444,0.000000,0.528769,0.000000|eff|789.550781,-547.851562,-854.003906,-96.679688,24.169922,12.084961
cobot_dynamixel_driver/joint_states|name|J1,J2,J3,J4,J5,J6|pos|0.455751,-0.581371,0.573735,-0.000038,-0.784245,-0.000021|vel|0.469455,0.502421,-0.520156,0.000000,0.493955,0.000000|eff|1724.121094,-1804.687500,-950.683594,-145.019531,44.311523,24.169922
cobot_dynamixel_driver/joint_states|name|J1,J2,J3,J4,J5,J6|pos|0.465403,-0.571607,0.564084,-0.000038,-0.774668,-0.000021|vel|0.483643,0.473211,-0.500126,0.000000,0.519807,0.000000|eff|773.437500,-225.585938,-1401.855469,-145.019531,24.169922,12.084961
cobot_dynamixel_driver/joint_states|name|J1,J2,J3,J4,J5,J6|pos|0.475104,-0.561906,0.554495,-0.000038,-0.765028,-0.000021|vel|0.492197,0.504925,-0.506177,0.000000,0.523943,0.000000|eff|322.265625,-563.964844,-1708.007812,-96.679688,20.141602,20.141602
cobot_dynamixel_driver/joint_states|name|J1,J2,J3,J4,J5,J6|pos|0.484793,-0.552254,0.544881,-0.000038,-0.755368,-0.000021|vel|0.442540,0.504508,-0.455893,0.000000,0.479133,0.000000|eff|1417.968750,-1643.554688,-773.437500,-96.679688,36.254883,20.141602
cobot_dynamixel_driver/joint_states|name|J1,J2,J3,J4,J5,J6|pos|0.494495,-0.542565,0.535179,-0.000038,-0.745708,-0.000021|vel|0.502212,0.508889,-0.523703,0.000000,0.483269,0.000000|eff|1530.761719,-757.324219,-950.683594,-96.679688,28.198242,20.141602
cobot_dynamixel_driver/joint_states|name|J1,J2,J3,J4,J5,J6|pos|0.504146,-0.532913,0.525465,-0.000038,-0.736110,-0.000021|vel|0.487190,0.526833,-0.478844,0.000000,0.546694,0.000000|eff|290.039062,-177.246094,-1417.968750,-96.679688,48.339844,8.056641
cobot_dynamixel_driver/joint_states|name|J1,J2,J3,J4,J5,J6|pos|0.513898,-0.523174,0.515776,-0.000038,-0.726512,-0.000021|vel|0.486773,0.457562,-0.502630,0.000000,0.435356,0.000000|eff|708.984375,-805.664062,-1466.308594,-145.019531,24.169922,16.113281
cobot_dynamixel_driver/joint_states|name|J1,J2,J3,J4,J5,J6|pos|0.523562,-0.513460,0.506074,-0.000038,-0.716893,-0.000021|vel|0.538308,0.502004,-0.491154,0.000000,0.571167,0.000000|eff|1965.820312,-2110.839844,-708.984375,-161.132812,-12.084961,12.084961
cobot_dynamixel_driver/joint_states|name|J1,J2,J3,J4,J5,J6|pos|0.533276,-0.503821,0.496473,-0.000038,-0.707295,-0.000021|vel|0.511184,0.529545,-0.498040,0.000000,0.502227,0.000000|eff|547.851562,-32.226562,-1208.496094,-193.359375,32.226562,12.084961
cobot_dynamixel_driver/joint_states|name|J1,J2,J3,J4,J5,J6|pos|0.542978,-0.494144,0.486746,-0.000038,-0.697718,-0.000021|vel|0.499291,0.474462,-0.512019,0.000000,0.517739,0.000000|eff|563.964844,-435.058594,-1514.648438,-161.132812,36.254883,12.084961
cobot_dynamixel_driver/joint_states|name|J1,J2,J3,J4,J5,J6|pos|0.552655,-0.484530,0.477020,-0.000038,-0.688182,-0.000021|vel|0.494910,0.494493,-0.519947,0.000000,0.512568,0.000000|eff|1385.742188,-1144.042969,-692.871094,-112.792969,24.169922,12.084961
cobot_dynamixel_driver/joint_states|name|J1,J2,J3,J4,J5,J6|pos|0.562369,-0.474866,0.467268,-0.000038,-0.678543,-0.000021|vel|0.475297,0.484895,-0.459231,0.000000,0.442250,0.000000|eff|1176.269531,-1998.046875,-966.796875,-128.906250,32.226562,16.113281
cobot_dynamixel_driver/joint_states|name|J1,J2,J3,J4,J5,J6|pos|0.572095,-0.465102,0.457579,-0.000038,-0.668945,-0.000021|vel|0.504716,0.462570,-0.523703,0.000000,0.490508,0.000000|eff|273.925781,0.000000,-1579.101562,-96.679688,40.283203,20.141602
cobot_dynamixel_driver/joint_states|name|J1,J2,J3,J4,J5,J6|pos|0.581722,-0.455375,0.447852,-0.000038,-0.659326,-0.000021|vel|0.506594,0.518696,-0.499917,0.000000,0.506364,0.000000|eff|966.796875,-789.550781,-725.097656,-96.679688,28.198242,12.084961
cobot_dynamixel_driver/joint_states|name|J1,J2,J3,J4,J5,J6|pos|0.591411,-0.445636,0.438163,-0.000038,-0.649707,-0.000021|vel|0.476549,0.499709,-0.500335,0.000000,0.475686,0.000000|eff|1820.800781,-1885.253906,-821.777344,-96.679688,44.311523,12.084961
cobot_dynamixel_driver/joint_states|name|J1,J2,J3,J4,J5,J6|pos|0.601138,-0.435910,0.428599,-0.000038,-0.640109,-0.000021|vel|0.504925,0.436072,-0.518070,0.000000,0.522565,0.000000|eff|193.359375,0.000000,-1176.269531,-96.679688,48.339844,16.113281
cobot_dynamixel_driver/joint_states|name|J1,J2,J3,J4,J5,J6|pos|0.610827,-0.426296,0.418935,-0.000038,-0.630408,-0.000021|vel|0.489276,0.477592,-0.492197,0.000000,0.447420,0.000000|eff|596.191406,-547.851562,-1562.988281,-112.792969,28.198242,12.084961
cobot_dynamixel_driver/joint_states|name|J1,J2,J3,J4,J5,J6|pos|0.620516,-0.416682,0.409158,-0.000038,-0.620851,-0.000021|vel|0.514105,0.498874,-0.455684,0.000000,0.483269,0.000000|eff|1595.214844,-1224.609375,-612.304688,-112.792969,48.339844,12.084961
cobot_dynamixel_driver/joint_states|name|J1,J2,J3,J4,J5,J6|pos|0.630180,-0.406993,0.399469,-0.000038,-0.611191,-0.000021|vel|0.508055,0.531423,-0.518278,0.000000,0.542213,0.000000|eff|805.664062,-1321.289062,-1079.589844,-96.679688,32.226562,16.113281
cobot_dynamixel_driver/joint_states|name|J1,J2,J3,J4,J5,J6|pos|0.639882,-0.397228,0.389767,-0.000038,-0.601614,-0.000021|vel|0.504299,0.487816,-0.491780,0.000000,0.416397,0.000000|eff|273.925781,-64.453125,-1417.968750,-96.679688,36.254883,8.056641
cobot_dynamixel_driver/joint_states|name|J1,J2,J3,J4,J5,J6|pos|0.649558,-0.386976,0.380141,-0.000038,-0.591540,-0.000021|vel|0.510350,0.483017,-0.523703,0.000000,0.487405,0.000000|eff|1853.027344,-1450.195312,-805.664062,-96.679688,40.283203,16.113281
cobot_dynamixel_driver/joint_states|name|J1,J2,J3,J4,J5,J6|pos|0.659247,-0.377737,0.370602,-0.000038,-0.582314,-0.000021|vel|0.520573,0.518487,-0.506594,0.000000,0.500159,0.000000|eff|2110.839844,-805.664062,-934.570312,-96.679688,40.283203,16.113281
cobot_dynamixel_driver/joint_states|name|J1,J2,J3,J4,J5,J6|pos|0.669400,-0.367623,0.360312,-0.000038,-0.572323,-0.000021|vel|0.493867,0.496788,-0.530171,0.000000,0.495333,0.000000|eff|789.550781,-773.437500,-1643.554688,-112.792969,48.339844,8.056641
cobot_dynamixel_driver/joint_states|name|J1,J2,J3,J4,J5,J6|pos|0.678588,-0.358509,0.351061,-0.000038,-0.563222,-0.000021|vel|0.487190,0.464865,-0.513897,0.000000,0.559103,0.000000|eff|306.152344,-386.718750,-1450.195312,-161.132812,40.283203,12.084961
cobot_dynamixel_driver/joint_states|name|J1,J2,J3,J4,J5,J6|pos|0.688340,-0.348833,0.341297,-0.000038,-0.553582,-0.000021|vel|0.498040,0.517652,-0.491572,0.000000,0.458795,0.000000|eff|1675.781250,-1321.289062,-660.644531,-96.679688,32.226562,12.084961
cobot_dynamixel_driver/joint_states|name|J1,J2,J3,J4,J5,J6|pos|0.698091,-0.339094,0.331558,-0.000038,-0.544005,-0.000021|vel|0.448799,0.506803,-0.460692,0.000000,0.557379,0.000000|eff|467.285156,-612.304688,-1111.816406,-96.679688,20.141602,16.113281
cobot_dynamixel_driver/joint_states|name|J1,J2,J3,J4,J5,J6|pos|0.707693,-0.329342,0.321844,-0.000038,-0.534386,-0.000021|vel|0.493032,0.432107,-0.506177,0.000000,0.503951,0.000000|eff|370.605469,-112.792969,-757.324219,-96.679688,28.198242,12.084961
cobot_dynamixel_driver/joint_states|name|J1,J2,J3,J4,J5,J6|pos|0.717394,-0.319653,0.312129,-0.000038,-0.524788,-0.000021|vel|0.504090,0.505968,-0.508055,0.000000,0.482924,0.000000|eff|1031.250000,-1192.382812,-692.871094,-96.679688,36.254883,20.141602
cobot_dynamixel_driver/joint_states|name|J1,J2,J3,J4,J5,J6|pos|0.727109,-0.309964,0.302503,-0.000038,-0.515169,-0.000021|vel|0.480513,0.520156,-0.506177,0.000000,0.511190,0.000000|eff|2143.066406,-1272.949219,-950.683594,-96.679688,68.481445,12.084961
cobot_dynamixel_driver/joint_states|name|J1,J2,J3,J4,J5,J6|pos|0.736810,-0.300275,0.292839,-0.000038,-0.505530,-0.000021|vel|0.505759,0.516609,-0.523703,0.000000,0.481545,0.000000|eff|96.679688,225.585938,-1434.082031,-96.679688,24.169922,12.084961
cobot_dynamixel_driver/joint_states|name|J1,J2,J3,J4,J5,J6|pos|0.746512,-0.290611,0.283112,-0.000038,-0.495932,-0.000021|vel|0.488025,0.498040,-0.496579,0.000000,0.550485,0.000000|eff|741.210938,-338.378906,-1321.289062,-96.679688,32.226562,20.141602
cobot_dynamixel_driver/joint_states|name|J1,J2,J3,J4,J5,J6|pos|0.756163,-0.280984,0.273461,-0.000038,-0.486334,-0.000021|vel|0.470290,0.520782,-0.506385,0.000000,0.492576,0.000000|eff|1579.101562,-1337.402344,-660.644531,-96.679688,64.453125,20.141602
cobot_dynamixel_driver/joint_states|name|J1,J2,J3,J4,J5,J6|pos|0.765890,-0.271270,0.263784,-0.000038,-0.476715,-0.000021|vel|0.505342,0.475088,-0.512645,0.000000,0.415708,0.000000|eff|402.832031,-402.832031,-1192.382812,-96.679688,32.226562,20.141602
cobot_dynamixel_driver/joint_states|name|J1,J2,J3,J4,J5,J6|pos|0.775604,-0.261531,0.254107,-0.000038,-0.467138,-0.000021|vel|0.477592,0.485312,-0.513271,0.000000,0.512913,0.000000|eff|386.718750,0.000000,-1208.496094,-96.679688,60.424805,12.084961
cobot_dynamixel_driver/joint_states|name|J1,J2,J3,J4,J5,J6|pos|0.785331,-0.251754,0.244544,-0.000038,-0.457478,-0.000021|vel|0.476966,0.493449,-0.490320,0.000000,0.435700,0.000000|eff|1434.082031,-1160.156250,-1562.988281,-96.679688,44.311523,20.141602
cobot_dynamixel_driver/joint_states|name|J1,J2,J3,J4,J5,J6|pos|0.794907,-0.242052,0.234792,-0.000038,-0.447880,-0.000021|vel|0.503256,0.505759,-0.507846,0.000000,0.519807,0.000000|eff|2046.386719,48.339844,-805.664062,-96.679688,24.169922,12.084961
cobot_dynamixel_driver/joint_states|name|J1,J2,J3,J4,J5,J6|pos|0.804596,-0.232338,0.225078,-0.000038,-0.438303,-0.000021|vel|0.489068,0.502630,-0.490528,0.000000,0.513258,0.000000|eff|161.132812,161.132812,-1321.289062,-96.679688,44.311523,20.141602
cobot_dynamixel_driver/joint_states|name|J1,J2,J3,J4,J5,J6|pos|0.814361,-0.222662,0.215351,-0.000038,-0.428725,-0.000021|vel|0.476966,0.517652,-0.514314,0.000000,0.425704,0.000000|eff|837.890625,-902.343750,-1321.289062,-96.679688,56.396484,16.113281
cobot_dynamixel_driver/joint_states|name|J1,J2,J3,J4,J5,J6|pos|0.824075,-0.213010,0.205624,-0.000038,-0.419107,-0.000021|vel|0.500961,0.503256,-0.493658,0.000000,0.528425,0.000000|eff|2400.878906,-821.777344,-773.437500,-96.679688,32.226562,8.056641
cobot_dynamixel_driver/joint_states|name|J1,J2,J3,J4,J5,J6|pos|0.833701,-0.203321,0.195873,-0.000038,-0.409529,-0.000021|vel|0.508889,0.506803,-0.431481,0.000000,0.478443,0.000000|eff|741.210938,418.945312,-1305.175781,-96.679688,36.254883,12.084961
cobot_dynamixel_driver/joint_states|name|J1,J2,J3,J4,J5,J6|pos|0.843365,-0.193619,0.186209,-0.000038,-0.399911,-0.000021|vel|0.485729,0.512436,-0.515775,0.000000,0.479822,0.000000|eff|435.058594,-145.019531,-1321.289062,-80.566406,52.368164,8.056641
cobot_dynamixel_driver/joint_states|name|J1,J2,J3,J4,J5,J6|pos|0.853080,-0.183943,0.176532,-0.000038,-0.390271,-0.000021|vel|0.497831,0.478427,-0.514105,0.000000,0.562205,0.000000|eff|1353.515625,-1337.402344,-725.097656,0.000000,48.339844,12.084961
cobot_dynamixel_driver/joint_states|name|J1,J2,J3,J4,J5,J6|pos|0.862819,-0.174304,0.166793,-0.000038,-0.380673,-0.000021|vel|0.470915,0.497414,-0.464030,0.000000,0.447420,0.000000|eff|1385.742188,-1111.816406,-918.457031,-80.566406,56.396484,20.141602
cobot_dynamixel_driver/joint_states|name|J1,J2,J3,J4,J5,J6|pos|0.872433,-0.164702,0.157116,-0.000038,-0.371096,-0.000021|vel|0.479261,0.500335,-0.494075,0.000000,0.495678,0.000000|eff|177.246094,386.718750,-1627.441406,-80.566406,52.368164,20.141602
cobot_dynamixel_driver/joint_states|name|J1,J2,J3,J4,J5,J6|pos|0.883599,-0.153524,0.145988,-0.000038,-0.360029,-0.000021|vel|0.519530,0.513271,-0.504299,0.000000,0.410193,0.000000|eff|2110.839844,-1788.574219,-1015.136719,-96.679688,44.311523,16.113281
cobot_dynamixel_driver/joint_states|name|J1,J2,J3,J4,J5,J6|pos|0.892349,-0.144786,0.137325,-0.000038,-0.351548,-0.000021|vel|0.484686,0.510976,-0.477801,0.000000,0.495678,0.000000|eff|676.757812,-112.792969,-708.984375,-48.339844,52.368164,12.084961
cobot_dynamixel_driver/joint_states|name|J1,J2,J3,J4,J5,J6|pos|0.901575,-0.135522,0.128162,-0.000038,-0.342509,-0.000021|vel|0.506385,0.500961,-0.513271,0.000000,0.491542,0.000000|eff|370.605469,467.285156,-1192.382812,-96.679688,52.368164,16.113281
cobot_dynamixel_driver/goal|-:J1,J2,J3,J4,J5,J6:1.047198,0.000000,0.000000,0.000000,0.000000,0.000000:0.500000,0.500000,0.500000,0.500000,0.500000,0.500000:pos_vel_
cobot_dynamixel_driver/joint_states|name|J1,J2,J3,J4,J5,J6|pos|0.911277,-0.125821,0.118548,-0.000038,-0.332745,-0.000021|vel|0.486773,0.498457,-0.517652,0.000000,0.419155,0.000000|eff|644.531250,-128.906250,-1514.648438,-96.679688,36.254883,16.113281
cobot_dynamixel_driver/joint_states|name|J1,J2,J3,J4,J5,J6|pos|0.920803,-0.116157,0.108808,-0.000038,-0.323147,-0.000021|vel|0.486773,0.468620,-0.454015,0.000000,0.484992,0.000000|eff|1095.703125,-1015.136719,-773.437500,-48.339844,36.254883,20.141602
cobot_dynamixel_driver/joint_states|name|J1,J2,J3,J4,J5,J6|pos|0.930492,-0.106430,0.099094,-0.000038,-0.313508,-0.000021|vel|0.488650,0.531006,-0.513062,0.000000,0.432598,0.000000|eff|2304.199219,177.246094,-918.457031,-48.339844,68.481445,16.113281
cobot_dynamixel_driver/joint_states|name|J1,J2,J3,J4,J5,J6|pos|0.940281,-0.096741,0.089343,-0.000038,-0.303848,0.000000|vel|0.500126,0.478009,-0.498040,0.000000,0.487750,0.000000|eff|177.246094,241.699219,-1466.308594,-96.679688,40.283203,12.084961
cobot_dynamixel_driver/joint_states|name|J1,J2,J3,J4,J5,J6|pos|0.950033,-0.087064,0.079591,-0.000038,-0.294229,0.000000|vel|0.486564,0.505968,-0.507637,0.000000,0.514981,0.000000|eff|1031.250000,-741.210938,-805.664062,-48.339844,68.481445,16.113281
cobot_dynamixel_driver/joint_states|name|J1,J2,J3,J4,J5,J6|pos|0.959660,-0.077325,0.069902,-0.000038,-0.284693,0.000000|vel|0.496996,0.506385,-0.480931,0.000000,0.453625,0.000000|eff|2126.953125,-999.023438,-789.550781,-48.339844,40.283203,20.141602
cobot_dynamixel_driver/joint_states|name|J1,J2,J3,J4,J5,J6|pos|0.969249,-0.067724,0.060776,-0.000038,-0.275157,0.000000|vel|0.496996,0.475088,-0.437532,0.000000,0.488439,0.000000|eff|1192.382812,805.664062,-370.605469,-96.679688,64.453125,16.113281
cobot_dynamixel_driver/joint_states|name|J1,J2,J3,J4,J5,J6|pos|0.978925,-0.058723,0.052764,-0.000038,-0.265456,0.000000|vel|0.494910,0.437532,-0.394968,0.000000,0.508432,0.000000|eff|48.339844,-483.398438,-966.796875,-80.566406,56.396484,20.141602
cobot_dynamixel_driver/joint_states|name|J1,J2,J3,J4,J5,J6|pos|0.988026,-0.050874,0.045942,-0.000038,-0.255816,0.000000|vel|0.419797,0.368470,-0.330914,0.000000,0.437424,0.000000|eff|596.191406,757.324219,-692.871094,0.000000,84.594727,20.141602
cobot_dynamixel_driver/joint_states|name|J1,J2,J3,J4,J5,J6|pos|0.996000,-0.044002,0.040146,-0.000038,-0.246301,0.000000|vel|0.379111,0.335504,-0.245368,0.000000,0.537731,0.000000|eff|580.078125,-161.132812,-837.890625,-96.679688,88.623047,12.084961
cobot_dynamixel_driver/joint_states|name|J1,J2,J3,J4,J5,J6|pos|1.002848,-0.038105,0.035176,-0.000038,-0.236724,0.000000|vel|0.323402,0.269154,-0.243908,0.000000,0.435356,0.000000|eff|-112.792969,306.152344,-854.003906,-64.453125,56.396484,20.141602
cobot_dynamixel_driver/joint_states|name|J1,J2,J3,J4,J5,J6|pos|1.008731,-0.033148,0.030782,-0.000038,-0.227001,0.000000|vel|0.280212,0.223461,-0.214906,0.000000,0.494989,0.000000|eff|660.644531,418.945312,-950.683594,-80.566406,52.368164,16.113281
cobot_dynamixel_driver/joint_states|name|J1,J2,J3,J4,J5,J6|pos|1.013801,-0.028917,0.026852,-0.000038,-0.217341,0.000000|vel|0.241613,0.202387,-0.198840,0.000000,0.540144,0.000000|eff|499.511719,418.945312,-805.664062,-48.339844,60.424805,20.141602
cobot_dynamixel_driver/joint_states|name|J1,J2,J3,J4,J5,J6|pos|1.018182,-0.025237,0.023472,-0.000038,-0.207743,0.000000|vel|0.219079,0.171299,-0.153564,0.000000,0.435356,0.000000|eff|499.511719,96.679688,-902.343750,-96.679688,48.339844,12.084961
cobot_dynamixel_driver/joint_states|name|J1,J2,J3,J4,J5,J6|pos|1.021900,-0.022045,0.020605,-0.000038,-0.198187,0.000000|vel|0.178810,0.149808,-0.145218,0.000000,0.479477,0.000000|eff|290.039062,145.019531,-886.230469,-96.679688,84.594727,20.141602
cobot_dynamixel_driver/joint_states|name|J1,J2,J3,J4,J5,J6|pos|1.025218,-0.019278,0.018114,-0.000038,-0.188609,0.000000|vel|0.154190,0.133117,-0.126857,0.000000,0.482580,0.000000|eff|241.699219,209.472656,-837.890625,-48.339844,48.339844,20.141602
cobot_dynamixel_driver/joint_states|name|J1,J2,J3,J4,J5,J6|pos|1.028059,-0.016900,0.015848,-0.000038,-0.178991,0.000000|vel|0.133534,0.115382,-0.108496,0.000000,0.516705,0.000000|eff|225.585938,177.246094,-870.117188,0.000000,52.368164,24.169922
cobot_dynamixel_driver/joint_states|name|J1,J2,J3,J4,J5,J6|pos|1.030563,-0.014822,0.013908,-0.000038,-0.169393,0.000000|vel|0.112878,0.096395,-0.092848,0.000000,0.518773,0.000000|eff|225.585938,193.359375,-837.890625,-96.679688,64.453125,16.113281
cobot_dynamixel_driver/joint_states|name|J1,J2,J3,J4,J5,J6|pos|1.032666,-0.013006,0.012193,-0.000038,-0.159733,0.000000|vel|0.086797,0.089092,-0.088466,0.000000,0.449144,0.000000|eff|290.039062,177.246094,-854.003906,0.000000,76.538086,20.141602
cobot_dynamixel_driver/joint_states|name|J1,J2,J3,J4,J5,J6|pos|1.034531,-0.011367,0.010615,-0.000038,-0.150155,0.000000|vel|0.091179,0.082833,-0.073861,0.000000,0.543591,0.000000|eff|257.812500,241.699219,-837.890625,-80.566406,68.481445,20.141602
cobot_dynamixel_driver/joint_states|name|J1,J2,J3,J4,J5,J6|pos|1.036196,-0.009952,0.009326,-0.000038,-0.140578,0.000000|vel|0.076573,0.076782,-0.062803,0.000000,0.436734,0.000000|eff|177.246094,193.359375,-902.343750,0.000000,104.736328,12.084961
cobot_dynamixel_driver/joint_states|name|J1,J2,J3,J4,J5,J6|pos|1.037636,-0.008750,0.008199,-0.000038,-0.130876,0.000000|vel|0.067393,0.056543,-0.054457,0.000000,0.433287,0.000000|eff|193.359375,161.132812,-902.343750,0.000000,72.509766,12.084961
cobot_dynamixel_driver/joint_states|name|J1,J2,J3,J4,J5,J6|pos|1.038812,-0.007711,0.007236,-0.000038,-0.121237,0.000000|vel|0.054248,0.047780,-0.043816,0.000000,0.483614,0.000000|eff|225.585938,177.246094,-950.683594,-48.339844,80.566406,12.084961
cobot_dynamixel_driver/joint_states|name|J1,J2,J3,J4,J5,J6|pos|1.039826,-0.006722,0.006409,-0.000038,-0.111660,0.000000|vel|0.049867,0.049032,-0.037974,0.000000,0.481890,0.000000|eff|241.699219,241.699219,-966.796875,-80.566406,64.453125,12.084961
cobot_dynamixel_driver/joint_states|name|J1,J2,J3,J4,J5,J6|pos|1.040803,-0.005833,0.005571,-0.000038,-0.102062,0.000000|vel|0.045485,0.039226,-0.039017,0.000000,0.488095,0.000000|eff|161.132812,209.472656,-918.457031,-80.566406,80.566406,20.141602
cobot_dynamixel_driver/joint_states|name|J1,J2,J3,J4,J5,J6|pos|1.041654,-0.005120,0.004832,-0.000038,-0.092484,0.000000|vel|0.040060,0.035679,-0.039852,0.000000,0.499470,0.000000|eff|209.472656,257.812500,-886.230469,-80.566406,84.594727,20.141602
cobot_dynamixel_driver/joint_states|name|J1,J2,J3,J4,J5,J6|pos|1.042380,-0.004519,0.004244,-0.000038,-0.082824,0.000000|vel|0.035053,0.026498,-0.030254,0.000000,0.410193,0.000000|eff|177.246094,112.792969,-966.796875,-80.566406,60.424805,16.113281
cobot_dynamixel_driver/joint_states|name|J1,J2,J3,J4,J5,J6|pos|1.043006,-0.003981,0.003668,-0.000038,-0.073247,0.000000|vel|0.030462,0.027333,-0.028585,0.000000,0.485682,0.000000|eff|145.019531,177.246094,-902.343750,-80.566406,76.538086,12.084961
cobot_dynamixel_driver/joint_states|name|J1,J2,J3,J4,J5,J6|pos|1.043519,-0.003493,0.003255,-0.000025,-0.063794,0.000000|vel|0.023160,0.023577,-0.018152,0.000000,0.387787,0.000000|eff|177.246094,225.585938,-918.457031,-80.566406,-16.113281,12.084961
cobot_dynamixel_driver/joint_states|name|J1,J2,J3,J4,J5,J6|pos|1.043945,-0.003054,0.002842,-0.000025,-0.055520,0.000000|vel|0.023160,0.021491,-0.025455,0.000000,0.326086,0.000000|eff|193.359375,161.132812,-902.343750,-80.566406,-16.113281,20.141602
cobot_dynamixel_driver/joint_states|name|J1,J2,J3,J4,J5,J6|pos|1.044333,-0.002654,0.002466,-0.000025,-0.048549,0.000000|vel|0.019195,0.015023,-0.012310,0.000000,0.334014,0.000000|eff|193.359375,145.019531,-902.343750,-64.453125,12.084961,12.084961
cobot_dynamixel_driver/joint_states|name|J1,J2,J3,J4,J5,J6|pos|1.044683,-0.002341,0.002241,-0.000025,-0.042571,0.000000|vel|0.016692,0.015648,-0.011476,0.000000,0.279896,0.000000|eff|193.359375,161.132812,-934.570312,-80.566406,32.226562,24.169922
cobot_dynamixel_driver/joint_states|name|J1,J2,J3,J4,J5,J6|pos|1.045021,-0.002053,0.001928,-0.000025,-0.037275,0.000000|vel|0.016900,0.014605,-0.020865,0.000000,0.221987,0.000000|eff|193.359375,177.246094,-902.343750,-64.453125,24.169922,24.169922
cobot_dynamixel_driver/joint_states|name|J1,J2,J3,J4,J5,J6|pos|1.045297,-0.001753,0.001552,-0.000025,-0.032621,0.000000|vel|0.012519,0.013979,-0.015023,0.000000,0.228191,0.000000|eff|161.132812,177.246094,-854.003906,0.000000,28.198242,20.141602
cobot_dynamixel_driver/joint_states|name|J1,J2,J3,J4,J5,J6|pos|1.045547,-0.001515,0.001452,-0.000025,-0.028608,0.000000|vel|0.012310,0.010224,-0.005425,0.000000,0.201649,0.000000|eff|128.906250,161.132812,-918.457031,-80.566406,44.311523,12.084961
cobot_dynamixel_driver/joint_states|name|J1,J2,J3,J4,J5,J6|pos|1.045810,-0.001327,0.001415,-0.000025,-0.025071,0.000000|vel|0.012519,0.008972,-0.001878,0.000000,0.168213,0.000000|eff|177.246094,128.906250,-1015.136719,-48.339844,40.283203,16.113281
cobot_dynamixel_driver/joint_states|name|J1,J2,J3,J4,J5,J6|pos|1.046035,-0.001164,0.001264,-0.000025,-0.022009,0.000000|vel|0.010432,0.008346,-0.008972,0.000000,0.147876,0.000000|eff|161.132812,338.378906,-950.683594,-48.339844,60.424805,12.084961
cobot_dynamixel_driver/joint_states|name|J1,J2,J3,J4,J5,J6|pos|1.046198,-0.000989,0.001077,-0.000025,-0.019155,0.000000|vel|0.007094,0.007511,-0.011267,0.000000,0.146153,0.000000|eff|96.679688,290.039062,-934.570312,-48.339844,52.368164,20.141602
cobot_dynamixel_driver/joint_states|name|J1,J2,J3,J4,J5,J6|pos|1.046336,-0.000876,0.000826,-0.000025,-0.016859,0.000000|vel|0.006677,0.004799,-0.013979,0.000000,0.120645,0.000000|eff|225.585938,209.472656,-870.117188,-48.339844,48.339844,12.084961
cobot_dynamixel_driver/joint_states|name|J1,J2,J3,J4,J5,J6|pos|1.046461,-0.000801,0.000651,-0.000025,-0.014769,0.000000|vel|0.006051,0.003964,-0.005842,0.000000,0.093069,0.000000|eff|177.246094,80.566406,-870.117188,-80.566406,60.424805,16.113281
cobot_dynamixel_driver/joint_states|name|J1,J2,J3,J4,J5,J6|pos|1.046561,-0.000701,0.000601,-0.000025,-0.012908,0.000000|vel|0.004799,0.004382,-0.004382,0.000000,0.089277,0.000000|eff|161.132812,193.359375,-837.890625,-96.679688,56.396484,12.084961
cobot_dynamixel_driver/joint_states|name|J1,J2,J3,J4,J5,J6|pos|1.046636,-0.000638,0.000601,-0.000025,-0.011294,0.000000|vel|0.003338,0.003130,-0.004382,0.000000,0.072042,0.000000|eff|64.453125,161.132812,-886.230469,-64.453125,52.368164,12.084961
cobot_dynamixel_driver/joint_states|name|J1,J2,J3,J4,J5,J6|pos|1.046674,-0.000576,0.000601,-0.000025,-0.009867,0.000000|vel|0.002086,0.003130,-0.004382,0.000000,0.058254,0.000000|eff|225.585938,209.472656,-886.230469,-48.339844,48.339844,12.084961
cobot_dynamixel_driver/joint_states|name|J1,J2,J3,J4,J5,J6|pos|1.046736,-0.000513,0.000588,-0.000025,-0.008667,0.000000|vel|0.003338,0.003130,-0.000209,0.000000,0.062046,0.000000|eff|112.792969,-80.566406,-918.457031,-80.566406,52.368164,12.084961
cobot_dynamixel_driver/joint_states|name|J1,J2,J3,J4,J5,J6|pos|1.046812,-0.000463,0.000551,-0.000025,-0.007592,0.000000|vel|0.003756,0.002712,-0.001043,0.000000,0.057910,0.000000|eff|145.019531,145.019531,-918.457031,0.000000,60.424805,12.084961
cobot_dynamixel_driver/joint_states|name|J1,J2,J3,J4,J5,J6|pos|1.046887,-0.000401,0.000538,-0.000025,-0.006640,0.000000|vel|0.003964,0.002921,-0.001878,0.000000,0.047913,0.000000|eff|112.792969,161.132812,-982.910156,-48.339844,60.424805,12.084961
cobot_dynamixel_driver/joint_states|name|J1,J2,J3,J4,J5,J6|pos|1.046937,-0.000338,0.000526,-0.000025,-0.005833,0.000000|vel|0.002086,0.003338,-0.001878,0.000000,0.036883,0.000000|eff|161.132812,177.246094,-982.910156,-80.566406,60.424805,12.084961
cobot_dynamixel_driver/joint_states|name|J1,J2,J3,J4,J5,J6|pos|1.046974,-0.000263,0.000526,-0.000025,-0.005130,0.000000|vel|0.002086,0.003338,-0.000417,0.000000,0.035159,0.000000|eff|257.812500,209.472656,-999.023438,-80.566406,64.453125,24.169922
cobot_dynamixel_driver/joint_states|name|J1,J2,J3,J4,J5,J6|pos|1.047012,-0.000200,0.000513,-0.000025,-0.004509,0.000000|vel|0.002086,0.003338,-0.000417,0.000000,0.031023,0.000000|eff|128.906250,209.472656,-999.023438,-48.339844,72.509766,16.113281
cobot_dynamixel_driver/joint_states|name|J1,J2,J3,J4,J5,J6|pos|1.047037,-0.000138,0.000488,-0.000025,-0.004013,0.000000|vel|0.001669,0.003338,-0.000835,0.000000,0.019993,0.000000|eff|96.679688,225.585938,-982.910156,0.000000,80.566406,12.084961
cobot_dynamixel_driver/joint_states|name|J1,J2,J3,J4,J5,J6|pos|1.047049,-0.000063,0.000488,-0.000025,-0.003475,0.000000|vel|0.001669,0.003756,-0.000835,0.000000,0.025508,0.000000|eff|161.132812,225.585938,-999.023438,-80.566406,60.424805,12.084961
cobot_dynamixel_driver/joint_states|name|J1,J2,J3,J4,J5,J6|pos|1.047049,0.000013,0.000488,-0.000025,-0.003041,0.000000|vel|0.000417,0.004799,-0.000835,0.000000,0.018614,0.000000|eff|161.132812,225.585938,-1031.250000,-80.566406,68.481445,12.084961
cobot_dynamixel_driver/joint_states|name|J1,J2,J3,J4,J5,J6|pos|1.047049,0.000100,0.000463,-0.000025,-0.002648,0.000000|vel|0.000417,0.005216,-0.000209,0.000000,0.018269,0.000000|eff|161.132812,273.925781,-1047.363281,-80.566406,64.453125,12.084961
cobot_dynamixel_driver/joint_states|name|J1,J2,J3,J4,J5,J6|pos|1.047062,0.000100,0.000426,-0.000025,-0.002337,0.000000|vel|0.000417,0.001252,-0.002295,0.000000,0.013788,0.000000|eff|177.246094,290.039062,-1063.476562,0.000000,76.538086,12.084961
cobot_dynamixel_driver/joint_states|name|J1,J2,J3,J4,J5,J6|pos|1.047062,0.000125,0.000313,-0.000025,-0.002048,0.000000|vel|0.000417,0.001461,-0.007511,0.000000,0.014477,0.000000|eff|177.246094,257.812500,-999.023438,-80.566406,68.481445,12.084961
cobot_dynamixel_driver/joint_states|name|J1,J2,J3,J4,J5,J6|pos|1.047062,0.000125,0.000150,-0.000025,-0.001779,0.000000|vel|0.000417,0.001461,-0.008137,0.000000,0.012409,0.000000|eff|96.679688,241.699219,-934.570312,0.000000,68.481445,12.084961
cobot_dynamixel_driver/joint_states|name|J1,J2,J3,J4,J5,J6|pos|1.047074,0.000125,-0.000025,-0.000025,-0.001593,0.000000|vel|0.000209,0.001461,-0.007720,0.000000,0.008962,0.000000|eff|145.019531,273.925781,-870.117188,-80.566406,80.566406,12.084961
cobot_dynamixel_driver/joint_states|name|J1,J2,J3,J4,J5,J6|pos|1.047099,0.000125,-0.000200,-0.000025,-0.001427,0.000000|vel|0.000209,0.001461,-0.007511,0.000000,0.009307,0.000000|eff|161.132812,370.605469,-805.664062,-48.339844,80.566406,12.084961
cobot_dynamixel_driver/joint_states|name|J1,J2,J3,J4,J5,J6|pos|1.047112,0.000125,-0.000313,-0.000025,-0.001241,0.000000|vel|0.000835,0.001461,-0.003964,0.000000,0.009307,0.000000|eff|177.246094,386.718750,-821.777344,-48.339844,68.481445,12.084961
cobot_dynamixel_driver/joint_states|name|J1,J2,J3,J4,J5,J6|pos|1.047125,0.000125,-0.000325,-0.000025,-0.001076,0.000000|vel|0.000835,0.001461,-0.001878,0.000000,0.008273,0.000000|eff|80.566406,386.718750,-854.003906,-80.566406,76.538086,24.169922
cobot_dynamixel_driver/joint_states|name|J1,J2,J3,J4,J5,J6|pos|1.047125,0.000125,-0.000325,-0.000025,-0.000972,0.000000|vel|0.000417,-0.000000,-0.001878,0.000000,0.004826,0.000000|eff|177.246094,241.699219,-789.550781,-64.453125,80.566406,12.084961
cobot_dynamixel_driver/joint_states|name|J1,J2,J3,J4,J5,J6|pos|1.047125,0.000125,-0.000325,-0.000025,-0.000869,0.000000|vel|0.000417,-0.000000,-0.001878,0.000000,0.005860,0.000000|eff|112.792969,370.605469,-741.210938,-64.453125,72.509766,24.169922
cobot_dynamixel_driver/joint_states|name|J1,J2,J3,J4,J5,J6|pos|1.047125,0.000125,-0.000325,-0.000025,-0.000745,0.000000|vel|0.000417,-0.000000,-0.001878,0.000000,0.005515,0.000000|eff|177.246094,241.699219,-741.210938,-96.679688,88.623047,16.113281
cobot_dynamixel_driver/joint_states|name|J1,J2,J3,J4,J5,J6|pos|1.047125,0.000125,-0.000325,-0.000025,-0.000621,0.000000|vel|0.000417,-0.000000,-0.001878,0.000000,0.006894,0.000000|eff|161.132812,290.039062,-708.984375,-48.339844,60.424805,12.084961
cobot_dynamixel_driver/joint_states|name|J1,J2,J3,J4,J5,J6|pos|1.047125,0.000125,-0.000325,-0.000025,-0.000559,0.000000|vel|0.000417,-0.000000,-0.001878,0.000000,0.002758,0.000000|eff|193.359375,386.718750,-692.871094,-80.566406,72.509766,24.169922
cobot_dynamixel_driver/joint_states|name|J1,J2,J3,J4,J5,J6|pos|1.047125,0.000125,-0.000325,-0.000025,-0.000538,0.000000|vel|0.000417,-0.000000,0.000000,0.000000,0.002758,0.000000|eff|177.246094,322.265625,-676.757812,-64.453125,76.538086,12.084961
cobot_dynamixel_driver/joint_states|name|J1,J2,J3,J4,J5,J6|pos|1.047125,0.000125,-0.000325,-0.000025,-0.000517,0.000000|vel|0.000000,-0.000000,0.000000,0.000000,0.002758,0.000000|eff|0.000000,451.171875,-676.757812,-80.566406,76.538086,12.084961
cobot_dynamixel_driver/joint_states|name|J1,J2,J3,J4,J5,J6|pos|1.047137,0.000113,-0.000325,-0.000025,-0.000455,0.000000|vel|0.000000,-0.000000,0.000000,0.000000,0.002413,0.000000|eff|161.132812,435.058594,-676.757812,-80.566406,72.509766,16.113281
cobot_dynamixel_driver/joint_states|name|J1,J2,J3,J4,J5,J6|pos|1.047137,0.000113,-0.000325,-0.000025,-0.000310,0.000000|vel|0.000000,-0.000000,0.000000,0.000000,0.008273,0.000000|eff|145.019531,338.378906,-676.757812,-80.566406,64.453125,24.169922
cobot_dynamixel_driver/joint_states|name|J1,J2,J3,J4,J5,J6|pos|1.047150,0.000113,-0.000325,-0.000025,-0.000290,0.000000|vel|0.000000,-0.000000,0.000000,0.000000,0.006894,0.000000|eff|161.132812,273.925781,-676.757812,-80.566406,56.396484,12.084961
cobot_dynamixel_driver/joint_states|name|J1,J2,J3,J4,J5,J6|pos|1.047150,0.000113,-0.000325,-0.000025,-0.000290,0.000000|vel|0.000000,-0.000000,0.000000,0.000000,0.006894,0.000000|eff|161.132812,257.812500,-644.531250,-48.339844,48.339844,12.084961
cobot_dynamixel_driver/joint_states|name|J1,J2,J3,J4,J5,J6|pos|1.047162,0.000113,-0.000325,-0.000025,-0.000290,0.000000|vel|0.000000,-0.000000,0.000000,0.000000,0.006894,0.000000|eff|177.246094,306.152344,-676.757812,-80.566406,28.198242,12.084961
cobot_dynamixel_driver/joint_states|name|J1,J2,J3,J4,J5,J6|pos|1.047175,0.000113,-0.000313,-0.000025,-0.000290,0.000000|vel|0.000000,-0.000000,0.000000,0.000000,0.006894,0.000000|eff|0.000000,402.832031,-660.644531,-80.566406,28.198242,16.113281
cobot_dynamixel_driver/joint_states|name|J1,J2,J3,J4,J5,J6|pos|1.047175,0.000113,-0.000313,-0.000025,-0.000290,0.000000|vel|0.000417,-0.000000,0.000000,0.000000,0.006894,0.000000|eff|145.019531,467.285156,-612.304688,-80.566406,8.056641,20.141602
cobot_dynamixel_driver/joint_states|name|J1,J2,J3,J4,J5,J6|pos|1.047187,0.000113,-0.000300,-0.000025,-0.000290,0.000000|vel|0.000417,-0.000000,0.000000,0.000000,0.006894,0.000000|eff|32.226562,273.925781,-596.191406,-80.566406,8.056641,16.113281
cobot_dynamixel_driver/joint_states|name|J1,J2,J3,J4,J5,J6|pos|1.047187,0.000113,-0.000300,-0.000025,-0.000290,0.000000|vel|0.000417,-0.000000,0.000000,0.000000,0.000000,0.000000|eff|177.246094,306.152344,-628.417969,-80.566406,8.056641,24.169922
cobot_dynamixel_driver/joint_states|name|J1,J2,J3,J4,J5,J6|pos|1.047187,0.000113,-0.000300,-0.000025,-0.000290,0.000000|vel|0.000417,-0.000000,0.000000,0.000000,0.000000,0.000000|eff|80.566406,354.492188,-580.078125,-48.339844,16.113281,16.113281
cobot_dynamixel_driver/joint_states|name|J1,J2,J3,J4,J5,J6|pos|1.047187,0.000113,-0.000288,-0.000025,-0.000290,0.000000|vel|0.000417,-0.000000,0.000000,0.000000,0.000000,0.000000|eff|80.566406,338.378906,-531.738281,-80.566406,32.226562,12.084961
cobot_dynamixel_driver/joint_states|name|J1,J2,J3,J4,J5,J6|pos|1.047187,0.000113,-0.000288,-0.000025,-0.000290,0.000000|vel|0.000417,-0.000000,0.000209,0.000000,0.000000,0.000000|eff|177.246094,467.285156,-515.625000,0.000000,36.254883,16.113281
cobot_dynamixel_driver/joint_states|name|J1,J2,J3,J4,J5,J6|pos|1.047187,0.000113,-0.000275,-0.000025,-0.000290,0.000000|vel|0.000000,-0.000000,0.000209,0.000000,0.000000,0.000000|eff|145.019531,306.152344,-580.078125,0.000000,36.254883,16.113281
cobot_dynamixel_driver/joint_states|name|J1,J2,J3,J4,J5,J6|pos|1.047187,0.000113,-0.000275,-0.000025,-0.000290,0.000000|vel|0.000000,-0.000000,0.000209,0.000000,0.000000,0.000000|eff|161.132812,386.718750,-531.738281,-64.453125,36.254883,16.113281
cobot_dynamixel_driver/joint_states|name|J1,J2,J3,J4,J5,J6|pos|1.047200,0.000113,-0.000263,-0.000025,-0.000290,0.000000|vel|0.000000,-0.000000,0.000209,0.000000,0.000000,0.000000|eff|177.246094,354.492188,-483.398438,0.000000,44.311523,12.084961
cobot_dynamixel_driver/joint_states|name|J1,J2,J3,J4,J5,J6|pos|1.047200,0.000113,-0.000263,-0.000025,-0.000290,0.000000|vel|0.000000,-0.000000,0.000209,0.000000,0.000000,0.000000|eff|193.359375,290.039062,-499.511719,-48.339844,36.254883,12.084961
cobot_dynamixel_driver/joint_states|name|J1,J2,J3,J4,J5,J6|pos|1.047200,0.000113,-0.000263,-0.000025,-0.000290,0.000000|vel|0.000000,-0.000000,0.000209,0.000000,0.000000,0.000000|eff|0.000000,451.171875,-547.851562,-80.566406,44.311523,16.113281
cobot_dynamixel_driver/joint_states|name|J1,J2,J3,J4,J5,J6|pos|1.047200,0.000100,-0.000263,-0.000025,-0.000290,0.000000|vel|0.000000,-0.000000,0.000000,0.000000,0.000000,0.000000|eff|112.792969,354.492188,-499.511719,-80.566406,44.311523,12.084961
cobot_dynamixel_driver/joint_states|name|J1,J2,J3,J4,J5,J6|pos|1.047200,0.000100,-0.000250,-0.000025,-0.000290,0.000000|vel|0.000000,-0.000000,0.000000,0.000000,0.000000,0.000000|eff|193.359375,467.285156,-499.511719,0.000000,52.368164,20.141602
cobot_dynamixel_driver/joint_states|name|J1,J2,J3,J4,J5,J6|pos|1.047200,0.000100,-0.000238,-0.000025,-0.000290,0.000000|vel|0.000000,-0.000000,0.000000,0.000000,0.000000,0.000000|eff|0.000000,451.171875,-483.398438,-80.566406,56.396484,20.141602
cobot_dynamixel_driver/joint_states|name|J1,J2,J3,J4,J5,J6|pos|1.047200,0.000100,-0.000238,-0.000025,-0.000290,0.000000|vel|0.000000,-0.000000,0.000417,0.000000,0.000000,0.000000|eff|48.339844,451.171875,-483.398438,0.000000,60.424805,16.113281
cobot_dynamixel_driver/joint_states|name|J1,J2,J3,J4,J5,J6|pos|1.047200,0.000100,-0.000238,-0.000025,-0.000290,0.000000|vel|0.000000,-0.000000,0.000417,0.000000,0.000000,0.000000|eff|161.132812,402.832031,-531.738281,0.000000,68.481445,16.113281
