surachairobotic/cobot/cobot_dynamixel_driver/log/2018-12-19T09:02:14.328407_driver_log.txt
cobot_dynamixel_driver/joint_states|name|J1,J2,J3,J4,J5,J6|pos|-0.005220,-1.268785,1.294472,-0.001715,-1.162415,-0.000083|vel|0.000000,-0.000000,0.000000,0.000000,0.000000,0.000000|eff|0.000000,0.000000,-32.226562,0.000000,0.000000,0.000000
cobot_dynamixel_driver/joint_states|name|J1,J2,J3,J4,J5,J6|pos|-0.005220,-1.268785,1.294472,-0.001715,-1.162415,-0.000083|vel|0.000000,-0.000000,0.000000,0.000000,0.000000,0.000000|eff|0.000000,0.000000,-48.339844,0.000000,0.000000,0.000000
cobot_dynamixel_driver/joint_states|name|J1,J2,J3,J4,J5,J6|pos|-0.005220,-1.268785,1.294472,-0.001715,-1.162415,-0.000083|vel|0.000000,-0.000000,0.000000,0.000000,0.000000,0.000000|eff|0.000000,0.000000,-32.226562,0.000000,0.000000,0.000000
cobot_dynamixel_driver/joint_states|name|J1,J2,J3,J4,J5,J6|pos|-0.005220,-1.268785,1.294472,-0.001715,-1.162415,-0.000083|vel|0.000000,-0.000000,0.000000,0.000000,0.000000,0.000000|eff|0.000000,0.000000,0.000000,0.000000,0.000000,0.000000
cobot_dynamixel_driver/joint_states|name|J1,J2,J3,J4,J5,J6|pos|-0.005220,-1.268785,1.294472,-0.001715,-1.162415,-0.000083|vel|0.000000,-0.000000,0.000000,0.000000,0.000000,0.000000|eff|0.000000,0.000000,0.000000,0.000000,0.000000,0.000000
cobot_dynamixel_driver/joint_states|name|J1,J2,J3,J4,J5,J6|pos|-0.005220,-1.268785,1.294472,-0.001715,-1.162415,-0.000083|vel|0.000000,-0.000000,0.000000,0.000000,0.000000,0.000000|eff|0.000000,0.000000,0.000000,0.000000,0.000000,0.000000
cobot_dynamixel_driver/joint_states|name|J1,J2,J3,J4,J5,J6|pos|-0.005220,-1.268785,1.294472,-0.001715,-1.162415,-0.000083|vel|0.000000,-0.000000,0.000000,0.000000,0.000000,0.000000|eff|0.000000,0.000000,-32.226562,0.000000,0.000000,0.000000
cobot_dynamixel_driver/joint_states|name|J1,J2,J3,J4,J5,J6|pos|-0.005220,-1.268785,1.294472,-0.001715,-1.162415,-0.000083|vel|0.000000,-0.000000,0.000000,0.000000,0.000000,0.000000|eff|0.000000,0.000000,-32.226562,0.000000,0.000000,0.000000
cobot_dynamixel_driver/joint_states|name|J1,J2,J3,J4,J5,J6|pos|-0.005220,-1.268785,1.294472,-0.001715,-1.162415,-0.000083|vel|0.000000,-0.000000,0.000000,0.000000,0.000000,0.000000|eff|0.000000,0.000000,0.000000,0.000000,0.000000,0.000000
cobot_dynamixel_driver/joint_states|name|J1,J2,J3,J4,J5,J6|pos|-0.005220,-1.268785,1.294472,-0.001715,-1.162415,-0.000083|vel|0.000000,-0.000000,0.000000,0.000000,0.000000,0.000000|eff|0.000000,0.000000,0.000000,0.000000,0.000000,0.000000
cobot_dynamixel_driver/joint_states|name|J1,J2,J3,J4,J5,J6|pos|-0.005220,-1.268785,1.294472,-0.001715,-1.162415,-0.000083|vel|0.000000,-0.000000,0.000000,0.000000,0.000000,0.000000|eff|0.000000,0.000000,-32.226562,0.000000,0.000000,0.000000
cobot_dynamixel_driver/joint_states|name|J1,J2,J3,J4,J5,J6|pos|-0.005220,-1.268785,1.294472,-0.001715,-1.162415,-0.000083|vel|0.000000,-0.000000,0.000000,0.000000,0.000000,0.000000|eff|0.000000,0.000000,-48.339844,0.000000,0.000000,0.000000
cobot_dynamixel_driver/joint_states|name|J1,J2,J3,J4,J5,J6|pos|-0.005220,-1.268785,1.294472,-0.001715,-1.162415,-0.000083|vel|0.000000,-0.000000,0.000000,0.000000,0.000000,0.000000|eff|0.000000,0.000000,-32.226562,0.000000,0.000000,0.000000
cobot_dynamixel_driver/joint_states|name|J1,J2,J3,J4,J5,J6|pos|-0.005220,-1.268785,1.294472,-0.001715,-1.162415,-0.000083|vel|0.000000,-0.000000,0.000000,0.000000,0.000000,0.000000|eff|0.000000,0.000000,0.000000,0.000000,0.000000,0.000000
cobot_dynamixel_driver/joint_states|name|J1,J2,J3,J4,J5,J6|pos|-0.005220,-1.268785,1.294472,-0.001715,-1.162415,-0.000083|vel|0.000000,-0.000000,0.000000,0.000000,0.000000,0.000000|eff|0.000000,0.000000,-48.339844,0.000000,0.000000,0.000000
cobot_dynamixel_driver/joint_states|name|J1,J2,J3,J4,J5,J6|pos|-0.005220,-1.268785,1.294472,-0.001715,-1.162415,-0.000083|vel|0.000000,-0.000000,0.000000,0.000000,0.000000,0.000000|eff|0.000000,0.000000,0.000000,0.000000,0.000000,0.000000
cobot_dynamixel_driver/joint_states|name|J1,J2,J3,J4,J5,J6|pos|-0.005220,-1.268785,1.294472,-0.001715,-1.162415,-0.000083|vel|0.000000,-0.000000,0.000000,0.000000,0.000000,0.000000|eff|0.000000,0.000000,0.000000,0.000000,0.000000,0.000000
cobot_dynamixel_driver/joint_states|name|J1,J2,J3,J4,J5,J6|pos|-0.005220,-1.268785,1.294472,-0.001715,-1.162415,-0.000083|vel|0.000000,-0.000000,0.000000,0.000000,0.000000,0.000000|eff|0.000000,0.000000,-32.226562,0.000000,0.000000,0.000000
cobot_dynamixel_driver/joint_states|name|J1,J2,J3,J4,J5,J6|pos|-0.005220,-1.268785,1.294472,-0.001715,-1.162415,-0.000083|vel|0.000000,-0.000000,0.000000,0.000000,0.000000,0.000000|eff|0.000000,0.000000,-48.339844,0.000000,0.000000,0.000000
cobot_dynamixel_driver/joint_states|name|J1,J2,J3,J4,J5,J6|pos|-0.005220,-1.268785,1.294472,-0.001715,-1.162415,-0.000083|vel|0.000000,-0.000000,0.000000,0.000000,0.000000,0.000000|eff|0.000000,0.000000,0.000000,0.000000,0.000000,0.000000
cobot_dynamixel_driver/joint_states|name|J1,J2,J3,J4,J5,J6|pos|-0.005220,-1.268785,1.294472,-0.001715,-1.162415,-0.000083|vel|0.000000,-0.000000,0.000000,0.000000,0.000000,0.000000|eff|0.000000,0.000000,-32.226562,0.000000,0.000000,0.000000
cobot_dynamixel_driver/joint_states|name|J1,J2,J3,J4,J5,J6|pos|-0.005220,-1.268785,1.294472,-0.001715,-1.162415,-0.000083|vel|0.000000,-0.000000,0.000000,0.000000,0.000000,0.000000|eff|0.000000,0.000000,0.000000,0.000000,0.000000,0.000000
cobot_dynamixel_driver/joint_states|name|J1,J2,J3,J4,J5,J6|pos|-0.005220,-1.268785,1.294472,-0.001715,-1.162415,-0.000083|vel|0.000000,-0.000000,0.000000,0.000000,0.000000,0.000000|eff|0.000000,0.000000,0.000000,0.000000,0.000000,0.000000
cobot_dynamixel_driver/joint_states|name|J1,J2,J3,J4,J5,J6|pos|-0.005220,-1.268785,1.294472,-0.001715,-1.162415,-0.000083|vel|0.000000,-0.000000,0.000000,0.000000,0.000000,0.000000|eff|0.000000,0.000000,0.000000,0.000000,0.000000,0.000000
cobot_dynamixel_driver/joint_states|name|J1,J2,J3,J4,J5,J6|pos|-0.005220,-1.268785,1.294472,-0.001715,-1.162415,-0.000083|vel|0.000000,-0.000000,0.000000,0.000000,0.000000,0.000000|eff|0.000000,0.000000,-48.339844,0.000000,0.000000,0.000000
cobot_dynamixel_driver/joint_states|name|J1,J2,J3,J4,J5,J6|pos|-0.005220,-1.268785,1.294472,-0.001715,-1.162415,-0.000083|vel|0.000000,-0.000000,0.000000,0.000000,0.000000,0.000000|eff|0.000000,0.000000,0.000000,0.000000,0.000000,0.000000
cobot_dynamixel_driver/joint_states|name|J1,J2,J3,J4,J5,J6|pos|-0.005220,-1.268785,1.294472,-0.001715,-1.162415,-0.000083|vel|0.000000,-0.000000,0.000000,0.000000,0.000000,0.000000|eff|0.000000,0.000000,0.000000,0.000000,0.000000,0.000000
cobot_dynamixel_driver/joint_states|name|J1,J2,J3,J4,J5,J6|pos|-0.005220,-1.268785,1.294472,-0.001715,-1.162415,-0.000083|vel|0.000000,-0.000000,0.000000,0.000000,0.000000,0.000000|eff|0.000000,0.000000,0.000000,0.000000,0.000000,0.000000
cobot_dynamixel_driver/joint_states|name|J1,J2,J3,J4,J5,J6|pos|-0.005220,-1.268785,1.294472,-0.001715,-1.162415,-0.000083|vel|0.000000,-0.000000,0.000000,0.000000,0.000000,0.000000|eff|0.000000,0.000000,0.000000,0.000000,0.000000,0.000000
cobot_dynamixel_driver/joint_states|name|J1,J2,J3,J4,J5,J6|pos|-0.005220,-1.268785,1.294472,-0.001715,-1.162415,-0.000083|vel|0.000000,-0.000000,0.000000,0.000000,0.000000,0.000000|eff|0.000000,0.000000,0.000000,0.000000,0.000000,0.000000
cobot_dynamixel_driver/joint_states|name|J1,J2,J3,J4,J5,J6|pos|-0.005220,-1.268785,1.294472,-0.001715,-1.162415,-0.000083|vel|0.000000,-0.000000,0.000000,0.000000,0.000000,0.000000|eff|0.000000,0.000000,0.000000,0.000000,0.000000,0.000000
cobot_dynamixel_driver/joint_states|name|J1,J2,J3,J4,J5,J6|pos|-0.005220,-1.268785,1.294472,-0.001715,-1.162415,-0.000083|vel|0.000000,-0.000000,0.000000,0.000000,0.000000,0.000000|eff|0.000000,0.000000,0.000000,0.000000,0.000000,0.000000
cobot_dynamixel_driver/joint_states|name|J1,J2,J3,J4,J5,J6|pos|-0.005220,-1.268785,1.294472,-0.001715,-1.162415,-0.000083|vel|0.000000,-0.000000,0.000000,0.000000,0.000000,0.000000|eff|0.000000,0.000000,0.000000,0.000000,0.000000,0.000000
cobot_dynamixel_driver/joint_states|name|J1,J2,J3,J4,J5,J6|pos|-0.005220,-1.268785,1.294472,-0.001715,-1.162415,-0.000083|vel|0.000000,-0.000000,0.000000,0.000000,0.000000,0.000000|eff|0.000000,0.000000,0.000000,0.000000,0.000000,0.000000
cobot_dynamixel_driver/joint_states|name|J1,J2,J3,J4,J5,J6|pos|-0.005220,-1.268785,1.294472,-0.001715,-1.162415,-0.000083|vel|0.000000,-0.000000,0.000000,0.000000,0.000000,0.000000|eff|0.000000,0.000000,0.000000,0.000000,0.000000,0.000000
cobot_dynamixel_driver/joint_states|name|J1,J2,J3,J4,J5,J6|pos|-0.005220,-1.268785,1.294472,-0.001715,-1.162415,-0.000083|vel|0.000000,-0.000000,0.000000,0.000000,0.000000,0.000000|eff|0.000000,0.000000,-32.226562,0.000000,0.000000,0.000000
cobot_dynamixel_driver/joint_states|name|J1,J2,J3,J4,J5,J6|pos|-0.005220,-1.268785,1.294472,-0.001715,-1.162415,-0.000083|vel|0.000000,-0.000000,0.000000,0.000000,0.000000,0.000000|eff|0.000000,0.000000,-32.226562,0.000000,0.000000,0.000000
cobot_dynamixel_driver/joint_states|name|J1,J2,J3,J4,J5,J6|pos|-0.005220,-1.268785,1.294472,-0.001715,-1.162415,-0.000083|vel|0.000000,-0.000000,0.000000,0.000000,0.000000,0.000000|eff|0.000000,0.000000,0.000000,0.000000,0.000000,0.000000
cobot_dynamixel_driver/joint_states|name|J1,J2,J3,J4,J5,J6|pos|-0.005220,-1.268785,1.294472,-0.001715,-1.162415,-0.000083|vel|0.000000,-0.000000,0.000000,0.000000,0.000000,0.000000|eff|0.000000,0.000000,0.000000,0.000000,0.000000,0.000000
cobot_dynamixel_driver/joint_states|name|J1,J2,J3,J4,J5,J6|pos|-0.005220,-1.268785,1.294472,-0.001715,-1.162415,-0.000083|vel|0.000000,-0.000000,0.000000,0.000000,0.000000,0.000000|eff|0.000000,0.000000,0.000000,0.000000,0.000000,0.000000
cobot_dynamixel_driver/joint_states|name|J1,J2,J3,J4,J5,J6|pos|-0.005220,-1.268785,1.294472,-0.001715,-1.162415,-0.000083|vel|0.000000,-0.000000,0.000000,0.000000,0.000000,0.000000|eff|0.000000,0.000000,0.000000,0.000000,0.000000,0.000000
cobot_dynamixel_driver/joint_states|name|J1,J2,J3,J4,J5,J6|pos|-0.005220,-1.268785,1.294472,-0.001715,-1.162415,-0.000083|vel|0.000000,-0.000000,0.000000,0.000000,0.000000,0.000000|eff|0.000000,0.000000,0.000000,0.000000,0.000000,0.000000
cobot_dynamixel_driver/joint_states|name|J1,J2,J3,J4,J5,J6|pos|-0.005220,-1.268785,1.294472,-0.001715,-1.162415,-0.000083|vel|0.000000,-0.000000,0.000000,0.000000,0.000000,0.000000|eff|0.000000,0.000000,0.000000,0.000000,0.000000,0.000000
cobot_dynamixel_driver/joint_states|name|J1,J2,J3,J4,J5,J6|pos|-0.005220,-1.268785,1.294472,-0.001715,-1.162415,-0.000083|vel|0.000000,-0.000000,0.000000,0.000000,0.000000,0.000000|eff|0.000000,0.000000,-48.339844,0.000000,0.000000,0.000000
cobot_dynamixel_driver/joint_states|name|J1,J2,J3,J4,J5,J6|pos|-0.005220,-1.268785,1.294472,-0.001715,-1.162415,-0.000083|vel|0.000000,-0.000000,0.000000,0.000000,0.000000,0.000000|eff|0.000000,0.000000,0.000000,0.000000,0.000000,0.000000
cobot_dynamixel_driver/joint_states|name|J1,J2,J3,J4,J5,J6|pos|-0.005220,-1.268785,1.294472,-0.001715,-1.162415,-0.000083|vel|0.000000,-0.000000,0.000000,0.000000,0.000000,0.000000|eff|0.000000,0.000000,-48.339844,0.000000,0.000000,0.000000
cobot_dynamixel_driver/joint_states|name|J1,J2,J3,J4,J5,J6|pos|-0.005220,-1.268785,1.294472,-0.001715,-1.162415,-0.000083|vel|0.000000,-0.000000,0.000000,0.000000,0.000000,0.000000|eff|0.000000,0.000000,-48.339844,0.000000,0.000000,0.000000
cobot_dynamixel_driver/joint_states|name|J1,J2,J3,J4,J5,J6|pos|-0.005220,-1.268785,1.294472,-0.001715,-1.162415,-0.000083|vel|0.000000,-0.000000,0.000000,0.000000,0.000000,0.000000|eff|0.000000,0.000000,0.000000,0.000000,0.000000,0.000000
cobot_dynamixel_driver/joint_states|name|J1,J2,J3,J4,J5,J6|pos|-0.005220,-1.268785,1.294472,-0.001715,-1.162415,-0.000083|vel|0.000000,-0.000000,0.000000,0.000000,0.000000,0.000000|eff|0.000000,0.000000,0.000000,0.000000,0.000000,0.000000
cobot_dynamixel_driver/joint_states|name|J1,J2,J3,J4,J5,J6|pos|-0.005220,-1.268785,1.294472,-0.001715,-1.162415,-0.000083|vel|0.000000,-0.000000,0.000000,0.000000,0.000000,0.000000|eff|0.000000,0.000000,-32.226562,0.000000,0.000000,0.000000
cobot_dynamixel_driver/joint_states|name|J1,J2,J3,J4,J5,J6|pos|-0.005220,-1.268785,1.294472,-0.001715,-1.162415,-0.000083|vel|0.000000,-0.000000,0.000000,0.000000,0.000000,0.000000|eff|0.000000,0.000000,0.000000,0.000000,0.000000,0.000000
cobot_dynamixel_driver/joint_states|name|J1,J2,J3,J4,J5,J6|pos|-0.005220,-1.268785,1.294472,-0.001715,-1.162415,-0.000083|vel|0.000000,-0.000000,0.000000,0.000000,0.000000,0.000000|eff|0.000000,0.000000,-64.453125,0.000000,0.000000,0.000000
cobot_dynamixel_driver/joint_states|name|J1,J2,J3,J4,J5,J6|pos|-0.005220,-1.268785,1.294472,-0.001715,-1.162415,-0.000083|vel|0.000000,-0.000000,0.000000,0.000000,0.000000,0.000000|eff|0.000000,0.000000,-64.453125,0.000000,0.000000,0.000000
cobot_dynamixel_driver/joint_states|name|J1,J2,J3,J4,J5,J6|pos|-0.005220,-1.268785,1.294472,-0.001715,-1.162415,-0.000083|vel|0.000000,-0.000000,0.000000,0.000000,0.000000,0.000000|eff|0.000000,0.000000,-48.339844,0.000000,0.000000,0.000000
cobot_dynamixel_driver/joint_states|name|J1,J2,J3,J4,J5,J6|pos|-0.005220,-1.268785,1.294472,-0.001715,-1.162415,-0.000083|vel|0.000000,-0.000000,0.000000,0.000000,0.000000,0.000000|eff|0.000000,0.000000,-48.339844,0.000000,0.000000,0.000000
cobot_dynamixel_driver/joint_states|name|J1,J2,J3,J4,J5,J6|pos|-0.005220,-1.268785,1.294472,-0.001715,-1.162415,-0.000083|vel|0.000000,-0.000000,0.000000,0.000000,0.000000,0.000000|eff|0.000000,0.000000,-64.453125,0.000000,0.000000,0.000000
cobot_dynamixel_driver/joint_states|name|J1,J2,J3,J4,J5,J6|pos|-0.005220,-1.268785,1.294472,-0.001715,-1.162415,-0.000083|vel|0.000000,-0.000000,0.000000,0.000000,0.000000,0.000000|eff|0.000000,0.000000,0.000000,0.000000,0.000000,0.000000
cobot_dynamixel_driver/joint_states|name|J1,J2,J3,J4,J5,J6|pos|-0.005220,-1.268785,1.294472,-0.001715,-1.162415,-0.000083|vel|0.000000,-0.000000,0.000000,0.000000,0.000000,0.000000|eff|0.000000,0.000000,0.000000,0.000000,0.000000,0.000000
cobot_dynamixel_driver/joint_states|name|J1,J2,J3,J4,J5,J6|pos|-0.005220,-1.268785,1.294472,-0.001715,-1.162415,-0.000083|vel|0.000000,-0.000000,0.000000,0.000000,0.000000,0.000000|eff|0.000000,0.000000,0.000000,0.000000,0.000000,0.000000
cobot_dynamixel_driver/joint_states|name|J1,J2,J3,J4,J5,J6|pos|-0.005220,-1.268785,1.294472,-0.001715,-1.162415,-0.000083|vel|0.000000,-0.000000,0.000000,0.000000,0.000000,0.000000|eff|0.000000,0.000000,0.000000,0.000000,0.000000,0.000000
cobot_dynamixel_driver/joint_states|name|J1,J2,J3,J4,J5,J6|pos|-0.005220,-1.268785,1.294472,-0.001715,-1.162415,-0.000083|vel|0.000000,-0.000000,0.000000,0.000000,0.000000,0.000000|eff|0.000000,0.000000,0.000000,0.000000,0.000000,0.000000
cobot_dynamixel_driver/joint_states|name|J1,J2,J3,J4,J5,J6|pos|-0.005220,-1.268785,1.294472,-0.001715,-1.162415,-0.000083|vel|0.000000,-0.000000,0.000000,0.000000,0.000000,0.000000|eff|0.000000,0.000000,-32.226562,0.000000,0.000000,0.000000
cobot_dynamixel_driver/joint_states|name|J1,J2,J3,J4,J5,J6|pos|-0.005220,-1.268785,1.294472,-0.001715,-1.162415,-0.000083|vel|0.000000,-0.000000,0.000000,0.000000,0.000000,0.000000|eff|0.000000,0.000000,-32.226562,0.000000,0.000000,0.000000
cobot_dynamixel_driver/joint_states|name|J1,J2,J3,J4,J5,J6|pos|-0.005220,-1.268785,1.294472,-0.001715,-1.162415,-0.000083|vel|0.000000,-0.000000,0.000000,0.000000,0.000000,0.000000|eff|0.000000,0.000000,-48.339844,0.000000,0.000000,0.000000
cobot_dynamixel_driver/joint_states|name|J1,J2,J3,J4,J5,J6|pos|-0.005220,-1.268785,1.294472,-0.001715,-1.162415,-0.000083|vel|0.000000,-0.000000,0.000000,0.000000,0.000000,0.000000|eff|0.000000,0.000000,0.000000,0.000000,0.000000,0.000000
cobot_dynamixel_driver/joint_states|name|J1,J2,J3,J4,J5,J6|pos|-0.005220,-1.268785,1.294472,-0.001715,-1.162415,-0.000083|vel|0.000000,-0.000000,0.000000,0.000000,0.000000,0.000000|eff|0.000000,0.000000,0.000000,0.000000,0.000000,0.000000
cobot_dynamixel_driver/joint_states|name|J1,J2,J3,J4,J5,J6|pos|-0.005220,-1.268785,1.294472,-0.001715,-1.162415,-0.000083|vel|0.000000,-0.000000,0.000000,0.000000,0.000000,0.000000|eff|0.000000,0.000000,0.000000,0.000000,0.000000,0.000000
cobot_dynamixel_driver/joint_states|name|J1,J2,J3,J4,J5,J6|pos|-0.005220,-1.268785,1.294472,-0.001715,-1.162415,-0.000083|vel|0.000000,-0.000000,0.000000,0.000000,0.000000,0.000000|eff|0.000000,0.000000,0.000000,0.000000,0.000000,0.000000
cobot_dynamixel_driver/joint_states|name|J1,J2,J3,J4,J5,J6|pos|-0.005220,-1.268785,1.294472,-0.001715,-1.162415,-0.000083|vel|0.000000,-0.000000,0.000000,0.000000,0.000000,0.000000|eff|0.000000,0.000000,0.000000,0.000000,0.000000,0.000000
cobot_dynamixel_driver/joint_states|name|J1,J2,J3,J4,J5,J6|pos|-0.005220,-1.268785,1.294472,-0.001715,-1.162415,-0.000083|vel|0.000000,-0.000000,0.000000,0.000000,0.000000,0.000000|eff|0.000000,0.000000,-48.339844,0.000000,0.000000,0.000000
cobot_dynamixel_driver/joint_states|name|J1,J2,J3,J4,J5,J6|pos|-0.005220,-1.268785,1.294472,-0.001715,-1.162415,-0.000083|vel|0.000000,-0.000000,0.000000,0.000000,0.000000,0.000000|eff|0.000000,0.000000,-32.226562,0.000000,0.000000,0.000000
cobot_dynamixel_driver/joint_states|name|J1,J2,J3,J4,J5,J6|pos|-0.005220,-1.268785,1.294472,-0.001715,-1.162415,-0.000083|vel|0.000000,-0.000000,0.000000,0.000000,0.000000,0.000000|eff|0.000000,0.000000,0.000000,0.000000,0.000000,0.000000
cobot_dynamixel_driver/joint_states|name|J1,J2,J3,J4,J5,J6|pos|-0.005220,-1.268785,1.294472,-0.001715,-1.162415,-0.000083|vel|0.000000,-0.000000,0.000000,0.000000,0.000000,0.000000|eff|0.000000,0.000000,0.000000,0.000000,0.000000,0.000000
cobot_dynamixel_driver/joint_states|name|J1,J2,J3,J4,J5,J6|pos|-0.005220,-1.268785,1.294472,-0.001715,-1.162415,-0.000083|vel|0.000000,-0.000000,0.000000,0.000000,0.000000,0.000000|eff|0.000000,0.000000,0.000000,0.000000,0.000000,0.000000
cobot_dynamixel_driver/joint_states|name|J1,J2,J3,J4,J5,J6|pos|-0.005220,-1.268785,1.294472,-0.001715,-1.162415,-0.000083|vel|0.000000,-0.000000,0.000000,0.000000,0.000000,0.000000|eff|0.000000,0.000000,-48.339844,0.000000,0.000000,0.000000
cobot_dynamixel_driver/joint_states|name|J1,J2,J3,J4,J5,J6|pos|-0.005220,-1.268785,1.294472,-0.001715,-1.162415,-0.000083|vel|0.000000,-0.000000,0.000000,0.000000,0.000000,0.000000|eff|0.000000,0.000000,-48.339844,0.000000,0.000000,0.000000
cobot_dynamixel_driver/joint_states|name|J1,J2,J3,J4,J5,J6|pos|-0.005220,-1.268785,1.294472,-0.001715,-1.162415,-0.000083|vel|0.000000,-0.000000,0.000000,0.000000,0.000000,0.000000|eff|0.000000,0.000000,-48.339844,0.000000,0.000000,0.000000
cobot_dynamixel_driver/joint_states|name|J1,J2,J3,J4,J5,J6|pos|-0.005220,-1.268785,1.294472,-0.001715,-1.162415,-0.000083|vel|0.000000,-0.000000,0.000000,0.000000,0.000000,0.000000|eff|0.000000,0.000000,0.000000,0.000000,0.000000,0.000000
cobot_dynamixel_driver/joint_states|name|J1,J2,J3,J4,J5,J6|pos|-0.005220,-1.268785,1.294472,-0.001715,-1.162415,-0.000083|vel|0.000000,-0.000000,0.000000,0.000000,0.000000,0.000000|eff|0.000000,0.000000,0.000000,0.000000,0.000000,0.000000
cobot_dynamixel_driver/joint_states|name|J1,J2,J3,J4,J5,J6|pos|-0.005220,-1.268785,1.294472,-0.001715,-1.162415,-0.000083|vel|0.000000,-0.000000,0.000000,0.000000,0.000000,0.000000|eff|0.000000,0.000000,0.000000,0.000000,0.000000,0.000000
cobot_dynamixel_driver/joint_states|name|J1,J2,J3,J4,J5,J6|pos|-0.005220,-1.268785,1.294472,-0.001715,-1.162415,-0.000083|vel|0.000000,-0.000000,0.000000,0.000000,0.000000,0.000000|eff|0.000000,0.000000,0.000000,0.000000,0.000000,0.000000
cobot_dynamixel_driver/joint_states|name|J1,J2,J3,J4,J5,J6|pos|-0.005220,-1.268785,1.294472,-0.001715,-1.162415,-0.000083|vel|0.000000,-0.000000,0.000000,0.000000,0.000000,0.000000|eff|0.000000,0.000000,0.000000,0.000000,0.000000,0.000000
cobot_dynamixel_driver/joint_states|name|J1,J2,J3,J4,J5,J6|pos|-0.005220,-1.268785,1.294472,-0.001715,-1.162415,-0.000083|vel|0.000000,-0.000000,0.000000,0.000000,0.000000,0.000000|eff|0.000000,0.000000,-48.339844,0.000000,0.000000,0.000000
cobot_dynamixel_driver/joint_states|name|J1,J2,J3,J4,J5,J6|pos|-0.005220,-1.268785,1.294472,-0.001715,-1.162415,-0.000083|vel|0.000000,-0.000000,0.000000,0.000000,0.000000,0.000000|eff|0.000000,0.000000,-32.226562,0.000000,0.000000,0.000000
cobot_dynamixel_driver/joint_states|name|J1,J2,J3,J4,J5,J6|pos|-0.005220,-1.268785,1.294472,-0.001715,-1.162415,-0.000083|vel|0.000000,-0.000000,0.000000,0.000000,0.000000,0.000000|eff|0.000000,0.000000,-48.339844,0.000000,0.000000,0.000000
cobot_dynamixel_driver/joint_states|name|J1,J2,J3,J4,J5,J6|pos|-0.005220,-1.268785,1.294472,-0.001715,-1.162415,-0.000083|vel|0.000000,-0.000000,0.000000,0.000000,0.000000,0.000000|eff|0.000000,0.000000,0.000000,0.000000,0.000000,0.000000
cobot_dynamixel_driver/joint_states|name|J1,J2,J3,J4,J5,J6|pos|-0.005220,-1.268785,1.294472,-0.001715,-1.162415,-0.000083|vel|0.000000,-0.000000,0.000000,0.000000,0.000000,0.000000|eff|0.000000,0.000000,-32.226562,0.000000,0.000000,0.000000
cobot_dynamixel_driver/joint_states|name|J1,J2,J3,J4,J5,J6|pos|-0.005220,-1.268785,1.294472,-0.001715,-1.162415,-0.000083|vel|0.000000,-0.000000,0.000000,0.000000,0.000000,0.000000|eff|0.000000,0.000000,-64.453125,0.000000,0.000000,0.000000
cobot_dynamixel_driver/joint_states|name|J1,J2,J3,J4,J5,J6|pos|-0.005220,-1.268785,1.294472,-0.001715,-1.162415,-0.000083|vel|0.000000,-0.000000,0.000000,0.000000,0.000000,0.000000|eff|0.000000,0.000000,0.000000,0.000000,0.000000,0.000000
cobot_dynamixel_driver/joint_states|name|J1,J2,J3,J4,J5,J6|pos|-0.005220,-1.268785,1.294472,-0.001715,-1.162415,-0.000083|vel|0.000000,-0.000000,0.000000,0.000000,0.000000,0.000000|eff|0.000000,0.000000,0.000000,0.000000,0.000000,0.000000
cobot_dynamixel_driver/joint_states|name|J1,J2,J3,J4,J5,J6|pos|-0.005220,-1.268785,1.294472,-0.001715,-1.162415,-0.000083|vel|0.000000,-0.000000,0.000000,0.000000,0.000000,0.000000|eff|0.000000,0.000000,0.000000,0.000000,0.000000,0.000000
cobot_dynamixel_driver/joint_states|name|J1,J2,J3,J4,J5,J6|pos|-0.005220,-1.268785,1.294472,-0.001715,-1.162415,-0.000083|vel|0.000000,-0.000000,0.000000,0.000000,0.000000,0.000000|eff|0.000000,0.000000,0.000000,0.000000,0.000000,0.000000
cobot_dynamixel_driver/joint_states|name|J1,J2,J3,J4,J5,J6|pos|-0.005220,-1.268785,1.294472,-0.001715,-1.162415,-0.000083|vel|0.000000,-0.000000,0.000000,0.000000,0.000000,0.000000|eff|0.000000,0.000000,-48.339844,0.000000,0.000000,0.000000
cobot_dynamixel_driver/joint_states|name|J1,J2,J3,J4,J5,J6|pos|-0.005220,-1.268785,1.294472,-0.001715,-1.162415,-0.000083|vel|0.000000,-0.000000,0.000000,0.000000,0.000000,0.000000|eff|0.000000,0.000000,-32.226562,0.000000,0.000000,0.000000
cobot_dynamixel_driver/joint_states|name|J1,J2,J3,J4,J5,J6|pos|-0.005220,-1.268785,1.294472,-0.001715,-1.162415,-0.000083|vel|0.000000,-0.000000,0.000000,0.000000,0.000000,0.000000|eff|0.000000,0.000000,-48.339844,0.000000,0.000000,0.000000
cobot_dynamixel_driver/joint_states|name|J1,J2,J3,J4,J5,J6|pos|-0.005220,-1.268785,1.294472,-0.001715,-1.162415,-0.000083|vel|0.000000,-0.000000,0.000000,0.000000,0.000000,0.000000|eff|0.000000,0.000000,0.000000,0.000000,0.000000,0.000000
cobot_dynamixel_driver/joint_states|name|J1,J2,J3,J4,J5,J6|pos|-0.005220,-1.268785,1.294472,-0.001715,-1.162415,-0.000083|vel|0.000000,-0.000000,0.000000,0.000000,0.000000,0.000000|eff|0.000000,0.000000,0.000000,0.000000,0.000000,0.000000
cobot_dynamixel_driver/joint_states|name|J1,J2,J3,J4,J5,J6|pos|-0.005220,-1.268785,1.294472,-0.001715,-1.162415,-0.000083|vel|0.000000,-0.000000,0.000000,0.000000,0.000000,0.000000|eff|0.000000,0.000000,-48.339844,0.000000,0.000000,0.000000
cobot_dynamixel_driver/joint_states|name|J1,J2,J3,J4,J5,J6|pos|-0.005220,-1.268785,1.294472,-0.001715,-1.162415,-0.000083|vel|0.000000,-0.000000,0.000000,0.000000,0.000000,0.000000|eff|0.000000,0.000000,0.000000,0.000000,0.000000,0.000000
cobot_dynamixel_driver/joint_states|name|J1,J2,J3,J4,J5,J6|pos|-0.005220,-1.268785,1.294472,-0.001715,-1.162415,-0.000083|vel|0.000000,-0.000000,0.000000,0.000000,0.000000,0.000000|eff|0.000000,0.000000,0.000000,0.000000,0.000000,0.000000
cobot_dynamixel_driver/joint_states|name|J1,J2,J3,J4,J5,J6|pos|-0.005220,-1.268785,1.294472,-0.001715,-1.162415,-0.000083|vel|0.000000,-0.000000,0.000000,0.000000,0.000000,0.000000|eff|0.000000,0.000000,0.000000,0.000000,0.000000,0.000000
cobot_dynamixel_driver/joint_states|name|J1,J2,J3,J4,J5,J6|pos|-0.005220,-1.268785,1.294472,-0.001715,-1.162415,-0.000083|vel|0.000000,-0.000000,0.000000,0.000000,0.000000,0.000000|eff|0.000000,0.000000,0.000000,0.000000,0.000000,0.000000
cobot_dynamixel_driver/joint_states|name|J1,J2,J3,J4,J5,J6|pos|-0.005220,-1.268785,1.294472,-0.001715,-1.162415,-0.000083|vel|0.000000,-0.000000,0.000000,0.000000,0.000000,0.000000|eff|0.000000,0.000000,0.000000,0.000000,0.000000,0.000000
cobot_dynamixel_driver/joint_states|name|J1,J2,J3,J4,J5,J6|pos|-0.005220,-1.268785,1.294472,-0.001715,-1.162415,-0.000083|vel|0.000000,-0.000000,0.000000,0.000000,0.000000,0.000000|eff|0.000000,0.000000,-48.339844,0.000000,0.000000,0.000000
cobot_dynamixel_driver/joint_states|name|J1,J2,J3,J4,J5,J6|pos|-0.005220,-1.268785,1.294472,-0.001715,-1.162415,-0.000083|vel|0.000000,-0.000000,0.000000,0.000000,0.000000,0.000000|eff|0.000000,0.000000,0.000000,0.000000,0.000000,0.000000
cobot_dynamixel_driver/joint_states|name|J1,J2,J3,J4,J5,J6|pos|-0.005220,-1.268785,1.294472,-0.001715,-1.162415,-0.000083|vel|0.000000,-0.000000,0.000000,0.000000,0.000000,0.000000|eff|0.000000,0.000000,0.000000,0.000000,0.000000,0.000000
cobot_dynamixel_driver/joint_states|name|J1,J2,J3,J4,J5,J6|pos|-0.005220,-1.268785,1.294472,-0.001715,-1.162415,-0.000083|vel|0.000000,-0.000000,0.000000,0.000000,0.000000,0.000000|eff|0.000000,0.000000,0.000000,0.000000,0.000000,0.000000
cobot_dynamixel_driver/joint_states|name|J1,J2,J3,J4,J5,J6|pos|-0.005220,-1.268785,1.294472,-0.001715,-1.162415,-0.000083|vel|0.000000,-0.000000,0.000000,0.000000,0.000000,0.000000|eff|0.000000,0.000000,-32.226562,0.000000,0.000000,0.000000
cobot_dynamixel_driver/joint_states|name|J1,J2,J3,J4,J5,J6|pos|-0.005220,-1.268785,1.294472,-0.001715,-1.162415,-0.000083|vel|0.000000,-0.000000,0.000000,0.000000,0.000000,0.000000|eff|0.000000,0.000000,-32.226562,0.000000,0.000000,0.000000
cobot_dynamixel_driver/joint_states|name|J1,J2,J3,J4,J5,J6|pos|-0.005220,-1.268785,1.294472,-0.001715,-1.162415,-0.000083|vel|0.000000,-0.000000,0.000000,0.000000,0.000000,0.000000|eff|0.000000,0.000000,-32.226562,0.000000,0.000000,0.000000
cobot_dynamixel_driver/joint_states|name|J1,J2,J3,J4,J5,J6|pos|-0.005220,-1.268785,1.294472,-0.001715,-1.162415,-0.000083|vel|0.000000,-0.000000,0.000000,0.000000,0.000000,0.000000|eff|0.000000,0.000000,0.000000,0.000000,0.000000,0.000000
cobot_dynamixel_driver/joint_states|name|J1,J2,J3,J4,J5,J6|pos|-0.005220,-1.268785,1.294472,-0.001715,-1.162415,-0.000083|vel|0.000000,-0.000000,0.000000,0.000000,0.000000,0.000000|eff|0.000000,0.000000,0.000000,0.000000,0.000000,0.000000
cobot_dynamixel_driver/joint_states|name|J1,J2,J3,J4,J5,J6|pos|-0.005220,-1.268785,1.294472,-0.001715,-1.162415,-0.000083|vel|0.000000,-0.000000,0.000000,0.000000,0.000000,0.000000|eff|0.000000,0.000000,0.000000,0.000000,0.000000,0.000000
cobot_dynamixel_driver/joint_states|name|J1,J2,J3,J4,J5,J6|pos|-0.005220,-1.268785,1.294472,-0.001715,-1.162415,-0.000083|vel|0.000000,-0.000000,0.000000,0.000000,0.000000,0.000000|eff|0.000000,0.000000,0.000000,0.000000,0.000000,0.000000
cobot_dynamixel_driver/joint_states|name|J1,J2,J3,J4,J5,J6|pos|-0.005220,-1.268785,1.294472,-0.001715,-1.162415,-0.000083|vel|0.000000,-0.000000,0.000000,0.000000,0.000000,0.000000|eff|0.000000,0.000000,0.000000,0.000000,0.000000,0.000000
cobot_dynamixel_driver/joint_states|name|J1,J2,J3,J4,J5,J6|pos|-0.005220,-1.268785,1.294472,-0.001715,-1.162415,-0.000083|vel|0.000000,-0.000000,0.000000,0.000000,0.000000,0.000000|eff|0.000000,0.000000,-48.339844,0.000000,0.000000,0.000000
cobot_dynamixel_driver/joint_states|name|J1,J2,J3,J4,J5,J6|pos|-0.005220,-1.268785,1.294472,-0.001715,-1.162415,-0.000083|vel|0.000000,-0.000000,0.000000,0.000000,0.000000,0.000000|eff|0.000000,0.000000,-48.339844,0.000000,0.000000,0.000000
cobot_dynamixel_driver/joint_states|name|J1,J2,J3,J4,J5,J6|pos|-0.005220,-1.268785,1.294472,-0.001715,-1.162415,-0.000083|vel|0.000000,-0.000000,0.000000,0.000000,0.000000,0.000000|eff|0.000000,0.000000,-48.339844,0.000000,0.000000,0.000000
cobot_dynamixel_driver/joint_states|name|J1,J2,J3,J4,J5,J6|pos|-0.005220,-1.268785,1.294472,-0.001715,-1.162415,-0.000083|vel|0.000000,-0.000000,0.000000,0.000000,0.000000,0.000000|eff|0.000000,0.000000,-32.226562,0.000000,0.000000,0.000000
cobot_dynamixel_driver/joint_states|name|J1,J2,J3,J4,J5,J6|pos|-0.005220,-1.268785,1.294472,-0.001715,-1.162415,-0.000083|vel|0.000000,-0.000000,0.000000,0.000000,0.000000,0.000000|eff|0.000000,0.000000,-48.339844,0.000000,0.000000,0.000000
cobot_dynamixel_driver/joint_states|name|J1,J2,J3,J4,J5,J6|pos|-0.005220,-1.268785,1.294472,-0.001715,-1.162415,-0.000083|vel|0.000000,-0.000000,0.000000,0.000000,0.000000,0.000000|eff|0.000000,0.000000,0.000000,0.000000,0.000000,0.000000
cobot_dynamixel_driver/joint_states|name|J1,J2,J3,J4,J5,J6|pos|-0.005220,-1.268785,1.294472,-0.001715,-1.162415,-0.000083|vel|0.000000,-0.000000,0.000000,0.000000,0.000000,0.000000|eff|0.000000,0.000000,-48.339844,0.000000,0.000000,0.000000
cobot_dynamixel_driver/joint_states|name|J1,J2,J3,J4,J5,J6|pos|-0.005220,-1.268785,1.294472,-0.001715,-1.162415,-0.000083|vel|0.000000,-0.000000,0.000000,0.000000,0.000000,0.000000|eff|0.000000,0.000000,0.000000,0.000000,0.000000,0.000000
cobot_dynamixel_driver/joint_states|name|J1,J2,J3,J4,J5,J6|pos|-0.005220,-1.268785,1.294472,-0.001715,-1.162415,-0.000083|vel|0.000000,-0.000000,0.000000,0.000000,0.000000,0.000000|eff|0.000000,0.000000,0.000000,0.000000,0.000000,0.000000
cobot_dynamixel_driver/joint_states|name|J1,J2,J3,J4,J5,J6|pos|-0.005220,-1.268785,1.294472,-0.001715,-1.162415,-0.000083|vel|0.000000,-0.000000,0.000000,0.000000,0.000000,0.000000|eff|0.000000,0.000000,0.000000,0.000000,0.000000,0.000000
cobot_dynamixel_driver/joint_states|name|J1,J2,J3,J4,J5,J6|pos|-0.005220,-1.268785,1.294472,-0.001715,-1.162415,-0.000083|vel|0.000000,-0.000000,0.000000,0.000000,0.000000,0.000000|eff|0.000000,0.000000,0.000000,0.000000,0.000000,0.000000
cobot_dynamixel_driver/joint_states|name|J1,J2,J3,J4,J5,J6|pos|-0.005220,-1.268785,1.294472,-0.001715,-1.162415,-0.000083|vel|0.000000,-0.000000,0.000000,0.000000,0.000000,0.000000|eff|0.000000,0.000000,0.000000,0.000000,0.000000,0.000000
cobot_dynamixel_driver/joint_states|name|J1,J2,J3,J4,J5,J6|pos|-0.005220,-1.268785,1.294472,-0.001715,-1.162415,-0.000083|vel|0.000000,-0.000000,0.000000,0.000000,0.000000,0.000000|eff|0.000000,0.000000,-48.339844,0.000000,0.000000,0.000000
cobot_dynamixel_driver/joint_states|name|J1,J2,J3,J4,J5,J6|pos|-0.005220,-1.268785,1.294472,-0.001715,-1.162415,-0.000083|vel|0.000000,-0.000000,0.000000,0.000000,0.000000,0.000000|eff|0.000000,0.000000,0.000000,0.000000,0.000000,0.000000
cobot_dynamixel_driver/joint_states|name|J1,J2,J3,J4,J5,J6|pos|-0.005220,-1.268785,1.294472,-0.001715,-1.162415,-0.000083|vel|0.000000,-0.000000,0.000000,0.000000,0.000000,0.000000|eff|0.000000,0.000000,0.000000,0.000000,0.000000,0.000000
cobot_dynamixel_driver/joint_states|name|J1,J2,J3,J4,J5,J6|pos|-0.005220,-1.268785,1.294472,-0.001715,-1.162415,-0.000083|vel|0.000000,-0.000000,0.000000,0.000000,0.000000,0.000000|eff|0.000000,0.000000,0.000000,0.000000,0.000000,0.000000
cobot_dynamixel_driver/joint_states|name|J1,J2,J3,J4,J5,J6|pos|-0.005220,-1.268785,1.294472,-0.001715,-1.162415,-0.000083|vel|0.000000,-0.000000,0.000000,0.000000,0.000000,0.000000|eff|0.000000,0.000000,-48.339844,0.000000,0.000000,0.000000
cobot_dynamixel_driver/joint_states|name|J1,J2,J3,J4,J5,J6|pos|-0.005220,-1.268785,1.294472,-0.001715,-1.162415,-0.000083|vel|0.000000,-0.000000,0.000000,0.000000,0.000000,0.000000|eff|0.000000,0.000000,-32.226562,0.000000,0.000000,0.000000
cobot_dynamixel_driver/joint_states|name|J1,J2,J3,J4,J5,J6|pos|-0.005220,-1.268785,1.294472,-0.001715,-1.162415,-0.000083|vel|0.000000,-0.000000,0.000000,0.000000,0.000000,0.000000|eff|0.000000,0.000000,0.000000,0.000000,0.000000,0.000000
cobot_dynamixel_driver/joint_states|name|J1,J2,J3,J4,J5,J6|pos|-0.005220,-1.268785,1.294472,-0.001715,-1.162415,-0.000083|vel|0.000000,-0.000000,0.000000,0.000000,0.000000,0.000000|eff|0.000000,0.000000,0.000000,0.000000,0.000000,0.000000
cobot_dynamixel_driver/joint_states|name|J1,J2,J3,J4,J5,J6|pos|-0.005220,-1.268785,1.294472,-0.001715,-1.162415,-0.000083|vel|0.000000,-0.000000,0.000000,0.000000,0.000000,0.000000|eff|0.000000,0.000000,0.000000,0.000000,0.000000,0.000000
cobot_dynamixel_driver/joint_states|name|J1,J2,J3,J4,J5,J6|pos|-0.005220,-1.268785,1.294472,-0.001715,-1.162415,-0.000083|vel|0.000000,-0.000000,0.000000,0.000000,0.000000,0.000000|eff|0.000000,0.000000,0.000000,0.000000,0.000000,0.000000
cobot_dynamixel_driver/joint_states|name|J1,J2,J3,J4,J5,J6|pos|-0.005220,-1.268785,1.294472,-0.001715,-1.162415,-0.000083|vel|0.000000,-0.000000,0.000000,0.000000,0.000000,0.000000|eff|0.000000,0.000000,0.000000,0.000000,0.000000,0.000000
cobot_dynamixel_driver/joint_states|name|J1,J2,J3,J4,J5,J6|pos|-0.005220,-1.268785,1.294472,-0.001715,-1.162415,-0.000083|vel|0.000000,-0.000000,0.000000,0.000000,0.000000,0.000000|eff|0.000000,0.000000,0.000000,0.000000,0.000000,0.000000
cobot_dynamixel_driver/joint_states|name|J1,J2,J3,J4,J5,J6|pos|-0.005220,-1.268785,1.294472,-0.001715,-1.162415,-0.000083|vel|0.000000,-0.000000,0.000000,0.000000,0.000000,0.000000|eff|0.000000,0.000000,0.000000,0.000000,0.000000,0.000000
cobot_dynamixel_driver/joint_states|name|J1,J2,J3,J4,J5,J6|pos|-0.005220,-1.268785,1.294472,-0.001715,-1.162415,-0.000083|vel|0.000000,-0.000000,0.000000,0.000000,0.000000,0.000000|eff|0.000000,0.000000,-48.339844,0.000000,0.000000,0.000000
cobot_dynamixel_driver/joint_states|name|J1,J2,J3,J4,J5,J6|pos|-0.005220,-1.268785,1.294472,-0.001715,-1.162415,-0.000083|vel|0.000000,-0.000000,0.000000,0.000000,0.000000,0.000000|eff|0.000000,0.000000,0.000000,0.000000,0.000000,0.000000
cobot_dynamixel_driver/joint_states|name|J1,J2,J3,J4,J5,J6|pos|-0.005220,-1.268785,1.294472,-0.001715,-1.162415,-0.000083|vel|0.000000,-0.000000,0.000000,0.000000,0.000000,0.000000|eff|0.000000,0.000000,-48.339844,0.000000,0.000000,0.000000
cobot_dynamixel_driver/joint_states|name|J1,J2,J3,J4,J5,J6|pos|-0.005220,-1.268785,1.294472,-0.001715,-1.162415,-0.000083|vel|0.000000,-0.000000,0.000000,0.000000,0.000000,0.000000|eff|0.000000,0.000000,0.000000,0.000000,0.000000,0.000000
cobot_dynamixel_driver/joint_states|name|J1,J2,J3,J4,J5,J6|pos|-0.005220,-1.268785,1.294472,-0.001715,-1.162415,-0.000083|vel|0.000000,-0.000000,0.000000,0.000000,0.000000,0.000000|eff|0.000000,0.000000,-32.226562,0.000000,0.000000,0.000000
cobot_dynamixel_driver/joint_states|name|J1,J2,J3,J4,J5,J6|pos|-0.005220,-1.268785,1.294472,-0.001715,-1.162415,-0.000083|vel|0.000000,-0.000000,0.000000,0.000000,0.000000,0.000000|eff|0.000000,0.000000,-48.339844,0.000000,0.000000,0.000000
cobot_dynamixel_driver/joint_states|name|J1,J2,J3,J4,J5,J6|pos|-0.005220,-1.268785,1.294472,-0.001715,-1.162415,-0.000083|vel|0.000000,-0.000000,0.000000,0.000000,0.000000,0.000000|eff|0.000000,0.000000,0.000000,0.000000,0.000000,0.000000
cobot_dynamixel_driver/joint_states|name|J1,J2,J3,J4,J5,J6|pos|-0.005220,-1.268785,1.294472,-0.001715,-1.162415,-0.000083|vel|0.000000,-0.000000,0.000000,0.000000,0.000000,0.000000|eff|0.000000,0.000000,0.000000,0.000000,0.000000,0.000000
cobot_dynamixel_driver/joint_states|name|J1,J2,J3,J4,J5,J6|pos|-0.005220,-1.268785,1.294472,-0.001715,-1.162415,-0.000083|vel|0.000000,-0.000000,0.000000,0.000000,0.000000,0.000000|eff|0.000000,0.000000,-32.226562,0.000000,0.000000,0.000000
cobot_dynamixel_driver/joint_states|name|J1,J2,J3,J4,J5,J6|pos|-0.005220,-1.268785,1.294472,-0.001715,-1.162415,-0.000083|vel|0.000000,-0.000000,0.000000,0.000000,0.000000,0.000000|eff|0.000000,0.000000,0.000000,0.000000,0.000000,0.000000
cobot_dynamixel_driver/joint_states|name|J1,J2,J3,J4,J5,J6|pos|-0.005220,-1.268785,1.294472,-0.001715,-1.162415,-0.000083|vel|0.000000,-0.000000,0.000000,0.000000,0.000000,0.000000|eff|0.000000,0.000000,0.000000,0.000000,0.000000,0.000000
cobot_dynamixel_driver/joint_states|name|J1,J2,J3,J4,J5,J6|pos|-0.005220,-1.268785,1.294472,-0.001715,-1.162415,-0.000083|vel|0.000000,-0.000000,0.000000,0.000000,0.000000,0.000000|eff|0.000000,0.000000,-48.339844,0.000000,0.000000,0.000000
cobot_dynamixel_driver/joint_states|name|J1,J2,J3,J4,J5,J6|pos|-0.005220,-1.268785,1.294472,-0.001715,-1.162415,-0.000083|vel|0.000000,-0.000000,0.000000,0.000000,0.000000,0.000000|eff|0.000000,0.000000,0.000000,0.000000,0.000000,0.000000
cobot_dynamixel_driver/joint_states|name|J1,J2,J3,J4,J5,J6|pos|-0.005220,-1.268785,1.294472,-0.001715,-1.162415,-0.000083|vel|0.000000,-0.000000,0.000000,0.000000,0.000000,0.000000|eff|0.000000,0.000000,0.000000,0.000000,0.000000,0.000000
cobot_dynamixel_driver/joint_states|name|J1,J2,J3,J4,J5,J6|pos|-0.005220,-1.268785,1.294472,-0.001715,-1.162415,-0.000083|vel|0.000000,-0.000000,0.000000,0.000000,0.000000,0.000000|eff|0.000000,0.000000,-48.339844,0.000000,0.000000,0.000000
cobot_dynamixel_driver/joint_states|name|J1,J2,J3,J4,J5,J6|pos|-0.005220,-1.268785,1.294472,-0.001715,-1.162415,-0.000083|vel|0.000000,-0.000000,0.000000,0.000000,0.000000,0.000000|eff|0.000000,0.000000,0.000000,0.000000,0.000000,0.000000
cobot_dynamixel_driver/joint_states|name|J1,J2,J3,J4,J5,J6|pos|-0.005220,-1.268785,1.294472,-0.001715,-1.162415,-0.000083|vel|0.000000,-0.000000,0.000000,0.000000,0.000000,0.000000|eff|0.000000,0.000000,0.000000,0.000000,0.000000,0.000000
cobot_dynamixel_driver/joint_states|name|J1,J2,J3,J4,J5,J6|pos|-0.005220,-1.268785,1.294472,-0.001715,-1.162415,-0.000083|vel|0.000000,-0.000000,0.000000,0.000000,0.000000,0.000000|eff|0.000000,0.000000,-32.226562,0.000000,0.000000,0.000000
cobot_dynamixel_driver/joint_states|name|J1,J2,J3,J4,J5,J6|pos|-0.005220,-1.268785,1.294472,-0.001715,-1.162415,-0.000083|vel|0.000000,-0.000000,0.000000,0.000000,0.000000,0.000000|eff|0.000000,0.000000,0.000000,0.000000,0.000000,0.000000
cobot_dynamixel_driver/joint_states|name|J1,J2,J3,J4,J5,J6|pos|-0.005220,-1.268785,1.294472,-0.001715,-1.162415,-0.000083|vel|0.000000,-0.000000,0.000000,0.000000,0.000000,0.000000|eff|0.000000,0.000000,-48.339844,0.000000,0.000000,0.000000
cobot_dynamixel_driver/joint_states|name|J1,J2,J3,J4,J5,J6|pos|-0.005220,-1.268785,1.294472,-0.001715,-1.162415,-0.000083|vel|0.000000,-0.000000,0.000000,0.000000,0.000000,0.000000|eff|0.000000,0.000000,0.000000,0.000000,0.000000,0.000000
cobot_dynamixel_driver/joint_states|name|J1,J2,J3,J4,J5,J6|pos|-0.005220,-1.268785,1.294472,-0.001715,-1.162415,-0.000083|vel|0.000000,-0.000000,0.000000,0.000000,0.000000,0.000000|eff|0.000000,0.000000,0.000000,0.000000,0.000000,0.000000
cobot_dynamixel_driver/joint_states|name|J1,J2,J3,J4,J5,J6|pos|-0.005220,-1.268785,1.294472,-0.001715,-1.162415,-0.000083|vel|0.000000,-0.000000,0.000000,0.000000,0.000000,0.000000|eff|0.000000,0.000000,0.000000,0.000000,0.000000,0.000000
cobot_dynamixel_driver/joint_states|name|J1,J2,J3,J4,J5,J6|pos|-0.005220,-1.268785,1.294472,-0.001715,-1.162415,-0.000083|vel|0.000000,-0.000000,0.000000,0.000000,0.000000,0.000000|eff|0.000000,0.000000,-64.453125,0.000000,0.000000,0.000000
cobot_dynamixel_driver/joint_states|name|J1,J2,J3,J4,J5,J6|pos|-0.005220,-1.268785,1.294472,-0.001715,-1.162415,-0.000083|vel|0.000000,-0.000000,0.000000,0.000000,0.000000,0.000000|eff|0.000000,0.000000,0.000000,0.000000,0.000000,0.000000
cobot_dynamixel_driver/joint_states|name|J1,J2,J3,J4,J5,J6|pos|-0.005220,-1.268785,1.294472,-0.001715,-1.162415,-0.000083|vel|0.000000,-0.000000,0.000000,0.000000,0.000000,0.000000|eff|0.000000,0.000000,-32.226562,0.000000,0.000000,0.000000
cobot_dynamixel_driver/joint_states|name|J1,J2,J3,J4,J5,J6|pos|-0.005220,-1.268785,1.294472,-0.001715,-1.162415,-0.000083|vel|0.000000,-0.000000,0.000000,0.000000,0.000000,0.000000|eff|0.000000,0.000000,-48.339844,0.000000,0.000000,0.000000
cobot_dynamixel_driver/joint_states|name|J1,J2,J3,J4,J5,J6|pos|-0.005220,-1.268785,1.294472,-0.001715,-1.162415,-0.000083|vel|0.000000,-0.000000,0.000000,0.000000,0.000000,0.000000|eff|0.000000,0.000000,-48.339844,0.000000,0.000000,0.000000
cobot_dynamixel_driver/joint_states|name|J1,J2,J3,J4,J5,J6|pos|-0.005220,-1.268785,1.294472,-0.001715,-1.162415,-0.000083|vel|0.000000,-0.000000,0.000000,0.000000,0.000000,0.000000|eff|0.000000,0.000000,-32.226562,0.000000,0.000000,0.000000
cobot_dynamixel_driver/joint_states|name|J1,J2,J3,J4,J5,J6|pos|-0.005220,-1.268785,1.294472,-0.001715,-1.162415,-0.000083|vel|0.000000,-0.000000,0.000000,0.000000,0.000000,0.000000|eff|0.000000,0.000000,0.000000,0.000000,0.000000,0.000000
cobot_dynamixel_driver/joint_states|name|J1,J2,J3,J4,J5,J6|pos|-0.005220,-1.268785,1.294472,-0.001715,-1.162415,-0.000083|vel|0.000000,-0.000000,0.000000,0.000000,0.000000,0.000000|eff|0.000000,0.000000,0.000000,0.000000,0.000000,0.000000
cobot_dynamixel_driver/joint_states|name|J1,J2,J3,J4,J5,J6|pos|-0.005220,-1.268785,1.294472,-0.001715,-1.162415,-0.000083|vel|0.000000,-0.000000,0.000000,0.000000,0.000000,0.000000|eff|0.000000,0.000000,0.000000,0.000000,0.000000,0.000000
cobot_dynamixel_driver/joint_states|name|J1,J2,J3,J4,J5,J6|pos|-0.005220,-1.268785,1.294472,-0.001715,-1.162415,-0.000083|vel|0.000000,-0.000000,0.000000,0.000000,0.000000,0.000000|eff|0.000000,0.000000,0.000000,0.000000,0.000000,0.000000
cobot_dynamixel_driver/joint_states|name|J1,J2,J3,J4,J5,J6|pos|-0.005220,-1.268785,1.294472,-0.001715,-1.162415,-0.000083|vel|0.000000,-0.000000,0.000000,0.000000,0.000000,0.000000|eff|0.000000,0.000000,0.000000,0.000000,0.000000,0.000000
cobot_dynamixel_driver/joint_states|name|J1,J2,J3,J4,J5,J6|pos|-0.005220,-1.268785,1.294472,-0.001715,-1.162415,-0.000083|vel|0.000000,-0.000000,0.000000,0.000000,0.000000,0.000000|eff|0.000000,0.000000,0.000000,0.000000,0.000000,0.000000
cobot_dynamixel_driver/joint_states|name|J1,J2,J3,J4,J5,J6|pos|-0.005220,-1.268785,1.294472,-0.001715,-1.162415,-0.000083|vel|0.000000,-0.000000,0.000000,0.000000,0.000000,0.000000|eff|0.000000,0.000000,-32.226562,0.000000,0.000000,0.000000
cobot_dynamixel_driver/joint_states|name|J1,J2,J3,J4,J5,J6|pos|-0.005220,-1.268785,1.294472,-0.001715,-1.162415,-0.000083|vel|0.000000,-0.000000,0.000000,0.000000,0.000000,0.000000|eff|0.000000,0.000000,0.000000,0.000000,0.000000,0.000000
cobot_dynamixel_driver/joint_states|name|J1,J2,J3,J4,J5,J6|pos|-0.005220,-1.268785,1.294472,-0.001715,-1.162415,-0.000083|vel|0.000000,-0.000000,0.000000,0.000000,0.000000,0.000000|eff|0.000000,0.000000,0.000000,0.000000,0.000000,0.000000
cobot_dynamixel_driver/joint_states|name|J1,J2,J3,J4,J5,J6|pos|-0.005220,-1.268785,1.294472,-0.001715,-1.162415,-0.000083|vel|0.000000,-0.000000,0.000000,0.000000,0.000000,0.000000|eff|0.000000,0.000000,-48.339844,0.000000,0.000000,0.000000
cobot_dynamixel_driver/joint_states|name|J1,J2,J3,J4,J5,J6|pos|-0.005220,-1.268785,1.294472,-0.001715,-1.162415,-0.000083|vel|0.000000,-0.000000,0.000000,0.000000,0.000000,0.000000|eff|0.000000,0.000000,-32.226562,0.000000,0.000000,0.000000
cobot_dynamixel_driver/goal|-:J1,J2,J3,J4,J5,J6:0.000000,0.000000,0.000000,0.000000,0.000000,0.000000:0.700000,0.700000,0.700000,0.700000,0.700000,0.700000:pos_vel_
cobot_dynamixel_driver/joint_states|name|J1,J2,J3,J4,J5,J6|pos|-0.005220,-1.268785,1.296287,-0.001715,-1.164049,-0.000083|vel|0.000000,-0.000000,0.000000,0.000000,0.000000,0.000000|eff|0.000000,0.000000,0.000000,0.000000,0.000000,0.000000
cobot_dynamixel_driver/joint_states|name|J1,J2,J3,J4,J5,J6|pos|-0.005220,-1.268785,1.296262,-0.001702,-1.163987,-0.000083|vel|0.000000,-0.000000,0.000000,0.000000,0.005860,0.000000|eff|257.812500,-290.039062,-241.699219,80.566406,100.708008,0.000000
cobot_dynamixel_driver/joint_states|name|J1,J2,J3,J4,J5,J6|pos|-0.004907,-1.268334,1.295812,-0.001565,-1.162870,-0.000083|vel|0.024412,0.046111,-0.036930,0.010224,0.115130,0.000000|eff|386.718750,-644.531250,-499.511719,96.679688,177.246094,0.000000
cobot_dynamixel_driver/joint_states|name|J1,J2,J3,J4,J5,J6|pos|-0.004419,-1.266857,1.294309,-0.001565,-1.159912,-0.000083|vel|0.024412,0.103280,-0.109539,0.010224,0.190964,0.000000|eff|225.585938,-1208.496094,-902.343750,112.792969,120.849609,0.000000
cobot_dynamixel_driver/joint_states|name|J1,J2,J3,J4,J5,J6|pos|-0.003943,-1.264178,1.291818,-0.001552,-1.155403,-0.000083|vel|0.022951,0.170464,-0.157946,0.000626,0.269555,0.000000|eff|241.699219,-1611.328125,-1530.761719,161.132812,84.594727,0.000000
cobot_dynamixel_driver/joint_states|name|J1,J2,J3,J4,J5,J6|pos|-0.003493,-1.260235,1.287963,-0.001402,-1.149652,-0.000083|vel|0.020656,0.249333,-0.235353,0.008555,0.312643,0.000000|eff|273.925781,-1965.820312,-1804.687500,145.019531,80.566406,0.000000
cobot_dynamixel_driver/joint_states|name|J1,J2,J3,J4,J5,J6|pos|-0.003117,-1.254677,1.282029,-0.001289,-1.143054,-0.000083|vel|0.018152,0.318395,-0.312553,0.005216,0.356764,0.000000|eff|241.699219,-1756.347656,-1369.628906,145.019531,68.481445,0.000000
cobot_dynamixel_driver/joint_states|name|J1,J2,J3,J4,J5,J6|pos|-0.002741,-1.247879,1.274693,-0.001177,-1.135607,-0.000083|vel|0.020656,0.384744,-0.399350,0.005425,0.402264,0.000000|eff|193.359375,-2255.859375,-1353.515625,177.246094,68.481445,16.113281
cobot_dynamixel_driver/joint_states|name|J1,J2,J3,J4,J5,J6|pos|-0.002378,-1.239905,1.266569,-0.001077,-1.127415,-0.000083|vel|0.016692,0.415415,-0.377650,0.006051,0.452591,0.000000|eff|241.699219,-1724.121094,-1095.703125,161.132812,72.509766,0.000000
cobot_dynamixel_driver/joint_states|name|J1,J2,J3,J4,J5,J6|pos|-0.002078,-1.231155,1.257831,-0.000976,-1.118583,-0.000083|vel|0.012102,0.450677,-0.501169,0.004590,0.454659,0.000000|eff|161.132812,-2529.785156,-1724.121094,161.132812,48.339844,0.000000
cobot_dynamixel_driver/joint_states|name|J1,J2,J3,J4,J5,J6|pos|-0.001853,-1.221804,1.248418,-0.000901,-1.109254,-0.000083|vel|0.013145,0.462570,-0.518070,0.003964,0.514637,0.000000|eff|257.812500,-2819.824219,-1691.894531,161.132812,40.283203,0.000000
cobot_dynamixel_driver/joint_states|name|J1,J2,J3,J4,J5,J6|pos|-0.001627,-1.211777,1.238403,-0.000826,-1.099407,-0.000083|vel|0.008972,0.521825,-0.543733,0.003756,0.618391,0.000000|eff|241.699219,-1579.101562,-1208.496094,257.812500,52.368164,16.113281
cobot_dynamixel_driver/joint_states|name|J1,J2,J3,J4,J5,J6|pos|-0.001427,-1.201211,1.227900,-0.000751,-1.089003,-0.000083|vel|0.010015,0.563555,-0.574196,0.003964,0.457761,0.000000|eff|241.699219,-2416.992188,-1272.949219,161.132812,64.453125,24.169922
cobot_dynamixel_driver/joint_states|name|J1,J2,J3,J4,J5,J6|pos|-0.001239,-1.190308,1.217059,-0.000689,-1.078205,-0.000083|vel|0.008972,0.542273,-0.505968,0.003756,0.597365,0.000000|eff|257.812500,-886.230469,-1643.554688,193.359375,0.000000,8.056641
cobot_dynamixel_driver/joint_states|name|J1,J2,J3,J4,J5,J6|pos|-0.001114,-1.178929,1.205843,-0.000588,-1.067118,-0.000083|vel|0.005633,0.618637,-0.665166,0.006259,0.603914,0.000000|eff|257.812500,-1611.328125,-1659.667969,209.472656,32.226562,24.169922
cobot_dynamixel_driver/joint_states|name|J1,J2,J3,J4,J5,J6|pos|-0.000989,-1.167437,1.194452,-0.000463,-1.055699,-0.000083|vel|0.007511,0.612587,-0.566893,0.005842,0.601846,0.000000|eff|322.265625,-1885.253906,-1482.421875,161.132812,48.339844,0.000000
cobot_dynamixel_driver/joint_states|name|J1,J2,J3,J4,J5,J6|pos|-0.000864,-1.155633,1.182797,-0.000376,-1.044095,-0.000083|vel|0.005425,0.590261,-0.644718,0.004382,0.606671,0.000000|eff|177.246094,-902.343750,-1998.046875,161.132812,40.283203,0.000000
cobot_dynamixel_driver/joint_states|name|J1,J2,J3,J4,J5,J6|pos|-0.000751,-1.143540,1.170942,-0.000313,-1.032201,-0.000083|vel|0.005633,0.635538,-0.587340,0.003130,0.679058,0.000000|eff|177.246094,-2143.066406,-741.210938,161.132812,40.283203,0.000000
cobot_dynamixel_driver/joint_states|name|J1,J2,J3,J4,J5,J6|pos|-0.000626,-1.131209,1.158825,-0.000250,-1.020079,-0.000083|vel|0.006051,0.581707,-0.641171,0.003130,0.633213,0.000000|eff|354.492188,-3480.468750,-2094.726562,161.132812,44.311523,0.000000
cobot_dynamixel_driver/joint_states|name|J1,J2,J3,J4,J5,J6|pos|-0.000526,-1.118779,1.145756,-0.000200,-1.007792,-0.000083|vel|0.005216,0.629487,-0.633451,0.002504,0.655963,0.000000|eff|209.472656,-2916.503906,-789.550781,193.359375,20.141602,0.000000
cobot_dynamixel_driver/joint_states|name|J1,J2,J3,J4,J5,J6|pos|-0.000438,-1.106173,1.133901,-0.000188,-0.995422,-0.000083|vel|0.003964,0.592348,-0.630322,0.002504,0.620804,0.000000|eff|241.699219,-741.210938,-1772.460938,209.472656,36.254883,0.000000
cobot_dynamixel_driver/joint_states|name|J1,J2,J3,J4,J5,J6|pos|-0.000376,-1.093567,1.121232,-0.000188,-0.982907,-0.000083|vel|0.003130,0.676850,-0.637624,0.000626,0.663547,0.000000|eff|209.472656,-3367.675781,-1820.800781,193.359375,60.424805,24.169922
cobot_dynamixel_driver/joint_states|name|J1,J2,J3,J4,J5,J6|pos|-0.000300,-1.080698,1.108639,-0.000175,-0.970227,-0.000083|vel|0.003547,0.671842,-0.643884,0.000626,0.718354,0.000000|eff|225.585938,-209.472656,-1981.933594,193.359375,12.084961,12.084961
cobot_dynamixel_driver/joint_states|name|J1,J2,J3,J4,J5,J6|pos|-0.000263,-1.067767,1.095658,-0.000163,-0.957651,-0.000083|vel|0.001669,0.647431,-0.656194,0.000626,0.691468,0.000000|eff|306.152344,-1836.914062,-902.343750,128.906250,44.311523,0.000000
cobot_dynamixel_driver/joint_states|name|J1,J2,J3,J4,J5,J6|pos|-0.000213,-1.054798,1.082701,-0.000163,-0.944846,-0.000083|vel|0.002921,0.692707,-0.718579,0.000209,0.669407,0.000000|eff|257.812500,-1756.347656,-2191.406250,145.019531,72.509766,0.000000
cobot_dynamixel_driver/joint_states|name|J1,J2,J3,J4,J5,J6|pos|-0.000200,-1.041617,1.069645,-0.000150,-0.931959,-0.000083|vel|0.001043,0.686447,-0.657237,0.000209,0.654240,0.000000|eff|128.906250,-2400.878906,-805.664062,112.792969,32.226562,12.084961
cobot_dynamixel_driver/joint_states|name|J1,J2,J3,J4,J5,J6|pos|-0.000150,-1.028573,1.056613,-0.000150,-0.919010,-0.000083|vel|0.002712,0.612587,-0.694167,0.000209,0.679058,0.000000|eff|112.792969,-821.777344,-1160.156250,209.472656,84.594727,12.084961
cobot_dynamixel_driver/joint_states|name|J1,J2,J3,J4,J5,J6|pos|-0.000138,-1.015378,1.043532,-0.000113,-0.905999,-0.000083|vel|0.002712,0.695002,-0.690203,0.000417,0.668717,0.000000|eff|161.132812,-2626.464844,-837.890625,193.359375,0.000000,16.113281
cobot_dynamixel_driver/joint_states|name|J1,J2,J3,J4,J5,J6|pos|-0.000125,-1.002021,1.030388,-0.000088,-0.893029,-0.000083|vel|0.000417,0.645970,-0.565641,0.001461,0.571512,0.000000|eff|177.246094,-2207.519531,-1740.234375,128.906250,64.453125,28.198242
cobot_dynamixel_driver/joint_states|name|J1,J2,J3,J4,J5,J6|pos|-0.000113,-0.987500,1.015028,-0.000063,-0.877908,-0.000083|vel|0.000417,0.719414,-0.607162,0.001461,0.737657,0.000000|eff|177.246094,-2964.843750,-982.910156,209.472656,80.566406,0.000000
cobot_dynamixel_driver/joint_states|name|J1,J2,J3,J4,J5,J6|pos|-0.000113,-0.975445,1.002885,-0.000063,-0.866614,-0.000083|vel|0.000417,0.666000,-0.730472,0.000626,0.701119,0.000000|eff|177.246094,-580.078125,-1853.027344,145.019531,-24.169922,28.198242
cobot_dynamixel_driver/joint_states|name|J1,J2,J3,J4,J5,J6|pos|-0.000088,-0.962088,0.990429,-0.000063,-0.853644,-0.000083|vel|0.000417,0.688325,-0.670590,0.000626,0.660789,0.000000|eff|273.925781,-2739.257812,-741.210938,177.246094,84.594727,12.084961
cobot_dynamixel_driver/joint_states|name|J1,J2,J3,J4,J5,J6|pos|-0.000075,-0.948544,0.977248,-0.000050,-0.840178,-0.000083|vel|0.001043,0.657028,-0.696880,0.000626,0.721801,0.000000|eff|161.132812,-1949.707031,-1417.968750,193.359375,44.311523,20.141602
cobot_dynamixel_driver/joint_states|name|J1,J2,J3,J4,J5,J6|pos|-0.000050,-0.935262,0.963315,-0.000050,-0.826815,-0.000083|vel|0.001043,0.686447,-0.594434,0.000626,0.588402,0.000000|eff|96.679688,-2755.371094,-1965.820312,112.792969,92.651367,28.198242
cobot_dynamixel_driver/joint_states|name|J1,J2,J3,J4,J5,J6|pos|-0.000025,-0.920465,0.949032,-0.000038,-0.811943,-0.000083|vel|0.001669,0.703348,-0.774079,0.000626,0.609429,0.000000|eff|145.019531,-3432.128906,-1530.761719,145.019531,20.141602,24.169922
cobot_dynamixel_driver/joint_states|name|J1,J2,J3,J4,J5,J6|pos|-0.000013,-0.908448,0.936877,-0.000038,-0.799883,-0.000083|vel|0.001669,0.686656,-0.712737,0.000626,0.726282,0.000000|eff|128.906250,-660.644531,-1659.667969,128.906250,48.339844,24.169922
cobot_dynamixel_driver/joint_states|name|J1,J2,J3,J4,J5,J6|pos|0.000000,-0.895078,0.923507,-0.000038,-0.786686,-0.000083|vel|0.000626,0.699592,-0.703557,0.000000,0.759373,0.000000|eff|145.019531,-515.625000,-934.570312,128.906250,-16.113281,28.198242
cobot_dynamixel_driver/joint_states|name|J1,J2,J3,J4,J5,J6|pos|0.000013,-0.881508,0.910188,-0.000038,-0.773675,-0.000083|vel|0.000626,0.707104,-0.713154,0.000000,0.640452,0.000000|eff|161.132812,-322.265625,-644.531250,112.792969,68.481445,28.198242
cobot_dynamixel_driver/joint_states|name|J1,J2,J3,J4,J5,J6|pos|0.000025,-0.868076,0.896618,-0.000038,-0.760188,-0.000083|vel|0.000626,0.660993,-0.669130,0.003130,0.726972,0.000000|eff|145.019531,-660.644531,-402.832031,177.246094,8.056641,28.198242
cobot_dynamixel_driver/joint_states|name|J1,J2,J3,J4,J5,J6|pos|0.000038,-0.854744,0.883311,-0.000038,-0.746598,-0.000083|vel|0.000417,0.715867,-0.668087,0.003130,0.602535,0.000000|eff|145.019531,-3045.410156,-1498.535156,112.792969,-32.226562,28.198242
cobot_dynamixel_driver/joint_states|name|J1,J2,J3,J4,J5,J6|pos|0.000038,-0.841438,0.869266,-0.000038,-0.733297,-0.000083|vel|0.000417,0.676015,-0.665583,0.000835,0.625285,0.000000|eff|145.019531,-2175.292969,-2207.519531,112.792969,64.453125,28.198242
cobot_dynamixel_driver/joint_states|name|J1,J2,J3,J4,J5,J6|pos|0.000050,-0.827805,0.855808,-0.000038,-0.719831,-0.000083|vel|0.000417,0.653481,-0.715032,0.000835,0.783158,0.000000|eff|177.246094,-2175.292969,-1788.574219,112.792969,24.169922,28.198242
cobot_dynamixel_driver/joint_states|name|J1,J2,J3,J4,J5,J6|pos|0.000050,-0.814173,0.842151,-0.000038,-0.706427,-0.000083|vel|0.000209,0.726299,-0.734228,0.000835,0.864507,0.000000|eff|145.019531,-3077.636719,-1530.761719,145.019531,24.169922,28.198242
cobot_dynamixel_driver/joint_states|name|J1,J2,J3,J4,J5,J6|pos|0.000063,-0.800628,0.829270,-0.000038,-0.692960,-0.000083|vel|0.000209,0.644092,-0.713780,0.000835,0.680092,0.000000|eff|128.906250,-2481.445312,-1546.875000,112.792969,24.169922,28.198242
cobot_dynamixel_driver/joint_states|name|J1,J2,J3,J4,J5,J6|pos|0.000063,-0.787096,0.814962,-0.000038,-0.679536,-0.000083|vel|0.000209,0.687699,-0.715449,0.000835,0.638728,0.000000|eff|145.019531,-2739.257812,-2014.160156,112.792969,76.538086,28.198242
cobot_dynamixel_driver/joint_states|name|J1,J2,J3,J4,J5,J6|pos|0.000075,-0.773564,0.801429,-0.000038,-0.666049,-0.000083|vel|0.000209,0.701470,-0.713572,0.000835,0.777642,0.000000|eff|0.000000,-2014.160156,-2030.273438,112.792969,36.254883,28.198242
cobot_dynamixel_driver/joint_states|name|J1,J2,J3,J4,J5,J6|pos|0.000075,-0.759981,0.788072,-0.000038,-0.652707,-0.000083|vel|0.000209,0.700218,-0.733184,0.000000,0.694570,0.000000|eff|80.566406,-2932.617188,-2046.386719,112.792969,104.736328,28.198242
cobot_dynamixel_driver/joint_states|name|J1,J2,J3,J4,J5,J6|pos|0.000075,-0.746562,0.774528,-0.000038,-0.639158,-0.000083|vel|0.000209,0.710442,-0.632825,-0.002712,0.607016,0.000000|eff|161.132812,-1482.421875,-1675.781250,112.792969,68.481445,32.226562
cobot_dynamixel_driver/joint_states|name|J1,J2,J3,J4,J5,J6|pos|0.000088,-0.733105,0.760995,-0.000038,-0.625629,-0.000083|vel|0.000209,0.684570,-0.628235,-0.002295,0.683884,0.000000|eff|96.679688,-1127.929688,-1708.007812,112.792969,56.396484,32.226562
cobot_dynamixel_driver/joint_states|name|J1,J2,J3,J4,J5,J6|pos|0.000088,-0.719623,0.747401,-0.000038,-0.612267,-0.000083|vel|0.000209,0.616968,-0.695628,0.001252,0.789707,0.000000|eff|145.019531,-644.531250,-1708.007812,112.792969,20.141602,28.198242
cobot_dynamixel_driver/joint_states|name|J1,J2,J3,J4,J5,J6|pos|0.000088,-0.706028,0.734044,-0.000038,-0.598863,-0.000083|vel|0.000209,0.739026,-0.687699,0.000626,0.761786,0.000000|eff|0.000000,-757.324219,-1015.136719,112.792969,-28.198242,28.198242
cobot_dynamixel_driver/joint_states|name|J1,J2,J3,J4,J5,J6|pos|0.000088,-0.692433,0.720562,-0.000038,-0.585810,-0.000083|vel|0.000209,0.685404,-0.692916,0.000626,0.721801,0.000000|eff|145.019531,-1031.250000,-1063.476562,145.019531,60.424805,28.198242
cobot_dynamixel_driver/joint_states|name|J1,J2,J3,J4,J5,J6|pos|0.000100,-0.678838,0.706804,-0.000038,-0.572509,-0.000083|vel|0.000000,0.677267,-0.744869,0.000626,0.719043,0.000000|eff|0.000000,-1337.402344,-1514.648438,112.792969,60.424805,32.226562
cobot_dynamixel_driver/joint_states|name|J1,J2,J3,J4,J5,J6|pos|0.000100,-0.665294,0.693122,-0.000038,-0.558878,-0.000083|vel|0.001043,0.754884,-0.680814,-0.001461,0.619770,0.000000|eff|96.679688,-950.683594,-1579.101562,112.792969,60.424805,36.254883
cobot_dynamixel_driver/joint_states|name|J1,J2,J3,J4,J5,J6|pos|0.000100,-0.651749,0.679577,-0.000038,-0.545349,-0.000083|vel|-0.001043,0.723169,-0.673303,-0.002086,0.686297,0.000000|eff|128.906250,-821.777344,-1756.347656,112.792969,32.226562,40.283203
cobot_dynamixel_driver/joint_states|name|J1,J2,J3,J4,J5,J6|pos|0.000100,-0.638179,0.666057,-0.000038,-0.531801,-0.000083|vel|0.000835,0.620932,-0.674555,0.001043,0.651482,0.000000|eff|0.000000,-1160.156250,-1756.347656,112.792969,16.113281,32.226562
cobot_dynamixel_driver/joint_states|name|J1,J2,J3,J4,J5,J6|pos|0.000100,-0.624597,0.652412,-0.000038,-0.518396,-0.000083|vel|-0.000835,0.695211,-0.716701,0.001043,0.597020,0.000000|eff|0.000000,-1224.609375,-1820.800781,112.792969,56.396484,32.226562
cobot_dynamixel_driver/joint_states|name|J1,J2,J3,J4,J5,J6|pos|0.000100,-0.611027,0.638993,-0.000038,-0.504992,-0.000021|vel|0.000626,0.701679,-0.711902,0.002504,0.684229,0.002413|eff|32.226562,-950.683594,-1482.421875,112.792969,20.141602,32.226562
cobot_dynamixel_driver/joint_states|name|J1,J2,J3,J4,J5,J6|pos|0.000100,-0.597445,0.625461,-0.000038,-0.491464,0.000000|vel|0.000626,0.668295,-0.711276,-0.002504,0.779366,0.003102|eff|145.019531,-1627.441406,-1675.781250,112.792969,56.396484,40.283203
cobot_dynamixel_driver/joint_states|name|J1,J2,J3,J4,J5,J6|pos|0.000100,-0.583863,0.612004,-0.000038,-0.477998,0.000000|vel|0.000626,0.722543,-0.671008,-0.002504,0.717665,0.003102|eff|0.000000,-1353.515625,-1047.363281,112.792969,20.141602,20.141602
cobot_dynamixel_driver/joint_states|name|J1,J2,J3,J4,J5,J6|pos|0.000100,-0.570180,0.598321,-0.000038,-0.464656,0.000000|vel|-0.000626,0.681857,-0.736731,-0.002712,0.686986,0.003102|eff|112.792969,-2545.898438,-1450.195312,112.792969,72.509766,0.000000
cobot_dynamixel_driver/joint_states|name|J1,J2,J3,J4,J5,J6|pos|0.000100,-0.556573,0.584676,-0.000038,-0.451065,0.000000|vel|0.000417,0.626149,-0.705643,0.002712,0.707324,0.003102|eff|80.566406,-2545.898438,-1740.234375,112.792969,24.169922,32.226562
cobot_dynamixel_driver/joint_states|name|J1,J2,J3,J4,J5,J6|pos|0.000100,-0.543003,0.571069,-0.000038,-0.437620,0.000000|vel|-0.000417,0.625940,-0.714823,0.002712,0.677680,0.003102|eff|64.453125,-2578.125000,-2159.179688,112.792969,88.623047,0.000000
cobot_dynamixel_driver/joint_states|name|J1,J2,J3,J4,J5,J6|pos|0.000100,-0.529521,0.557462,-0.000038,-0.424092,0.000000|vel|-0.000417,0.664122,-0.746538,0.002712,0.631834,0.003102|eff|0.000000,-2175.292969,-1434.082031,112.792969,0.000000,0.000000
cobot_dynamixel_driver/joint_states|name|J1,J2,J3,J4,J5,J6|pos|0.000100,-0.515851,0.544180,-0.000038,-0.410646,0.000000|vel|-0.000417,0.659741,-0.653481,0.002504,0.665960,0.000000|eff|80.566406,-2674.804688,-1369.628906,112.792969,44.311523,0.000000
cobot_dynamixel_driver/joint_states|name|J1,J2,J3,J4,J5,J6|pos|0.000100,-0.502244,0.530635,-0.000038,-0.397139,0.000000|vel|-0.000417,0.708355,-0.646179,-0.002504,0.785571,0.000000|eff|0.000000,-2271.972656,-1289.062500,112.792969,56.396484,0.000000
cobot_dynamixel_driver/joint_states|name|J1,J2,J3,J4,J5,J6|pos|0.000100,-0.488874,0.516965,-0.000038,-0.383652,0.000000|vel|-0.000417,0.700635,-0.723587,-0.002712,0.685263,0.000000|eff|0.000000,-2159.179688,-1627.441406,112.792969,108.764648,0.000000
cobot_dynamixel_driver/joint_states|name|J1,J2,J3,J4,J5,J6|pos|0.000100,-0.475467,0.503370,-0.000038,-0.370248,0.000000|vel|0.000000,0.640754,-0.799743,0.001461,0.608395,0.000000|eff|145.019531,-1111.816406,-1595.214844,112.792969,112.792969,0.000000
cobot_dynamixel_driver/joint_states|name|J1,J2,J3,J4,J5,J6|pos|0.000100,-0.461760,0.490026,-0.000038,-0.356678,0.000000|vel|0.000000,0.683109,-0.693959,0.001461,0.687331,0.000000|eff|0.000000,-2110.839844,-918.457031,112.792969,88.623047,0.000000
cobot_dynamixel_driver/joint_states|name|J1,J2,J3,J4,J5,J6|pos|0.000088,-0.448090,0.476469,-0.000038,-0.343212,0.000000|vel|0.000000,0.714615,-0.717953,0.001461,0.763854,0.000000|eff|0.000000,-2368.652344,-1063.476562,112.792969,40.283203,0.000000
cobot_dynamixel_driver/joint_states|name|J1,J2,J3,J4,J5,J6|pos|0.000088,-0.434483,0.462911,-0.000038,-0.329932,0.000000|vel|0.000000,0.717327,-0.721083,-0.001461,0.760407,0.000000|eff|0.000000,-2400.878906,-950.683594,112.792969,12.084961,0.000000
cobot_dynamixel_driver/joint_states|name|J1,J2,J3,J4,J5,J6|pos|0.000088,-0.420813,0.449279,-0.000038,-0.316797,0.000000|vel|0.000000,0.726508,-0.684570,-0.001461,0.690433,0.000000|eff|0.000000,-1740.234375,-1240.722656,112.792969,136.962891,0.000000
cobot_dynamixel_driver/joint_states|name|J1,J2,J3,J4,J5,J6|pos|0.000088,-0.407356,0.435534,-0.000038,-0.303144,0.000000|vel|0.000000,0.656402,-0.587966,-0.001461,0.740070,0.000000|eff|64.453125,-3270.996094,-1772.460938,112.792969,52.368164,0.000000
cobot_dynamixel_driver/joint_states|name|J1,J2,J3,J4,J5,J6|pos|0.000088,-0.393661,0.421902,-0.000038,-0.289761,0.000000|vel|0.000000,0.720457,-0.692498,0.000209,0.639418,0.000000|eff|112.792969,-1643.554688,-1917.480469,112.792969,12.084961,0.000000
cobot_dynamixel_driver/joint_states|name|J1,J2,J3,J4,J5,J6|pos|0.000088,-0.379928,0.408269,-0.000038,-0.276708,0.000000|vel|0.000000,0.692707,-0.732350,0.000209,0.630111,0.000000|eff|96.679688,370.605469,-1917.480469,112.792969,140.991211,0.000000
cobot_dynamixel_driver/joint_states|name|J1,J2,J3,J4,J5,J6|pos|0.000088,-0.366321,0.394825,-0.000038,-0.263118,0.000000|vel|0.000000,0.705017,-0.722126,0.000209,0.775574,0.000000|eff|128.906250,322.265625,-1933.593750,112.792969,92.651367,0.000000
cobot_dynamixel_driver/joint_states|name|J1,J2,J3,J4,J5,J6|pos|0.000088,-0.352939,0.381230,-0.000038,-0.249693,0.000000|vel|0.000000,0.726925,-0.700635,0.000209,0.771093,0.000000|eff|64.453125,-886.230469,-2143.066406,112.792969,64.453125,0.000000
cobot_dynamixel_driver/joint_states|name|J1,J2,J3,J4,J5,J6|pos|0.000088,-0.339332,0.367710,-0.000038,-0.236103,0.000000|vel|0.000000,0.699384,-0.700844,0.000209,0.683884,0.000000|eff|0.000000,-370.605469,-1981.933594,128.906250,44.311523,0.000000
cobot_dynamixel_driver/joint_states|name|J1,J2,J3,J4,J5,J6|pos|0.000088,-0.325774,0.353940,-0.000038,-0.222575,0.000000|vel|0.000000,0.700635,-0.625523,0.000209,0.781434,0.000000|eff|64.453125,-128.906250,-1675.781250,145.019531,92.651367,0.000000
cobot_dynamixel_driver/joint_states|name|J1,J2,J3,J4,J5,J6|pos|0.000088,-0.312255,0.340295,-0.000038,-0.208447,0.000000|vel|0.000000,0.709607,-0.730263,0.000000,0.607016,0.000000|eff|0.000000,-241.699219,-805.664062,112.792969,36.254883,0.000000
cobot_dynamixel_driver/joint_states|name|J1,J2,J3,J4,J5,J6|pos|0.000088,-0.298710,0.326713,-0.000038,-0.195601,0.000000|vel|0.000000,0.650143,-0.724630,0.000000,0.630456,0.000000|eff|0.000000,-789.550781,-1385.742188,177.246094,64.453125,0.000000
cobot_dynamixel_driver/joint_states|name|J1,J2,J3,J4,J5,J6|pos|0.000088,-0.285115,0.313006,-0.000038,-0.182114,0.000000|vel|0.000000,0.686865,-0.694793,0.000000,0.699740,0.000000|eff|64.453125,-870.117188,-531.738281,128.906250,80.566406,0.000000
cobot_dynamixel_driver/joint_states|name|J1,J2,J3,J4,J5,J6|pos|0.000088,-0.271470,0.299448,-0.000038,-0.168607,0.000000|vel|0.000000,0.685404,-0.725882,0.000000,0.847961,0.000000|eff|0.000000,273.925781,-628.417969,112.792969,32.226562,0.000000
cobot_dynamixel_driver/joint_states|name|J1,J2,J3,J4,J5,J6|pos|0.000088,-0.257913,0.285866,-0.000038,-0.154561,0.000000|vel|0.000000,0.710859,-0.705643,0.000000,0.650448,0.000000|eff|64.453125,273.925781,-435.058594,112.792969,100.708008,0.000000
cobot_dynamixel_driver/joint_states|name|J1,J2,J3,J4,J5,J6|pos|0.000088,-0.244456,0.272321,-0.000038,-0.141654,0.000000|vel|0.000000,0.684570,-0.634077,0.000000,0.712149,0.000000|eff|64.453125,-467.285156,-483.398438,112.792969,104.736328,0.000000
cobot_dynamixel_driver/joint_states|name|J1,J2,J3,J4,J5,J6|pos|0.000088,-0.230874,0.258789,-0.000038,-0.128084,0.000000|vel|0.000000,0.703974,-0.632199,0.000000,0.752135,0.000000|eff|48.339844,-290.039062,-676.757812,112.792969,68.481445,0.000000
cobot_dynamixel_driver/joint_states|name|J1,J2,J3,J4,J5,J6|pos|0.000075,-0.217266,0.245345,-0.000038,-0.114597,0.000000|vel|0.000000,0.707104,-0.678936,0.000000,0.591505,0.000000|eff|0.000000,467.285156,-982.910156,112.792969,52.368164,0.000000
cobot_dynamixel_driver/joint_states|name|J1,J2,J3,J4,J5,J6|pos|0.000075,-0.203684,0.231838,-0.000038,-0.100676,0.000000|vel|0.000000,0.682900,-0.705434,0.000000,0.600467,0.000000|eff|48.339844,177.246094,-1240.722656,112.792969,88.623047,0.000000
cobot_dynamixel_driver/joint_states|name|J1,J2,J3,J4,J5,J6|pos|0.000075,-0.190114,0.218456,-0.000038,-0.088492,0.000000|vel|0.000000,0.661827,-0.725464,0.000000,0.738002,0.000000|eff|0.000000,161.132812,-2078.613281,112.792969,12.084961,0.000000
cobot_dynamixel_driver/joint_states|name|J1,J2,J3,J4,J5,J6|pos|0.000075,-0.176632,0.205124,-0.000038,-0.077012,0.000000|vel|0.000000,0.688951,-0.707312,0.000000,0.584955,0.000000|eff|0.000000,-644.531250,-1579.101562,177.246094,-20.141602,0.000000
cobot_dynamixel_driver/joint_states|name|J1,J2,J3,J4,J5,J6|pos|0.000075,-0.163037,0.191366,-0.000038,-0.066814,0.000000|vel|0.000000,0.698758,-0.630947,0.000000,0.485337,0.000000|eff|0.000000,354.492188,-2062.500000,112.792969,0.000000,0.000000
cobot_dynamixel_driver/joint_states|name|J1,J2,J3,J4,J5,J6|pos|0.000075,-0.149518,0.177709,-0.000038,-0.058871,0.000000|vel|0.000000,0.708564,-0.750919,0.000000,0.361245,0.000000|eff|0.000000,-354.492188,-1917.480469,145.019531,8.056641,0.000000
cobot_dynamixel_driver/joint_states|name|J1,J2,J3,J4,J5,J6|pos|0.000075,-0.135960,0.164039,-0.000038,-0.051238,0.000000|vel|0.000000,0.652229,-0.694167,0.000000,0.317468,0.000000|eff|0.000000,32.226562,-1047.363281,161.132812,20.141602,0.000000
cobot_dynamixel_driver/joint_states|name|J1,J2,J3,J4,J5,J6|pos|0.000075,-0.122378,0.150507,-0.000038,-0.044867,0.000000|vel|0.000000,0.688325,-0.695419,0.000000,0.302646,0.000000|eff|0.000000,128.906250,-1063.476562,209.472656,28.198242,0.000000
cobot_dynamixel_driver/joint_states|name|J1,J2,J3,J4,J5,J6|pos|0.000075,-0.108696,0.136924,-0.000038,-0.039364,0.000000|vel|0.000000,0.703765,-0.711694,0.000000,0.273002,0.000000|eff|0.000000,612.304688,-1482.421875,112.792969,36.254883,0.000000
cobot_dynamixel_driver/joint_states|name|J1,J2,J3,J4,J5,J6|pos|0.000075,-0.095439,0.123417,-0.000038,-0.034400,0.000000|vel|0.000000,0.665166,-0.719831,0.000000,0.242669,0.000000|eff|0.000000,-1740.234375,-1530.761719,112.792969,32.226562,0.000000
cobot_dynamixel_driver/joint_states|name|J1,J2,J3,J4,J5,J6|pos|0.000063,-0.082871,0.109760,-0.000038,-0.030139,0.000000|vel|0.000000,0.628861,-0.625940,0.000000,0.224744,0.000000|eff|0.000000,-580.078125,-837.890625,145.019531,56.396484,0.000000
cobot_dynamixel_driver/joint_states|name|J1,J2,J3,J4,J5,J6|pos|0.000063,-0.071692,0.096591,-0.000038,-0.026457,0.000000|vel|0.000000,0.551244,-0.613630,0.000000,0.171660,0.000000|eff|0.000000,64.453125,-1482.421875,177.246094,68.481445,0.000000
cobot_dynamixel_driver/joint_states|name|J1,J2,J3,J4,J5,J6|pos|0.000063,-0.062015,0.084160,-0.000025,-0.023188,0.000000|vel|0.000000,0.465282,-0.530797,0.000000,0.158217,0.000000|eff|0.000000,-1240.722656,-966.796875,128.906250,64.453125,0.000000
cobot_dynamixel_driver/joint_states|name|J1,J2,J3,J4,J5,J6|pos|0.000063,-0.053716,0.073081,-0.000025,-0.020416,0.000000|vel|0.000000,0.398932,-0.537265,0.000000,0.122024,0.000000|eff|0.000000,-225.585938,-241.699219,112.792969,80.566406,0.000000
cobot_dynamixel_driver/joint_states|name|J1,J2,J3,J4,J5,J6|pos|0.000063,-0.046705,0.063643,-0.000025,-0.017831,0.000000|vel|0.000000,0.329036,-0.470915,0.000000,0.127194,0.000000|eff|0.000000,290.039062,-451.171875,128.906250,68.481445,0.000000
cobot_dynamixel_driver/joint_states|name|J1,J2,J3,J4,J5,J6|pos|0.000063,-0.040709,0.055543,-0.000025,-0.015555,0.000000|vel|0.000000,0.280212,-0.357203,0.000000,0.111683,0.000000|eff|0.000000,660.644531,-805.664062,209.472656,60.424805,0.000000
cobot_dynamixel_driver/joint_states|name|J1,J2,J3,J4,J5,J6|pos|0.000063,-0.035464,0.048521,-0.000025,-0.013652,0.000000|vel|0.000000,0.241404,-0.313596,0.000000,0.092035,0.000000|eff|0.000000,580.078125,-918.457031,145.019531,80.566406,0.000000
cobot_dynamixel_driver/joint_states|name|J1,J2,J3,J4,J5,J6|pos|0.000063,-0.030870,0.042399,-0.000025,-0.012060,0.000000|vel|0.000000,0.218036,-0.296904,0.000000,0.076523,0.000000|eff|0.000000,209.472656,-837.890625,161.132812,112.792969,0.000000
cobot_dynamixel_driver/joint_states|name|J1,J2,J3,J4,J5,J6|pos|0.000063,-0.026939,0.037092,-0.000025,-0.010653,0.000000|vel|0.000000,0.178184,-0.258722,0.000000,0.057910,0.000000|eff|0.000000,354.492188,-805.664062,193.359375,112.792969,0.000000
cobot_dynamixel_driver/joint_states|name|J1,J2,J3,J4,J5,J6|pos|0.000063,-0.023534,0.032497,-0.000025,-0.009391,0.000000|vel|0.000000,0.150017,-0.194041,0.000000,0.061012,0.000000|eff|0.000000,177.246094,-757.324219,177.246094,96.679688,0.000000
cobot_dynamixel_driver/joint_states|name|J1,J2,J3,J4,J5,J6|pos|0.000063,-0.020618,0.028379,-0.000025,-0.008274,0.000000|vel|0.000000,0.138750,-0.186739,0.000000,0.058254,0.000000|eff|0.000000,273.925781,-757.324219,128.906250,108.764648,0.000000
cobot_dynamixel_driver/joint_states|name|J1,J2,J3,J4,J5,J6|pos|0.000063,-0.018089,0.024774,-0.000025,-0.007302,0.000000|vel|0.000000,0.114130,-0.177350,0.000000,0.043432,0.000000|eff|0.000000,145.019531,-741.210938,128.906250,128.906250,0.000000
cobot_dynamixel_driver/joint_states|name|J1,J2,J3,J4,J5,J6|pos|0.000063,-0.015836,0.021694,-0.000025,-0.006350,0.000000|vel|0.000000,0.110583,-0.146470,0.000000,0.041019,0.000000|eff|0.000000,322.265625,-805.664062,177.246094,116.821289,0.000000
cobot_dynamixel_driver/joint_states|name|J1,J2,J3,J4,J5,J6|pos|0.000063,-0.013833,0.019065,-0.000025,-0.005544,0.000000|vel|0.000000,0.089718,-0.126231,0.000000,0.036538,0.000000|eff|0.000000,145.019531,-757.324219,161.132812,124.877930,0.000000
cobot_dynamixel_driver/joint_states|name|J1,J2,J3,J4,J5,J6|pos|0.000063,-0.012155,0.016687,-0.000025,-0.004840,0.000000|vel|0.000000,0.083667,-0.119555,0.000000,0.029989,0.000000|eff|0.000000,193.359375,-757.324219,112.792969,108.764648,0.000000
cobot_dynamixel_driver/joint_states|name|J1,J2,J3,J4,J5,J6|pos|0.000063,-0.010678,0.014634,-0.000025,-0.004199,0.000000|vel|0.000000,0.072609,-0.090761,0.000000,0.029989,0.000000|eff|0.000000,225.585938,-805.664062,177.246094,104.736328,0.000000
cobot_dynamixel_driver/joint_states|name|J1,J2,J3,J4,J5,J6|pos|0.000063,-0.009351,0.012881,-0.000025,-0.003620,0.000000|vel|0.000000,0.063429,-0.087214,0.000000,0.031712,0.000000|eff|0.000000,241.699219,-805.664062,177.246094,124.877930,0.000000
cobot_dynamixel_driver/joint_states|name|J1,J2,J3,J4,J5,J6|pos|0.000063,-0.008162,0.011241,-0.000025,-0.003165,0.000000|vel|-0.000626,0.058212,-0.083041,0.000000,0.020337,0.000000|eff|0.000000,209.472656,-821.777344,112.792969,112.792969,0.000000
cobot_dynamixel_driver/joint_states|name|J1,J2,J3,J4,J5,J6|pos|0.000063,-0.007135,0.009839,-0.000025,-0.002710,0.000000|vel|-0.000626,0.050284,-0.064055,0.000000,0.020337,0.000000|eff|0.000000,257.812500,-854.003906,145.019531,84.594727,0.000000
cobot_dynamixel_driver/joint_states|name|J1,J2,J3,J4,J5,J6|pos|0.000063,-0.006247,0.008638,-0.000025,-0.002379,0.000000|vel|-0.000626,0.042564,-0.054874,0.000000,0.011375,0.000000|eff|-32.226562,209.472656,-886.230469,112.792969,108.764648,0.000000
cobot_dynamixel_driver/joint_states|name|J1,J2,J3,J4,J5,J6|pos|0.000050,-0.005496,0.007674,-0.000025,-0.002089,0.000000|vel|-0.000626,0.036305,-0.050284,0.000000,0.017580,0.000000|eff|0.000000,257.812500,-1063.476562,112.792969,100.708008,0.000000
cobot_dynamixel_driver/joint_states|name|J1,J2,J3,J4,J5,J6|pos|0.000050,-0.004820,0.006772,-0.000025,-0.001800,0.000000|vel|-0.000626,0.029628,-0.052579,0.000000,0.013099,0.000000|eff|0.000000,241.699219,-902.343750,145.019531,76.538086,0.000000
cobot_dynamixel_driver/joint_states|name|J1,J2,J3,J4,J5,J6|pos|0.000050,-0.004231,0.005896,-0.000025,-0.001593,0.000000|vel|-0.000626,0.030254,-0.043399,0.000000,0.008617,0.000000|eff|0.000000,225.585938,-886.230469,193.359375,96.679688,0.000000
cobot_dynamixel_driver/joint_states|name|J1,J2,J3,J4,J5,J6|pos|0.000050,-0.003680,0.005132,-0.000025,-0.001386,0.000000|vel|-0.000626,0.026915,-0.036096,0.000000,0.010341,0.000000|eff|0.000000,257.812500,-870.117188,112.792969,100.708008,0.000000
cobot_dynamixel_driver/joint_states|name|J1,J2,J3,J4,J5,J6|pos|0.000050,-0.003217,0.004406,-0.000025,-0.001158,0.000000|vel|0.000000,0.023368,-0.026081,0.000000,0.013099,0.000000|eff|0.000000,241.699219,-837.890625,128.906250,84.594727,0.000000
cobot_dynamixel_driver/joint_states|name|J1,J2,J3,J4,J5,J6|pos|0.000050,-0.002792,0.003856,-0.000025,-0.001055,0.000000|vel|0.000000,0.020030,-0.029002,0.000000,0.004826,0.000000|eff|0.000000,225.585938,-854.003906,209.472656,96.679688,0.000000
cobot_dynamixel_driver/joint_states|name|J1,J2,J3,J4,J5,J6|pos|0.000038,-0.002429,0.003342,-0.000025,-0.000952,0.000000|vel|0.000000,0.017109,-0.019821,0.000000,0.005515,0.000000|eff|0.000000,225.585938,-821.777344,209.472656,92.651367,0.000000
cobot_dynamixel_driver/joint_states|name|J1,J2,J3,J4,J5,J6|pos|0.000038,-0.002078,0.003029,-0.000025,-0.000827,0.000000|vel|0.000000,0.017526,-0.018152,0.000000,0.005860,0.000000|eff|0.000000,241.699219,-918.457031,177.246094,96.679688,0.000000
cobot_dynamixel_driver/joint_states|name|J1,J2,J3,J4,J5,J6|pos|0.000038,-0.001828,0.002591,-0.000025,-0.000703,0.000000|vel|0.000000,0.011684,-0.022325,0.000000,0.006894,0.000000|eff|0.000000,193.359375,-837.890625,128.906250,92.651367,0.000000
cobot_dynamixel_driver/joint_states|name|J1,J2,J3,J4,J5,J6|pos|0.000038,-0.001640,0.002316,-0.000025,-0.000621,0.000000|vel|0.000000,0.009598,-0.008137,0.000000,0.004136,0.000000|eff|0.000000,225.585938,-918.457031,112.792969,80.566406,0.000000
cobot_dynamixel_driver/joint_states|name|J1,J2,J3,J4,J5,J6|pos|0.000038,-0.001465,0.002116,-0.000025,-0.000579,0.000000|vel|0.000000,0.008555,-0.010641,0.000000,0.004136,0.000000|eff|0.000000,145.019531,-918.457031,112.792969,84.594727,0.000000
cobot_dynamixel_driver/joint_states|name|J1,J2,J3,J4,J5,J6|pos|0.000038,-0.001314,0.001815,-0.000025,-0.000538,0.000000|vel|0.000000,0.007720,-0.016900,0.000000,0.001379,0.000000|eff|0.000000,128.906250,-902.343750,112.792969,80.566406,0.000000
cobot_dynamixel_driver/joint_states|name|J1,J2,J3,J4,J5,J6|pos|0.000038,-0.001127,0.001502,-0.000025,-0.000455,0.000000|vel|0.000000,0.010224,-0.012102,0.000000,0.005515,0.000000|eff|0.000000,402.832031,-854.003906,161.132812,104.736328,0.000000
cobot_dynamixel_driver/joint_states|name|J1,J2,J3,J4,J5,J6|pos|0.000038,-0.000976,0.001390,-0.000025,-0.000352,0.000000|vel|0.000000,0.006259,-0.003756,0.000000,0.005515,0.000000|eff|0.000000,145.019531,-934.570312,112.792969,84.594727,0.000000
cobot_dynamixel_driver/joint_states|name|J1,J2,J3,J4,J5,J6|pos|0.000038,-0.000889,0.001352,-0.000025,-0.000331,0.000000|vel|0.000000,0.004382,-0.001461,0.000000,0.005515,0.000000|eff|0.000000,241.699219,-999.023438,128.906250,76.538086,0.000000
cobot_dynamixel_driver/joint_states|name|J1,J2,J3,J4,J5,J6|pos|0.000025,-0.000789,0.001264,-0.000025,-0.000331,0.000000|vel|0.000000,0.004799,-0.007094,0.000000,0.005515,0.000000|eff|-80.566406,225.585938,-934.570312,145.019531,68.481445,0.000000
cobot_dynamixel_driver/joint_states|name|J1,J2,J3,J4,J5,J6|pos|0.000025,-0.000726,0.001077,-0.000025,-0.000331,0.000000|vel|0.000000,0.003338,-0.011058,0.000000,0.005515,0.000000|eff|-80.566406,193.359375,-918.457031,145.019531,60.424805,0.000000
cobot_dynamixel_driver/joint_states|name|J1,J2,J3,J4,J5,J6|pos|0.000025,-0.000651,0.000814,-0.000025,-0.000331,0.000000|vel|0.000000,0.003338,-0.015648,0.000000,0.005515,0.000000|eff|0.000000,193.359375,-854.003906,112.792969,52.368164,0.000000
cobot_dynamixel_driver/joint_states|name|J1,J2,J3,J4,J5,J6|pos|0.000025,-0.000588,0.000526,-0.000025,-0.000331,0.000000|vel|0.000000,0.003547,-0.011058,0.000000,0.005515,0.000000|eff|0.000000,193.359375,-773.437500,161.132812,44.311523,0.000000
cobot_dynamixel_driver/joint_states|name|J1,J2,J3,J4,J5,J6|pos|0.000025,-0.000526,0.000401,-0.000025,-0.000331,0.000000|vel|0.000000,0.003338,-0.004590,0.000000,0.000000,0.000000|eff|0.000000,193.359375,-821.777344,128.906250,52.368164,0.000000
cobot_dynamixel_driver/joint_states|name|J1,J2,J3,J4,J5,J6|pos|0.000025,-0.000451,0.000376,-0.000025,-0.000331,0.000000|vel|0.000000,0.003338,-0.002295,0.000000,0.000000,0.000000|eff|0.000000,193.359375,-789.550781,112.792969,56.396484,0.000000
cobot_dynamixel_driver/joint_states|name|J1,J2,J3,J4,J5,J6|pos|0.000025,-0.000388,0.000376,-0.000025,-0.000331,0.000000|vel|0.000000,0.003547,-0.002295,0.000000,0.000000,0.000000|eff|0.000000,193.359375,-805.664062,145.019531,56.396484,0.000000
cobot_dynamixel_driver/joint_states|name|J1,J2,J3,J4,J5,J6|pos|0.000025,-0.000313,0.000376,-0.000025,-0.000331,0.000000|vel|0.000000,0.003756,-0.002295,0.000000,0.000000,0.000000|eff|0.000000,209.472656,-854.003906,193.359375,64.453125,0.000000
cobot_dynamixel_driver/joint_states|name|J1,J2,J3,J4,J5,J6|pos|0.000025,-0.000238,0.000376,-0.000025,-0.000331,0.000000|vel|0.000000,0.003964,-0.002295,0.000000,0.000000,0.000000|eff|-80.566406,193.359375,-837.890625,177.246094,68.481445,0.000000
cobot_dynamixel_driver/joint_states|name|J1,J2,J3,J4,J5,J6|pos|0.000025,-0.000125,0.000376,-0.000025,-0.000331,0.000000|vel|0.000000,0.005842,-0.002295,0.000000,0.000000,0.000000|eff|0.000000,290.039062,-837.890625,161.132812,76.538086,0.000000
cobot_dynamixel_driver/joint_states|name|J1,J2,J3,J4,J5,J6|pos|0.000025,-0.000100,0.000363,-0.000025,-0.000331,0.000000|vel|0.000000,0.002712,-0.002295,0.000000,0.000000,0.000000|eff|0.000000,209.472656,-837.890625,128.906250,72.509766,0.000000
cobot_dynamixel_driver/joint_states|name|J1,J2,J3,J4,J5,J6|pos|0.000025,-0.000088,0.000363,-0.000025,-0.000331,0.000000|vel|0.000000,0.000835,0.000000,0.000000,0.000000,0.000000|eff|0.000000,177.246094,-886.230469,145.019531,80.566406,0.000000
cobot_dynamixel_driver/joint_states|name|J1,J2,J3,J4,J5,J6|pos|0.000025,-0.000050,0.000351,-0.000025,-0.000310,0.000000|vel|0.000000,0.001461,0.000000,0.000000,0.000000,0.000000|eff|-32.226562,241.699219,-870.117188,128.906250,84.594727,0.000000
cobot_dynamixel_driver/joint_states|name|J1,J2,J3,J4,J5,J6|pos|0.000025,-0.000038,0.000338,-0.000025,-0.000269,0.000000|vel|0.000000,0.001461,0.000000,0.000000,0.000345,0.000000|eff|-112.792969,225.585938,-886.230469,193.359375,88.623047,0.000000
cobot_dynamixel_driver/joint_states|name|J1,J2,J3,J4,J5,J6|pos|0.000025,-0.000038,0.000325,-0.000013,-0.000228,0.000000|vel|0.000000,0.000626,-0.000417,0.000000,0.002413,0.000000|eff|-32.226562,145.019531,-870.117188,112.792969,88.623047,0.000000
cobot_dynamixel_driver/joint_states|name|J1,J2,J3,J4,J5,J6|pos|0.000025,-0.000025,0.000325,-0.000013,-0.000186,0.000000|vel|0.000000,0.000626,-0.000417,0.000000,0.002068,0.000000|eff|0.000000,386.718750,-870.117188,161.132812,84.594727,0.000000
cobot_dynamixel_driver/joint_states|name|J1,J2,J3,J4,J5,J6|pos|0.000025,-0.000025,0.000325,-0.000013,-0.000186,0.000000|vel|0.000000,0.000626,-0.000417,0.000000,0.002068,0.000000|eff|0.000000,193.359375,-902.343750,193.359375,84.594727,0.000000
cobot_dynamixel_driver/joint_states|name|J1,J2,J3,J4,J5,J6|pos|0.000025,-0.000025,0.000313,-0.000013,-0.000186,0.000000|vel|0.000000,0.000626,-0.000417,0.000000,0.002068,0.000000|eff|0.000000,145.019531,-934.570312,145.019531,80.566406,0.000000
cobot_dynamixel_driver/joint_states|name|J1,J2,J3,J4,J5,J6|pos|0.000025,-0.000025,0.000288,-0.000013,-0.000186,0.000000|vel|0.000000,0.000626,-0.001461,0.000000,0.002068,0.000000|eff|0.000000,370.605469,-934.570312,112.792969,80.566406,0.000000
cobot_dynamixel_driver/joint_states|name|J1,J2,J3,J4,J5,J6|pos|0.000025,-0.000025,0.000213,-0.000013,-0.000186,0.000000|vel|0.000000,0.000626,-0.004382,0.000000,0.002068,0.000000|eff|0.000000,145.019531,-934.570312,145.019531,76.538086,0.000000
cobot_dynamixel_driver/joint_states|name|J1,J2,J3,J4,J5,J6|pos|0.000025,-0.000025,0.000138,-0.000013,-0.000186,0.000000|vel|0.000000,-0.000000,-0.003338,0.000000,0.002068,0.000000|eff|0.000000,273.925781,-870.117188,145.019531,76.538086,0.000000
cobot_dynamixel_driver/joint_states|name|J1,J2,J3,J4,J5,J6|pos|0.000025,-0.000025,0.000063,-0.000013,-0.000186,0.000000|vel|0.000000,-0.000000,-0.003338,0.000000,0.000000,0.000000|eff|-112.792969,354.492188,-870.117188,145.019531,72.509766,0.000000
cobot_dynamixel_driver/joint_states|name|J1,J2,J3,J4,J5,J6|pos|0.000025,-0.000025,-0.000038,-0.000013,-0.000186,0.000000|vel|0.000000,-0.000000,-0.005425,0.000000,0.000000,0.000000|eff|0.000000,354.492188,-821.777344,161.132812,76.538086,0.000000
cobot_dynamixel_driver/joint_states|name|J1,J2,J3,J4,J5,J6|pos|0.000025,-0.000025,-0.000113,-0.000013,-0.000186,0.000000|vel|0.000000,-0.000000,-0.003547,0.000000,0.000000,0.000000|eff|0.000000,322.265625,-805.664062,112.792969,72.509766,0.000000
cobot_dynamixel_driver/joint_states|name|J1,J2,J3,J4,J5,J6|pos|0.000025,-0.000025,-0.000188,-0.000013,-0.000186,0.000000|vel|0.000000,-0.000000,-0.003338,0.000000,0.000000,0.000000|eff|0.000000,290.039062,-757.324219,145.019531,80.566406,0.000000
cobot_dynamixel_driver/joint_states|name|J1,J2,J3,J4,J5,J6|pos|0.000025,-0.000025,-0.000213,-0.000013,-0.000186,0.000000|vel|0.000000,-0.000000,-0.001878,0.000000,0.000000,0.000000|eff|0.000000,386.718750,-757.324219,112.792969,80.566406,0.000000
cobot_dynamixel_driver/joint_states|name|J1,J2,J3,J4,J5,J6|pos|0.000025,-0.000025,-0.000225,-0.000013,-0.000165,0.000000|vel|0.000000,-0.000000,-0.001878,0.000000,0.000000,0.000000|eff|0.000000,177.246094,-757.324219,112.792969,84.594727,0.000000
cobot_dynamixel_driver/joint_states|name|J1,J2,J3,J4,J5,J6|pos|0.000025,-0.000025,-0.000225,-0.000013,-0.000145,0.000000|vel|0.000000,-0.000000,-0.001878,0.000000,0.000000,0.000000|eff|0.000000,306.152344,-757.324219,112.792969,84.594727,0.000000
cobot_dynamixel_driver/joint_states|name|J1,J2,J3,J4,J5,J6|pos|0.000025,-0.000025,-0.000225,-0.000013,-0.000145,0.000000|vel|0.000000,-0.000000,-0.001878,0.000000,0.000000,0.000000|eff|0.000000,290.039062,-725.097656,177.246094,92.651367,0.000000
cobot_dynamixel_driver/joint_states|name|J1,J2,J3,J4,J5,J6|pos|0.000025,-0.000025,-0.000213,-0.000013,-0.000103,0.000000|vel|0.000000,-0.000000,0.001878,0.000000,0.000689,0.000000|eff|0.000000,290.039062,-676.757812,112.792969,84.594727,0.000000
cobot_dynamixel_driver/joint_states|name|J1,J2,J3,J4,J5,J6|pos|0.000025,-0.000025,-0.000225,-0.000013,-0.000062,0.000000|vel|0.000000,-0.000000,-0.001878,0.000000,0.001723,0.000000|eff|-80.566406,145.019531,-676.757812,112.792969,92.651367,0.000000
cobot_dynamixel_driver/joint_states|name|J1,J2,J3,J4,J5,J6|pos|0.000025,-0.000025,-0.000213,-0.000013,-0.000021,0.000000|vel|0.000000,-0.000000,0.000000,0.000000,0.002413,0.000000|eff|0.000000,354.492188,-708.984375,193.359375,80.566406,0.000000
cobot_dynamixel_driver/joint_states|name|J1,J2,J3,J4,J5,J6|pos|0.000025,-0.000025,-0.000213,-0.000013,-0.000021,0.000000|vel|0.000000,-0.000000,0.000000,0.000000,0.002413,0.000000|eff|-112.792969,370.605469,-741.210938,128.906250,76.538086,0.000000
cobot_dynamixel_driver/joint_states|name|J1,J2,J3,J4,J5,J6|pos|0.000025,-0.000025,-0.000213,-0.000013,-0.000021,0.000000|vel|0.000000,-0.000000,0.000000,0.000000,0.002413,0.000000|eff|0.000000,273.925781,-708.984375,112.792969,76.538086,0.000000
cobot_dynamixel_driver/joint_states|name|J1,J2,J3,J4,J5,J6|pos|0.000025,-0.000025,-0.000213,-0.000013,-0.000021,0.000000|vel|0.000000,-0.000000,0.000000,0.000000,0.002413,0.000000|eff|0.000000,370.605469,-725.097656,128.906250,64.453125,0.000000
cobot_dynamixel_driver/joint_states|name|J1,J2,J3,J4,J5,J6|pos|0.000025,-0.000025,-0.000213,-0.000013,-0.000021,0.000000|vel|0.000000,-0.000000,0.000000,0.000000,0.002413,0.000000|eff|-112.792969,225.585938,-660.644531,112.792969,56.396484,0.000000
cobot_dynamixel_driver/joint_states|name|J1,J2,J3,J4,J5,J6|pos|0.000025,-0.000025,-0.000213,-0.000013,-0.000021,0.000000|vel|0.000000,-0.000000,0.000000,0.000000,0.002413,0.000000|eff|0.000000,354.492188,-692.871094,128.906250,56.396484,0.000000
cobot_dynamixel_driver/joint_states|name|J1,J2,J3,J4,J5,J6|pos|0.000025,-0.000025,-0.000213,-0.000013,-0.000021,0.000000|vel|0.000000,-0.000000,0.000000,0.000000,0.000000,0.000000|eff|-48.339844,273.925781,-660.644531,145.019531,56.396484,0.000000
cobot_dynamixel_driver/joint_states|name|J1,J2,J3,J4,J5,J6|pos|0.000025,-0.000025,-0.000213,-0.000013,-0.000021,0.000000|vel|0.000000,-0.000000,0.000000,0.000000,0.000000,0.000000|eff|0.000000,145.019531,-660.644531,145.019531,56.396484,0.000000
cobot_dynamixel_driver/joint_states|name|J1,J2,J3,J4,J5,J6|pos|0.000025,-0.000025,-0.000213,-0.000013,-0.000021,0.000000|vel|0.000000,-0.000000,0.000000,0.000000,0.000000,0.000000|eff|0.000000,161.132812,-660.644531,112.792969,56.396484,0.000000
cobot_dynamixel_driver/joint_states|name|J1,J2,J3,J4,J5,J6|pos|0.000025,-0.000025,-0.000213,-0.000013,-0.000021,0.000000|vel|0.000000,-0.000000,0.000000,0.000000,0.000000,0.000000|eff|-32.226562,225.585938,-660.644531,161.132812,56.396484,0.000000
cobot_dynamixel_driver/joint_states|name|J1,J2,J3,J4,J5,J6|pos|0.000025,-0.000025,-0.000213,-0.000013,-0.000021,0.000000|vel|0.000000,-0.000000,0.000000,0.000000,0.000000,0.000000|eff|0.000000,306.152344,-628.417969,161.132812,56.396484,0.000000
cobot_dynamixel_driver/joint_states|name|J1,J2,J3,J4,J5,J6|pos|0.000025,-0.000025,-0.000200,-0.000013,-0.000021,0.000000|vel|0.000000,-0.000000,0.000000,0.000000,0.000000,0.000000|eff|0.000000,177.246094,-644.531250,112.792969,56.396484,0.000000
cobot_dynamixel_driver/joint_states|name|J1,J2,J3,J4,J5,J6|pos|0.000025,-0.000025,-0.000200,-0.000013,-0.000021,0.000000|vel|0.000000,-0.000000,0.000000,0.000000,0.000000,0.000000|eff|0.000000,306.152344,-644.531250,112.792969,56.396484,0.000000
cobot_dynamixel_driver/joint_states|name|J1,J2,J3,J4,J5,J6|pos|0.000025,-0.000025,-0.000200,-0.000013,-0.000021,0.000000|vel|0.000000,-0.000000,0.000000,0.000000,0.000000,0.000000|eff|0.000000,354.492188,-628.417969,112.792969,56.396484,0.000000
cobot_dynamixel_driver/joint_states|name|J1,J2,J3,J4,J5,J6|pos|0.000025,-0.000025,-0.000200,-0.000013,-0.000021,0.000000|vel|0.000000,-0.000000,0.000000,0.000000,0.000000,0.000000|eff|0.000000,161.132812,-644.531250,128.906250,56.396484,0.000000
cobot_dynamixel_driver/joint_states|name|J1,J2,J3,J4,J5,J6|pos|0.000025,-0.000013,-0.000200,-0.000013,-0.000021,0.000000|vel|0.000000,-0.000000,0.000000,0.000000,0.000000,0.000000|eff|0.000000,225.585938,-580.078125,209.472656,56.396484,0.000000
cobot_dynamixel_driver/joint_states|name|J1,J2,J3,J4,J5,J6|pos|0.000025,-0.000013,-0.000188,-0.000013,-0.000021,0.000000|vel|0.000000,-0.000000,0.000000,0.000000,0.000000,0.000000|eff|0.000000,306.152344,-612.304688,112.792969,56.396484,0.000000
cobot_dynamixel_driver/joint_states|name|J1,J2,J3,J4,J5,J6|pos|0.000013,-0.000013,-0.000188,-0.000013,-0.000021,0.000000|vel|0.000000,-0.000000,0.000000,0.000000,0.000000,0.000000|eff|-48.339844,290.039062,-644.531250,112.792969,56.396484,0.000000
cobot_dynamixel_driver/joint_states|name|J1,J2,J3,J4,J5,J6|pos|0.000013,-0.000013,-0.000188,-0.000013,-0.000021,0.000000|vel|0.000000,-0.000000,0.000000,0.000000,0.000000,0.000000|eff|0.000000,273.925781,-563.964844,128.906250,56.396484,0.000000
cobot_dynamixel_driver/joint_states|name|J1,J2,J3,J4,J5,J6|pos|0.000013,-0.000013,-0.000188,-0.000013,-0.000021,0.000000|vel|0.000000,-0.000000,0.000000,0.000000,0.000000,0.000000|eff|-112.792969,290.039062,-563.964844,112.792969,56.396484,0.000000
cobot_dynamixel_driver/joint_states|name|J1,J2,J3,J4,J5,J6|pos|0.000013,-0.000013,-0.000175,-0.000013,-0.000021,0.000000|vel|0.000000,-0.000000,0.000000,0.000000,0.000000,0.000000|eff|0.000000,370.605469,-563.964844,112.792969,56.396484,0.000000
cobot_dynamixel_driver/joint_states|name|J1,J2,J3,J4,J5,J6|pos|0.000013,-0.000013,-0.000175,-0.000013,-0.000021,0.000000|vel|0.000000,-0.000000,0.000000,0.000000,0.000000,0.000000|eff|0.000000,225.585938,-580.078125,112.792969,56.396484,0.000000
cobot_dynamixel_driver/joint_states|name|J1,J2,J3,J4,J5,J6|pos|0.000013,-0.000013,-0.000175,-0.000013,-0.000021,0.000000|vel|0.000000,-0.000000,0.000000,0.000000,0.000000,0.000000|eff|0.000000,386.718750,-547.851562,112.792969,56.396484,0.000000
cobot_dynamixel_driver/joint_states|name|J1,J2,J3,J4,J5,J6|pos|0.000013,-0.000013,-0.000175,-0.000013,-0.000021,0.000000|vel|0.000000,-0.000000,0.000000,0.000000,0.000000,0.000000|eff|0.000000,386.718750,-563.964844,209.472656,56.396484,0.000000
cobot_dynamixel_driver/joint_states|name|J1,J2,J3,J4,J5,J6|pos|0.000013,-0.000013,-0.000163,-0.000013,-0.000021,0.000000|vel|0.000000,-0.000000,0.000000,0.000000,0.000000,0.000000|eff|0.000000,161.132812,-547.851562,209.472656,56.396484,0.000000
cobot_dynamixel_driver/joint_states|name|J1,J2,J3,J4,J5,J6|pos|0.000013,-0.000013,-0.000163,-0.000013,-0.000021,0.000000|vel|0.000000,-0.000000,0.000000,0.000000,0.000000,0.000000|eff|0.000000,225.585938,-547.851562,161.132812,56.396484,0.000000
cobot_dynamixel_driver/joint_states|name|J1,J2,J3,J4,J5,J6|pos|0.000013,-0.000013,-0.000163,-0.000013,-0.000021,0.000000|vel|0.000000,-0.000000,0.000000,0.000000,0.000000,0.000000|eff|0.000000,209.472656,-515.625000,145.019531,56.396484,0.000000
cobot_dynamixel_driver/joint_states|name|J1,J2,J3,J4,J5,J6|pos|0.000013,-0.000013,-0.000163,-0.000013,-0.000021,0.000000|vel|0.000000,-0.000000,0.000000,0.000000,0.000000,0.000000|eff|0.000000,370.605469,-547.851562,209.472656,56.396484,0.000000
cobot_dynamixel_driver/joint_states|name|J1,J2,J3,J4,J5,J6|pos|0.000013,-0.000013,-0.000163,-0.000013,-0.000021,0.000000|vel|0.000000,-0.000000,0.000000,0.000000,0.000000,0.000000|eff|0.000000,354.492188,-499.511719,112.792969,56.396484,0.000000
cobot_dynamixel_driver/joint_states|name|J1,J2,J3,J4,J5,J6|pos|0.000013,-0.000013,-0.000150,-0.000013,-0.000021,0.000000|vel|0.000000,-0.000000,0.000000,0.000000,0.000000,0.000000|eff|-112.792969,225.585938,-467.285156,193.359375,56.396484,0.000000
cobot_dynamixel_driver/joint_states|name|J1,J2,J3,J4,J5,J6|pos|0.000013,-0.000013,-0.000150,-0.000013,-0.000021,0.000000|vel|0.000000,-0.000000,0.000000,0.000000,0.000000,0.000000|eff|0.000000,306.152344,-483.398438,112.792969,56.396484,0.000000
cobot_dynamixel_driver/joint_states|name|J1,J2,J3,J4,J5,J6|pos|0.000013,-0.000013,-0.000150,-0.000013,-0.000021,0.000000|vel|0.000000,-0.000000,0.000000,0.000000,0.000000,0.000000|eff|0.000000,306.152344,-531.738281,112.792969,56.396484,0.000000
cobot_dynamixel_driver/joint_states|name|J1,J2,J3,J4,J5,J6|pos|0.000013,-0.000013,-0.000138,-0.000013,-0.000021,0.000000|vel|0.000000,-0.000000,0.000000,0.000000,0.000000,0.000000|eff|0.000000,338.378906,-467.285156,128.906250,56.396484,0.000000
cobot_dynamixel_driver/joint_states|name|J1,J2,J3,J4,J5,J6|pos|0.000013,-0.000013,-0.000138,-0.000013,-0.000021,0.000000|vel|0.000000,-0.000000,0.000000,0.000000,0.000000,0.000000|eff|0.000000,193.359375,-483.398438,112.792969,56.396484,0.000000
cobot_dynamixel_driver/joint_states|name|J1,J2,J3,J4,J5,J6|pos|0.000013,-0.000013,-0.000138,-0.000013,-0.000021,0.000000|vel|0.000000,-0.000000,0.000000,0.000000,0.000000,0.000000|eff|0.000000,225.585938,-467.285156,112.792969,56.396484,0.000000
cobot_dynamixel_driver/joint_states|name|J1,J2,J3,J4,J5,J6|pos|0.000013,-0.000013,-0.000138,-0.000013,-0.000021,0.000000|vel|0.000000,-0.000000,0.000000,0.000000,0.000000,0.000000|eff|0.000000,177.246094,-451.171875,193.359375,56.396484,0.000000
cobot_dynamixel_driver/joint_states|name|J1,J2,J3,J4,J5,J6|pos|0.000013,-0.000013,-0.000125,-0.000013,-0.000021,0.000000|vel|0.000000,-0.000000,0.000000,0.000000,0.000000,0.000000|eff|0.000000,161.132812,-483.398438,128.906250,56.396484,0.000000
cobot_dynamixel_driver/joint_states|name|J1,J2,J3,J4,J5,J6|pos|0.000013,-0.000013,-0.000125,-0.000013,-0.000021,0.000000|vel|0.000000,-0.000000,0.000000,0.000000,0.000000,0.000000|eff|-80.566406,354.492188,-483.398438,193.359375,56.396484,0.000000
cobot_dynamixel_driver/joint_states|name|J1,J2,J3,J4,J5,J6|pos|0.000013,-0.000013,-0.000125,-0.000013,-0.000021,0.000000|vel|0.000000,-0.000000,0.000000,0.000000,0.000000,0.000000|eff|0.000000,145.019531,-531.738281,128.906250,56.396484,0.000000
cobot_dynamixel_driver/joint_states|name|J1,J2,J3,J4,J5,J6|pos|0.000013,-0.000013,-0.000113,-0.000013,-0.000021,0.000000|vel|0.000000,-0.000000,0.000000,0.000000,0.000000,0.000000|eff|-80.566406,370.605469,-483.398438,145.019531,56.396484,0.000000
cobot_dynamixel_driver/joint_states|name|J1,J2,J3,J4,J5,J6|pos|0.000013,-0.000013,-0.000113,-0.000013,-0.000021,0.000000|vel|0.000000,-0.000000,0.000000,0.000000,0.000000,0.000000|eff|0.000000,225.585938,-451.171875,112.792969,56.396484,0.000000
cobot_dynamixel_driver/joint_states|name|J1,J2,J3,J4,J5,J6|pos|0.000013,-0.000013,-0.000113,-0.000013,-0.000021,0.000000|vel|0.000000,-0.000000,0.000000,0.000000,0.000000,0.000000|eff|0.000000,177.246094,-499.511719,112.792969,56.396484,0.000000
cobot_dynamixel_driver/joint_states|name|J1,J2,J3,J4,J5,J6|pos|0.000013,-0.000013,-0.000113,-0.000013,-0.000021,0.000000|vel|0.000000,-0.000000,0.000000,0.000000,0.000000,0.000000|eff|0.000000,386.718750,-467.285156,112.792969,56.396484,0.000000
cobot_dynamixel_driver/joint_states|name|J1,J2,J3,J4,J5,J6|pos|0.000013,-0.000013,-0.000113,-0.000013,-0.000021,0.000000|vel|0.000000,-0.000000,0.000000,0.000000,0.000000,0.000000|eff|0.000000,386.718750,-451.171875,161.132812,56.396484,0.000000
cobot_dynamixel_driver/joint_states|name|J1,J2,J3,J4,J5,J6|pos|0.000013,-0.000013,-0.000100,-0.000013,-0.000021,0.000000|vel|0.000000,-0.000000,0.000000,0.000000,0.000000,0.000000|eff|-48.339844,193.359375,-451.171875,128.906250,56.396484,0.000000
cobot_dynamixel_driver/joint_states|name|J1,J2,J3,J4,J5,J6|pos|0.000013,-0.000013,-0.000100,-0.000013,-0.000021,0.000000|vel|0.000000,-0.000000,0.000000,0.000000,0.000000,0.000000|eff|0.000000,322.265625,-451.171875,193.359375,56.396484,0.000000
cobot_dynamixel_driver/joint_states|name|J1,J2,J3,J4,J5,J6|pos|0.000013,-0.000013,-0.000100,-0.000013,-0.000021,0.000000|vel|0.000000,-0.000000,0.000000,0.000000,0.000000,0.000000|eff|0.000000,225.585938,-435.058594,112.792969,56.396484,0.000000
cobot_dynamixel_driver/joint_states|name|J1,J2,J3,J4,J5,J6|pos|0.000013,-0.000013,-0.000100,-0.000013,-0.000021,0.000000|vel|0.000000,-0.000000,0.000000,0.000000,0.000000,0.000000|eff|0.000000,306.152344,-467.285156,112.792969,56.396484,0.000000
cobot_dynamixel_driver/joint_states|name|J1,J2,J3,J4,J5,J6|pos|0.000013,-0.000013,-0.000100,-0.000013,-0.000021,0.000000|vel|0.000000,-0.000000,0.000000,0.000000,0.000000,0.000000|eff|-112.792969,273.925781,-402.832031,209.472656,56.396484,0.000000
cobot_dynamixel_driver/joint_states|name|J1,J2,J3,J4,J5,J6|pos|0.000013,-0.000013,-0.000088,-0.000013,-0.000021,0.000000|vel|0.000000,-0.000000,0.000000,0.000000,0.000000,0.000000|eff|-48.339844,386.718750,-386.718750,112.792969,56.396484,0.000000
cobot_dynamixel_driver/joint_states|name|J1,J2,J3,J4,J5,J6|pos|0.000013,-0.000013,-0.000088,-0.000013,-0.000021,0.000000|vel|0.000000,-0.000000,0.000000,0.000000,0.000000,0.000000|eff|0.000000,225.585938,-435.058594,112.792969,56.396484,0.000000
cobot_dynamixel_driver/joint_states|name|J1,J2,J3,J4,J5,J6|pos|0.000013,-0.000013,-0.000088,-0.000013,-0.000021,0.000000|vel|0.000000,-0.000000,0.000000,0.000000,0.000000,0.000000|eff|0.000000,273.925781,-435.058594,112.792969,56.396484,0.000000
cobot_dynamixel_driver/joint_states|name|J1,J2,J3,J4,J5,J6|pos|0.000013,-0.000013,-0.000088,-0.000013,-0.000021,0.000000|vel|0.000000,-0.000000,0.000000,0.000000,0.000000,0.000000|eff|-48.339844,225.585938,-435.058594,112.792969,56.396484,0.000000
cobot_dynamixel_driver/joint_states|name|J1,J2,J3,J4,J5,J6|pos|0.000013,-0.000013,-0.000088,-0.000013,-0.000021,0.000000|vel|0.000000,-0.000000,0.000000,0.000000,0.000000,0.000000|eff|0.000000,370.605469,-435.058594,193.359375,56.396484,0.000000
cobot_dynamixel_driver/joint_states|name|J1,J2,J3,J4,J5,J6|pos|0.000013,-0.000013,-0.000088,-0.000013,-0.000021,0.000000|vel|0.000000,-0.000000,0.000000,0.000000,0.000000,0.000000|eff|0.000000,161.132812,-435.058594,161.132812,56.396484,0.000000
cobot_dynamixel_driver/joint_states|name|J1,J2,J3,J4,J5,J6|pos|0.000013,-0.000013,-0.000088,-0.000013,-0.000021,0.000000|vel|0.000000,-0.000000,0.000000,0.000000,0.000000,0.000000|eff|0.000000,225.585938,-435.058594,177.246094,56.396484,0.000000
cobot_dynamixel_driver/joint_states|name|J1,J2,J3,J4,J5,J6|pos|0.000013,-0.000013,-0.000075,-0.000013,-0.000021,0.000000|vel|0.000000,-0.000000,0.000000,0.000000,0.000000,0.000000|eff|0.000000,386.718750,-418.945312,128.906250,56.396484,0.000000
cobot_dynamixel_driver/joint_states|name|J1,J2,J3,J4,J5,J6|pos|0.000013,-0.000013,-0.000075,-0.000013,-0.000021,0.000000|vel|0.000000,-0.000000,0.000000,0.000000,0.000000,0.000000|eff|0.000000,225.585938,-435.058594,112.792969,56.396484,0.000000
cobot_dynamixel_driver/joint_states|name|J1,J2,J3,J4,J5,J6|pos|0.000013,-0.000013,-0.000075,-0.000013,-0.000021,0.000000|vel|0.000000,-0.000000,0.000000,0.000000,0.000000,0.000000|eff|-112.792969,193.359375,-370.605469,112.792969,56.396484,0.000000
cobot_dynamixel_driver/joint_states|name|J1,J2,J3,J4,J5,J6|pos|0.000013,-0.000013,-0.000075,-0.000013,-0.000021,0.000000|vel|0.000000,-0.000000,0.000000,0.000000,0.000000,0.000000|eff|0.000000,225.585938,-418.945312,112.792969,56.396484,0.000000
cobot_dynamixel_driver/joint_states|name|J1,J2,J3,J4,J5,J6|pos|0.000013,-0.000013,-0.000075,-0.000013,-0.000021,0.000000|vel|0.000000,-0.000000,0.000000,0.000000,0.000000,0.000000|eff|0.000000,193.359375,-370.605469,128.906250,56.396484,0.000000
cobot_dynamixel_driver/joint_states|name|J1,J2,J3,J4,J5,J6|pos|0.000013,-0.000013,-0.000063,-0.000013,-0.000021,0.000000|vel|0.000000,-0.000000,0.000000,0.000000,0.000000,0.000000|eff|0.000000,225.585938,-435.058594,112.792969,56.396484,0.000000
cobot_dynamixel_driver/joint_states|name|J1,J2,J3,J4,J5,J6|pos|0.000013,-0.000013,-0.000063,-0.000013,-0.000021,0.000000|vel|0.000000,-0.000000,0.000000,0.000000,0.000000,0.000000|eff|-48.339844,225.585938,-418.945312,161.132812,56.396484,0.000000
cobot_dynamixel_driver/joint_states|name|J1,J2,J3,J4,J5,J6|pos|0.000013,-0.000013,-0.000063,-0.000013,-0.000021,0.000000|vel|0.000000,-0.000000,0.000000,0.000000,0.000000,0.000000|eff|-48.339844,193.359375,-418.945312,128.906250,56.396484,0.000000
cobot_dynamixel_driver/joint_states|name|J1,J2,J3,J4,J5,J6|pos|0.000013,-0.000013,-0.000063,-0.000013,-0.000021,0.000000|vel|0.000000,-0.000000,0.000000,0.000000,0.000000,0.000000|eff|-80.566406,370.605469,-402.832031,209.472656,56.396484,0.000000
cobot_dynamixel_driver/joint_states|name|J1,J2,J3,J4,J5,J6|pos|0.000013,-0.000013,-0.000063,-0.000013,-0.000021,0.000000|vel|0.000000,-0.000000,0.000000,0.000000,0.000000,0.000000|eff|0.000000,370.605469,-418.945312,145.019531,56.396484,0.000000
