surachairobotic/cobot/cobot_dynamixel_driver/log/2018-12-19T09:06:50.134576_driver_log.txt
cobot_dynamixel_driver/joint_states|name|J1,J2,J3,J4,J5,J6|pos|-0.005220,-1.268785,1.296375,0.001014,-1.249376,-0.000083|vel|0.000000,-0.000000,0.000000,0.000000,0.000000,0.000000|eff|0.000000,0.000000,-32.226562,0.000000,0.000000,0.000000
cobot_dynamixel_driver/joint_states|name|J1,J2,J3,J4,J5,J6|pos|-0.005220,-1.268785,1.296375,0.001014,-1.249376,-0.000083|vel|0.000000,-0.000000,0.000000,0.000000,0.000000,0.000000|eff|0.000000,0.000000,-32.226562,0.000000,0.000000,0.000000
cobot_dynamixel_driver/joint_states|name|J1,J2,J3,J4,J5,J6|pos|-0.005220,-1.268785,1.296375,0.001014,-1.249376,-0.000083|vel|0.000000,-0.000000,0.000000,0.000000,0.000000,0.000000|eff|0.000000,0.000000,-32.226562,0.000000,0.000000,0.000000
cobot_dynamixel_driver/joint_states|name|J1,J2,J3,J4,J5,J6|pos|-0.005220,-1.268785,1.296375,0.001014,-1.249376,-0.000083|vel|0.000000,-0.000000,0.000000,0.000000,0.000000,0.000000|eff|0.000000,0.000000,-32.226562,0.000000,0.000000,0.000000
cobot_dynamixel_driver/joint_states|name|J1,J2,J3,J4,J5,J6|pos|-0.005220,-1.268785,1.296375,0.001014,-1.249376,-0.000083|vel|0.000000,-0.000000,0.000000,0.000000,0.000000,0.000000|eff|0.000000,0.000000,-32.226562,0.000000,0.000000,0.000000
cobot_dynamixel_driver/joint_states|name|J1,J2,J3,J4,J5,J6|pos|-0.005220,-1.268785,1.296375,0.001014,-1.249376,-0.000083|vel|0.000000,-0.000000,0.000000,0.000000,0.000000,0.000000|eff|0.000000,0.000000,-32.226562,0.000000,0.000000,0.000000
cobot_dynamixel_driver/joint_states|name|J1,J2,J3,J4,J5,J6|pos|-0.005220,-1.268785,1.296375,0.001014,-1.249376,-0.000083|vel|0.000000,-0.000000,0.000000,0.000000,0.000000,0.000000|eff|0.000000,0.000000,-32.226562,0.000000,0.000000,0.000000
cobot_dynamixel_driver/joint_states|name|J1,J2,J3,J4,J5,J6|pos|-0.005220,-1.268785,1.296375,0.001014,-1.249376,-0.000083|vel|0.000000,-0.000000,0.000000,0.000000,0.000000,0.000000|eff|0.000000,0.000000,0.000000,0.000000,0.000000,0.000000
cobot_dynamixel_driver/joint_states|name|J1,J2,J3,J4,J5,J6|pos|-0.005220,-1.268785,1.296375,0.001014,-1.249376,-0.000083|vel|0.000000,-0.000000,0.000000,0.000000,0.000000,0.000000|eff|0.000000,0.000000,-32.226562,0.000000,0.000000,0.000000
cobot_dynamixel_driver/joint_states|name|J1,J2,J3,J4,J5,J6|pos|-0.005220,-1.268785,1.296375,0.001014,-1.249376,-0.000083|vel|0.000000,-0.000000,0.000000,0.000000,0.000000,0.000000|eff|0.000000,0.000000,-32.226562,0.000000,0.000000,0.000000
cobot_dynamixel_driver/joint_states|name|J1,J2,J3,J4,J5,J6|pos|-0.005220,-1.268785,1.296375,0.001014,-1.249376,-0.000083|vel|0.000000,-0.000000,0.000000,0.000000,0.000000,0.000000|eff|0.000000,0.000000,-32.226562,0.000000,0.000000,0.000000
cobot_dynamixel_driver/joint_states|name|J1,J2,J3,J4,J5,J6|pos|-0.005220,-1.268785,1.296375,0.001014,-1.249376,-0.000083|vel|0.000000,-0.000000,0.000000,0.000000,0.000000,0.000000|eff|0.000000,0.000000,-32.226562,0.000000,0.000000,0.000000
cobot_dynamixel_driver/joint_states|name|J1,J2,J3,J4,J5,J6|pos|-0.005220,-1.268785,1.296375,0.001014,-1.249376,-0.000083|vel|0.000000,-0.000000,0.000000,0.000000,0.000000,0.000000|eff|0.000000,0.000000,-32.226562,0.000000,0.000000,0.000000
cobot_dynamixel_driver/joint_states|name|J1,J2,J3,J4,J5,J6|pos|-0.005220,-1.268785,1.296375,0.001014,-1.249376,-0.000083|vel|0.000000,-0.000000,0.000000,0.000000,0.000000,0.000000|eff|0.000000,0.000000,-32.226562,0.000000,0.000000,0.000000
cobot_dynamixel_driver/joint_states|name|J1,J2,J3,J4,J5,J6|pos|-0.005220,-1.268785,1.296375,0.001014,-1.249376,-0.000083|vel|0.000000,-0.000000,0.000000,0.000000,0.000000,0.000000|eff|0.000000,0.000000,-32.226562,0.000000,0.000000,0.000000
cobot_dynamixel_driver/joint_states|name|J1,J2,J3,J4,J5,J6|pos|-0.005220,-1.268785,1.296375,0.001014,-1.249376,-0.000083|vel|0.000000,-0.000000,0.000000,0.000000,0.000000,0.000000|eff|0.000000,0.000000,-32.226562,0.000000,0.000000,0.000000
cobot_dynamixel_driver/joint_states|name|J1,J2,J3,J4,J5,J6|pos|-0.005220,-1.268785,1.296375,0.001014,-1.249376,-0.000083|vel|0.000000,-0.000000,0.000000,0.000000,0.000000,0.000000|eff|0.000000,0.000000,-32.226562,0.000000,0.000000,0.000000
cobot_dynamixel_driver/joint_states|name|J1,J2,J3,J4,J5,J6|pos|-0.005220,-1.268785,1.296375,0.001014,-1.249376,-0.000083|vel|0.000000,-0.000000,0.000000,0.000000,0.000000,0.000000|eff|0.000000,0.000000,-32.226562,0.000000,0.000000,0.000000
cobot_dynamixel_driver/joint_states|name|J1,J2,J3,J4,J5,J6|pos|-0.005220,-1.268785,1.296375,0.001014,-1.249376,-0.000083|vel|0.000000,-0.000000,0.000000,0.000000,0.000000,0.000000|eff|0.000000,0.000000,-32.226562,0.000000,0.000000,0.000000
cobot_dynamixel_driver/joint_states|name|J1,J2,J3,J4,J5,J6|pos|-0.005220,-1.268785,1.296375,0.001014,-1.249376,-0.000083|vel|0.000000,-0.000000,0.000000,0.000000,0.000000,0.000000|eff|0.000000,0.000000,-32.226562,0.000000,0.000000,0.000000
cobot_dynamixel_driver/joint_states|name|J1,J2,J3,J4,J5,J6|pos|-0.005220,-1.268785,1.296375,0.001014,-1.249376,-0.000083|vel|0.000000,-0.000000,0.000000,0.000000,0.000000,0.000000|eff|0.000000,0.000000,-32.226562,0.000000,0.000000,0.000000
cobot_dynamixel_driver/joint_states|name|J1,J2,J3,J4,J5,J6|pos|-0.005220,-1.268785,1.296375,0.001014,-1.249376,-0.000083|vel|0.000000,-0.000000,0.000000,0.000000,0.000000,0.000000|eff|0.000000,0.000000,-32.226562,0.000000,0.000000,0.000000
cobot_dynamixel_driver/joint_states|name|J1,J2,J3,J4,J5,J6|pos|-0.005220,-1.268785,1.296375,0.001014,-1.249376,-0.000083|vel|0.000000,-0.000000,0.000000,0.000000,0.000000,0.000000|eff|0.000000,0.000000,-32.226562,0.000000,0.000000,0.000000
cobot_dynamixel_driver/joint_states|name|J1,J2,J3,J4,J5,J6|pos|-0.005220,-1.268785,1.296375,0.001014,-1.249376,-0.000083|vel|0.000000,-0.000000,0.000000,0.000000,0.000000,0.000000|eff|0.000000,0.000000,-32.226562,0.000000,0.000000,0.000000
cobot_dynamixel_driver/joint_states|name|J1,J2,J3,J4,J5,J6|pos|-0.005220,-1.268785,1.296375,0.001014,-1.249376,-0.000083|vel|0.000000,-0.000000,0.000000,0.000000,0.000000,0.000000|eff|0.000000,0.000000,-32.226562,0.000000,0.000000,0.000000
cobot_dynamixel_driver/joint_states|name|J1,J2,J3,J4,J5,J6|pos|-0.005220,-1.268785,1.296375,0.001014,-1.249376,-0.000083|vel|0.000000,-0.000000,0.000000,0.000000,0.000000,0.000000|eff|0.000000,0.000000,-32.226562,0.000000,0.000000,0.000000
cobot_dynamixel_driver/joint_states|name|J1,J2,J3,J4,J5,J6|pos|-0.005220,-1.268785,1.296375,0.001014,-1.249376,-0.000083|vel|0.000000,-0.000000,0.000000,0.000000,0.000000,0.000000|eff|0.000000,0.000000,-32.226562,0.000000,0.000000,0.000000
cobot_dynamixel_driver/joint_states|name|J1,J2,J3,J4,J5,J6|pos|-0.005220,-1.268785,1.296375,0.001014,-1.249376,-0.000083|vel|0.000000,-0.000000,0.000000,0.000000,0.000000,0.000000|eff|0.000000,0.000000,-32.226562,0.000000,0.000000,0.000000
cobot_dynamixel_driver/joint_states|name|J1,J2,J3,J4,J5,J6|pos|-0.005220,-1.268785,1.296375,0.001014,-1.249376,-0.000083|vel|0.000000,-0.000000,0.000000,0.000000,0.000000,0.000000|eff|0.000000,0.000000,-32.226562,0.000000,0.000000,0.000000
cobot_dynamixel_driver/joint_states|name|J1,J2,J3,J4,J5,J6|pos|-0.005220,-1.268785,1.296375,0.001014,-1.249376,-0.000083|vel|0.000000,-0.000000,0.000000,0.000000,0.000000,0.000000|eff|0.000000,0.000000,-32.226562,0.000000,0.000000,0.000000
cobot_dynamixel_driver/joint_states|name|J1,J2,J3,J4,J5,J6|pos|-0.005220,-1.268785,1.296375,0.001014,-1.249376,-0.000083|vel|0.000000,-0.000000,0.000000,0.000000,0.000000,0.000000|eff|0.000000,0.000000,-32.226562,0.000000,0.000000,0.000000
cobot_dynamixel_driver/joint_states|name|J1,J2,J3,J4,J5,J6|pos|-0.005220,-1.268785,1.296375,0.001014,-1.249376,-0.000083|vel|0.000000,-0.000000,0.000000,0.000000,0.000000,0.000000|eff|0.000000,0.000000,-32.226562,0.000000,0.000000,0.000000
cobot_dynamixel_driver/joint_states|name|J1,J2,J3,J4,J5,J6|pos|-0.005220,-1.268785,1.296375,0.001014,-1.249376,-0.000083|vel|0.000000,-0.000000,0.000000,0.000000,0.000000,0.000000|eff|0.000000,0.000000,-32.226562,0.000000,0.000000,0.000000
cobot_dynamixel_driver/joint_states|name|J1,J2,J3,J4,J5,J6|pos|-0.005220,-1.268785,1.296375,0.001014,-1.249376,-0.000083|vel|0.000000,-0.000000,0.000000,0.000000,0.000000,0.000000|eff|0.000000,0.000000,-32.226562,0.000000,0.000000,0.000000
cobot_dynamixel_driver/joint_states|name|J1,J2,J3,J4,J5,J6|pos|-0.005220,-1.268785,1.296375,0.001014,-1.249376,-0.000083|vel|0.000000,-0.000000,0.000000,0.000000,0.000000,0.000000|eff|0.000000,0.000000,-32.226562,0.000000,0.000000,0.000000
cobot_dynamixel_driver/joint_states|name|J1,J2,J3,J4,J5,J6|pos|-0.005220,-1.268785,1.296375,0.001014,-1.249376,-0.000083|vel|0.000000,-0.000000,0.000000,0.000000,0.000000,0.000000|eff|0.000000,0.000000,-32.226562,0.000000,0.000000,0.000000
cobot_dynamixel_driver/joint_states|name|J1,J2,J3,J4,J5,J6|pos|-0.005220,-1.268785,1.296375,0.001014,-1.249376,-0.000083|vel|0.000000,-0.000000,0.000000,0.000000,0.000000,0.000000|eff|0.000000,0.000000,-32.226562,0.000000,0.000000,0.000000
cobot_dynamixel_driver/joint_states|name|J1,J2,J3,J4,J5,J6|pos|-0.005220,-1.268785,1.296375,0.001014,-1.249376,-0.000083|vel|0.000000,-0.000000,0.000000,0.000000,0.000000,0.000000|eff|0.000000,0.000000,-32.226562,0.000000,0.000000,0.000000
cobot_dynamixel_driver/joint_states|name|J1,J2,J3,J4,J5,J6|pos|-0.005220,-1.268785,1.296375,0.001014,-1.249376,-0.000083|vel|0.000000,-0.000000,0.000000,0.000000,0.000000,0.000000|eff|0.000000,0.000000,-32.226562,0.000000,0.000000,0.000000
cobot_dynamixel_driver/joint_states|name|J1,J2,J3,J4,J5,J6|pos|-0.005220,-1.268785,1.296375,0.001014,-1.249376,-0.000083|vel|0.000000,-0.000000,0.000000,0.000000,0.000000,0.000000|eff|0.000000,0.000000,-32.226562,0.000000,0.000000,0.000000
cobot_dynamixel_driver/joint_states|name|J1,J2,J3,J4,J5,J6|pos|-0.005220,-1.268785,1.296375,0.001014,-1.249376,-0.000083|vel|0.000000,-0.000000,0.000000,0.000000,0.000000,0.000000|eff|0.000000,0.000000,-32.226562,0.000000,0.000000,0.000000
cobot_dynamixel_driver/joint_states|name|J1,J2,J3,J4,J5,J6|pos|-0.005220,-1.268785,1.296375,0.001014,-1.249376,-0.000083|vel|0.000000,-0.000000,0.000000,0.000000,0.000000,0.000000|eff|0.000000,0.000000,-32.226562,0.000000,0.000000,0.000000
cobot_dynamixel_driver/joint_states|name|J1,J2,J3,J4,J5,J6|pos|-0.005220,-1.268785,1.296375,0.001014,-1.249376,-0.000083|vel|0.000000,-0.000000,0.000000,0.000000,0.000000,0.000000|eff|0.000000,0.000000,-32.226562,0.000000,0.000000,0.000000
cobot_dynamixel_driver/joint_states|name|J1,J2,J3,J4,J5,J6|pos|-0.005220,-1.268785,1.296375,0.001014,-1.249376,-0.000083|vel|0.000000,-0.000000,0.000000,0.000000,0.000000,0.000000|eff|0.000000,0.000000,-32.226562,0.000000,0.000000,0.000000
cobot_dynamixel_driver/joint_states|name|J1,J2,J3,J4,J5,J6|pos|-0.005220,-1.268785,1.296375,0.001014,-1.249376,-0.000083|vel|0.000000,-0.000000,0.000000,0.000000,0.000000,0.000000|eff|0.000000,0.000000,-32.226562,0.000000,0.000000,0.000000
cobot_dynamixel_driver/joint_states|name|J1,J2,J3,J4,J5,J6|pos|-0.005220,-1.268785,1.296375,0.001014,-1.249376,-0.000083|vel|0.000000,-0.000000,0.000000,0.000000,0.000000,0.000000|eff|0.000000,0.000000,-32.226562,0.000000,0.000000,0.000000
cobot_dynamixel_driver/joint_states|name|J1,J2,J3,J4,J5,J6|pos|-0.005220,-1.268785,1.296375,0.001014,-1.249376,-0.000083|vel|0.000000,-0.000000,0.000000,0.000000,0.000000,0.000000|eff|0.000000,0.000000,-32.226562,0.000000,0.000000,0.000000
cobot_dynamixel_driver/joint_states|name|J1,J2,J3,J4,J5,J6|pos|-0.005220,-1.268785,1.296375,0.001014,-1.249376,-0.000083|vel|0.000000,-0.000000,0.000000,0.000000,0.000000,0.000000|eff|0.000000,0.000000,-32.226562,0.000000,0.000000,0.000000
cobot_dynamixel_driver/joint_states|name|J1,J2,J3,J4,J5,J6|pos|-0.005220,-1.268785,1.296375,0.001014,-1.249376,-0.000083|vel|0.000000,-0.000000,0.000000,0.000000,0.000000,0.000000|eff|0.000000,0.000000,-32.226562,0.000000,0.000000,0.000000
cobot_dynamixel_driver/joint_states|name|J1,J2,J3,J4,J5,J6|pos|-0.005220,-1.268785,1.296375,0.001014,-1.249376,-0.000083|vel|0.000000,-0.000000,0.000000,0.000000,0.000000,0.000000|eff|0.000000,0.000000,-32.226562,0.000000,0.000000,0.000000
cobot_dynamixel_driver/joint_states|name|J1,J2,J3,J4,J5,J6|pos|-0.005220,-1.268785,1.296375,0.001014,-1.249376,-0.000083|vel|0.000000,-0.000000,0.000000,0.000000,0.000000,0.000000|eff|0.000000,0.000000,-32.226562,0.000000,0.000000,0.000000
cobot_dynamixel_driver/joint_states|name|J1,J2,J3,J4,J5,J6|pos|-0.005220,-1.268785,1.296375,0.001014,-1.249376,-0.000083|vel|0.000000,-0.000000,0.000000,0.000000,0.000000,0.000000|eff|0.000000,0.000000,-32.226562,0.000000,0.000000,0.000000
cobot_dynamixel_driver/joint_states|name|J1,J2,J3,J4,J5,J6|pos|-0.005220,-1.268785,1.296375,0.001014,-1.249376,-0.000083|vel|0.000000,-0.000000,0.000000,0.000000,0.000000,0.000000|eff|0.000000,0.000000,-32.226562,0.000000,0.000000,0.000000
cobot_dynamixel_driver/joint_states|name|J1,J2,J3,J4,J5,J6|pos|-0.005220,-1.268785,1.296375,0.001014,-1.249376,-0.000083|vel|0.000000,-0.000000,0.000000,0.000000,0.000000,0.000000|eff|0.000000,0.000000,-32.226562,0.000000,0.000000,0.000000
cobot_dynamixel_driver/joint_states|name|J1,J2,J3,J4,J5,J6|pos|-0.005220,-1.268785,1.296375,0.001014,-1.249376,-0.000083|vel|0.000000,-0.000000,0.000000,0.000000,0.000000,0.000000|eff|0.000000,0.000000,-32.226562,0.000000,0.000000,0.000000
cobot_dynamixel_driver/joint_states|name|J1,J2,J3,J4,J5,J6|pos|-0.005220,-1.268785,1.296375,0.001014,-1.249376,-0.000083|vel|0.000000,-0.000000,0.000000,0.000000,0.000000,0.000000|eff|0.000000,0.000000,-32.226562,0.000000,0.000000,0.000000
cobot_dynamixel_driver/joint_states|name|J1,J2,J3,J4,J5,J6|pos|-0.005220,-1.268785,1.296375,0.001014,-1.249376,-0.000083|vel|0.000000,-0.000000,0.000000,0.000000,0.000000,0.000000|eff|0.000000,0.000000,-32.226562,0.000000,0.000000,0.000000
cobot_dynamixel_driver/joint_states|name|J1,J2,J3,J4,J5,J6|pos|-0.005220,-1.268785,1.296375,0.001014,-1.249376,-0.000083|vel|0.000000,-0.000000,0.000000,0.000000,0.000000,0.000000|eff|0.000000,0.000000,-32.226562,0.000000,0.000000,0.000000
cobot_dynamixel_driver/joint_states|name|J1,J2,J3,J4,J5,J6|pos|-0.005220,-1.268785,1.296375,0.001014,-1.249376,-0.000083|vel|0.000000,-0.000000,0.000000,0.000000,0.000000,0.000000|eff|0.000000,0.000000,-32.226562,0.000000,0.000000,0.000000
cobot_dynamixel_driver/joint_states|name|J1,J2,J3,J4,J5,J6|pos|-0.005220,-1.268785,1.296375,0.001014,-1.249376,-0.000083|vel|0.000000,-0.000000,0.000000,0.000000,0.000000,0.000000|eff|0.000000,0.000000,-32.226562,0.000000,0.000000,0.000000
cobot_dynamixel_driver/joint_states|name|J1,J2,J3,J4,J5,J6|pos|-0.005220,-1.268785,1.296375,0.001014,-1.249376,-0.000083|vel|0.000000,-0.000000,0.000000,0.000000,0.000000,0.000000|eff|0.000000,0.000000,-32.226562,0.000000,0.000000,0.000000
cobot_dynamixel_driver/joint_states|name|J1,J2,J3,J4,J5,J6|pos|-0.005220,-1.268785,1.296375,0.001014,-1.249376,-0.000083|vel|0.000000,-0.000000,0.000000,0.000000,0.000000,0.000000|eff|0.000000,0.000000,-32.226562,0.000000,0.000000,0.000000
cobot_dynamixel_driver/joint_states|name|J1,J2,J3,J4,J5,J6|pos|-0.005220,-1.268785,1.296375,0.001014,-1.249376,-0.000083|vel|0.000000,-0.000000,0.000000,0.000000,0.000000,0.000000|eff|0.000000,0.000000,-32.226562,0.000000,0.000000,0.000000
cobot_dynamixel_driver/joint_states|name|J1,J2,J3,J4,J5,J6|pos|-0.005220,-1.268785,1.296375,0.001014,-1.249376,-0.000083|vel|0.000000,-0.000000,0.000000,0.000000,0.000000,0.000000|eff|0.000000,0.000000,-32.226562,0.000000,0.000000,0.000000
cobot_dynamixel_driver/joint_states|name|J1,J2,J3,J4,J5,J6|pos|-0.005220,-1.268785,1.296375,0.001014,-1.249376,-0.000083|vel|0.000000,-0.000000,0.000000,0.000000,0.000000,0.000000|eff|0.000000,0.000000,-32.226562,0.000000,0.000000,0.000000
cobot_dynamixel_driver/joint_states|name|J1,J2,J3,J4,J5,J6|pos|-0.005220,-1.268785,1.296375,0.001014,-1.249376,-0.000083|vel|0.000000,-0.000000,0.000000,0.000000,0.000000,0.000000|eff|0.000000,0.000000,-32.226562,0.000000,0.000000,0.000000
cobot_dynamixel_driver/joint_states|name|J1,J2,J3,J4,J5,J6|pos|-0.005220,-1.268785,1.296375,0.001014,-1.249376,-0.000083|vel|0.000000,-0.000000,0.000000,0.000000,0.000000,0.000000|eff|0.000000,0.000000,-32.226562,0.000000,0.000000,0.000000
cobot_dynamixel_driver/joint_states|name|J1,J2,J3,J4,J5,J6|pos|-0.005220,-1.268785,1.296375,0.001014,-1.249376,-0.000083|vel|0.000000,-0.000000,0.000000,0.000000,0.000000,0.000000|eff|0.000000,0.000000,-32.226562,0.000000,0.000000,0.000000
cobot_dynamixel_driver/joint_states|name|J1,J2,J3,J4,J5,J6|pos|-0.005220,-1.268785,1.296375,0.001014,-1.249376,-0.000083|vel|0.000000,-0.000000,0.000000,0.000000,0.000000,0.000000|eff|0.000000,0.000000,-32.226562,0.000000,0.000000,0.000000
cobot_dynamixel_driver/joint_states|name|J1,J2,J3,J4,J5,J6|pos|-0.005220,-1.268785,1.296375,0.001014,-1.249376,-0.000083|vel|0.000000,-0.000000,0.000000,0.000000,0.000000,0.000000|eff|0.000000,0.000000,-32.226562,0.000000,0.000000,0.000000
cobot_dynamixel_driver/joint_states|name|J1,J2,J3,J4,J5,J6|pos|-0.005220,-1.268785,1.296375,0.001014,-1.249376,-0.000083|vel|0.000000,-0.000000,0.000000,0.000000,0.000000,0.000000|eff|0.000000,0.000000,-32.226562,0.000000,0.000000,0.000000
cobot_dynamixel_driver/joint_states|name|J1,J2,J3,J4,J5,J6|pos|-0.005220,-1.268785,1.296375,0.001014,-1.249376,-0.000083|vel|0.000000,-0.000000,0.000000,0.000000,0.000000,0.000000|eff|0.000000,0.000000,-32.226562,0.000000,0.000000,0.000000
cobot_dynamixel_driver/joint_states|name|J1,J2,J3,J4,J5,J6|pos|-0.005220,-1.268785,1.296375,0.001014,-1.249376,-0.000083|vel|0.000000,-0.000000,0.000000,0.000000,0.000000,0.000000|eff|0.000000,0.000000,-32.226562,0.000000,0.000000,0.000000
cobot_dynamixel_driver/joint_states|name|J1,J2,J3,J4,J5,J6|pos|-0.005220,-1.268785,1.296375,0.001014,-1.249376,-0.000083|vel|0.000000,-0.000000,0.000000,0.000000,0.000000,0.000000|eff|0.000000,0.000000,-32.226562,0.000000,0.000000,0.000000
cobot_dynamixel_driver/joint_states|name|J1,J2,J3,J4,J5,J6|pos|-0.005220,-1.268785,1.296375,0.001014,-1.249376,-0.000083|vel|0.000000,-0.000000,0.000000,0.000000,0.000000,0.000000|eff|0.000000,0.000000,-32.226562,0.000000,0.000000,0.000000
cobot_dynamixel_driver/joint_states|name|J1,J2,J3,J4,J5,J6|pos|-0.005220,-1.268785,1.296375,0.001014,-1.249376,-0.000083|vel|0.000000,-0.000000,0.000000,0.000000,0.000000,0.000000|eff|0.000000,0.000000,-32.226562,0.000000,0.000000,0.000000
cobot_dynamixel_driver/joint_states|name|J1,J2,J3,J4,J5,J6|pos|-0.005220,-1.268785,1.296375,0.001014,-1.249376,-0.000083|vel|0.000000,-0.000000,0.000000,0.000000,0.000000,0.000000|eff|0.000000,0.000000,-32.226562,0.000000,0.000000,0.000000
cobot_dynamixel_driver/joint_states|name|J1,J2,J3,J4,J5,J6|pos|-0.005220,-1.268785,1.296375,0.001014,-1.249376,-0.000083|vel|0.000000,-0.000000,0.000000,0.000000,0.000000,0.000000|eff|0.000000,0.000000,-32.226562,0.000000,0.000000,0.000000
cobot_dynamixel_driver/joint_states|name|J1,J2,J3,J4,J5,J6|pos|-0.005220,-1.268785,1.296375,0.001014,-1.249376,-0.000083|vel|0.000000,-0.000000,0.000000,0.000000,0.000000,0.000000|eff|0.000000,0.000000,-32.226562,0.000000,0.000000,0.000000
cobot_dynamixel_driver/joint_states|name|J1,J2,J3,J4,J5,J6|pos|-0.005220,-1.268785,1.296375,0.001014,-1.249376,-0.000083|vel|0.000000,-0.000000,0.000000,0.000000,0.000000,0.000000|eff|0.000000,0.000000,-32.226562,0.000000,0.000000,0.000000
cobot_dynamixel_driver/joint_states|name|J1,J2,J3,J4,J5,J6|pos|-0.005220,-1.268785,1.296375,0.001014,-1.249376,-0.000083|vel|0.000000,-0.000000,0.000000,0.000000,0.000000,0.000000|eff|0.000000,0.000000,-32.226562,0.000000,0.000000,0.000000
cobot_dynamixel_driver/joint_states|name|J1,J2,J3,J4,J5,J6|pos|-0.005220,-1.268785,1.296375,0.001014,-1.249376,-0.000083|vel|0.000000,-0.000000,0.000000,0.000000,0.000000,0.000000|eff|0.000000,0.000000,-32.226562,0.000000,0.000000,0.000000
cobot_dynamixel_driver/joint_states|name|J1,J2,J3,J4,J5,J6|pos|-0.005220,-1.268785,1.296375,0.001014,-1.249376,-0.000083|vel|0.000000,-0.000000,0.000000,0.000000,0.000000,0.000000|eff|0.000000,0.000000,-32.226562,0.000000,0.000000,0.000000
cobot_dynamixel_driver/joint_states|name|J1,J2,J3,J4,J5,J6|pos|-0.005220,-1.268785,1.296375,0.001014,-1.249376,-0.000083|vel|0.000000,-0.000000,0.000000,0.000000,0.000000,0.000000|eff|0.000000,0.000000,-32.226562,0.000000,0.000000,0.000000
cobot_dynamixel_driver/joint_states|name|J1,J2,J3,J4,J5,J6|pos|-0.005220,-1.268785,1.296375,0.001014,-1.249376,-0.000083|vel|0.000000,-0.000000,0.000000,0.000000,0.000000,0.000000|eff|0.000000,0.000000,-32.226562,0.000000,0.000000,0.000000
cobot_dynamixel_driver/joint_states|name|J1,J2,J3,J4,J5,J6|pos|-0.005220,-1.268785,1.296375,0.001014,-1.249376,-0.000083|vel|0.000000,-0.000000,0.000000,0.000000,0.000000,0.000000|eff|0.000000,0.000000,-32.226562,0.000000,0.000000,0.000000
cobot_dynamixel_driver/joint_states|name|J1,J2,J3,J4,J5,J6|pos|-0.005220,-1.268785,1.296375,0.001014,-1.249376,-0.000083|vel|0.000000,-0.000000,0.000000,0.000000,0.000000,0.000000|eff|0.000000,0.000000,-32.226562,0.000000,0.000000,0.000000
cobot_dynamixel_driver/joint_states|name|J1,J2,J3,J4,J5,J6|pos|-0.005220,-1.268785,1.296375,0.001014,-1.249376,-0.000083|vel|0.000000,-0.000000,0.000000,0.000000,0.000000,0.000000|eff|0.000000,0.000000,-32.226562,0.000000,0.000000,0.000000
cobot_dynamixel_driver/joint_states|name|J1,J2,J3,J4,J5,J6|pos|-0.005220,-1.268785,1.296375,0.001014,-1.249376,-0.000083|vel|0.000000,-0.000000,0.000000,0.000000,0.000000,0.000000|eff|0.000000,0.000000,-32.226562,0.000000,0.000000,0.000000
cobot_dynamixel_driver/joint_states|name|J1,J2,J3,J4,J5,J6|pos|-0.005220,-1.268785,1.296375,0.001014,-1.249376,-0.000083|vel|0.000000,-0.000000,0.000000,0.000000,0.000000,0.000000|eff|0.000000,0.000000,-32.226562,0.000000,0.000000,0.000000
cobot_dynamixel_driver/joint_states|name|J1,J2,J3,J4,J5,J6|pos|-0.005220,-1.268785,1.296375,0.001014,-1.249376,-0.000083|vel|0.000000,-0.000000,0.000000,0.000000,0.000000,0.000000|eff|0.000000,0.000000,-32.226562,0.000000,0.000000,0.000000
cobot_dynamixel_driver/joint_states|name|J1,J2,J3,J4,J5,J6|pos|-0.005220,-1.268785,1.296375,0.001014,-1.249376,-0.000083|vel|0.000000,-0.000000,0.000000,0.000000,0.000000,0.000000|eff|0.000000,0.000000,-32.226562,0.000000,0.000000,0.000000
cobot_dynamixel_driver/joint_states|name|J1,J2,J3,J4,J5,J6|pos|-0.005220,-1.268785,1.296375,0.001014,-1.249376,-0.000083|vel|0.000000,-0.000000,0.000000,0.000000,0.000000,0.000000|eff|0.000000,0.000000,-32.226562,0.000000,0.000000,0.000000
cobot_dynamixel_driver/joint_states|name|J1,J2,J3,J4,J5,J6|pos|-0.005220,-1.268785,1.296375,0.001014,-1.249376,-0.000083|vel|0.000000,-0.000000,0.000000,0.000000,0.000000,0.000000|eff|0.000000,0.000000,-32.226562,0.000000,0.000000,0.000000
cobot_dynamixel_driver/joint_states|name|J1,J2,J3,J4,J5,J6|pos|-0.005220,-1.268785,1.296375,0.001014,-1.249376,-0.000083|vel|0.000000,-0.000000,0.000000,0.000000,0.000000,0.000000|eff|0.000000,0.000000,-32.226562,0.000000,0.000000,0.000000
cobot_dynamixel_driver/joint_states|name|J1,J2,J3,J4,J5,J6|pos|-0.005220,-1.268785,1.296375,0.001014,-1.249376,-0.000083|vel|0.000000,-0.000000,0.000000,0.000000,0.000000,0.000000|eff|0.000000,0.000000,-32.226562,0.000000,0.000000,0.000000
cobot_dynamixel_driver/joint_states|name|J1,J2,J3,J4,J5,J6|pos|-0.005220,-1.268785,1.296375,0.001014,-1.249376,-0.000083|vel|0.000000,-0.000000,0.000000,0.000000,0.000000,0.000000|eff|0.000000,0.000000,-32.226562,0.000000,0.000000,0.000000
cobot_dynamixel_driver/joint_states|name|J1,J2,J3,J4,J5,J6|pos|-0.005220,-1.268785,1.296375,0.001014,-1.249376,-0.000083|vel|0.000000,-0.000000,0.000000,0.000000,0.000000,0.000000|eff|0.000000,0.000000,-32.226562,0.000000,0.000000,0.000000
cobot_dynamixel_driver/joint_states|name|J1,J2,J3,J4,J5,J6|pos|-0.005220,-1.268785,1.296375,0.001014,-1.249376,-0.000083|vel|0.000000,-0.000000,0.000000,0.000000,0.000000,0.000000|eff|0.000000,0.000000,-32.226562,0.000000,0.000000,0.000000
cobot_dynamixel_driver/joint_states|name|J1,J2,J3,J4,J5,J6|pos|-0.005220,-1.268785,1.296375,0.001014,-1.249376,-0.000083|vel|0.000000,-0.000000,0.000000,0.000000,0.000000,0.000000|eff|0.000000,0.000000,-32.226562,0.000000,0.000000,0.000000
cobot_dynamixel_driver/joint_states|name|J1,J2,J3,J4,J5,J6|pos|-0.005220,-1.268785,1.296375,0.001014,-1.249376,-0.000083|vel|0.000000,-0.000000,0.000000,0.000000,0.000000,0.000000|eff|0.000000,0.000000,-32.226562,0.000000,0.000000,0.000000
cobot_dynamixel_driver/joint_states|name|J1,J2,J3,J4,J5,J6|pos|-0.005220,-1.268785,1.296375,0.001014,-1.249376,-0.000083|vel|0.000000,-0.000000,0.000000,0.000000,0.000000,0.000000|eff|0.000000,0.000000,-32.226562,0.000000,0.000000,0.000000
cobot_dynamixel_driver/joint_states|name|J1,J2,J3,J4,J5,J6|pos|-0.005220,-1.268785,1.296375,0.001014,-1.249376,-0.000083|vel|0.000000,-0.000000,0.000000,0.000000,0.000000,0.000000|eff|0.000000,0.000000,-32.226562,0.000000,0.000000,0.000000
cobot_dynamixel_driver/joint_states|name|J1,J2,J3,J4,J5,J6|pos|-0.005220,-1.268785,1.296375,0.001014,-1.249376,-0.000083|vel|0.000000,-0.000000,0.000000,0.000000,0.000000,0.000000|eff|0.000000,0.000000,-32.226562,0.000000,0.000000,0.000000
cobot_dynamixel_driver/joint_states|name|J1,J2,J3,J4,J5,J6|pos|-0.005220,-1.268785,1.296375,0.001014,-1.249376,-0.000083|vel|0.000000,-0.000000,0.000000,0.000000,0.000000,0.000000|eff|0.000000,0.000000,-32.226562,0.000000,0.000000,0.000000
cobot_dynamixel_driver/joint_states|name|J1,J2,J3,J4,J5,J6|pos|-0.005220,-1.268785,1.296375,0.001014,-1.249376,-0.000083|vel|0.000000,-0.000000,0.000000,0.000000,0.000000,0.000000|eff|0.000000,0.000000,-32.226562,0.000000,0.000000,0.000000
cobot_dynamixel_driver/joint_states|name|J1,J2,J3,J4,J5,J6|pos|-0.005220,-1.268785,1.296375,0.001014,-1.249376,-0.000083|vel|0.000000,-0.000000,0.000000,0.000000,0.000000,0.000000|eff|0.000000,0.000000,-32.226562,0.000000,0.000000,0.000000
cobot_dynamixel_driver/joint_states|name|J1,J2,J3,J4,J5,J6|pos|-0.005220,-1.268785,1.296375,0.001014,-1.249376,-0.000083|vel|0.000000,-0.000000,0.000000,0.000000,0.000000,0.000000|eff|0.000000,0.000000,-32.226562,0.000000,0.000000,0.000000
cobot_dynamixel_driver/joint_states|name|J1,J2,J3,J4,J5,J6|pos|-0.005220,-1.268785,1.296375,0.001014,-1.249376,-0.000083|vel|0.000000,-0.000000,0.000000,0.000000,0.000000,0.000000|eff|0.000000,0.000000,-32.226562,0.000000,0.000000,0.000000
cobot_dynamixel_driver/joint_states|name|J1,J2,J3,J4,J5,J6|pos|-0.005220,-1.268785,1.296375,0.001014,-1.249376,-0.000083|vel|0.000000,-0.000000,0.000000,0.000000,0.000000,0.000000|eff|0.000000,0.000000,-32.226562,0.000000,0.000000,0.000000
cobot_dynamixel_driver/joint_states|name|J1,J2,J3,J4,J5,J6|pos|-0.005220,-1.268785,1.296375,0.001014,-1.249376,-0.000083|vel|0.000000,-0.000000,0.000000,0.000000,0.000000,0.000000|eff|0.000000,0.000000,-32.226562,0.000000,0.000000,0.000000
cobot_dynamixel_driver/joint_states|name|J1,J2,J3,J4,J5,J6|pos|-0.005220,-1.268785,1.296375,0.001014,-1.249376,-0.000083|vel|0.000000,-0.000000,0.000000,0.000000,0.000000,0.000000|eff|0.000000,0.000000,-32.226562,0.000000,0.000000,0.000000
cobot_dynamixel_driver/joint_states|name|J1,J2,J3,J4,J5,J6|pos|-0.005220,-1.268785,1.296375,0.001014,-1.249376,-0.000083|vel|0.000000,-0.000000,0.000000,0.000000,0.000000,0.000000|eff|0.000000,0.000000,-32.226562,0.000000,0.000000,0.000000
cobot_dynamixel_driver/joint_states|name|J1,J2,J3,J4,J5,J6|pos|-0.005220,-1.268785,1.296375,0.001014,-1.249376,-0.000083|vel|0.000000,-0.000000,0.000000,0.000000,0.000000,0.000000|eff|0.000000,0.000000,-32.226562,0.000000,0.000000,0.000000
cobot_dynamixel_driver/joint_states|name|J1,J2,J3,J4,J5,J6|pos|-0.005220,-1.268785,1.296375,0.001014,-1.249376,-0.000083|vel|0.000000,-0.000000,0.000000,0.000000,0.000000,0.000000|eff|0.000000,0.000000,-32.226562,0.000000,0.000000,0.000000
cobot_dynamixel_driver/joint_states|name|J1,J2,J3,J4,J5,J6|pos|-0.005220,-1.268785,1.296375,0.001014,-1.249376,-0.000083|vel|0.000000,-0.000000,0.000000,0.000000,0.000000,0.000000|eff|0.000000,0.000000,-32.226562,0.000000,0.000000,0.000000
cobot_dynamixel_driver/joint_states|name|J1,J2,J3,J4,J5,J6|pos|-0.005220,-1.268785,1.296375,0.001014,-1.249376,-0.000083|vel|0.000000,-0.000000,0.000000,0.000000,0.000000,0.000000|eff|0.000000,0.000000,-32.226562,0.000000,0.000000,0.000000
cobot_dynamixel_driver/joint_states|name|J1,J2,J3,J4,J5,J6|pos|-0.005220,-1.268785,1.296375,0.001014,-1.249376,-0.000083|vel|0.000000,-0.000000,0.000000,0.000000,0.000000,0.000000|eff|0.000000,0.000000,-32.226562,0.000000,0.000000,0.000000
cobot_dynamixel_driver/joint_states|name|J1,J2,J3,J4,J5,J6|pos|-0.005220,-1.268785,1.296375,0.001014,-1.249376,-0.000083|vel|0.000000,-0.000000,0.000000,0.000000,0.000000,0.000000|eff|0.000000,0.000000,-32.226562,0.000000,0.000000,0.000000
cobot_dynamixel_driver/joint_states|name|J1,J2,J3,J4,J5,J6|pos|-0.005220,-1.268785,1.296375,0.001014,-1.249376,-0.000083|vel|0.000000,-0.000000,0.000000,0.000000,0.000000,0.000000|eff|0.000000,0.000000,-32.226562,0.000000,0.000000,0.000000
cobot_dynamixel_driver/joint_states|name|J1,J2,J3,J4,J5,J6|pos|-0.005220,-1.268785,1.296375,0.001014,-1.249376,-0.000083|vel|0.000000,-0.000000,0.000000,0.000000,0.000000,0.000000|eff|0.000000,0.000000,-32.226562,0.000000,0.000000,0.000000
cobot_dynamixel_driver/joint_states|name|J1,J2,J3,J4,J5,J6|pos|-0.005220,-1.268785,1.296375,0.001014,-1.249376,-0.000083|vel|0.000000,-0.000000,0.000000,0.000000,0.000000,0.000000|eff|0.000000,0.000000,-32.226562,0.000000,0.000000,0.000000
cobot_dynamixel_driver/joint_states|name|J1,J2,J3,J4,J5,J6|pos|-0.005220,-1.268785,1.296375,0.001014,-1.249376,-0.000083|vel|0.000000,-0.000000,0.000000,0.000000,0.000000,0.000000|eff|0.000000,0.000000,-32.226562,0.000000,0.000000,0.000000
cobot_dynamixel_driver/joint_states|name|J1,J2,J3,J4,J5,J6|pos|-0.005220,-1.268785,1.296375,0.001014,-1.249376,-0.000083|vel|0.000000,-0.000000,0.000000,0.000000,0.000000,0.000000|eff|0.000000,0.000000,-32.226562,0.000000,0.000000,0.000000
cobot_dynamixel_driver/joint_states|name|J1,J2,J3,J4,J5,J6|pos|-0.005220,-1.268785,1.296375,0.001014,-1.249376,-0.000083|vel|0.000000,-0.000000,0.000000,0.000000,0.000000,0.000000|eff|0.000000,0.000000,-32.226562,0.000000,0.000000,0.000000
cobot_dynamixel_driver/joint_states|name|J1,J2,J3,J4,J5,J6|pos|-0.005220,-1.268785,1.296375,0.001014,-1.249376,-0.000083|vel|0.000000,-0.000000,0.000000,0.000000,0.000000,0.000000|eff|0.000000,0.000000,-32.226562,0.000000,0.000000,0.000000
cobot_dynamixel_driver/joint_states|name|J1,J2,J3,J4,J5,J6|pos|-0.005220,-1.268785,1.296375,0.001014,-1.249376,-0.000083|vel|0.000000,-0.000000,0.000000,0.000000,0.000000,0.000000|eff|0.000000,0.000000,-32.226562,0.000000,0.000000,0.000000
cobot_dynamixel_driver/joint_states|name|J1,J2,J3,J4,J5,J6|pos|-0.005220,-1.268785,1.296375,0.001014,-1.249376,-0.000083|vel|0.000000,-0.000000,0.000000,0.000000,0.000000,0.000000|eff|0.000000,0.000000,-32.226562,0.000000,0.000000,0.000000
cobot_dynamixel_driver/joint_states|name|J1,J2,J3,J4,J5,J6|pos|-0.005220,-1.268785,1.296375,0.001014,-1.249376,-0.000083|vel|0.000000,-0.000000,0.000000,0.000000,0.000000,0.000000|eff|0.000000,0.000000,-32.226562,0.000000,0.000000,0.000000
cobot_dynamixel_driver/joint_states|name|J1,J2,J3,J4,J5,J6|pos|-0.005220,-1.268785,1.296375,0.001014,-1.249376,-0.000083|vel|0.000000,-0.000000,0.000000,0.000000,0.000000,0.000000|eff|0.000000,0.000000,-32.226562,0.000000,0.000000,0.000000
cobot_dynamixel_driver/joint_states|name|J1,J2,J3,J4,J5,J6|pos|-0.005220,-1.268785,1.296375,0.001014,-1.249376,-0.000083|vel|0.000000,-0.000000,0.000000,0.000000,0.000000,0.000000|eff|0.000000,0.000000,-32.226562,0.000000,0.000000,0.000000
cobot_dynamixel_driver/joint_states|name|J1,J2,J3,J4,J5,J6|pos|-0.005220,-1.268785,1.296375,0.001014,-1.249376,-0.000083|vel|0.000000,-0.000000,0.000000,0.000000,0.000000,0.000000|eff|0.000000,0.000000,-32.226562,0.000000,0.000000,0.000000
cobot_dynamixel_driver/joint_states|name|J1,J2,J3,J4,J5,J6|pos|-0.005220,-1.268785,1.296375,0.001014,-1.249376,-0.000083|vel|0.000000,-0.000000,0.000000,0.000000,0.000000,0.000000|eff|0.000000,0.000000,-32.226562,0.000000,0.000000,0.000000
cobot_dynamixel_driver/joint_states|name|J1,J2,J3,J4,J5,J6|pos|-0.005220,-1.268785,1.296375,0.001014,-1.249376,-0.000083|vel|0.000000,-0.000000,0.000000,0.000000,0.000000,0.000000|eff|0.000000,0.000000,-32.226562,0.000000,0.000000,0.000000
cobot_dynamixel_driver/joint_states|name|J1,J2,J3,J4,J5,J6|pos|-0.005220,-1.268785,1.296375,0.001014,-1.249376,-0.000083|vel|0.000000,-0.000000,0.000000,0.000000,0.000000,0.000000|eff|0.000000,0.000000,-32.226562,0.000000,0.000000,0.000000
cobot_dynamixel_driver/joint_states|name|J1,J2,J3,J4,J5,J6|pos|-0.005220,-1.268785,1.296375,0.001014,-1.249376,-0.000083|vel|0.000000,-0.000000,0.000000,0.000000,0.000000,0.000000|eff|0.000000,0.000000,-32.226562,0.000000,0.000000,0.000000
cobot_dynamixel_driver/joint_states|name|J1,J2,J3,J4,J5,J6|pos|-0.005220,-1.268785,1.296375,0.001014,-1.249376,-0.000083|vel|0.000000,-0.000000,0.000000,0.000000,0.000000,0.000000|eff|0.000000,0.000000,-32.226562,0.000000,0.000000,0.000000
cobot_dynamixel_driver/joint_states|name|J1,J2,J3,J4,J5,J6|pos|-0.005220,-1.268785,1.296375,0.001014,-1.249376,-0.000083|vel|0.000000,-0.000000,0.000000,0.000000,0.000000,0.000000|eff|0.000000,0.000000,-32.226562,0.000000,0.000000,0.000000
cobot_dynamixel_driver/joint_states|name|J1,J2,J3,J4,J5,J6|pos|-0.005220,-1.268785,1.296375,0.001014,-1.249376,-0.000083|vel|0.000000,-0.000000,0.000000,0.000000,0.000000,0.000000|eff|0.000000,0.000000,-32.226562,0.000000,0.000000,0.000000
cobot_dynamixel_driver/joint_states|name|J1,J2,J3,J4,J5,J6|pos|-0.005220,-1.268785,1.296375,0.001014,-1.249376,-0.000083|vel|0.000000,-0.000000,0.000000,0.000000,0.000000,0.000000|eff|0.000000,0.000000,-32.226562,0.000000,0.000000,0.000000
cobot_dynamixel_driver/joint_states|name|J1,J2,J3,J4,J5,J6|pos|-0.005220,-1.268785,1.296375,0.001014,-1.249376,-0.000083|vel|0.000000,-0.000000,0.000000,0.000000,0.000000,0.000000|eff|0.000000,0.000000,-32.226562,0.000000,0.000000,0.000000
cobot_dynamixel_driver/joint_states|name|J1,J2,J3,J4,J5,J6|pos|-0.005220,-1.268785,1.296375,0.001014,-1.249376,-0.000083|vel|0.000000,-0.000000,0.000000,0.000000,0.000000,0.000000|eff|0.000000,0.000000,-32.226562,0.000000,0.000000,0.000000
cobot_dynamixel_driver/joint_states|name|J1,J2,J3,J4,J5,J6|pos|-0.005220,-1.268785,1.296375,0.001014,-1.249376,-0.000083|vel|0.000000,-0.000000,0.000000,0.000000,0.000000,0.000000|eff|0.000000,0.000000,-32.226562,0.000000,0.000000,0.000000
cobot_dynamixel_driver/joint_states|name|J1,J2,J3,J4,J5,J6|pos|-0.005220,-1.268785,1.296375,0.001014,-1.249376,-0.000083|vel|0.000000,-0.000000,0.000000,0.000000,0.000000,0.000000|eff|0.000000,0.000000,-32.226562,0.000000,0.000000,0.000000
cobot_dynamixel_driver/joint_states|name|J1,J2,J3,J4,J5,J6|pos|-0.005220,-1.268785,1.296375,0.001014,-1.249376,-0.000083|vel|0.000000,-0.000000,0.000000,0.000000,0.000000,0.000000|eff|0.000000,0.000000,-32.226562,0.000000,0.000000,0.000000
cobot_dynamixel_driver/joint_states|name|J1,J2,J3,J4,J5,J6|pos|-0.005220,-1.268785,1.296375,0.001014,-1.249376,-0.000083|vel|0.000000,-0.000000,0.000000,0.000000,0.000000,0.000000|eff|0.000000,0.000000,-32.226562,0.000000,0.000000,0.000000
cobot_dynamixel_driver/joint_states|name|J1,J2,J3,J4,J5,J6|pos|-0.005220,-1.268785,1.296375,0.001014,-1.249376,-0.000083|vel|0.000000,-0.000000,0.000000,0.000000,0.000000,0.000000|eff|0.000000,0.000000,-32.226562,0.000000,0.000000,0.000000
cobot_dynamixel_driver/joint_states|name|J1,J2,J3,J4,J5,J6|pos|-0.005220,-1.268785,1.296375,0.001014,-1.249376,-0.000083|vel|0.000000,-0.000000,0.000000,0.000000,0.000000,0.000000|eff|0.000000,0.000000,-32.226562,0.000000,0.000000,0.000000
cobot_dynamixel_driver/joint_states|name|J1,J2,J3,J4,J5,J6|pos|-0.005220,-1.268785,1.296375,0.001014,-1.249376,-0.000083|vel|0.000000,-0.000000,0.000000,0.000000,0.000000,0.000000|eff|0.000000,0.000000,-32.226562,0.000000,0.000000,0.000000
cobot_dynamixel_driver/joint_states|name|J1,J2,J3,J4,J5,J6|pos|-0.005220,-1.268785,1.296375,0.001014,-1.249376,-0.000083|vel|0.000000,-0.000000,0.000000,0.000000,0.000000,0.000000|eff|0.000000,0.000000,-32.226562,0.000000,0.000000,0.000000
cobot_dynamixel_driver/joint_states|name|J1,J2,J3,J4,J5,J6|pos|-0.005220,-1.268785,1.296375,0.001014,-1.249376,-0.000083|vel|0.000000,-0.000000,0.000000,0.000000,0.000000,0.000000|eff|0.000000,0.000000,-32.226562,0.000000,0.000000,0.000000
cobot_dynamixel_driver/joint_states|name|J1,J2,J3,J4,J5,J6|pos|-0.005220,-1.268785,1.296375,0.001014,-1.249376,-0.000083|vel|0.000000,-0.000000,0.000000,0.000000,0.000000,0.000000|eff|0.000000,0.000000,-32.226562,0.000000,0.000000,0.000000
cobot_dynamixel_driver/joint_states|name|J1,J2,J3,J4,J5,J6|pos|-0.005220,-1.268785,1.296375,0.001014,-1.249376,-0.000083|vel|0.000000,-0.000000,0.000000,0.000000,0.000000,0.000000|eff|0.000000,0.000000,-32.226562,0.000000,0.000000,0.000000
cobot_dynamixel_driver/joint_states|name|J1,J2,J3,J4,J5,J6|pos|-0.005220,-1.268785,1.296375,0.001014,-1.249376,-0.000083|vel|0.000000,-0.000000,0.000000,0.000000,0.000000,0.000000|eff|0.000000,0.000000,-32.226562,0.000000,0.000000,0.000000
cobot_dynamixel_driver/joint_states|name|J1,J2,J3,J4,J5,J6|pos|-0.005220,-1.268785,1.296375,0.001014,-1.249376,-0.000083|vel|0.000000,-0.000000,0.000000,0.000000,0.000000,0.000000|eff|0.000000,0.000000,-32.226562,0.000000,0.000000,0.000000
cobot_dynamixel_driver/joint_states|name|J1,J2,J3,J4,J5,J6|pos|-0.005220,-1.268785,1.296375,0.001014,-1.249376,-0.000083|vel|0.000000,-0.000000,0.000000,0.000000,0.000000,0.000000|eff|0.000000,0.000000,-32.226562,0.000000,0.000000,0.000000
cobot_dynamixel_driver/joint_states|name|J1,J2,J3,J4,J5,J6|pos|-0.005220,-1.268785,1.296375,0.001014,-1.249376,-0.000083|vel|0.000000,-0.000000,0.000000,0.000000,0.000000,0.000000|eff|0.000000,0.000000,-32.226562,0.000000,0.000000,0.000000
cobot_dynamixel_driver/joint_states|name|J1,J2,J3,J4,J5,J6|pos|-0.005220,-1.268785,1.296375,0.001014,-1.249376,-0.000083|vel|0.000000,-0.000000,0.000000,0.000000,0.000000,0.000000|eff|0.000000,0.000000,-32.226562,0.000000,0.000000,0.000000
cobot_dynamixel_driver/joint_states|name|J1,J2,J3,J4,J5,J6|pos|-0.005220,-1.268785,1.296375,0.001014,-1.249376,-0.000083|vel|0.000000,-0.000000,0.000000,0.000000,0.000000,0.000000|eff|0.000000,0.000000,-32.226562,0.000000,0.000000,0.000000
cobot_dynamixel_driver/joint_states|name|J1,J2,J3,J4,J5,J6|pos|-0.005220,-1.268785,1.296375,0.001014,-1.249376,-0.000083|vel|0.000000,-0.000000,0.000000,0.000000,0.000000,0.000000|eff|0.000000,0.000000,-32.226562,0.000000,0.000000,0.000000
cobot_dynamixel_driver/joint_states|name|J1,J2,J3,J4,J5,J6|pos|-0.005220,-1.268785,1.296375,0.001014,-1.249376,-0.000083|vel|0.000000,-0.000000,0.000000,0.000000,0.000000,0.000000|eff|0.000000,0.000000,-32.226562,0.000000,0.000000,0.000000
cobot_dynamixel_driver/joint_states|name|J1,J2,J3,J4,J5,J6|pos|-0.005220,-1.268785,1.296375,0.001014,-1.249376,-0.000083|vel|0.000000,-0.000000,0.000000,0.000000,0.000000,0.000000|eff|0.000000,0.000000,-32.226562,0.000000,0.000000,0.000000
cobot_dynamixel_driver/joint_states|name|J1,J2,J3,J4,J5,J6|pos|-0.005220,-1.268785,1.296375,0.001014,-1.249376,-0.000083|vel|0.000000,-0.000000,0.000000,0.000000,0.000000,0.000000|eff|0.000000,0.000000,-32.226562,0.000000,0.000000,0.000000
cobot_dynamixel_driver/joint_states|name|J1,J2,J3,J4,J5,J6|pos|-0.005220,-1.268785,1.296375,0.001014,-1.249376,-0.000083|vel|0.000000,-0.000000,0.000000,0.000000,0.000000,0.000000|eff|0.000000,0.000000,-32.226562,0.000000,0.000000,0.000000
cobot_dynamixel_driver/joint_states|name|J1,J2,J3,J4,J5,J6|pos|-0.005220,-1.268785,1.296375,0.001014,-1.249376,-0.000083|vel|0.000000,-0.000000,0.000000,0.000000,0.000000,0.000000|eff|0.000000,0.000000,-32.226562,0.000000,0.000000,0.000000
cobot_dynamixel_driver/joint_states|name|J1,J2,J3,J4,J5,J6|pos|-0.005220,-1.268785,1.296375,0.001014,-1.249376,-0.000083|vel|0.000000,-0.000000,0.000000,0.000000,0.000000,0.000000|eff|0.000000,0.000000,-32.226562,0.000000,0.000000,0.000000
cobot_dynamixel_driver/joint_states|name|J1,J2,J3,J4,J5,J6|pos|-0.005220,-1.268785,1.296375,0.001014,-1.249376,-0.000083|vel|0.000000,-0.000000,0.000000,0.000000,0.000000,0.000000|eff|0.000000,0.000000,-32.226562,0.000000,0.000000,0.000000
cobot_dynamixel_driver/joint_states|name|J1,J2,J3,J4,J5,J6|pos|-0.005220,-1.268785,1.296375,0.001014,-1.249376,-0.000083|vel|0.000000,-0.000000,0.000000,0.000000,0.000000,0.000000|eff|0.000000,0.000000,-32.226562,0.000000,0.000000,0.000000
cobot_dynamixel_driver/joint_states|name|J1,J2,J3,J4,J5,J6|pos|-0.005220,-1.268785,1.296375,0.001014,-1.249376,-0.000083|vel|0.000000,-0.000000,0.000000,0.000000,0.000000,0.000000|eff|0.000000,0.000000,-32.226562,0.000000,0.000000,0.000000
cobot_dynamixel_driver/joint_states|name|J1,J2,J3,J4,J5,J6|pos|-0.005220,-1.268785,1.296375,0.001014,-1.249376,-0.000083|vel|0.000000,-0.000000,0.000000,0.000000,0.000000,0.000000|eff|0.000000,0.000000,-32.226562,0.000000,0.000000,0.000000
cobot_dynamixel_driver/joint_states|name|J1,J2,J3,J4,J5,J6|pos|-0.005220,-1.268785,1.296375,0.001014,-1.249376,-0.000083|vel|0.000000,-0.000000,0.000000,0.000000,0.000000,0.000000|eff|0.000000,0.000000,-32.226562,0.000000,0.000000,0.000000
cobot_dynamixel_driver/joint_states|name|J1,J2,J3,J4,J5,J6|pos|-0.005220,-1.268785,1.296375,0.001014,-1.249376,-0.000083|vel|0.000000,-0.000000,0.000000,0.000000,0.000000,0.000000|eff|0.000000,0.000000,-32.226562,0.000000,0.000000,0.000000
cobot_dynamixel_driver/joint_states|name|J1,J2,J3,J4,J5,J6|pos|-0.005220,-1.268785,1.296375,0.001014,-1.249376,-0.000083|vel|0.000000,-0.000000,0.000000,0.000000,0.000000,0.000000|eff|0.000000,0.000000,-32.226562,0.000000,0.000000,0.000000
cobot_dynamixel_driver/joint_states|name|J1,J2,J3,J4,J5,J6|pos|-0.005220,-1.268785,1.296375,0.001014,-1.249376,-0.000083|vel|0.000000,-0.000000,0.000000,0.000000,0.000000,0.000000|eff|0.000000,0.000000,-32.226562,0.000000,0.000000,0.000000
cobot_dynamixel_driver/joint_states|name|J1,J2,J3,J4,J5,J6|pos|-0.005220,-1.268785,1.296375,0.001014,-1.249376,-0.000083|vel|0.000000,-0.000000,0.000000,0.000000,0.000000,0.000000|eff|0.000000,0.000000,-32.226562,0.000000,0.000000,0.000000
cobot_dynamixel_driver/joint_states|name|J1,J2,J3,J4,J5,J6|pos|-0.005220,-1.268785,1.296375,0.001014,-1.249376,-0.000083|vel|0.000000,-0.000000,0.000000,0.000000,0.000000,0.000000|eff|0.000000,0.000000,-32.226562,0.000000,0.000000,0.000000
cobot_dynamixel_driver/joint_states|name|J1,J2,J3,J4,J5,J6|pos|-0.005220,-1.268785,1.296375,0.001014,-1.249376,-0.000083|vel|0.000000,-0.000000,0.000000,0.000000,0.000000,0.000000|eff|0.000000,0.000000,-32.226562,0.000000,0.000000,0.000000
cobot_dynamixel_driver/joint_states|name|J1,J2,J3,J4,J5,J6|pos|-0.005220,-1.268785,1.296375,0.001014,-1.249376,-0.000083|vel|0.000000,-0.000000,0.000000,0.000000,0.000000,0.000000|eff|0.000000,0.000000,-32.226562,0.000000,0.000000,0.000000
cobot_dynamixel_driver/joint_states|name|J1,J2,J3,J4,J5,J6|pos|-0.005220,-1.268785,1.296375,0.001014,-1.249376,-0.000083|vel|0.000000,-0.000000,0.000000,0.000000,0.000000,0.000000|eff|0.000000,0.000000,-32.226562,0.000000,0.000000,0.000000
cobot_dynamixel_driver/joint_states|name|J1,J2,J3,J4,J5,J6|pos|-0.005220,-1.268785,1.296375,0.001014,-1.249376,-0.000083|vel|0.000000,-0.000000,0.000000,0.000000,0.000000,0.000000|eff|0.000000,0.000000,0.000000,0.000000,0.000000,0.000000
cobot_dynamixel_driver/joint_states|name|J1,J2,J3,J4,J5,J6|pos|-0.005220,-1.268785,1.296325,0.001014,-1.249376,-0.000083|vel|0.000000,-0.000000,-0.004382,0.000000,0.000000,0.000000|eff|0.000000,0.000000,0.000000,0.000000,0.000000,0.000000
cobot_dynamixel_driver/joint_states|name|J1,J2,J3,J4,J5,J6|pos|-0.005220,-1.268785,1.296275,0.001014,-1.249376,-0.000083|vel|0.000000,-0.000000,-0.004590,0.000000,0.000000,0.000000|eff|0.000000,0.000000,0.000000,0.000000,0.000000,0.000000
cobot_dynamixel_driver/joint_states|name|J1,J2,J3,J4,J5,J6|pos|-0.005220,-1.268785,1.296287,0.001014,-1.249376,-0.000083|vel|0.000000,-0.000000,0.004590,0.000000,0.000000,0.000000|eff|0.000000,0.000000,0.000000,0.000000,0.000000,0.000000
cobot_dynamixel_driver/joint_states|name|J1,J2,J3,J4,J5,J6|pos|-0.005220,-1.268785,1.296275,0.001014,-1.249376,-0.000083|vel|0.000000,-0.000000,-0.004590,0.000000,0.000000,0.000000|eff|0.000000,0.000000,0.000000,0.000000,0.000000,0.000000
cobot_dynamixel_driver/joint_states|name|J1,J2,J3,J4,J5,J6|pos|-0.005220,-1.268785,1.296287,0.001014,-1.249376,-0.000083|vel|0.000000,-0.000000,0.004590,0.000000,0.000000,0.000000|eff|0.000000,0.000000,0.000000,0.000000,0.000000,0.000000
cobot_dynamixel_driver/joint_states|name|J1,J2,J3,J4,J5,J6|pos|-0.005220,-1.268785,1.296275,0.001014,-1.249376,-0.000083|vel|0.000000,-0.000000,-0.004590,0.000000,0.000000,0.000000|eff|0.000000,0.000000,0.000000,0.000000,0.000000,0.000000
cobot_dynamixel_driver/joint_states|name|J1,J2,J3,J4,J5,J6|pos|-0.005220,-1.268785,1.296287,0.001014,-1.249376,-0.000083|vel|0.000000,-0.000000,0.004590,0.000000,0.000000,0.000000|eff|0.000000,0.000000,0.000000,0.000000,0.000000,0.000000
cobot_dynamixel_driver/joint_states|name|J1,J2,J3,J4,J5,J6|pos|-0.005220,-1.268785,1.296287,0.001014,-1.249376,-0.000083|vel|0.000000,-0.000000,0.000000,0.000000,0.000000,0.000000|eff|0.000000,0.000000,0.000000,0.000000,0.000000,0.000000
cobot_dynamixel_driver/joint_states|name|J1,J2,J3,J4,J5,J6|pos|-0.005220,-1.268785,1.296287,0.001014,-1.249376,-0.000083|vel|0.000000,-0.000000,0.000000,0.000000,0.000000,0.000000|eff|0.000000,0.000000,0.000000,0.000000,0.000000,0.000000
cobot_dynamixel_driver/joint_states|name|J1,J2,J3,J4,J5,J6|pos|-0.005220,-1.268785,1.296287,0.001014,-1.249376,-0.000083|vel|0.000000,-0.000000,0.000000,0.000000,0.000000,0.000000|eff|0.000000,0.000000,0.000000,0.000000,0.000000,0.000000
cobot_dynamixel_driver/joint_states|name|J1,J2,J3,J4,J5,J6|pos|-0.005220,-1.268785,1.296287,0.001014,-1.249376,-0.000083|vel|0.000000,-0.000000,0.000000,0.000000,0.000000,0.000000|eff|0.000000,0.000000,0.000000,0.000000,0.000000,0.000000
cobot_dynamixel_driver/joint_states|name|J1,J2,J3,J4,J5,J6|pos|-0.005220,-1.268785,1.296287,0.001014,-1.249376,-0.000083|vel|0.000000,-0.000000,0.000000,0.000000,0.000000,0.000000|eff|0.000000,0.000000,0.000000,0.000000,0.000000,0.000000
cobot_dynamixel_driver/joint_states|name|J1,J2,J3,J4,J5,J6|pos|-0.005220,-1.268785,1.296287,0.001014,-1.249376,-0.000083|vel|0.000000,-0.000000,0.000000,0.000000,0.000000,0.000000|eff|0.000000,0.000000,0.000000,0.000000,0.000000,0.000000
cobot_dynamixel_driver/joint_states|name|J1,J2,J3,J4,J5,J6|pos|-0.005220,-1.268785,1.296287,0.001014,-1.249376,-0.000083|vel|0.000000,-0.000000,0.000000,0.000000,0.000000,0.000000|eff|0.000000,0.000000,0.000000,0.000000,0.000000,0.000000
cobot_dynamixel_driver/joint_states|name|J1,J2,J3,J4,J5,J6|pos|-0.005220,-1.268785,1.296287,0.001014,-1.249376,-0.000083|vel|0.000000,-0.000000,0.000000,0.000000,0.000000,0.000000|eff|0.000000,0.000000,0.000000,0.000000,0.000000,0.000000
cobot_dynamixel_driver/joint_states|name|J1,J2,J3,J4,J5,J6|pos|-0.005220,-1.268785,1.296287,0.001014,-1.249376,-0.000083|vel|0.000000,-0.000000,0.000000,0.000000,0.000000,0.000000|eff|0.000000,0.000000,0.000000,0.000000,0.000000,0.000000
cobot_dynamixel_driver/joint_states|name|J1,J2,J3,J4,J5,J6|pos|-0.005220,-1.268785,1.296287,0.001014,-1.249376,-0.000083|vel|0.000000,-0.000000,0.000000,0.000000,0.000000,0.000000|eff|0.000000,0.000000,0.000000,0.000000,0.000000,0.000000
cobot_dynamixel_driver/joint_states|name|J1,J2,J3,J4,J5,J6|pos|-0.005220,-1.268785,1.296287,0.001014,-1.249376,-0.000083|vel|0.000000,-0.000000,0.000000,0.000000,0.000000,0.000000|eff|0.000000,0.000000,0.000000,0.000000,0.000000,0.000000
cobot_dynamixel_driver/joint_states|name|J1,J2,J3,J4,J5,J6|pos|-0.005220,-1.268785,1.296287,0.001014,-1.249376,-0.000083|vel|0.000000,-0.000000,0.000000,0.000000,0.000000,0.000000|eff|0.000000,0.000000,0.000000,0.000000,0.000000,0.000000
cobot_dynamixel_driver/joint_states|name|J1,J2,J3,J4,J5,J6|pos|-0.005220,-1.268785,1.296287,0.001014,-1.249376,-0.000083|vel|0.000000,-0.000000,0.000000,0.000000,0.000000,0.000000|eff|0.000000,0.000000,0.000000,0.000000,0.000000,0.000000
cobot_dynamixel_driver/joint_states|name|J1,J2,J3,J4,J5,J6|pos|-0.005220,-1.268785,1.296287,0.001014,-1.249376,-0.000083|vel|0.000000,-0.000000,0.000000,0.000000,0.000000,0.000000|eff|0.000000,0.000000,0.000000,0.000000,0.000000,0.000000
cobot_dynamixel_driver/joint_states|name|J1,J2,J3,J4,J5,J6|pos|-0.005220,-1.268785,1.296287,0.001014,-1.249376,-0.000083|vel|0.000000,-0.000000,0.000000,0.000000,0.000000,0.000000|eff|0.000000,0.000000,0.000000,0.000000,0.000000,0.000000
cobot_dynamixel_driver/joint_states|name|J1,J2,J3,J4,J5,J6|pos|-0.005220,-1.268785,1.296287,0.001014,-1.249376,-0.000083|vel|0.000000,-0.000000,0.000000,0.000000,0.000000,0.000000|eff|0.000000,0.000000,0.000000,0.000000,0.000000,0.000000
cobot_dynamixel_driver/joint_states|name|J1,J2,J3,J4,J5,J6|pos|-0.005220,-1.268785,1.296287,0.001014,-1.249376,-0.000083|vel|0.000000,-0.000000,0.000000,0.000000,0.000000,0.000000|eff|0.000000,0.000000,0.000000,0.000000,0.000000,0.000000
cobot_dynamixel_driver/joint_states|name|J1,J2,J3,J4,J5,J6|pos|-0.005220,-1.268785,1.296287,0.001014,-1.249376,-0.000083|vel|0.000000,-0.000000,0.000000,0.000000,0.000000,0.000000|eff|0.000000,0.000000,0.000000,0.000000,0.000000,0.000000
cobot_dynamixel_driver/joint_states|name|J1,J2,J3,J4,J5,J6|pos|-0.005220,-1.268785,1.296287,0.001014,-1.249376,-0.000083|vel|0.000000,-0.000000,0.000000,0.000000,0.000000,0.000000|eff|0.000000,0.000000,0.000000,0.000000,0.000000,0.000000
cobot_dynamixel_driver/joint_states|name|J1,J2,J3,J4,J5,J6|pos|-0.005220,-1.268785,1.296287,0.001014,-1.249376,-0.000083|vel|0.000000,-0.000000,0.000000,0.000000,0.000000,0.000000|eff|0.000000,0.000000,0.000000,0.000000,0.000000,0.000000
cobot_dynamixel_driver/joint_states|name|J1,J2,J3,J4,J5,J6|pos|-0.005220,-1.268785,1.296287,0.001014,-1.249376,-0.000083|vel|0.000000,-0.000000,0.000000,0.000000,0.000000,0.000000|eff|0.000000,0.000000,0.000000,0.000000,0.000000,0.000000
cobot_dynamixel_driver/joint_states|name|J1,J2,J3,J4,J5,J6|pos|-0.005220,-1.268785,1.296287,0.001014,-1.249376,-0.000083|vel|0.000000,-0.000000,0.000000,0.000000,0.000000,0.000000|eff|0.000000,0.000000,0.000000,0.000000,0.000000,0.000000
cobot_dynamixel_driver/joint_states|name|J1,J2,J3,J4,J5,J6|pos|-0.005220,-1.268785,1.296287,0.001014,-1.249376,-0.000083|vel|0.000000,-0.000000,0.000000,0.000000,0.000000,0.000000|eff|0.000000,0.000000,0.000000,0.000000,0.000000,0.000000
cobot_dynamixel_driver/joint_states|name|J1,J2,J3,J4,J5,J6|pos|-0.005220,-1.268785,1.296287,0.001014,-1.249376,-0.000083|vel|0.000000,-0.000000,0.000000,0.000000,0.000000,0.000000|eff|0.000000,0.000000,0.000000,0.000000,0.000000,0.000000
cobot_dynamixel_driver/joint_states|name|J1,J2,J3,J4,J5,J6|pos|-0.005220,-1.268785,1.296287,0.001014,-1.249376,-0.000083|vel|0.000000,-0.000000,0.000000,0.000000,0.000000,0.000000|eff|0.000000,0.000000,0.000000,0.000000,0.000000,0.000000
cobot_dynamixel_driver/joint_states|name|J1,J2,J3,J4,J5,J6|pos|-0.005220,-1.268785,1.296287,0.001014,-1.249376,-0.000083|vel|0.000000,-0.000000,0.000000,0.000000,0.000000,0.000000|eff|0.000000,0.000000,0.000000,0.000000,0.000000,0.000000
cobot_dynamixel_driver/joint_states|name|J1,J2,J3,J4,J5,J6|pos|-0.005220,-1.268785,1.296287,0.001014,-1.249376,-0.000083|vel|0.000000,-0.000000,0.000000,0.000000,0.000000,0.000000|eff|0.000000,0.000000,0.000000,0.000000,0.000000,0.000000
cobot_dynamixel_driver/joint_states|name|J1,J2,J3,J4,J5,J6|pos|-0.005220,-1.268785,1.296287,0.001014,-1.249376,-0.000083|vel|0.000000,-0.000000,0.000000,0.000000,0.000000,0.000000|eff|0.000000,0.000000,0.000000,0.000000,0.000000,0.000000
cobot_dynamixel_driver/joint_states|name|J1,J2,J3,J4,J5,J6|pos|-0.005220,-1.268785,1.296287,0.001014,-1.249376,-0.000083|vel|0.000000,-0.000000,0.000000,0.000000,0.000000,0.000000|eff|0.000000,0.000000,0.000000,0.000000,0.000000,0.000000
cobot_dynamixel_driver/joint_states|name|J1,J2,J3,J4,J5,J6|pos|-0.005220,-1.268785,1.296287,0.001014,-1.249376,-0.000083|vel|0.000000,-0.000000,0.000000,0.000000,0.000000,0.000000|eff|0.000000,0.000000,0.000000,0.000000,0.000000,0.000000
cobot_dynamixel_driver/joint_states|name|J1,J2,J3,J4,J5,J6|pos|-0.005220,-1.268785,1.296287,0.001014,-1.249376,-0.000083|vel|0.000000,-0.000000,0.000000,0.000000,0.000000,0.000000|eff|0.000000,0.000000,0.000000,0.000000,0.000000,0.000000
cobot_dynamixel_driver/joint_states|name|J1,J2,J3,J4,J5,J6|pos|-0.005220,-1.268785,1.296287,0.001014,-1.249376,-0.000083|vel|0.000000,-0.000000,0.000000,0.000000,0.000000,0.000000|eff|0.000000,0.000000,0.000000,0.000000,0.000000,0.000000
cobot_dynamixel_driver/joint_states|name|J1,J2,J3,J4,J5,J6|pos|-0.005220,-1.268785,1.296287,0.001014,-1.249376,-0.000083|vel|0.000000,-0.000000,0.000000,0.000000,0.000000,0.000000|eff|0.000000,0.000000,0.000000,0.000000,0.000000,0.000000
cobot_dynamixel_driver/joint_states|name|J1,J2,J3,J4,J5,J6|pos|-0.005220,-1.268785,1.296287,0.001014,-1.249376,-0.000083|vel|0.000000,-0.000000,0.000000,0.000000,0.000000,0.000000|eff|0.000000,0.000000,0.000000,0.000000,0.000000,0.000000
cobot_dynamixel_driver/joint_states|name|J1,J2,J3,J4,J5,J6|pos|-0.005220,-1.268785,1.296287,0.001014,-1.249376,-0.000083|vel|0.000000,-0.000000,0.000000,0.000000,0.000000,0.000000|eff|0.000000,0.000000,0.000000,0.000000,0.000000,0.000000
cobot_dynamixel_driver/joint_states|name|J1,J2,J3,J4,J5,J6|pos|-0.005220,-1.268785,1.296287,0.001014,-1.249376,-0.000083|vel|0.000000,-0.000000,0.000000,0.000000,0.000000,0.000000|eff|0.000000,0.000000,0.000000,0.000000,0.000000,0.000000
cobot_dynamixel_driver/joint_states|name|J1,J2,J3,J4,J5,J6|pos|-0.005220,-1.268785,1.296287,0.001014,-1.249376,-0.000083|vel|0.000000,-0.000000,0.000000,0.000000,0.000000,0.000000|eff|0.000000,0.000000,0.000000,0.000000,0.000000,0.000000
cobot_dynamixel_driver/joint_states|name|J1,J2,J3,J4,J5,J6|pos|-0.005220,-1.268785,1.296287,0.001014,-1.249376,-0.000083|vel|0.000000,-0.000000,0.000000,0.000000,0.000000,0.000000|eff|0.000000,0.000000,0.000000,0.000000,0.000000,0.000000
cobot_dynamixel_driver/joint_states|name|J1,J2,J3,J4,J5,J6|pos|-0.005220,-1.268785,1.296287,0.001014,-1.249376,-0.000083|vel|0.000000,-0.000000,0.000000,0.000000,0.000000,0.000000|eff|0.000000,0.000000,0.000000,0.000000,0.000000,0.000000
cobot_dynamixel_driver/joint_states|name|J1,J2,J3,J4,J5,J6|pos|-0.005220,-1.268785,1.296287,0.001014,-1.249376,-0.000083|vel|0.000000,-0.000000,0.000000,0.000000,0.000000,0.000000|eff|0.000000,0.000000,0.000000,0.000000,0.000000,0.000000
cobot_dynamixel_driver/joint_states|name|J1,J2,J3,J4,J5,J6|pos|-0.005220,-1.268785,1.296287,0.001014,-1.249376,-0.000083|vel|0.000000,-0.000000,0.000000,0.000000,0.000000,0.000000|eff|0.000000,0.000000,0.000000,0.000000,0.000000,0.000000
cobot_dynamixel_driver/joint_states|name|J1,J2,J3,J4,J5,J6|pos|-0.005220,-1.268785,1.296287,0.001014,-1.249376,-0.000083|vel|0.000000,-0.000000,0.000000,0.000000,0.000000,0.000000|eff|0.000000,0.000000,0.000000,0.000000,0.000000,0.000000
cobot_dynamixel_driver/joint_states|name|J1,J2,J3,J4,J5,J6|pos|-0.005220,-1.268785,1.296287,0.001014,-1.249376,-0.000083|vel|0.000000,-0.000000,0.000000,0.000000,0.000000,0.000000|eff|0.000000,0.000000,0.000000,0.000000,0.000000,0.000000
cobot_dynamixel_driver/joint_states|name|J1,J2,J3,J4,J5,J6|pos|-0.005220,-1.268785,1.296287,0.001014,-1.249376,-0.000083|vel|0.000000,-0.000000,0.000000,0.000000,0.000000,0.000000|eff|0.000000,0.000000,0.000000,0.000000,0.000000,0.000000
cobot_dynamixel_driver/joint_states|name|J1,J2,J3,J4,J5,J6|pos|-0.005220,-1.268785,1.296287,0.001014,-1.249376,-0.000083|vel|0.000000,-0.000000,0.000000,0.000000,0.000000,0.000000|eff|0.000000,0.000000,0.000000,0.000000,0.000000,0.000000
cobot_dynamixel_driver/joint_states|name|J1,J2,J3,J4,J5,J6|pos|-0.005220,-1.268785,1.296287,0.001014,-1.249376,-0.000083|vel|0.000000,-0.000000,0.000000,0.000000,0.000000,0.000000|eff|0.000000,0.000000,0.000000,0.000000,0.000000,0.000000
cobot_dynamixel_driver/joint_states|name|J1,J2,J3,J4,J5,J6|pos|-0.005220,-1.268785,1.296287,0.001014,-1.249376,-0.000083|vel|0.000000,-0.000000,0.000000,0.000000,0.000000,0.000000|eff|0.000000,0.000000,0.000000,0.000000,0.000000,0.000000
cobot_dynamixel_driver/joint_states|name|J1,J2,J3,J4,J5,J6|pos|-0.005220,-1.268785,1.296287,0.001014,-1.249376,-0.000083|vel|0.000000,-0.000000,0.000000,0.000000,0.000000,0.000000|eff|0.000000,0.000000,0.000000,0.000000,0.000000,0.000000
cobot_dynamixel_driver/joint_states|name|J1,J2,J3,J4,J5,J6|pos|-0.005220,-1.268785,1.296287,0.001014,-1.249376,-0.000083|vel|0.000000,-0.000000,0.000000,0.000000,0.000000,0.000000|eff|0.000000,0.000000,0.000000,0.000000,0.000000,0.000000
cobot_dynamixel_driver/joint_states|name|J1,J2,J3,J4,J5,J6|pos|-0.005220,-1.268785,1.296287,0.001014,-1.249376,-0.000083|vel|0.000000,-0.000000,0.000000,0.000000,0.000000,0.000000|eff|0.000000,0.000000,0.000000,0.000000,0.000000,0.000000
cobot_dynamixel_driver/joint_states|name|J1,J2,J3,J4,J5,J6|pos|-0.005220,-1.268785,1.296287,0.001014,-1.249376,-0.000083|vel|0.000000,-0.000000,0.000000,0.000000,0.000000,0.000000|eff|0.000000,0.000000,0.000000,0.000000,0.000000,0.000000
cobot_dynamixel_driver/joint_states|name|J1,J2,J3,J4,J5,J6|pos|-0.005220,-1.268785,1.296287,0.001014,-1.249376,-0.000083|vel|0.000000,-0.000000,0.000000,0.000000,0.000000,0.000000|eff|0.000000,0.000000,0.000000,0.000000,0.000000,0.000000
cobot_dynamixel_driver/joint_states|name|J1,J2,J3,J4,J5,J6|pos|-0.005220,-1.268785,1.296287,0.001014,-1.249376,-0.000083|vel|0.000000,-0.000000,0.000000,0.000000,0.000000,0.000000|eff|0.000000,0.000000,0.000000,0.000000,0.000000,0.000000
cobot_dynamixel_driver/joint_states|name|J1,J2,J3,J4,J5,J6|pos|-0.005220,-1.268785,1.296287,0.001014,-1.249376,-0.000083|vel|0.000000,-0.000000,0.000000,0.000000,0.000000,0.000000|eff|0.000000,0.000000,0.000000,0.000000,0.000000,0.000000
cobot_dynamixel_driver/joint_states|name|J1,J2,J3,J4,J5,J6|pos|-0.005220,-1.268785,1.296287,0.001014,-1.249376,-0.000083|vel|0.000000,-0.000000,0.000000,0.000000,0.000000,0.000000|eff|0.000000,0.000000,0.000000,0.000000,0.000000,0.000000
cobot_dynamixel_driver/joint_states|name|J1,J2,J3,J4,J5,J6|pos|-0.005220,-1.268785,1.296287,0.001014,-1.249376,-0.000083|vel|0.000000,-0.000000,0.000000,0.000000,0.000000,0.000000|eff|0.000000,0.000000,0.000000,0.000000,0.000000,0.000000
cobot_dynamixel_driver/joint_states|name|J1,J2,J3,J4,J5,J6|pos|-0.005220,-1.268785,1.296287,0.001014,-1.249376,-0.000083|vel|0.000000,-0.000000,0.000000,0.000000,0.000000,0.000000|eff|0.000000,0.000000,0.000000,0.000000,0.000000,0.000000
cobot_dynamixel_driver/joint_states|name|J1,J2,J3,J4,J5,J6|pos|-0.005220,-1.268785,1.296287,0.001014,-1.249376,-0.000083|vel|0.000000,-0.000000,0.000000,0.000000,0.000000,0.000000|eff|0.000000,0.000000,0.000000,0.000000,0.000000,0.000000
cobot_dynamixel_driver/joint_states|name|J1,J2,J3,J4,J5,J6|pos|-0.005220,-1.268785,1.296287,0.001014,-1.249376,-0.000083|vel|0.000000,-0.000000,0.000000,0.000000,0.000000,0.000000|eff|0.000000,0.000000,0.000000,0.000000,0.000000,0.000000
cobot_dynamixel_driver/joint_states|name|J1,J2,J3,J4,J5,J6|pos|-0.005220,-1.268785,1.296287,0.001014,-1.249376,-0.000083|vel|0.000000,-0.000000,0.000000,0.000000,0.000000,0.000000|eff|0.000000,0.000000,0.000000,0.000000,0.000000,0.000000
cobot_dynamixel_driver/goal|-:J1,J2,J3,J4,J5,J6:0.000000,0.000000,0.000000,0.000000,0.000000,0.000000:0.700000,0.700000,0.700000,0.700000,0.700000,0.700000:pos_vel_
cobot_dynamixel_driver/joint_states|name|J1,J2,J3,J4,J5,J6|pos|-0.005220,-1.268785,1.296275,0.001014,-1.249376,-0.000083|vel|0.000000,-0.000000,0.000000,0.000000,0.000000,0.000000|eff|0.000000,0.000000,0.000000,0.000000,0.000000,0.000000
cobot_dynamixel_driver/joint_states|name|J1,J2,J3,J4,J5,J6|pos|-0.005208,-1.268772,1.296250,0.001014,-1.249314,-0.000083|vel|0.000000,-0.000000,0.000000,0.000000,0.011030,0.000000|eff|273.925781,-306.152344,-209.472656,-96.679688,96.679688,0.000000
cobot_dynamixel_driver/joint_states|name|J1,J2,J3,J4,J5,J6|pos|-0.004907,-1.268334,1.295799,0.001014,-1.248156,-0.000083|vel|0.022534,0.041729,-0.047154,0.000000,0.110304,0.000000|eff|306.152344,-692.871094,-515.625000,-145.019531,149.047852,0.000000
cobot_dynamixel_driver/joint_states|name|J1,J2,J3,J4,J5,J6|pos|-0.004444,-1.266894,1.294359,0.001001,-1.245239,-0.000083|vel|0.023160,0.105992,-0.112043,0.000000,0.194411,0.000000|eff|257.812500,-1079.589844,-934.570312,-209.472656,116.821289,0.000000
cobot_dynamixel_driver/joint_states|name|J1,J2,J3,J4,J5,J6|pos|-0.003981,-1.264253,1.291743,0.000989,-1.240709,-0.000083|vel|0.023160,0.175055,-0.161284,0.000000,0.259904,0.000000|eff|273.925781,-1530.761719,-1546.875000,-225.585938,84.594727,0.000000
cobot_dynamixel_driver/joint_states|name|J1,J2,J3,J4,J5,J6|pos|-0.003555,-1.260398,1.287925,0.000976,-1.235021,-0.000083|vel|0.023368,0.242030,-0.262269,-0.000626,0.295408,0.000000|eff|225.585938,-2078.613281,-1401.855469,-193.359375,80.566406,0.000000
cobot_dynamixel_driver/joint_states|name|J1,J2,J3,J4,J5,J6|pos|-0.003130,-1.254940,1.281904,0.000914,-1.228443,-0.000083|vel|0.021282,0.314013,-0.355325,-0.003756,0.385030,0.000000|eff|193.359375,-2159.179688,-1853.027344,-177.246094,88.623047,0.000000
cobot_dynamixel_driver/joint_states|name|J1,J2,J3,J4,J5,J6|pos|-0.002754,-1.248230,1.274556,0.000826,-1.220996,-0.000083|vel|0.016274,0.380780,-0.405609,-0.004382,0.437424,0.000000|eff|209.472656,-1643.554688,-1530.761719,-161.132812,76.538086,0.000000
cobot_dynamixel_driver/joint_states|name|J1,J2,J3,J4,J5,J6|pos|-0.002441,-1.240368,1.266419,0.000739,-1.212805,-0.000083|vel|0.015648,0.415207,-0.445878,-0.005425,0.442250,0.000000|eff|177.246094,-2481.445312,-1498.535156,-225.585938,52.368164,0.000000
cobot_dynamixel_driver/joint_states|name|J1,J2,J3,J4,J5,J6|pos|-0.002153,-1.231631,1.257606,0.000651,-1.203951,-0.000083|vel|0.013979,0.474880,-0.492197,-0.004173,0.468792,0.000000|eff|257.812500,-1095.703125,-902.343750,-193.359375,88.623047,0.000000
cobot_dynamixel_driver/joint_states|name|J1,J2,J3,J4,J5,J6|pos|-0.001903,-1.222292,1.248242,0.000576,-1.194560,-0.000083|vel|0.012102,0.500752,-0.498874,-0.003964,0.541868,0.000000|eff|209.472656,-1063.476562,-934.570312,-225.585938,68.481445,0.000000
cobot_dynamixel_driver/joint_states|name|J1,J2,J3,J4,J5,J6|pos|-0.001702,-1.212353,1.238303,0.000488,-1.184652,-0.000083|vel|0.008763,0.503256,-0.485938,-0.004173,0.583232,0.000000|eff|306.152344,-2578.125000,-1659.667969,-145.019531,60.424805,28.198242
cobot_dynamixel_driver/joint_states|name|J1,J2,J3,J4,J5,J6|pos|-0.001515,-1.201825,1.227838,0.000413,-1.174309,-0.000083|vel|0.010015,0.556043,-0.491363,-0.003756,0.526356,0.000000|eff|241.699219,-3109.863281,-1659.667969,-161.132812,52.368164,8.056641
cobot_dynamixel_driver/joint_states|name|J1,J2,J3,J4,J5,J6|pos|-0.001314,-1.190934,1.216972,0.000338,-1.163532,-0.000083|vel|0.010641,0.518070,-0.585463,-0.003964,0.509811,0.000000|eff|273.925781,-805.664062,-918.457031,-241.699219,56.396484,0.000000
cobot_dynamixel_driver/joint_states|name|J1,J2,J3,J4,J5,J6|pos|-0.001139,-1.179505,1.205755,0.000288,-1.152362,-0.000083|vel|0.007511,0.563346,-0.599025,-0.002086,0.571512,0.000000|eff|257.812500,-805.664062,-1611.328125,-193.359375,40.283203,0.000000
cobot_dynamixel_driver/joint_states|name|J1,J2,J3,J4,J5,J6|pos|-0.000964,-1.167913,1.194376,0.000250,-1.140985,-0.000083|vel|0.008972,0.552079,-0.579412,-0.001878,0.601501,0.000000|eff|112.792969,-692.871094,-1321.289062,-193.359375,40.283203,20.141602
cobot_dynamixel_driver/joint_states|name|J1,J2,J3,J4,J5,J6|pos|-0.000839,-1.156146,1.182734,0.000225,-1.129381,-0.000083|vel|0.005008,0.654316,-0.624062,-0.001669,0.681816,0.000000|eff|241.699219,-1740.234375,-1546.875000,-193.359375,36.254883,0.000000
cobot_dynamixel_driver/joint_states|name|J1,J2,J3,J4,J5,J6|pos|-0.000751,-1.144091,1.170892,0.000188,-1.117486,-0.000083|vel|0.004590,0.667252,-0.611543,-0.001461,0.670786,0.000000|eff|241.699219,-1079.589844,-934.570312,-209.472656,44.311523,28.198242
cobot_dynamixel_driver/joint_states|name|J1,J2,J3,J4,J5,J6|pos|-0.000651,-1.131823,1.158800,0.000175,-1.105344,-0.000083|vel|0.005216,0.610917,-0.647848,-0.001043,0.641831,0.000000|eff|370.605469,-3045.410156,-1772.460938,-193.359375,44.311523,20.141602
cobot_dynamixel_driver/joint_states|name|J1,J2,J3,J4,J5,J6|pos|-0.000551,-1.120018,1.146444,0.000163,-1.093098,-0.000083|vel|0.004799,0.656402,-0.653064,-0.001043,0.617357,0.000000|eff|225.585938,-2642.578125,-1804.687500,-225.585938,32.226562,20.141602
cobot_dynamixel_driver/joint_states|name|J1,J2,J3,J4,J5,J6|pos|-0.000463,-1.107462,1.134051,0.000150,-1.080667,-0.000083|vel|0.004173,0.655776,-0.594852,-0.000417,0.576338,0.000000|eff|241.699219,-2868.164062,-1514.648438,-177.246094,56.396484,0.000000
cobot_dynamixel_driver/joint_states|name|J1,J2,J3,J4,J5,J6|pos|-0.000376,-1.094894,1.121395,0.000138,-1.068152,-0.000083|vel|0.004799,0.641171,-0.668504,-0.000417,0.643899,0.000000|eff|177.246094,-2948.730469,-1853.027344,-128.906250,64.453125,28.198242
cobot_dynamixel_driver/joint_states|name|J1,J2,J3,J4,J5,J6|pos|-0.000275,-1.082000,1.108752,0.000125,-1.055575,-0.000083|vel|0.004590,0.801203,-0.679145,-0.000417,0.677335,0.000000|eff|225.585938,-789.550781,-950.683594,-225.585938,40.283203,0.000000
cobot_dynamixel_driver/joint_states|name|J1,J2,J3,J4,J5,J6|pos|-0.000238,-1.069081,1.095770,0.000100,-1.042854,-0.000083|vel|0.002086,0.650143,-0.651186,-0.000417,0.648035,0.000000|eff|193.359375,-1546.875000,-741.210938,-209.472656,60.424805,28.198242
cobot_dynamixel_driver/joint_states|name|J1,J2,J3,J4,J5,J6|pos|-0.000175,-1.056025,1.082864,0.000075,-1.030008,-0.000083|vel|0.003964,0.685613,-0.688743,-0.001252,0.680782,0.000000|eff|128.906250,-1885.253906,-1579.101562,-209.472656,20.141602,0.000000
cobot_dynamixel_driver/joint_states|name|J1,J2,J3,J4,J5,J6|pos|-0.000163,-1.042818,1.069833,0.000050,-1.017142,-0.000083|vel|0.000835,0.659532,-0.687699,-0.001252,0.566342,0.000000|eff|161.132812,-2255.859375,-821.777344,-128.906250,28.198242,20.141602
cobot_dynamixel_driver/joint_states|name|J1,J2,J3,J4,J5,J6|pos|-0.000125,-1.029812,1.056739,0.000050,-1.004234,-0.000083|vel|0.001669,0.651812,-0.720248,-0.000626,0.683539,0.000000|eff|225.585938,-708.984375,-1579.101562,-225.585938,100.708008,28.198242
cobot_dynamixel_driver/joint_states|name|J1,J2,J3,J4,J5,J6|pos|-0.000088,-1.016693,1.043720,0.000038,-0.991864,-0.000083|vel|0.002504,0.668921,-0.640545,-0.000626,0.716286,0.000000|eff|225.585938,-2900.390625,-837.890625,-177.246094,8.056641,36.254883
cobot_dynamixel_driver/joint_states|name|J1,J2,J3,J4,J5,J6|pos|-0.000063,-1.003323,1.030538,0.000038,-0.978232,-0.000083|vel|0.001252,0.713780,-0.692290,-0.000626,0.567720,0.000000|eff|161.132812,-1240.722656,-1885.253906,-225.585938,32.226562,28.198242
cobot_dynamixel_driver/joint_states|name|J1,J2,J3,J4,J5,J6|pos|-0.000050,-0.989979,1.017394,0.000025,-0.965883,-0.000083|vel|0.001043,0.669964,-0.677476,-0.000626,0.770059,0.000000|eff|145.019531,-531.738281,-757.324219,-225.585938,40.283203,12.084961
cobot_dynamixel_driver/joint_states|name|J1,J2,J3,J4,J5,J6|pos|-0.000038,-0.976597,1.004037,0.000025,-0.952872,-0.000083|vel|0.000835,0.546028,-0.749041,-0.000209,0.594262,0.000000|eff|177.246094,-676.757812,-708.984375,-225.585938,60.424805,20.141602
cobot_dynamixel_driver/joint_states|name|J1,J2,J3,J4,J5,J6|pos|-0.000025,-0.963428,0.990692,0.000013,-0.939509,-0.000083|vel|0.000835,0.654107,-0.683109,-0.000209,0.724214,0.000000|eff|161.132812,-2497.558594,-1063.476562,-193.359375,24.169922,28.198242
cobot_dynamixel_driver/joint_states|name|J1,J2,J3,J4,J5,J6|pos|-0.000013,-0.949921,0.977423,0.000013,-0.926167,-0.000083|vel|0.000626,0.640337,-0.679145,-0.000209,0.756616,0.000000|eff|161.132812,-2143.066406,-1466.308594,-145.019531,8.056641,0.000000
cobot_dynamixel_driver/joint_states|name|J1,J2,J3,J4,J5,J6|pos|0.000000,-0.936463,0.963903,0.000000,-0.913053,-0.000083|vel|0.000626,0.686447,-0.681023,-0.000209,0.692502,0.000000|eff|177.246094,-837.890625,-966.796875,-145.019531,8.056641,36.254883
cobot_dynamixel_driver/joint_states|name|J1,J2,J3,J4,J5,J6|pos|0.000000,-0.923182,0.950396,0.000000,-0.899649,-0.000083|vel|0.000626,0.694585,-0.665583,-0.000209,0.698017,0.000000|eff|193.359375,-435.058594,-854.003906,-209.472656,0.000000,24.169922
cobot_dynamixel_driver/joint_states|name|J1,J2,J3,J4,J5,J6|pos|0.000013,-0.909837,0.937127,0.000000,-0.886286,-0.000083|vel|0.000626,0.691872,-0.696880,-0.000209,0.683884,0.000000|eff|145.019531,-1965.820312,-596.191406,-209.472656,40.283203,0.000000
cobot_dynamixel_driver/joint_states|name|J1,J2,J3,J4,J5,J6|pos|0.000025,-0.896443,0.923745,-0.000013,-0.873130,-0.000083|vel|0.000209,0.671008,-0.690829,-0.000209,0.696638,0.000000|eff|193.359375,-2852.050781,-1579.101562,-193.359375,116.821289,40.283203
cobot_dynamixel_driver/joint_states|name|J1,J2,J3,J4,J5,J6|pos|0.000025,-0.882873,0.910313,-0.000013,-0.859540,-0.000083|vel|0.000209,0.696463,-0.695211,-0.000209,0.679748,0.000000|eff|177.246094,-3480.468750,-2046.386719,-161.132812,20.141602,0.000000
cobot_dynamixel_driver/joint_states|name|J1,J2,J3,J4,J5,J6|pos|0.000038,-0.869403,0.896743,-0.000013,-0.846156,-0.000083|vel|0.000209,0.650352,-0.689369,-0.000209,0.633903,0.000000|eff|145.019531,-2642.578125,-2336.425781,-225.585938,96.679688,0.000000
cobot_dynamixel_driver/joint_states|name|J1,J2,J3,J4,J5,J6|pos|0.000038,-0.856109,0.883299,-0.000013,-0.832607,-0.000083|vel|0.000209,0.686030,-0.712946,-0.000209,0.710426,0.000000|eff|128.906250,-1224.609375,-1772.460938,-225.585938,88.623047,40.283203
cobot_dynamixel_driver/joint_states|name|J1,J2,J3,J4,J5,J6|pos|0.000050,-0.842614,0.869779,-0.000025,-0.819141,-0.000083|vel|0.000209,0.685822,-0.719831,-0.000209,0.680782,0.000000|eff|145.019531,-596.191406,-1772.460938,-177.246094,0.000000,16.113281
cobot_dynamixel_driver/joint_states|name|J1,J2,J3,J4,J5,J6|pos|0.000063,-0.829019,0.856484,-0.000025,-0.806027,-0.000083|vel|0.000417,0.693541,-0.714406,0.000000,0.690089,0.000000|eff|112.792969,-499.511719,-821.777344,-209.472656,116.821289,36.254883
cobot_dynamixel_driver/joint_states|name|J1,J2,J3,J4,J5,J6|pos|0.000063,-0.815337,0.842940,-0.000025,-0.792726,-0.000083|vel|0.000417,0.705852,-0.719414,0.000000,0.702498,0.000000|eff|96.679688,-1095.703125,-837.890625,-225.585938,40.283203,16.113281
cobot_dynamixel_driver/joint_states|name|J1,J2,J3,J4,J5,J6|pos|0.000063,-0.801792,0.829320,-0.000050,-0.779074,-0.000083|vel|0.000417,0.721917,-0.636790,0.000000,0.735934,0.000000|eff|112.792969,-837.890625,-886.230469,-209.472656,28.198242,36.254883
cobot_dynamixel_driver/joint_states|name|J1,J2,J3,J4,J5,J6|pos|0.000063,-0.788335,0.815750,-0.000075,-0.765959,-0.000083|vel|0.000417,0.701261,-0.697506,-0.000417,0.593573,0.000000|eff|32.226562,-692.871094,-902.343750,-193.359375,96.679688,36.254883
cobot_dynamixel_driver/joint_states|name|J1,J2,J3,J4,J5,J6|pos|0.000063,-0.774778,0.802180,-0.000088,-0.752472,-0.000083|vel|-0.000417,0.706895,-0.682066,-0.001252,0.709047,0.000000|eff|128.906250,-451.171875,-708.984375,-177.246094,44.311523,40.283203
cobot_dynamixel_driver/joint_states|name|J1,J2,J3,J4,J5,J6|pos|0.000063,-0.761183,0.788611,-0.000100,-0.739109,-0.000083|vel|-0.000417,0.715241,-0.722752,-0.001252,0.716631,0.000000|eff|161.132812,-241.699219,-902.343750,-209.472656,88.623047,8.056641
cobot_dynamixel_driver/joint_states|name|J1,J2,J3,J4,J5,J6|pos|0.000063,-0.747701,0.774966,-0.000100,-0.725581,-0.000083|vel|0.000000,0.728177,-0.685196,-0.001252,0.752824,0.000000|eff|80.566406,-112.792969,-999.023438,-128.906250,20.141602,40.283203
cobot_dynamixel_driver/joint_states|name|J1,J2,J3,J4,J5,J6|pos|0.000075,-0.734382,0.762097,-0.000100,-0.712012,-0.000083|vel|0.000000,0.701470,-0.721917,-0.001252,0.677680,0.000000|eff|193.359375,-1933.593750,-950.683594,-161.132812,20.141602,36.254883
cobot_dynamixel_driver/joint_states|name|J1,J2,J3,J4,J5,J6|pos|0.000075,-0.721000,0.748590,-0.000100,-0.698504,-0.000083|vel|0.000000,0.655985,-0.698132,-0.001252,0.675956,0.000000|eff|96.679688,-3496.582031,-950.683594,-128.906250,28.198242,40.283203
cobot_dynamixel_driver/joint_states|name|J1,J2,J3,J4,J5,J6|pos|0.000075,-0.707655,0.735020,-0.000100,-0.685038,-0.000083|vel|0.000000,0.708147,-0.741322,-0.001252,0.706290,0.000000|eff|96.679688,-1643.554688,-789.550781,-112.792969,8.056641,36.254883
cobot_dynamixel_driver/joint_states|name|J1,J2,J3,J4,J5,J6|pos|0.000075,-0.694248,0.720687,-0.000100,-0.671903,-0.000083|vel|0.000000,0.672885,-0.606119,0.000000,0.686986,0.000000|eff|96.679688,-1337.402344,-1369.628906,-112.792969,96.679688,8.056641
cobot_dynamixel_driver/joint_states|name|J1,J2,J3,J4,J5,J6|pos|0.000075,-0.679915,0.707079,-0.000100,-0.657712,-0.000083|vel|0.000000,0.713154,-0.667461,0.000000,0.671130,0.000000|eff|193.359375,161.132812,-499.511719,-128.906250,60.424805,40.283203
cobot_dynamixel_driver/joint_states|name|J1,J2,J3,J4,J5,J6|pos|0.000075,-0.666971,0.694123,-0.000100,-0.644867,-0.000062|vel|0.000000,0.706478,-0.707938,0.000000,0.747309,0.000000|eff|0.000000,-1256.835938,-1144.042969,-145.019531,36.254883,36.254883
cobot_dynamixel_driver/joint_states|name|J1,J2,J3,J4,J5,J6|pos|0.000075,-0.653276,0.680591,-0.000100,-0.631380,-0.000041|vel|0.000000,0.694167,-0.706269,0.000000,0.709047,0.000000|eff|96.679688,-2288.085938,-1079.589844,-112.792969,68.481445,36.254883
cobot_dynamixel_driver/joint_states|name|J1,J2,J3,J4,J5,J6|pos|0.000075,-0.639506,0.667134,-0.000100,-0.617872,-0.000021|vel|0.000000,0.686865,-0.735688,0.000000,0.744896,0.000345|eff|128.906250,-3077.636719,-741.210938,-112.792969,44.311523,36.254883
cobot_dynamixel_driver/joint_states|name|J1,J2,J3,J4,J5,J6|pos|0.000075,-0.625861,0.653539,-0.000100,-0.604386,0.000000|vel|0.000000,0.808506,-0.718370,0.000000,0.595641,0.000345|eff|145.019531,-2046.386719,-644.531250,-112.792969,68.481445,36.254883
cobot_dynamixel_driver/joint_states|name|J1,J2,J3,J4,J5,J6|pos|0.000075,-0.612342,0.640182,-0.000100,-0.590899,0.000000|vel|0.000000,0.687699,-0.683944,0.000000,0.686642,0.000345|eff|193.359375,-2723.144531,-435.058594,-112.792969,32.226562,36.254883
cobot_dynamixel_driver/joint_states|name|J1,J2,J3,J4,J5,J6|pos|0.000075,-0.598784,0.626863,-0.000100,-0.577681,0.000000|vel|0.000000,0.701053,-0.591305,0.000000,0.712839,0.000345|eff|0.000000,-3142.089844,-1885.253906,-112.792969,92.651367,36.254883
cobot_dynamixel_driver/joint_states|name|J1,J2,J3,J4,J5,J6|pos|0.000075,-0.585215,0.613368,-0.000100,-0.563987,0.000000|vel|0.000000,0.732141,-0.630530,0.000000,0.681471,0.000345|eff|0.000000,-3077.636719,-2288.085938,-112.792969,56.396484,32.226562
cobot_dynamixel_driver/joint_states|name|J1,J2,J3,J4,J5,J6|pos|0.000075,-0.571620,0.599736,-0.000100,-0.550686,0.000000|vel|0.000000,0.694167,-0.661827,0.000000,0.670096,0.000345|eff|145.019531,-2304.199219,-2014.160156,-64.453125,0.000000,0.000000
cobot_dynamixel_driver/joint_states|name|J1,J2,J3,J4,J5,J6|pos|0.000075,-0.557937,0.586216,-0.000100,-0.537448,0.000000|vel|0.000000,0.728177,-0.654316,0.000000,0.782468,0.000000|eff|177.246094,-1820.800781,-2352.539062,-112.792969,72.509766,40.283203
cobot_dynamixel_driver/joint_states|name|J1,J2,J3,J4,J5,J6|pos|0.000075,-0.544393,0.572421,-0.000100,-0.523795,0.000000|vel|0.000000,0.681440,-0.710859,0.000000,0.747309,0.000000|eff|32.226562,-773.437500,-854.003906,-112.792969,76.538086,32.226562
cobot_dynamixel_driver/joint_states|name|J1,J2,J3,J4,J5,J6|pos|0.000075,-0.530860,0.558801,-0.000100,-0.510226,0.000000|vel|0.000000,0.714615,-0.625731,0.000000,0.679058,0.000000|eff|161.132812,-2481.445312,-789.550781,-64.453125,48.339844,36.254883
cobot_dynamixel_driver/joint_states|name|J1,J2,J3,J4,J5,J6|pos|0.000075,-0.517854,0.545269,-0.000100,-0.496697,0.000000|vel|0.000000,0.679145,-0.603615,0.000000,0.601846,0.000000|eff|96.679688,-1321.289062,-1353.515625,-112.792969,44.311523,40.283203
cobot_dynamixel_driver/joint_states|name|J1,J2,J3,J4,J5,J6|pos|0.000075,-0.504234,0.531624,-0.000100,-0.483314,0.000000|vel|0.000000,0.706895,-0.703557,0.000000,0.665960,0.000000|eff|0.000000,-999.023438,-870.117188,0.000000,76.538086,36.254883
cobot_dynamixel_driver/joint_states|name|J1,J2,J3,J4,J5,J6|pos|0.000075,-0.490727,0.518079,-0.000100,-0.469786,0.000000|vel|0.000000,0.701679,-0.714406,0.000000,0.771783,0.000000|eff|0.000000,-1627.441406,-563.964844,-96.679688,52.368164,40.283203
cobot_dynamixel_driver/joint_states|name|J1,J2,J3,J4,J5,J6|pos|0.000063,-0.477207,0.504459,-0.000100,-0.456506,0.000000|vel|0.000000,0.701887,-0.698132,0.000000,0.711460,0.000000|eff|177.246094,-2578.125000,-708.984375,-96.679688,52.368164,16.113281
cobot_dynamixel_driver/joint_states|name|J1,J2,J3,J4,J5,J6|pos|0.000075,-0.463600,0.491228,-0.000100,-0.443433,0.000000|vel|0.000000,0.707938,-0.615716,0.000000,0.672509,0.000000|eff|0.000000,-1417.968750,-1708.007812,-112.792969,136.962891,24.169922
cobot_dynamixel_driver/joint_states|name|J1,J2,J3,J4,J5,J6|pos|0.000063,-0.449893,0.477520,-0.000088,-0.430918,0.000000|vel|0.000000,0.670173,-0.628444,0.000000,0.600811,0.000000|eff|161.132812,-386.718750,-2078.613281,-32.226562,40.283203,36.254883
cobot_dynamixel_driver/joint_states|name|J1,J2,J3,J4,J5,J6|pos|0.000075,-0.436260,0.463838,-0.000088,-0.416810,0.000000|vel|0.000000,0.725464,-0.691455,0.000000,0.755926,0.000000|eff|145.019531,451.171875,-950.683594,-32.226562,56.396484,40.283203
cobot_dynamixel_driver/joint_states|name|J1,J2,J3,J4,J5,J6|pos|0.000063,-0.422703,0.450268,-0.000088,-0.403799,0.000000|vel|0.000000,0.682275,-0.725047,0.000000,0.694570,0.000000|eff|0.000000,-128.906250,-1691.894531,-48.339844,44.311523,32.226562
cobot_dynamixel_driver/joint_states|name|J1,J2,J3,J4,J5,J6|pos|0.000063,-0.409233,0.436648,-0.000088,-0.389526,0.000000|vel|0.000000,0.731515,-0.682900,0.000000,0.783847,0.000000|eff|96.679688,-1305.175781,-741.210938,-64.453125,60.424805,16.113281
cobot_dynamixel_driver/joint_states|name|J1,J2,J3,J4,J5,J6|pos|0.000063,-0.395639,0.423129,-0.000088,-0.376702,0.000000|vel|0.000000,0.678519,-0.682066,0.000000,0.684918,0.000000|eff|0.000000,-789.550781,-1466.308594,-112.792969,108.764648,36.254883
cobot_dynamixel_driver/joint_states|name|J1,J2,J3,J4,J5,J6|pos|0.000063,-0.381981,0.409446,-0.000088,-0.362511,0.000000|vel|0.000000,0.731307,-0.645135,0.000000,0.673198,0.000000|eff|145.019531,0.000000,-531.738281,-96.679688,12.084961,0.000000
cobot_dynamixel_driver/joint_states|name|J1,J2,J3,J4,J5,J6|pos|0.000063,-0.368324,0.395889,-0.000088,-0.349707,0.000000|vel|0.000000,0.665583,-0.622602,0.000000,0.683884,0.000000|eff|0.000000,370.605469,-870.117188,0.000000,80.566406,40.283203
cobot_dynamixel_driver/joint_states|name|J1,J2,J3,J4,J5,J6|pos|0.000063,-0.354867,0.382307,-0.000088,-0.336117,0.000000|vel|0.000000,0.685822,-0.711276,0.000000,0.772817,0.000000|eff|145.019531,-96.679688,-547.851562,0.000000,48.339844,32.226562
cobot_dynamixel_driver/joint_states|name|J1,J2,J3,J4,J5,J6|pos|0.000063,-0.341309,0.369012,-0.000088,-0.322609,0.000000|vel|0.000000,0.690620,-0.710025,0.000000,0.611152,0.000000|eff|128.906250,-386.718750,-2336.425781,-64.453125,68.481445,40.283203
cobot_dynamixel_driver/joint_states|name|J1,J2,J3,J4,J5,J6|pos|0.000063,-0.327815,0.355405,-0.000088,-0.309184,0.000000|vel|0.000000,0.705226,-0.712946,0.000000,0.603224,0.000000|eff|161.132812,-1434.082031,-1820.800781,0.000000,128.906250,36.254883
cobot_dynamixel_driver/joint_states|name|J1,J2,J3,J4,J5,J6|pos|0.000063,-0.314232,0.341860,-0.000088,-0.295656,0.000000|vel|0.000000,0.717327,-0.725673,0.000000,0.681127,0.000000|eff|128.906250,-870.117188,-2126.953125,0.000000,64.453125,36.254883
cobot_dynamixel_driver/joint_states|name|J1,J2,J3,J4,J5,J6|pos|0.000063,-0.300700,0.328178,-0.000088,-0.282128,0.000000|vel|0.000000,0.728594,-0.718996,0.000000,0.679748,0.000000|eff|112.792969,-1756.347656,-1853.027344,-64.453125,-8.056641,36.254883
cobot_dynamixel_driver/joint_states|name|J1,J2,J3,J4,J5,J6|pos|0.000063,-0.287156,0.314621,-0.000088,-0.269075,0.000000|vel|0.000000,0.708147,-0.718162,0.000000,0.665960,0.000000|eff|0.000000,-1933.593750,-2288.085938,-64.453125,60.424805,8.056641
cobot_dynamixel_driver/joint_states|name|J1,J2,J3,J4,J5,J6|pos|0.000063,-0.273586,0.301051,-0.000088,-0.255713,0.000000|vel|0.000000,0.682900,-0.642006,0.000000,0.729729,0.000000|eff|80.566406,-1579.101562,-2159.179688,-80.566406,92.651367,40.283203
cobot_dynamixel_driver/joint_states|name|J1,J2,J3,J4,J5,J6|pos|0.000063,-0.259966,0.287368,-0.000088,-0.242143,0.000000|vel|0.000000,0.704182,-0.724421,0.000000,0.598399,0.000000|eff|64.453125,-1289.062500,-1530.761719,0.000000,84.594727,24.169922
cobot_dynamixel_driver/joint_states|name|J1,J2,J3,J4,J5,J6|pos|0.000063,-0.245082,0.273223,-0.000088,-0.227270,0.000000|vel|0.000000,0.679354,-0.678519,0.000000,0.599433,0.000000|eff|145.019531,-515.625000,-999.023438,-96.679688,80.566406,32.226562
cobot_dynamixel_driver/joint_states|name|J1,J2,J3,J4,J5,J6|pos|0.000063,-0.232889,0.260367,-0.000088,-0.215066,0.000000|vel|0.000000,0.727134,-0.701679,0.000000,0.701808,0.000000|eff|0.000000,-1740.234375,-2271.972656,-48.339844,36.254883,24.169922
cobot_dynamixel_driver/joint_states|name|J1,J2,J3,J4,J5,J6|pos|0.000063,-0.219294,0.246772,-0.000088,-0.201620,0.000000|vel|0.000000,0.729011,-0.698132,0.000000,0.685263,0.000000|eff|0.000000,-886.230469,-2239.746094,-48.339844,104.736328,40.283203
cobot_dynamixel_driver/joint_states|name|J1,J2,J3,J4,J5,J6|pos|0.000063,-0.205687,0.233102,-0.000088,-0.188237,0.000000|vel|0.000000,0.624479,-0.694585,0.000000,0.669751,0.000000|eff|128.906250,-1289.062500,-2320.312500,-48.339844,96.679688,40.283203
cobot_dynamixel_driver/joint_states|name|J1,J2,J3,J4,J5,J6|pos|0.000063,-0.192130,0.219582,-0.000088,-0.174667,0.000000|vel|0.000000,0.667669,-0.701053,0.000000,0.683195,0.000000|eff|80.566406,-2465.332031,-1965.820312,-48.339844,104.736328,40.283203
cobot_dynamixel_driver/joint_states|name|J1,J2,J3,J4,J5,J6|pos|0.000063,-0.178598,0.205950,-0.000088,-0.161098,0.000000|vel|0.000000,0.687491,-0.624479,0.000000,0.606327,0.000000|eff|0.000000,-2529.785156,-1514.648438,0.000000,64.453125,16.113281
cobot_dynamixel_driver/joint_states|name|J1,J2,J3,J4,J5,J6|pos|0.000063,-0.165015,0.192317,-0.000088,-0.147611,0.000000|vel|0.000000,0.680397,-0.665166,0.000000,0.658032,0.000000|eff|80.566406,-2578.125000,-1240.722656,0.000000,100.708008,36.254883
cobot_dynamixel_driver/joint_states|name|J1,J2,J3,J4,J5,J6|pos|0.000063,-0.151496,0.179449,-0.000088,-0.134062,0.000000|vel|0.000000,0.724213,-0.623853,0.000000,0.689399,0.000000|eff|128.906250,-2014.160156,-1675.781250,-80.566406,100.708008,40.283203
cobot_dynamixel_driver/joint_states|name|J1,J2,J3,J4,J5,J6|pos|0.000063,-0.137938,0.165153,-0.000075,-0.120720,0.000000|vel|0.000000,0.698966,-0.748624,0.000000,0.693536,0.000000|eff|0.000000,-1272.949219,-628.417969,0.000000,100.708008,24.169922
cobot_dynamixel_driver/joint_states|name|J1,J2,J3,J4,J5,J6|pos|0.000063,-0.124381,0.152297,-0.000075,-0.107171,0.000000|vel|0.000000,0.663079,-0.715241,0.000000,0.747309,0.000000|eff|0.000000,-2030.273438,-1708.007812,0.000000,36.254883,40.283203
cobot_dynamixel_driver/joint_states|name|J1,J2,J3,J4,J5,J6|pos|0.000063,-0.110711,0.138664,-0.000075,-0.093829,0.000000|vel|0.000000,0.734436,-0.720666,0.000000,0.590126,0.000000|eff|48.339844,-1595.214844,-1482.421875,0.000000,-68.481445,36.254883
cobot_dynamixel_driver/joint_states|name|J1,J2,J3,J4,J5,J6|pos|0.000063,-0.097317,0.125145,-0.000075,-0.081790,0.000000|vel|0.000000,0.673303,-0.732350,0.000000,0.573925,0.000000|eff|0.000000,-854.003906,-1820.800781,-32.226562,-32.226562,12.084961
cobot_dynamixel_driver/joint_states|name|J1,J2,J3,J4,J5,J6|pos|0.000063,-0.084636,0.111425,-0.000075,-0.071365,0.000000|vel|0.000000,0.601946,-0.717744,0.000000,0.480856,0.000000|eff|0.000000,-1192.382812,-580.078125,-48.339844,0.000000,40.283203
cobot_dynamixel_driver/joint_states|name|J1,J2,J3,J4,J5,J6|pos|0.000063,-0.073257,0.098143,-0.000075,-0.062470,0.000000|vel|0.000000,0.546863,-0.617803,0.000000,0.412261,0.000000|eff|0.000000,-547.851562,-1998.046875,-48.339844,24.169922,36.254883
cobot_dynamixel_driver/joint_states|name|J1,J2,J3,J4,J5,J6|pos|0.000063,-0.063355,0.085587,-0.000075,-0.054713,0.000000|vel|0.000000,0.483643,-0.613630,0.000000,0.366071,0.000000|eff|0.000000,1240.722656,-1595.214844,0.000000,32.226562,40.283203
cobot_dynamixel_driver/joint_states|name|J1,J2,J3,J4,J5,J6|pos|0.000063,-0.054880,0.074296,-0.000075,-0.047907,0.000000|vel|0.000000,0.380780,-0.522869,0.000000,0.346078,0.000000|eff|0.000000,708.984375,-692.871094,0.000000,32.226562,40.283203
cobot_dynamixel_driver/joint_states|name|J1,J2,J3,J4,J5,J6|pos|0.000063,-0.047707,0.064632,-0.000063,-0.041971,0.000000|vel|0.000000,0.352821,-0.481139,0.000000,0.280586,0.000000|eff|0.000000,725.097656,-1144.042969,0.000000,44.311523,36.254883
cobot_dynamixel_driver/joint_states|name|J1,J2,J3,J4,J5,J6|pos|0.000063,-0.041573,0.056420,-0.000063,-0.036737,0.000000|vel|0.000000,0.297530,-0.393090,0.000000,0.219574,0.000000|eff|0.000000,741.210938,-854.003906,0.000000,36.254883,40.283203
cobot_dynamixel_driver/joint_states|name|J1,J2,J3,J4,J5,J6|pos|0.000063,-0.036203,0.049334,-0.000063,-0.032186,0.000000|vel|0.000000,0.269154,-0.341555,0.000000,0.240945,0.000000|eff|112.792969,563.964844,-612.304688,0.000000,56.396484,24.169922
cobot_dynamixel_driver/joint_states|name|J1,J2,J3,J4,J5,J6|pos|0.000063,-0.031496,0.043175,-0.000063,-0.028256,0.000000|vel|0.000000,0.230137,-0.305250,0.000000,0.186483,0.000000|eff|0.000000,225.585938,-612.304688,0.000000,64.453125,36.254883
cobot_dynamixel_driver/joint_states|name|J1,J2,J3,J4,J5,J6|pos|0.000063,-0.027490,0.037780,-0.000063,-0.024740,0.000000|vel|0.000000,0.194459,-0.254758,0.000000,0.189240,0.000000|eff|0.000000,257.812500,-789.550781,0.000000,64.453125,40.283203
cobot_dynamixel_driver/joint_states|name|J1,J2,J3,J4,J5,J6|pos|0.000050,-0.024035,0.033098,-0.000063,-0.021678,0.000000|vel|0.000000,0.166083,-0.237857,0.000000,0.130986,0.000000|eff|0.000000,112.792969,-854.003906,0.000000,64.453125,36.254883
cobot_dynamixel_driver/joint_states|name|J1,J2,J3,J4,J5,J6|pos|0.000050,-0.021081,0.028905,-0.000063,-0.019010,0.000000|vel|0.000000,0.135412,-0.211359,0.000000,0.132709,0.000000|eff|0.000000,145.019531,-805.664062,0.000000,72.509766,32.226562
cobot_dynamixel_driver/joint_states|name|J1,J2,J3,J4,J5,J6|pos|0.000050,-0.018477,0.025212,-0.000063,-0.016631,0.000000|vel|0.000000,0.141671,-0.177558,0.000000,0.110304,0.000000|eff|0.000000,257.812500,-725.097656,0.000000,68.481445,40.283203
cobot_dynamixel_driver/joint_states|name|J1,J2,J3,J4,J5,J6|pos|0.000050,-0.016174,0.022057,-0.000063,-0.014542,0.000000|vel|0.000000,0.115799,-0.152938,0.000000,0.100652,0.000000|eff|0.000000,306.152344,-757.324219,0.000000,56.396484,32.226562
cobot_dynamixel_driver/joint_states|name|J1,J2,J3,J4,J5,J6|pos|0.000050,-0.014221,0.019378,-0.000063,-0.012680,0.000000|vel|0.000000,0.100568,-0.128318,0.000000,0.077213,0.000000|eff|0.000000,257.812500,-837.890625,0.000000,60.424805,8.056641
cobot_dynamixel_driver/joint_states|name|J1,J2,J3,J4,J5,J6|pos|0.000050,-0.012468,0.016962,-0.000063,-0.011108,0.000000|vel|0.000000,0.082624,-0.121432,0.000000,0.078592,0.000000|eff|0.000000,225.585938,-805.664062,0.000000,68.481445,16.113281
cobot_dynamixel_driver/joint_states|name|J1,J2,J3,J4,J5,J6|pos|0.000050,-0.010966,0.014859,-0.000063,-0.009722,0.000000|vel|0.000000,0.074278,-0.097438,0.000000,0.074110,0.000000|eff|0.000000,209.472656,-837.890625,0.000000,68.481445,24.169922
cobot_dynamixel_driver/joint_states|name|J1,J2,J3,J4,J5,J6|pos|0.000050,-0.009614,0.013107,-0.000063,-0.008522,0.000000|vel|0.000000,0.063637,-0.084293,0.000000,0.052394,0.000000|eff|0.000000,209.472656,-982.910156,0.000000,68.481445,16.113281
cobot_dynamixel_driver/joint_states|name|J1,J2,J3,J4,J5,J6|pos|0.000050,-0.008412,0.011454,-0.000063,-0.007488,0.000000|vel|0.000000,0.058004,-0.079286,0.000000,0.045500,0.000000|eff|0.000000,257.812500,-805.664062,0.000000,80.566406,40.283203
cobot_dynamixel_driver/joint_states|name|J1,J2,J3,J4,J5,J6|pos|0.000050,-0.007348,0.010027,-0.000063,-0.006578,0.000000|vel|0.000000,0.047989,-0.070731,0.000000,0.044122,0.000000|eff|0.000000,257.812500,-837.890625,0.000000,80.566406,40.283203
cobot_dynamixel_driver/joint_states|name|J1,J2,J3,J4,J5,J6|pos|0.000050,-0.006447,0.008813,-0.000050,-0.005792,0.000000|vel|0.000000,0.043607,-0.054665,0.000000,0.039985,0.000000|eff|0.000000,209.472656,-870.117188,0.000000,80.566406,40.283203
cobot_dynamixel_driver/joint_states|name|J1,J2,J3,J4,J5,J6|pos|0.000050,-0.005646,0.007824,-0.000050,-0.005109,0.000000|vel|0.000000,0.034844,-0.046111,0.000000,0.034815,0.000000|eff|0.000000,225.585938,-886.230469,32.226562,88.623047,16.113281
cobot_dynamixel_driver/joint_states|name|J1,J2,J3,J4,J5,J6|pos|0.000050,-0.004945,0.006873,-0.000050,-0.004489,0.000000|vel|0.000000,0.035887,-0.050701,0.000000,0.029299,0.000000|eff|0.000000,241.699219,-918.457031,48.339844,80.566406,16.113281
cobot_dynamixel_driver/joint_states|name|J1,J2,J3,J4,J5,J6|pos|0.000050,-0.004344,0.005996,-0.000050,-0.003930,0.000000|vel|0.000000,0.027750,-0.048197,0.000000,0.027576,0.000000|eff|0.000000,209.472656,-870.117188,0.000000,88.623047,8.056641
cobot_dynamixel_driver/joint_states|name|J1,J2,J3,J4,J5,J6|pos|0.000050,-0.003793,0.005208,-0.000050,-0.003475,0.000000|vel|0.000000,0.027333,-0.043399,0.000000,0.020682,0.000000|eff|0.000000,193.359375,-821.777344,0.000000,96.679688,36.254883
cobot_dynamixel_driver/joint_states|name|J1,J2,J3,J4,J5,J6|pos|0.000050,-0.003317,0.004482,-0.000038,-0.002979,0.000000|vel|0.000000,0.021908,-0.030880,0.000000,0.023095,0.000000|eff|0.000000,209.472656,-854.003906,0.000000,72.509766,16.113281
cobot_dynamixel_driver/joint_states|name|J1,J2,J3,J4,J5,J6|pos|0.000050,-0.002867,0.003868,-0.000038,-0.002668,0.000000|vel|0.000000,0.021073,-0.029836,0.000000,0.014822,0.000000|eff|0.000000,257.812500,-837.890625,64.453125,92.651367,24.169922
cobot_dynamixel_driver/joint_states|name|J1,J2,J3,J4,J5,J6|pos|0.000050,-0.002491,0.003430,-0.000038,-0.002317,0.000000|vel|0.000000,0.017109,-0.017318,0.000000,0.016890,0.000000|eff|0.000000,225.585938,-918.457031,0.000000,76.538086,40.283203
cobot_dynamixel_driver/joint_states|name|J1,J2,J3,J4,J5,J6|pos|0.000050,-0.002178,0.003054,-0.000038,-0.002027,0.000000|vel|0.000000,0.016692,-0.023786,0.000000,0.014133,0.000000|eff|0.000000,225.585938,-837.890625,0.000000,88.623047,32.226562
cobot_dynamixel_driver/joint_states|name|J1,J2,J3,J4,J5,J6|pos|0.000050,-0.001865,0.002629,-0.000038,-0.001800,0.000000|vel|0.000000,0.013353,-0.014188,0.000000,0.013788,0.000000|eff|0.000000,193.359375,-870.117188,80.566406,84.594727,40.283203
cobot_dynamixel_driver/joint_states|name|J1,J2,J3,J4,J5,J6|pos|0.000050,-0.001652,0.002378,-0.000025,-0.001531,0.000000|vel|0.000000,0.010432,-0.012936,0.000000,0.014822,0.000000|eff|0.000000,161.132812,-934.570312,80.566406,80.566406,24.169922
cobot_dynamixel_driver/joint_states|name|J1,J2,J3,J4,J5,J6|pos|0.000050,-0.001490,0.002116,-0.000013,-0.001345,0.000000|vel|0.000000,0.007720,-0.014814,0.000000,0.007583,0.000000|eff|0.000000,145.019531,-902.343750,0.000000,76.538086,40.283203
cobot_dynamixel_driver/joint_states|name|J1,J2,J3,J4,J5,J6|pos|0.000038,-0.001327,0.001778,0.000000,-0.001241,0.000000|vel|0.000000,0.008346,-0.016274,0.000209,0.005515,0.000000|eff|0.000000,145.019531,-854.003906,0.000000,96.679688,24.169922
cobot_dynamixel_driver/joint_states|name|J1,J2,J3,J4,J5,J6|pos|0.000038,-0.001177,0.001590,0.000000,-0.001096,0.000000|vel|0.000000,0.007094,-0.005842,0.000209,0.006894,0.000000|eff|0.000000,145.019531,-902.343750,48.339844,84.594727,36.254883
cobot_dynamixel_driver/joint_states|name|J1,J2,J3,J4,J5,J6|pos|0.000038,-0.001052,0.001502,0.000000,-0.000952,0.000000|vel|0.000000,0.006677,-0.005008,0.000209,0.007928,0.000000|eff|0.000000,177.246094,-934.570312,0.000000,72.509766,8.056641
cobot_dynamixel_driver/joint_states|name|J1,J2,J3,J4,J5,J6|pos|0.000038,-0.000876,0.001339,0.000000,-0.000807,0.000000|vel|0.000000,0.008346,-0.009389,0.000209,0.007928,0.000000|eff|0.000000,177.246094,-902.343750,80.566406,84.594727,40.283203
cobot_dynamixel_driver/joint_states|name|J1,J2,J3,J4,J5,J6|pos|0.000038,-0.000764,0.001089,0.000000,-0.000703,0.000000|vel|0.000000,0.006051,-0.016066,0.000209,0.004826,0.000000|eff|0.000000,96.679688,-854.003906,0.000000,88.623047,16.113281
cobot_dynamixel_driver/joint_states|name|J1,J2,J3,J4,J5,J6|pos|0.000038,-0.000663,0.000789,0.000000,-0.000641,0.000000|vel|0.000000,0.004173,-0.013145,0.000209,0.003792,0.000000|eff|0.000000,209.472656,-757.324219,0.000000,84.594727,40.283203
cobot_dynamixel_driver/joint_states|name|J1,J2,J3,J4,J5,J6|pos|0.000038,-0.000588,0.000626,0.000013,-0.000600,0.000000|vel|0.000000,0.003964,-0.005425,0.000000,0.002413,0.000000|eff|0.000000,177.246094,-854.003906,0.000000,92.651367,40.283203
cobot_dynamixel_driver/joint_states|name|J1,J2,J3,J4,J5,J6|pos|0.000038,-0.000513,0.000576,0.000013,-0.000517,0.000000|vel|0.000000,0.002712,-0.003964,0.000000,0.003102,0.000000|eff|0.000000,193.359375,-789.550781,48.339844,96.679688,32.226562
cobot_dynamixel_driver/joint_states|name|J1,J2,J3,J4,J5,J6|pos|0.000038,-0.000501,0.000576,0.000013,-0.000414,0.000000|vel|0.000000,0.002712,-0.003964,0.000000,0.005170,0.000000|eff|0.000000,241.699219,-805.664062,0.000000,84.594727,40.283203
cobot_dynamixel_driver/joint_states|name|J1,J2,J3,J4,J5,J6|pos|0.000038,-0.000488,0.000576,0.000013,-0.000372,0.000000|vel|0.000000,0.002712,-0.003964,0.000000,0.002413,0.000000|eff|0.000000,225.585938,-805.664062,0.000000,88.623047,40.283203
cobot_dynamixel_driver/joint_states|name|J1,J2,J3,J4,J5,J6|pos|0.000038,-0.000488,0.000576,0.000013,-0.000331,0.000000|vel|0.000000,0.002712,-0.003964,0.000000,0.002068,0.000000|eff|0.000000,225.585938,-821.777344,0.000000,88.623047,32.226562
cobot_dynamixel_driver/joint_states|name|J1,J2,J3,J4,J5,J6|pos|0.000038,-0.000488,0.000576,0.000013,-0.000290,0.000000|vel|0.000000,0.000209,-0.003964,0.000000,0.002068,0.000000|eff|0.000000,32.226562,-837.890625,0.000000,88.623047,24.169922
cobot_dynamixel_driver/joint_states|name|J1,J2,J3,J4,J5,J6|pos|0.000038,-0.000438,0.000576,0.000013,-0.000269,0.000000|vel|0.000000,0.003130,-0.003964,0.000000,0.002068,0.000000|eff|0.000000,145.019531,-854.003906,0.000000,84.594727,40.283203
cobot_dynamixel_driver/joint_states|name|J1,J2,J3,J4,J5,J6|pos|0.000038,-0.000376,0.000576,0.000013,-0.000269,0.000000|vel|0.000000,0.002921,0.000000,0.000000,0.002068,0.000000|eff|0.000000,290.039062,-870.117188,0.000000,84.594727,28.198242
cobot_dynamixel_driver/joint_states|name|J1,J2,J3,J4,J5,J6|pos|0.000038,-0.000325,0.000563,0.000013,-0.000269,0.000000|vel|0.000000,0.001878,0.000000,0.000000,0.002068,0.000000|eff|0.000000,64.453125,-886.230469,0.000000,84.594727,40.283203
cobot_dynamixel_driver/joint_states|name|J1,J2,J3,J4,J5,J6|pos|0.000038,-0.000300,0.000551,0.000013,-0.000269,0.000000|vel|0.000000,0.001669,-0.000417,0.000000,0.002068,0.000000|eff|0.000000,241.699219,-934.570312,0.000000,80.566406,36.254883
cobot_dynamixel_driver/joint_states|name|J1,J2,J3,J4,J5,J6|pos|0.000038,-0.000250,0.000501,0.000013,-0.000269,0.000000|vel|0.000000,0.002504,-0.003130,0.000000,0.002068,0.000000|eff|-80.566406,322.265625,-902.343750,0.000000,80.566406,8.056641
cobot_dynamixel_driver/joint_states|name|J1,J2,J3,J4,J5,J6|pos|0.000038,-0.000200,0.000401,0.000013,-0.000269,0.000000|vel|0.000000,0.002504,-0.006259,0.000000,0.000000,0.000000|eff|0.000000,80.566406,-886.230469,0.000000,84.594727,40.283203
cobot_dynamixel_driver/joint_states|name|J1,J2,J3,J4,J5,J6|pos|0.000025,-0.000150,0.000300,0.000013,-0.000269,0.000000|vel|0.000000,0.002504,-0.005216,0.000000,0.000000,0.000000|eff|0.000000,80.566406,-870.117188,32.226562,84.594727,36.254883
cobot_dynamixel_driver/joint_states|name|J1,J2,J3,J4,J5,J6|pos|0.000025,-0.000113,0.000175,0.000013,-0.000228,0.000000|vel|0.000000,0.001461,-0.006259,0.000000,0.000000,0.000000|eff|-64.453125,257.812500,-789.550781,0.000000,92.651367,8.056641
cobot_dynamixel_driver/joint_states|name|J1,J2,J3,J4,J5,J6|pos|0.000025,-0.000100,0.000038,0.000013,-0.000186,0.000000|vel|0.000000,0.001461,-0.006677,0.000000,0.002068,0.000000|eff|-64.453125,225.585938,-773.437500,0.000000,88.623047,40.283203
cobot_dynamixel_driver/joint_states|name|J1,J2,J3,J4,J5,J6|pos|0.000025,-0.000088,-0.000038,0.000013,-0.000145,0.000000|vel|0.000000,0.001461,-0.003756,0.000000,0.002068,0.000000|eff|0.000000,80.566406,-757.324219,0.000000,92.651367,36.254883
cobot_dynamixel_driver/joint_states|name|J1,J2,J3,J4,J5,J6|pos|0.000025,-0.000075,-0.000075,0.000013,-0.000103,0.000000|vel|0.000000,0.000417,-0.001461,0.000000,0.001723,0.000000|eff|0.000000,241.699219,-757.324219,0.000000,80.566406,24.169922
cobot_dynamixel_driver/joint_states|name|J1,J2,J3,J4,J5,J6|pos|0.000025,-0.000075,-0.000100,0.000013,-0.000103,0.000000|vel|0.000000,0.000417,-0.001461,0.000000,0.001723,0.000000|eff|0.000000,241.699219,-741.210938,0.000000,84.594727,32.226562
cobot_dynamixel_driver/joint_states|name|J1,J2,J3,J4,J5,J6|pos|0.000013,-0.000063,-0.000113,0.000013,-0.000103,0.000000|vel|0.000000,0.000417,-0.000835,0.000000,0.001723,0.000000|eff|-64.453125,241.699219,-773.437500,80.566406,80.566406,40.283203
cobot_dynamixel_driver/joint_states|name|J1,J2,J3,J4,J5,J6|pos|0.000013,-0.000050,-0.000125,0.000013,-0.000103,0.000000|vel|0.000000,0.000417,-0.000835,0.000000,0.001723,0.000000|eff|0.000000,241.699219,-757.324219,0.000000,84.594727,40.283203
cobot_dynamixel_driver/joint_states|name|J1,J2,J3,J4,J5,J6|pos|0.000013,-0.000025,-0.000125,0.000013,-0.000103,0.000000|vel|0.000000,0.000626,-0.000626,0.000000,0.001723,0.000000|eff|0.000000,225.585938,-757.324219,0.000000,76.538086,8.056641
cobot_dynamixel_driver/joint_states|name|J1,J2,J3,J4,J5,J6|pos|0.000013,-0.000013,-0.000125,0.000013,-0.000103,0.000000|vel|0.000000,0.000835,-0.000626,0.000000,0.001723,0.000000|eff|0.000000,177.246094,-725.097656,0.000000,72.509766,40.283203
cobot_dynamixel_driver/joint_states|name|J1,J2,J3,J4,J5,J6|pos|0.000013,0.000025,-0.000125,0.000025,-0.000103,0.000000|vel|0.000000,0.001252,-0.000626,0.000000,0.000000,0.000000|eff|0.000000,225.585938,-676.757812,0.000000,72.509766,24.169922
cobot_dynamixel_driver/joint_states|name|J1,J2,J3,J4,J5,J6|pos|0.000013,0.000050,-0.000125,0.000025,-0.000103,0.000000|vel|0.000000,0.001461,-0.000626,0.000000,0.000000,0.000000|eff|-64.453125,161.132812,-676.757812,0.000000,76.538086,8.056641
cobot_dynamixel_driver/joint_states|name|J1,J2,J3,J4,J5,J6|pos|0.000013,0.000050,-0.000125,0.000025,-0.000103,0.000000|vel|0.000000,0.001461,-0.000626,0.000000,0.000000,0.000000|eff|0.000000,161.132812,-725.097656,0.000000,72.509766,40.283203
cobot_dynamixel_driver/joint_states|name|J1,J2,J3,J4,J5,J6|pos|0.000013,0.000063,-0.000125,0.000025,-0.000103,0.000000|vel|0.000000,0.001461,-0.000626,0.000000,0.000000,0.000000|eff|0.000000,322.265625,-725.097656,48.339844,76.538086,40.283203
cobot_dynamixel_driver/joint_states|name|J1,J2,J3,J4,J5,J6|pos|0.000013,0.000063,-0.000125,0.000025,-0.000103,0.000000|vel|0.000000,0.001461,0.000000,0.000000,0.000000,0.000000|eff|0.000000,225.585938,-757.324219,32.226562,80.566406,40.283203
cobot_dynamixel_driver/joint_states|name|J1,J2,J3,J4,J5,J6|pos|0.000013,0.000063,-0.000125,0.000025,-0.000103,0.000000|vel|0.000000,0.001461,0.000000,0.000000,0.000000,0.000000|eff|-48.339844,241.699219,-741.210938,0.000000,84.594727,40.283203
cobot_dynamixel_driver/joint_states|name|J1,J2,J3,J4,J5,J6|pos|0.000013,0.000063,-0.000125,0.000025,-0.000103,0.000000|vel|0.000000,0.001461,0.000000,0.000000,0.000000,0.000000|eff|0.000000,145.019531,-708.984375,64.453125,76.538086,36.254883
cobot_dynamixel_driver/joint_states|name|J1,J2,J3,J4,J5,J6|pos|0.000013,0.000063,-0.000125,0.000025,-0.000083,0.000000|vel|0.000000,-0.000000,0.000000,0.000000,0.000000,0.000000|eff|0.000000,145.019531,-660.644531,0.000000,80.566406,40.283203
cobot_dynamixel_driver/joint_states|name|J1,J2,J3,J4,J5,J6|pos|0.000013,0.000063,-0.000125,0.000025,-0.000062,0.000000|vel|0.000000,-0.000000,0.000000,0.000000,0.000000,0.000000|eff|0.000000,370.605469,-725.097656,0.000000,88.623047,8.056641
