surachairobotic/cobot/cobot_dynamixel_driver/log/2018-12-07T08:20:01.945179_driver_log.txt
cobot_dynamixel_driver/joint_states|name|J1,J2,J3,J4,J5,J6|pos|0.150544,-1.268785,1.296275,-0.001715,-1.324154,-0.000083|vel|0.000000,-0.000000,0.000000,0.000000,0.000000,0.000000|eff|0.000000,0.000000,0.000000,0.000000,0.000000,0.000000
cobot_dynamixel_driver/joint_states|name|J1,J2,J3,J4,J5,J6|pos|0.150544,-1.268785,1.296275,-0.001715,-1.324154,-0.000083|vel|0.000000,-0.000000,0.000000,0.000000,0.000000,0.000000|eff|0.000000,0.000000,0.000000,0.000000,0.000000,0.000000
cobot_dynamixel_driver/joint_states|name|J1,J2,J3,J4,J5,J6|pos|0.150544,-1.268785,1.296275,-0.001715,-1.324154,-0.000083|vel|0.000000,-0.000000,0.000000,0.000000,0.000000,0.000000|eff|0.000000,0.000000,0.000000,0.000000,0.000000,0.000000
cobot_dynamixel_driver/joint_states|name|J1,J2,J3,J4,J5,J6|pos|0.150544,-1.268785,1.296275,-0.001715,-1.324154,-0.000083|vel|0.000000,-0.000000,0.000000,0.000000,0.000000,0.000000|eff|0.000000,0.000000,0.000000,0.000000,0.000000,0.000000
cobot_dynamixel_driver/joint_states|name|J1,J2,J3,J4,J5,J6|pos|0.150544,-1.268785,1.296275,-0.001715,-1.324154,-0.000083|vel|0.000000,-0.000000,0.000000,0.000000,0.000000,0.000000|eff|0.000000,0.000000,0.000000,0.000000,0.000000,0.000000
cobot_dynamixel_driver/joint_states|name|J1,J2,J3,J4,J5,J6|pos|0.150544,-1.268785,1.296275,-0.001715,-1.324154,-0.000083|vel|0.000000,-0.000000,0.000000,0.000000,0.000000,0.000000|eff|0.000000,0.000000,0.000000,0.000000,0.000000,0.000000
cobot_dynamixel_driver/joint_states|name|J1,J2,J3,J4,J5,J6|pos|0.150544,-1.268785,1.296275,-0.001715,-1.324154,-0.000083|vel|0.000000,-0.000000,0.000000,0.000000,0.000000,0.000000|eff|0.000000,0.000000,0.000000,0.000000,0.000000,0.000000
cobot_dynamixel_driver/joint_states|name|J1,J2,J3,J4,J5,J6|pos|0.150544,-1.268785,1.296275,-0.001715,-1.324154,-0.000083|vel|0.000000,-0.000000,0.000000,0.000000,0.000000,0.000000|eff|0.000000,0.000000,0.000000,0.000000,0.000000,0.000000
cobot_dynamixel_driver/joint_states|name|J1,J2,J3,J4,J5,J6|pos|0.150544,-1.268785,1.296275,-0.001715,-1.324154,-0.000083|vel|0.000000,-0.000000,0.000000,0.000000,0.000000,0.000000|eff|0.000000,0.000000,0.000000,0.000000,0.000000,0.000000
cobot_dynamixel_driver/joint_states|name|J1,J2,J3,J4,J5,J6|pos|0.150544,-1.268785,1.296275,-0.001715,-1.324154,-0.000083|vel|0.000000,-0.000000,0.000000,0.000000,0.000000,0.000000|eff|0.000000,0.000000,0.000000,0.000000,0.000000,0.000000
cobot_dynamixel_driver/joint_states|name|J1,J2,J3,J4,J5,J6|pos|0.150544,-1.268785,1.296275,-0.001715,-1.324154,-0.000083|vel|0.000000,-0.000000,0.000000,0.000000,0.000000,0.000000|eff|0.000000,0.000000,0.000000,0.000000,0.000000,0.000000
cobot_dynamixel_driver/joint_states|name|J1,J2,J3,J4,J5,J6|pos|0.150544,-1.268785,1.296275,-0.001715,-1.324154,-0.000083|vel|0.000000,-0.000000,0.000000,0.000000,0.000000,0.000000|eff|0.000000,0.000000,0.000000,0.000000,0.000000,0.000000
cobot_dynamixel_driver/joint_states|name|J1,J2,J3,J4,J5,J6|pos|0.150544,-1.268785,1.296275,-0.001715,-1.324154,-0.000083|vel|0.000000,-0.000000,0.000000,0.000000,0.000000,0.000000|eff|0.000000,0.000000,0.000000,0.000000,0.000000,0.000000
cobot_dynamixel_driver/joint_states|name|J1,J2,J3,J4,J5,J6|pos|0.150544,-1.268785,1.296275,-0.001715,-1.324154,-0.000083|vel|0.000000,-0.000000,0.000000,0.000000,0.000000,0.000000|eff|0.000000,0.000000,0.000000,0.000000,0.000000,0.000000
cobot_dynamixel_driver/joint_states|name|J1,J2,J3,J4,J5,J6|pos|0.150544,-1.268785,1.296275,-0.001715,-1.324154,-0.000083|vel|0.000000,-0.000000,0.000000,0.000000,0.000000,0.000000|eff|0.000000,0.000000,0.000000,0.000000,0.000000,0.000000
cobot_dynamixel_driver/joint_states|name|J1,J2,J3,J4,J5,J6|pos|0.150544,-1.268785,1.296275,-0.001715,-1.324154,-0.000083|vel|0.000000,-0.000000,0.000000,0.000000,0.000000,0.000000|eff|0.000000,0.000000,0.000000,0.000000,0.000000,0.000000
cobot_dynamixel_driver/joint_states|name|J1,J2,J3,J4,J5,J6|pos|0.150544,-1.268785,1.296275,-0.001715,-1.324154,-0.000083|vel|0.000000,-0.000000,0.000000,0.000000,0.000000,0.000000|eff|0.000000,0.000000,0.000000,0.000000,0.000000,0.000000
cobot_dynamixel_driver/joint_states|name|J1,J2,J3,J4,J5,J6|pos|0.150544,-1.268785,1.296275,-0.001715,-1.324154,-0.000083|vel|0.000000,-0.000000,0.000000,0.000000,0.000000,0.000000|eff|0.000000,0.000000,0.000000,0.000000,0.000000,0.000000
cobot_dynamixel_driver/joint_states|name|J1,J2,J3,J4,J5,J6|pos|0.150544,-1.268785,1.296275,-0.001715,-1.324154,-0.000083|vel|0.000000,-0.000000,0.000000,0.000000,0.000000,0.000000|eff|0.000000,0.000000,0.000000,0.000000,0.000000,0.000000
cobot_dynamixel_driver/joint_states|name|J1,J2,J3,J4,J5,J6|pos|0.150544,-1.268785,1.296275,-0.001715,-1.324154,-0.000083|vel|0.000000,-0.000000,0.000000,0.000000,0.000000,0.000000|eff|0.000000,0.000000,0.000000,0.000000,0.000000,0.000000
cobot_dynamixel_driver/joint_states|name|J1,J2,J3,J4,J5,J6|pos|0.150544,-1.268785,1.296275,-0.001715,-1.324154,-0.000083|vel|0.000000,-0.000000,0.000000,0.000000,0.000000,0.000000|eff|0.000000,0.000000,0.000000,0.000000,0.000000,0.000000
cobot_dynamixel_driver/joint_states|name|J1,J2,J3,J4,J5,J6|pos|0.150544,-1.268785,1.296275,-0.001715,-1.324154,-0.000083|vel|0.000000,-0.000000,0.000000,0.000000,0.000000,0.000000|eff|0.000000,0.000000,0.000000,0.000000,0.000000,0.000000
cobot_dynamixel_driver/joint_states|name|J1,J2,J3,J4,J5,J6|pos|0.150544,-1.268785,1.296275,-0.001715,-1.324154,-0.000083|vel|0.000000,-0.000000,0.000000,0.000000,0.000000,0.000000|eff|0.000000,0.000000,0.000000,0.000000,0.000000,0.000000
cobot_dynamixel_driver/joint_states|name|J1,J2,J3,J4,J5,J6|pos|0.150544,-1.268785,1.296275,-0.001715,-1.324154,-0.000083|vel|0.000000,-0.000000,0.000000,0.000000,0.000000,0.000000|eff|0.000000,0.000000,0.000000,0.000000,0.000000,0.000000
cobot_dynamixel_driver/joint_states|name|J1,J2,J3,J4,J5,J6|pos|0.150544,-1.268785,1.296275,-0.001715,-1.324154,-0.000083|vel|0.000000,-0.000000,0.000000,0.000000,0.000000,0.000000|eff|0.000000,0.000000,0.000000,0.000000,0.000000,0.000000
cobot_dynamixel_driver/joint_states|name|J1,J2,J3,J4,J5,J6|pos|0.150544,-1.268785,1.296275,-0.001715,-1.324154,-0.000083|vel|0.000000,-0.000000,0.000000,0.000000,0.000000,0.000000|eff|0.000000,0.000000,0.000000,0.000000,0.000000,0.000000
cobot_dynamixel_driver/joint_states|name|J1,J2,J3,J4,J5,J6|pos|0.150544,-1.268785,1.296275,-0.001715,-1.324154,-0.000083|vel|0.000000,-0.000000,0.000000,0.000000,0.000000,0.000000|eff|0.000000,0.000000,0.000000,0.000000,0.000000,0.000000
cobot_dynamixel_driver/joint_states|name|J1,J2,J3,J4,J5,J6|pos|0.150544,-1.268785,1.296275,-0.001715,-1.324154,-0.000083|vel|0.000000,-0.000000,0.000000,0.000000,0.000000,0.000000|eff|0.000000,0.000000,0.000000,0.000000,0.000000,0.000000
cobot_dynamixel_driver/joint_states|name|J1,J2,J3,J4,J5,J6|pos|0.150544,-1.268785,1.296275,-0.001715,-1.324154,-0.000083|vel|0.000000,-0.000000,0.000000,0.000000,0.000000,0.000000|eff|0.000000,0.000000,0.000000,0.000000,0.000000,0.000000
cobot_dynamixel_driver/joint_states|name|J1,J2,J3,J4,J5,J6|pos|0.150544,-1.268785,1.296275,-0.001715,-1.324154,-0.000083|vel|0.000000,-0.000000,0.000000,0.000000,0.000000,0.000000|eff|0.000000,0.000000,0.000000,0.000000,0.000000,0.000000
cobot_dynamixel_driver/joint_states|name|J1,J2,J3,J4,J5,J6|pos|0.150544,-1.268785,1.296275,-0.001715,-1.324154,-0.000083|vel|0.000000,-0.000000,0.000000,0.000000,0.000000,0.000000|eff|0.000000,0.000000,0.000000,0.000000,0.000000,0.000000
cobot_dynamixel_driver/joint_states|name|J1,J2,J3,J4,J5,J6|pos|0.150544,-1.268785,1.296275,-0.001715,-1.324154,-0.000083|vel|0.000000,-0.000000,0.000000,0.000000,0.000000,0.000000|eff|0.000000,0.000000,0.000000,0.000000,0.000000,0.000000
cobot_dynamixel_driver/joint_states|name|J1,J2,J3,J4,J5,J6|pos|0.150544,-1.268785,1.296275,-0.001715,-1.324154,-0.000083|vel|0.000000,-0.000000,0.000000,0.000000,0.000000,0.000000|eff|0.000000,0.000000,0.000000,0.000000,0.000000,0.000000
cobot_dynamixel_driver/joint_states|name|J1,J2,J3,J4,J5,J6|pos|0.150544,-1.268785,1.296275,-0.001715,-1.324154,-0.000083|vel|0.000000,-0.000000,0.000000,0.000000,0.000000,0.000000|eff|0.000000,0.000000,0.000000,0.000000,0.000000,0.000000
cobot_dynamixel_driver/joint_states|name|J1,J2,J3,J4,J5,J6|pos|0.150544,-1.268785,1.296275,-0.001715,-1.324154,-0.000083|vel|0.000000,-0.000000,0.000000,0.000000,0.000000,0.000000|eff|0.000000,0.000000,0.000000,0.000000,0.000000,0.000000
cobot_dynamixel_driver/joint_states|name|J1,J2,J3,J4,J5,J6|pos|0.150544,-1.268785,1.296275,-0.001715,-1.324154,-0.000083|vel|0.000000,-0.000000,0.000000,0.000000,0.000000,0.000000|eff|0.000000,0.000000,0.000000,0.000000,0.000000,0.000000
cobot_dynamixel_driver/joint_states|name|J1,J2,J3,J4,J5,J6|pos|0.150544,-1.268785,1.296275,-0.001715,-1.324154,-0.000083|vel|0.000000,-0.000000,0.000000,0.000000,0.000000,0.000000|eff|0.000000,0.000000,0.000000,0.000000,0.000000,0.000000
cobot_dynamixel_driver/joint_states|name|J1,J2,J3,J4,J5,J6|pos|0.150544,-1.268785,1.296275,-0.001715,-1.324154,-0.000083|vel|0.000000,-0.000000,0.000000,0.000000,0.000000,0.000000|eff|0.000000,0.000000,0.000000,0.000000,0.000000,0.000000
cobot_dynamixel_driver/joint_states|name|J1,J2,J3,J4,J5,J6|pos|0.150544,-1.268785,1.296275,-0.001715,-1.324154,-0.000083|vel|0.000000,-0.000000,0.000000,0.000000,0.000000,0.000000|eff|0.000000,0.000000,0.000000,0.000000,0.000000,0.000000
cobot_dynamixel_driver/joint_states|name|J1,J2,J3,J4,J5,J6|pos|0.150544,-1.268785,1.296275,-0.001715,-1.324154,-0.000083|vel|0.000000,-0.000000,0.000000,0.000000,0.000000,0.000000|eff|0.000000,0.000000,0.000000,0.000000,0.000000,0.000000
cobot_dynamixel_driver/joint_states|name|J1,J2,J3,J4,J5,J6|pos|0.150544,-1.268785,1.296275,-0.001715,-1.324154,-0.000083|vel|0.000000,-0.000000,0.000000,0.000000,0.000000,0.000000|eff|0.000000,0.000000,0.000000,0.000000,0.000000,0.000000
cobot_dynamixel_driver/joint_states|name|J1,J2,J3,J4,J5,J6|pos|0.150544,-1.268785,1.296275,-0.001715,-1.324154,-0.000083|vel|0.000000,-0.000000,0.000000,0.000000,0.000000,0.000000|eff|0.000000,0.000000,0.000000,0.000000,0.000000,0.000000
cobot_dynamixel_driver/joint_states|name|J1,J2,J3,J4,J5,J6|pos|0.150544,-1.268785,1.296275,-0.001715,-1.324154,-0.000083|vel|0.000000,-0.000000,0.000000,0.000000,0.000000,0.000000|eff|0.000000,0.000000,0.000000,0.000000,0.000000,0.000000
cobot_dynamixel_driver/joint_states|name|J1,J2,J3,J4,J5,J6|pos|0.150544,-1.268785,1.296275,-0.001715,-1.324154,-0.000083|vel|0.000000,-0.000000,0.000000,0.000000,0.000000,0.000000|eff|0.000000,0.000000,0.000000,0.000000,0.000000,0.000000
cobot_dynamixel_driver/joint_states|name|J1,J2,J3,J4,J5,J6|pos|0.150544,-1.268785,1.296275,-0.001715,-1.324154,-0.000083|vel|0.000000,-0.000000,0.000000,0.000000,0.000000,0.000000|eff|0.000000,0.000000,0.000000,0.000000,0.000000,0.000000
cobot_dynamixel_driver/joint_states|name|J1,J2,J3,J4,J5,J6|pos|0.150544,-1.268785,1.296275,-0.001715,-1.324154,-0.000083|vel|0.000000,-0.000000,0.000000,0.000000,0.000000,0.000000|eff|0.000000,0.000000,0.000000,0.000000,0.000000,0.000000
cobot_dynamixel_driver/joint_states|name|J1,J2,J3,J4,J5,J6|pos|0.150544,-1.268785,1.296275,-0.001715,-1.324154,-0.000083|vel|0.000000,-0.000000,0.000000,0.000000,0.000000,0.000000|eff|0.000000,0.000000,0.000000,0.000000,0.000000,0.000000
cobot_dynamixel_driver/joint_states|name|J1,J2,J3,J4,J5,J6|pos|0.150544,-1.268785,1.296275,-0.001715,-1.324154,-0.000083|vel|0.000000,-0.000000,0.000000,0.000000,0.000000,0.000000|eff|0.000000,0.000000,0.000000,0.000000,0.000000,0.000000
cobot_dynamixel_driver/joint_states|name|J1,J2,J3,J4,J5,J6|pos|0.150544,-1.268785,1.296275,-0.001715,-1.324154,-0.000083|vel|0.000000,-0.000000,0.000000,0.000000,0.000000,0.000000|eff|0.000000,0.000000,0.000000,0.000000,0.000000,0.000000
cobot_dynamixel_driver/joint_states|name|J1,J2,J3,J4,J5,J6|pos|0.150544,-1.268785,1.296275,-0.001715,-1.324154,-0.000083|vel|0.000000,-0.000000,0.000000,0.000000,0.000000,0.000000|eff|0.000000,0.000000,0.000000,0.000000,0.000000,0.000000
cobot_dynamixel_driver/joint_states|name|J1,J2,J3,J4,J5,J6|pos|0.150544,-1.268785,1.296275,-0.001715,-1.324154,-0.000083|vel|0.000000,-0.000000,0.000000,0.000000,0.000000,0.000000|eff|0.000000,0.000000,0.000000,0.000000,0.000000,0.000000
cobot_dynamixel_driver/joint_states|name|J1,J2,J3,J4,J5,J6|pos|0.150544,-1.268785,1.296275,-0.001715,-1.324154,-0.000083|vel|0.000000,-0.000000,0.000000,0.000000,0.000000,0.000000|eff|0.000000,0.000000,0.000000,0.000000,0.000000,0.000000
cobot_dynamixel_driver/joint_states|name|J1,J2,J3,J4,J5,J6|pos|0.150544,-1.268785,1.296275,-0.001715,-1.324154,-0.000083|vel|0.000000,-0.000000,0.000000,0.000000,0.000000,0.000000|eff|0.000000,0.000000,0.000000,0.000000,0.000000,0.000000
cobot_dynamixel_driver/joint_states|name|J1,J2,J3,J4,J5,J6|pos|0.150544,-1.268785,1.296275,-0.001715,-1.324154,-0.000083|vel|0.000000,-0.000000,0.000000,0.000000,0.000000,0.000000|eff|0.000000,0.000000,0.000000,0.000000,0.000000,0.000000
cobot_dynamixel_driver/joint_states|name|J1,J2,J3,J4,J5,J6|pos|0.150544,-1.268785,1.296275,-0.001715,-1.324154,-0.000083|vel|0.000000,-0.000000,0.000000,0.000000,0.000000,0.000000|eff|0.000000,0.000000,0.000000,0.000000,0.000000,0.000000
cobot_dynamixel_driver/joint_states|name|J1,J2,J3,J4,J5,J6|pos|0.150544,-1.268785,1.296275,-0.001715,-1.324154,-0.000083|vel|0.000000,-0.000000,0.000000,0.000000,0.000000,0.000000|eff|0.000000,0.000000,0.000000,0.000000,0.000000,0.000000
cobot_dynamixel_driver/joint_states|name|J1,J2,J3,J4,J5,J6|pos|0.150544,-1.268785,1.296275,-0.001715,-1.324154,-0.000083|vel|0.000000,-0.000000,0.000000,0.000000,0.000000,0.000000|eff|0.000000,0.000000,0.000000,0.000000,0.000000,0.000000
cobot_dynamixel_driver/joint_states|name|J1,J2,J3,J4,J5,J6|pos|0.150544,-1.268785,1.296275,-0.001715,-1.324154,-0.000083|vel|0.000000,-0.000000,0.000000,0.000000,0.000000,0.000000|eff|0.000000,0.000000,0.000000,0.000000,0.000000,0.000000
cobot_dynamixel_driver/joint_states|name|J1,J2,J3,J4,J5,J6|pos|0.150544,-1.268785,1.296275,-0.001715,-1.324154,-0.000083|vel|0.000000,-0.000000,0.000000,0.000000,0.000000,0.000000|eff|0.000000,0.000000,0.000000,0.000000,0.000000,0.000000
cobot_dynamixel_driver/joint_states|name|J1,J2,J3,J4,J5,J6|pos|0.150544,-1.268785,1.296275,-0.001715,-1.324154,-0.000083|vel|0.000000,-0.000000,0.000000,0.000000,0.000000,0.000000|eff|0.000000,0.000000,0.000000,0.000000,0.000000,0.000000
cobot_dynamixel_driver/joint_states|name|J1,J2,J3,J4,J5,J6|pos|0.150544,-1.268785,1.296275,-0.001715,-1.324154,-0.000083|vel|0.000000,-0.000000,0.000000,0.000000,0.000000,0.000000|eff|0.000000,0.000000,0.000000,0.000000,0.000000,0.000000
cobot_dynamixel_driver/joint_states|name|J1,J2,J3,J4,J5,J6|pos|0.150544,-1.268785,1.296275,-0.001715,-1.324154,-0.000083|vel|0.000000,-0.000000,0.000000,0.000000,0.000000,0.000000|eff|0.000000,0.000000,0.000000,0.000000,0.000000,0.000000
cobot_dynamixel_driver/joint_states|name|J1,J2,J3,J4,J5,J6|pos|0.150544,-1.268785,1.296275,-0.001715,-1.324154,-0.000083|vel|0.000000,-0.000000,0.000000,0.000000,0.000000,0.000000|eff|0.000000,0.000000,0.000000,0.000000,0.000000,0.000000
cobot_dynamixel_driver/joint_states|name|J1,J2,J3,J4,J5,J6|pos|0.150544,-1.268785,1.296275,-0.001715,-1.324154,-0.000083|vel|0.000000,-0.000000,0.000000,0.000000,0.000000,0.000000|eff|0.000000,0.000000,0.000000,0.000000,0.000000,0.000000
cobot_dynamixel_driver/joint_states|name|J1,J2,J3,J4,J5,J6|pos|0.150544,-1.268785,1.296275,-0.001715,-1.324154,-0.000083|vel|0.000000,-0.000000,0.000000,0.000000,0.000000,0.000000|eff|0.000000,0.000000,0.000000,0.000000,0.000000,0.000000
cobot_dynamixel_driver/joint_states|name|J1,J2,J3,J4,J5,J6|pos|0.150544,-1.268785,1.296275,-0.001715,-1.324154,-0.000083|vel|0.000000,-0.000000,0.000000,0.000000,0.000000,0.000000|eff|0.000000,0.000000,0.000000,0.000000,0.000000,0.000000
cobot_dynamixel_driver/joint_states|name|J1,J2,J3,J4,J5,J6|pos|0.150544,-1.268785,1.296275,-0.001715,-1.324154,-0.000083|vel|0.000000,-0.000000,0.000000,0.000000,0.000000,0.000000|eff|0.000000,0.000000,0.000000,0.000000,0.000000,0.000000
cobot_dynamixel_driver/joint_states|name|J1,J2,J3,J4,J5,J6|pos|0.150544,-1.268785,1.296275,-0.001715,-1.324154,-0.000083|vel|0.000000,-0.000000,0.000000,0.000000,0.000000,0.000000|eff|0.000000,0.000000,0.000000,0.000000,0.000000,0.000000
cobot_dynamixel_driver/joint_states|name|J1,J2,J3,J4,J5,J6|pos|0.150544,-1.268785,1.296275,-0.001715,-1.324154,-0.000083|vel|0.000000,-0.000000,0.000000,0.000000,0.000000,0.000000|eff|0.000000,0.000000,0.000000,0.000000,0.000000,0.000000
cobot_dynamixel_driver/joint_states|name|J1,J2,J3,J4,J5,J6|pos|0.150544,-1.268785,1.296275,-0.001715,-1.324154,-0.000083|vel|0.000000,-0.000000,0.000000,0.000000,0.000000,0.000000|eff|0.000000,0.000000,0.000000,0.000000,0.000000,0.000000
cobot_dynamixel_driver/joint_states|name|J1,J2,J3,J4,J5,J6|pos|0.150544,-1.268785,1.296275,-0.001715,-1.324154,-0.000083|vel|0.000000,-0.000000,0.000000,0.000000,0.000000,0.000000|eff|0.000000,0.000000,0.000000,0.000000,0.000000,0.000000
cobot_dynamixel_driver/joint_states|name|J1,J2,J3,J4,J5,J6|pos|0.150544,-1.268785,1.296275,-0.001715,-1.324154,-0.000083|vel|0.000000,-0.000000,0.000000,0.000000,0.000000,0.000000|eff|0.000000,0.000000,0.000000,0.000000,0.000000,0.000000
cobot_dynamixel_driver/joint_states|name|J1,J2,J3,J4,J5,J6|pos|0.150544,-1.268785,1.296275,-0.001715,-1.324154,-0.000083|vel|0.000000,-0.000000,0.000000,0.000000,0.000000,0.000000|eff|0.000000,0.000000,0.000000,0.000000,0.000000,0.000000
cobot_dynamixel_driver/joint_states|name|J1,J2,J3,J4,J5,J6|pos|0.150544,-1.268785,1.296275,-0.001715,-1.324154,-0.000083|vel|0.000000,-0.000000,0.000000,0.000000,0.000000,0.000000|eff|0.000000,0.000000,0.000000,0.000000,0.000000,0.000000
cobot_dynamixel_driver/joint_states|name|J1,J2,J3,J4,J5,J6|pos|0.150544,-1.268785,1.296275,-0.001715,-1.324154,-0.000083|vel|0.000000,-0.000000,0.000000,0.000000,0.000000,0.000000|eff|0.000000,0.000000,0.000000,0.000000,0.000000,0.000000
cobot_dynamixel_driver/joint_states|name|J1,J2,J3,J4,J5,J6|pos|0.150544,-1.268785,1.296275,-0.001715,-1.324154,-0.000083|vel|0.000000,-0.000000,0.000000,0.000000,0.000000,0.000000|eff|0.000000,0.000000,0.000000,0.000000,0.000000,0.000000
cobot_dynamixel_driver/joint_states|name|J1,J2,J3,J4,J5,J6|pos|0.150544,-1.268785,1.296275,-0.001715,-1.324154,-0.000083|vel|0.000000,-0.000000,0.000000,0.000000,0.000000,0.000000|eff|0.000000,0.000000,0.000000,0.000000,0.000000,0.000000
cobot_dynamixel_driver/joint_states|name|J1,J2,J3,J4,J5,J6|pos|0.150544,-1.268785,1.296275,-0.001715,-1.324154,-0.000083|vel|0.000000,-0.000000,0.000000,0.000000,0.000000,0.000000|eff|0.000000,0.000000,0.000000,0.000000,0.000000,0.000000
cobot_dynamixel_driver/joint_states|name|J1,J2,J3,J4,J5,J6|pos|0.150544,-1.268785,1.296275,-0.001715,-1.324154,-0.000083|vel|0.000000,-0.000000,0.000000,0.000000,0.000000,0.000000|eff|0.000000,0.000000,0.000000,0.000000,0.000000,0.000000
cobot_dynamixel_driver/joint_states|name|J1,J2,J3,J4,J5,J6|pos|0.150544,-1.268785,1.296275,-0.001715,-1.324154,-0.000083|vel|0.000000,-0.000000,0.000000,0.000000,0.000000,0.000000|eff|0.000000,0.000000,0.000000,0.000000,0.000000,0.000000
cobot_dynamixel_driver/joint_states|name|J1,J2,J3,J4,J5,J6|pos|0.150544,-1.268785,1.296275,-0.001715,-1.324154,-0.000083|vel|0.000000,-0.000000,0.000000,0.000000,0.000000,0.000000|eff|0.000000,0.000000,0.000000,0.000000,0.000000,0.000000
cobot_dynamixel_driver/joint_states|name|J1,J2,J3,J4,J5,J6|pos|0.150544,-1.268785,1.296275,-0.001715,-1.324154,-0.000083|vel|0.000000,-0.000000,0.000000,0.000000,0.000000,0.000000|eff|0.000000,0.000000,0.000000,0.000000,0.000000,0.000000
cobot_dynamixel_driver/joint_states|name|J1,J2,J3,J4,J5,J6|pos|0.150544,-1.268785,1.296275,-0.001715,-1.324154,-0.000083|vel|0.000000,-0.000000,0.000000,0.000000,0.000000,0.000000|eff|0.000000,0.000000,0.000000,0.000000,0.000000,0.000000
cobot_dynamixel_driver/joint_states|name|J1,J2,J3,J4,J5,J6|pos|0.150544,-1.268785,1.296275,-0.001715,-1.324154,-0.000083|vel|0.000000,-0.000000,0.000000,0.000000,0.000000,0.000000|eff|0.000000,0.000000,0.000000,0.000000,0.000000,0.000000
cobot_dynamixel_driver/joint_states|name|J1,J2,J3,J4,J5,J6|pos|0.150544,-1.268785,1.296275,-0.001715,-1.324154,-0.000083|vel|0.000000,-0.000000,0.000000,0.000000,0.000000,0.000000|eff|0.000000,0.000000,0.000000,0.000000,0.000000,0.000000
cobot_dynamixel_driver/joint_states|name|J1,J2,J3,J4,J5,J6|pos|0.150544,-1.268785,1.296275,-0.001715,-1.324154,-0.000083|vel|0.000000,-0.000000,0.000000,0.000000,0.000000,0.000000|eff|0.000000,0.000000,0.000000,0.000000,0.000000,0.000000
cobot_dynamixel_driver/joint_states|name|J1,J2,J3,J4,J5,J6|pos|0.150544,-1.268785,1.296275,-0.001715,-1.324154,-0.000083|vel|0.000000,-0.000000,0.000000,0.000000,0.000000,0.000000|eff|0.000000,0.000000,0.000000,0.000000,0.000000,0.000000
cobot_dynamixel_driver/joint_states|name|J1,J2,J3,J4,J5,J6|pos|0.150544,-1.268785,1.296275,-0.001715,-1.324154,-0.000083|vel|0.000000,-0.000000,0.000000,0.000000,0.000000,0.000000|eff|0.000000,0.000000,0.000000,0.000000,0.000000,0.000000
cobot_dynamixel_driver/joint_states|name|J1,J2,J3,J4,J5,J6|pos|0.150544,-1.268785,1.296275,-0.001715,-1.324154,-0.000083|vel|0.000000,-0.000000,0.000000,0.000000,0.000000,0.000000|eff|0.000000,0.000000,0.000000,0.000000,0.000000,0.000000
cobot_dynamixel_driver/joint_states|name|J1,J2,J3,J4,J5,J6|pos|0.150544,-1.268785,1.296275,-0.001715,-1.324154,-0.000083|vel|0.000000,-0.000000,0.000000,0.000000,0.000000,0.000000|eff|0.000000,0.000000,0.000000,0.000000,0.000000,0.000000
cobot_dynamixel_driver/joint_states|name|J1,J2,J3,J4,J5,J6|pos|0.150544,-1.268785,1.296275,-0.001715,-1.324154,-0.000083|vel|0.000000,-0.000000,0.000000,0.000000,0.000000,0.000000|eff|0.000000,0.000000,0.000000,0.000000,0.000000,0.000000
cobot_dynamixel_driver/joint_states|name|J1,J2,J3,J4,J5,J6|pos|0.150544,-1.268785,1.296275,-0.001715,-1.324154,-0.000083|vel|0.000000,-0.000000,0.000000,0.000000,0.000000,0.000000|eff|0.000000,0.000000,0.000000,0.000000,0.000000,0.000000
cobot_dynamixel_driver/joint_states|name|J1,J2,J3,J4,J5,J6|pos|0.150544,-1.268785,1.296275,-0.001715,-1.324154,-0.000083|vel|0.000000,-0.000000,0.000000,0.000000,0.000000,0.000000|eff|0.000000,0.000000,0.000000,0.000000,0.000000,0.000000
cobot_dynamixel_driver/joint_states|name|J1,J2,J3,J4,J5,J6|pos|0.150544,-1.268785,1.296275,-0.001715,-1.324154,-0.000083|vel|0.000000,-0.000000,0.000000,0.000000,0.000000,0.000000|eff|0.000000,0.000000,0.000000,0.000000,0.000000,0.000000
cobot_dynamixel_driver/joint_states|name|J1,J2,J3,J4,J5,J6|pos|0.150544,-1.268785,1.296275,-0.001715,-1.324154,-0.000083|vel|0.000000,-0.000000,0.000000,0.000000,0.000000,0.000000|eff|0.000000,0.000000,0.000000,0.000000,0.000000,0.000000
cobot_dynamixel_driver/joint_states|name|J1,J2,J3,J4,J5,J6|pos|0.150544,-1.268785,1.296275,-0.001715,-1.324154,-0.000083|vel|0.000000,-0.000000,0.000000,0.000000,0.000000,0.000000|eff|0.000000,0.000000,0.000000,0.000000,0.000000,0.000000
cobot_dynamixel_driver/joint_states|name|J1,J2,J3,J4,J5,J6|pos|0.150544,-1.268785,1.296275,-0.001715,-1.324154,-0.000083|vel|0.000000,-0.000000,0.000000,0.000000,0.000000,0.000000|eff|0.000000,0.000000,0.000000,0.000000,0.000000,0.000000
cobot_dynamixel_driver/joint_states|name|J1,J2,J3,J4,J5,J6|pos|0.150544,-1.268785,1.296275,-0.001715,-1.324154,-0.000083|vel|0.000000,-0.000000,0.000000,0.000000,0.000000,0.000000|eff|0.000000,0.000000,0.000000,0.000000,0.000000,0.000000
cobot_dynamixel_driver/joint_states|name|J1,J2,J3,J4,J5,J6|pos|0.150544,-1.268785,1.296275,-0.001715,-1.324154,-0.000083|vel|0.000000,-0.000000,0.000000,0.000000,0.000000,0.000000|eff|0.000000,0.000000,0.000000,0.000000,0.000000,0.000000
cobot_dynamixel_driver/joint_states|name|J1,J2,J3,J4,J5,J6|pos|0.150544,-1.268785,1.296275,-0.001715,-1.324154,-0.000083|vel|0.000000,-0.000000,0.000000,0.000000,0.000000,0.000000|eff|0.000000,0.000000,0.000000,0.000000,0.000000,0.000000
cobot_dynamixel_driver/joint_states|name|J1,J2,J3,J4,J5,J6|pos|0.150544,-1.268785,1.296275,-0.001715,-1.324154,-0.000083|vel|0.000000,-0.000000,0.000000,0.000000,0.000000,0.000000|eff|0.000000,0.000000,0.000000,0.000000,0.000000,0.000000
cobot_dynamixel_driver/joint_states|name|J1,J2,J3,J4,J5,J6|pos|0.150544,-1.268785,1.296275,-0.001715,-1.324154,-0.000083|vel|0.000000,-0.000000,0.000000,0.000000,0.000000,0.000000|eff|0.000000,0.000000,0.000000,0.000000,0.000000,0.000000
cobot_dynamixel_driver/joint_states|name|J1,J2,J3,J4,J5,J6|pos|0.150544,-1.268785,1.296275,-0.001715,-1.324154,-0.000083|vel|0.000000,-0.000000,0.000000,0.000000,0.000000,0.000000|eff|0.000000,0.000000,0.000000,0.000000,0.000000,0.000000
cobot_dynamixel_driver/joint_states|name|J1,J2,J3,J4,J5,J6|pos|0.150544,-1.268785,1.296275,-0.001715,-1.324154,-0.000083|vel|0.000000,-0.000000,0.000000,0.000000,0.000000,0.000000|eff|0.000000,0.000000,0.000000,0.000000,0.000000,0.000000
cobot_dynamixel_driver/joint_states|name|J1,J2,J3,J4,J5,J6|pos|0.150544,-1.268785,1.296275,-0.001715,-1.324154,-0.000083|vel|0.000000,-0.000000,0.000000,0.000000,0.000000,0.000000|eff|0.000000,0.000000,0.000000,0.000000,0.000000,0.000000
cobot_dynamixel_driver/joint_states|name|J1,J2,J3,J4,J5,J6|pos|0.150544,-1.268785,1.296275,-0.001715,-1.324154,-0.000083|vel|0.000000,-0.000000,0.000000,0.000000,0.000000,0.000000|eff|0.000000,0.000000,0.000000,0.000000,0.000000,0.000000
cobot_dynamixel_driver/joint_states|name|J1,J2,J3,J4,J5,J6|pos|0.150544,-1.268785,1.296275,-0.001715,-1.324154,-0.000083|vel|0.000000,-0.000000,0.000000,0.000000,0.000000,0.000000|eff|0.000000,0.000000,0.000000,0.000000,0.000000,0.000000
cobot_dynamixel_driver/joint_states|name|J1,J2,J3,J4,J5,J6|pos|0.150544,-1.268785,1.296275,-0.001715,-1.324154,-0.000083|vel|0.000000,-0.000000,0.000000,0.000000,0.000000,0.000000|eff|0.000000,0.000000,0.000000,0.000000,0.000000,0.000000
cobot_dynamixel_driver/joint_states|name|J1,J2,J3,J4,J5,J6|pos|0.150544,-1.268785,1.296275,-0.001715,-1.324154,-0.000083|vel|0.000000,-0.000000,0.000000,0.000000,0.000000,0.000000|eff|0.000000,0.000000,0.000000,0.000000,0.000000,0.000000
cobot_dynamixel_driver/joint_states|name|J1,J2,J3,J4,J5,J6|pos|0.150544,-1.268785,1.296275,-0.001715,-1.324154,-0.000083|vel|0.000000,-0.000000,0.000000,0.000000,0.000000,0.000000|eff|0.000000,0.000000,0.000000,0.000000,0.000000,0.000000
cobot_dynamixel_driver/joint_states|name|J1,J2,J3,J4,J5,J6|pos|0.150544,-1.268785,1.296275,-0.001715,-1.324154,-0.000083|vel|0.000000,-0.000000,0.000000,0.000000,0.000000,0.000000|eff|0.000000,0.000000,0.000000,0.000000,0.000000,0.000000
cobot_dynamixel_driver/joint_states|name|J1,J2,J3,J4,J5,J6|pos|0.150544,-1.268785,1.296275,-0.001715,-1.324154,-0.000083|vel|0.000000,-0.000000,0.000000,0.000000,0.000000,0.000000|eff|0.000000,0.000000,0.000000,0.000000,0.000000,0.000000
cobot_dynamixel_driver/joint_states|name|J1,J2,J3,J4,J5,J6|pos|0.150544,-1.268785,1.296275,-0.001715,-1.324154,-0.000083|vel|0.000000,-0.000000,0.000000,0.000000,0.000000,0.000000|eff|0.000000,0.000000,0.000000,0.000000,0.000000,0.000000
cobot_dynamixel_driver/joint_states|name|J1,J2,J3,J4,J5,J6|pos|0.150544,-1.268785,1.296275,-0.001715,-1.324154,-0.000083|vel|0.000000,-0.000000,0.000000,0.000000,0.000000,0.000000|eff|0.000000,0.000000,0.000000,0.000000,0.000000,0.000000
cobot_dynamixel_driver/joint_states|name|J1,J2,J3,J4,J5,J6|pos|0.150544,-1.268785,1.296275,-0.001715,-1.324154,-0.000083|vel|0.000000,-0.000000,0.000000,0.000000,0.000000,0.000000|eff|0.000000,0.000000,0.000000,0.000000,0.000000,0.000000
cobot_dynamixel_driver/joint_states|name|J1,J2,J3,J4,J5,J6|pos|0.150544,-1.268785,1.296275,-0.001715,-1.324154,-0.000083|vel|0.000000,-0.000000,0.000000,0.000000,0.000000,0.000000|eff|0.000000,0.000000,0.000000,0.000000,0.000000,0.000000
cobot_dynamixel_driver/joint_states|name|J1,J2,J3,J4,J5,J6|pos|0.150544,-1.268785,1.296275,-0.001715,-1.324154,-0.000083|vel|0.000000,-0.000000,0.000000,0.000000,0.000000,0.000000|eff|0.000000,0.000000,0.000000,0.000000,0.000000,0.000000
cobot_dynamixel_driver/joint_states|name|J1,J2,J3,J4,J5,J6|pos|0.150544,-1.268785,1.296275,-0.001715,-1.324154,-0.000083|vel|0.000000,-0.000000,0.000000,0.000000,0.000000,0.000000|eff|0.000000,0.000000,0.000000,0.000000,0.000000,0.000000
cobot_dynamixel_driver/joint_states|name|J1,J2,J3,J4,J5,J6|pos|0.150544,-1.268785,1.296275,-0.001715,-1.324154,-0.000083|vel|0.000000,-0.000000,0.000000,0.000000,0.000000,0.000000|eff|0.000000,0.000000,0.000000,0.000000,0.000000,0.000000
cobot_dynamixel_driver/joint_states|name|J1,J2,J3,J4,J5,J6|pos|0.150544,-1.268785,1.296275,-0.001715,-1.324154,-0.000083|vel|0.000000,-0.000000,0.000000,0.000000,0.000000,0.000000|eff|0.000000,0.000000,0.000000,0.000000,0.000000,0.000000
cobot_dynamixel_driver/joint_states|name|J1,J2,J3,J4,J5,J6|pos|0.150544,-1.268785,1.296275,-0.001715,-1.324154,-0.000083|vel|0.000000,-0.000000,0.000000,0.000000,0.000000,0.000000|eff|0.000000,0.000000,0.000000,0.000000,0.000000,0.000000
cobot_dynamixel_driver/joint_states|name|J1,J2,J3,J4,J5,J6|pos|0.150544,-1.268785,1.296275,-0.001715,-1.324154,-0.000083|vel|0.000000,-0.000000,0.000000,0.000000,0.000000,0.000000|eff|0.000000,0.000000,0.000000,0.000000,0.000000,0.000000
cobot_dynamixel_driver/joint_states|name|J1,J2,J3,J4,J5,J6|pos|0.150544,-1.268785,1.296275,-0.001715,-1.324154,-0.000083|vel|0.000000,-0.000000,0.000000,0.000000,0.000000,0.000000|eff|0.000000,0.000000,0.000000,0.000000,0.000000,0.000000
cobot_dynamixel_driver/joint_states|name|J1,J2,J3,J4,J5,J6|pos|0.150544,-1.268785,1.296275,-0.001715,-1.324154,-0.000083|vel|0.000000,-0.000000,0.000000,0.000000,0.000000,0.000000|eff|0.000000,0.000000,0.000000,0.000000,0.000000,0.000000
cobot_dynamixel_driver/joint_states|name|J1,J2,J3,J4,J5,J6|pos|0.150544,-1.268785,1.296275,-0.001715,-1.324154,-0.000083|vel|0.000000,-0.000000,0.000000,0.000000,0.000000,0.000000|eff|0.000000,0.000000,0.000000,0.000000,0.000000,0.000000
cobot_dynamixel_driver/joint_states|name|J1,J2,J3,J4,J5,J6|pos|0.150544,-1.268785,1.296275,-0.001715,-1.324154,-0.000083|vel|0.000000,-0.000000,0.000000,0.000000,0.000000,0.000000|eff|0.000000,0.000000,0.000000,0.000000,0.000000,0.000000
cobot_dynamixel_driver/joint_states|name|J1,J2,J3,J4,J5,J6|pos|0.150544,-1.268785,1.296275,-0.001715,-1.324154,-0.000083|vel|0.000000,-0.000000,0.000000,0.000000,0.000000,0.000000|eff|0.000000,0.000000,0.000000,0.000000,0.000000,0.000000
cobot_dynamixel_driver/joint_states|name|J1,J2,J3,J4,J5,J6|pos|0.150544,-1.268785,1.296275,-0.001715,-1.324154,-0.000083|vel|0.000000,-0.000000,0.000000,0.000000,0.000000,0.000000|eff|0.000000,0.000000,0.000000,0.000000,0.000000,0.000000
cobot_dynamixel_driver/joint_states|name|J1,J2,J3,J4,J5,J6|pos|0.150544,-1.268785,1.296275,-0.001715,-1.324154,-0.000083|vel|0.000000,-0.000000,0.000000,0.000000,0.000000,0.000000|eff|0.000000,0.000000,0.000000,0.000000,0.000000,0.000000
cobot_dynamixel_driver/joint_states|name|J1,J2,J3,J4,J5,J6|pos|0.150544,-1.268785,1.296275,-0.001715,-1.324154,-0.000083|vel|0.000000,-0.000000,0.000000,0.000000,0.000000,0.000000|eff|0.000000,0.000000,0.000000,0.000000,0.000000,0.000000
cobot_dynamixel_driver/joint_states|name|J1,J2,J3,J4,J5,J6|pos|0.150544,-1.268785,1.296275,-0.001715,-1.324154,-0.000083|vel|0.000000,-0.000000,0.000000,0.000000,0.000000,0.000000|eff|0.000000,0.000000,0.000000,0.000000,0.000000,0.000000
cobot_dynamixel_driver/joint_states|name|J1,J2,J3,J4,J5,J6|pos|0.150544,-1.268785,1.296275,-0.001715,-1.324154,-0.000083|vel|0.000000,-0.000000,0.000000,0.000000,0.000000,0.000000|eff|0.000000,0.000000,0.000000,0.000000,0.000000,0.000000
cobot_dynamixel_driver/joint_states|name|J1,J2,J3,J4,J5,J6|pos|0.150544,-1.268785,1.296275,-0.001715,-1.324154,-0.000083|vel|0.000000,-0.000000,0.000000,0.000000,0.000000,0.000000|eff|0.000000,0.000000,0.000000,0.000000,0.000000,0.000000
cobot_dynamixel_driver/joint_states|name|J1,J2,J3,J4,J5,J6|pos|0.150544,-1.268785,1.296275,-0.001715,-1.324154,-0.000083|vel|0.000000,-0.000000,0.000000,0.000000,0.000000,0.000000|eff|0.000000,0.000000,0.000000,0.000000,0.000000,0.000000
cobot_dynamixel_driver/joint_states|name|J1,J2,J3,J4,J5,J6|pos|0.150544,-1.268785,1.296275,-0.001715,-1.324154,-0.000083|vel|0.000000,-0.000000,0.000000,0.000000,0.000000,0.000000|eff|0.000000,0.000000,0.000000,0.000000,0.000000,0.000000
cobot_dynamixel_driver/joint_states|name|J1,J2,J3,J4,J5,J6|pos|0.150544,-1.268785,1.296275,-0.001715,-1.324154,-0.000083|vel|0.000000,-0.000000,0.000000,0.000000,0.000000,0.000000|eff|0.000000,0.000000,0.000000,0.000000,0.000000,0.000000
cobot_dynamixel_driver/joint_states|name|J1,J2,J3,J4,J5,J6|pos|0.150544,-1.268785,1.296275,-0.001715,-1.324154,-0.000083|vel|0.000000,-0.000000,0.000000,0.000000,0.000000,0.000000|eff|0.000000,0.000000,0.000000,0.000000,0.000000,0.000000
cobot_dynamixel_driver/joint_states|name|J1,J2,J3,J4,J5,J6|pos|0.150544,-1.268785,1.296275,-0.001715,-1.324154,-0.000083|vel|0.000000,-0.000000,0.000000,0.000000,0.000000,0.000000|eff|0.000000,0.000000,0.000000,0.000000,0.000000,0.000000
cobot_dynamixel_driver/joint_states|name|J1,J2,J3,J4,J5,J6|pos|0.150544,-1.268785,1.296275,-0.001715,-1.324154,-0.000083|vel|0.000000,-0.000000,0.000000,0.000000,0.000000,0.000000|eff|0.000000,0.000000,0.000000,0.000000,0.000000,0.000000
cobot_dynamixel_driver/joint_states|name|J1,J2,J3,J4,J5,J6|pos|0.150544,-1.268785,1.296275,-0.001715,-1.324154,-0.000083|vel|0.000000,-0.000000,0.000000,0.000000,0.000000,0.000000|eff|0.000000,0.000000,0.000000,0.000000,0.000000,0.000000
cobot_dynamixel_driver/joint_states|name|J1,J2,J3,J4,J5,J6|pos|0.150544,-1.268785,1.296275,-0.001715,-1.324154,-0.000083|vel|0.000000,-0.000000,0.000000,0.000000,0.000000,0.000000|eff|0.000000,0.000000,0.000000,0.000000,0.000000,0.000000
cobot_dynamixel_driver/joint_states|name|J1,J2,J3,J4,J5,J6|pos|0.150544,-1.268785,1.296275,-0.001715,-1.324154,-0.000083|vel|0.000000,-0.000000,0.000000,0.000000,0.000000,0.000000|eff|0.000000,0.000000,0.000000,0.000000,0.000000,0.000000
cobot_dynamixel_driver/joint_states|name|J1,J2,J3,J4,J5,J6|pos|0.150544,-1.268785,1.296275,-0.001715,-1.324154,-0.000083|vel|0.000000,-0.000000,0.000000,0.000000,0.000000,0.000000|eff|0.000000,0.000000,0.000000,0.000000,0.000000,0.000000
cobot_dynamixel_driver/joint_states|name|J1,J2,J3,J4,J5,J6|pos|0.150544,-1.268785,1.296275,-0.001715,-1.324154,-0.000083|vel|0.000000,-0.000000,0.000000,0.000000,0.000000,0.000000|eff|0.000000,0.000000,0.000000,0.000000,0.000000,0.000000
cobot_dynamixel_driver/joint_states|name|J1,J2,J3,J4,J5,J6|pos|0.150544,-1.268785,1.296275,-0.001715,-1.324154,-0.000083|vel|0.000000,-0.000000,0.000000,0.000000,0.000000,0.000000|eff|0.000000,0.000000,0.000000,0.000000,0.000000,0.000000
cobot_dynamixel_driver/joint_states|name|J1,J2,J3,J4,J5,J6|pos|0.150544,-1.268785,1.296275,-0.001715,-1.324154,-0.000083|vel|0.000000,-0.000000,0.000000,0.000000,0.000000,0.000000|eff|0.000000,0.000000,0.000000,0.000000,0.000000,0.000000
cobot_dynamixel_driver/joint_states|name|J1,J2,J3,J4,J5,J6|pos|0.150544,-1.268785,1.296275,-0.001715,-1.324154,-0.000083|vel|0.000000,-0.000000,0.000000,0.000000,0.000000,0.000000|eff|0.000000,0.000000,0.000000,0.000000,0.000000,0.000000
cobot_dynamixel_driver/joint_states|name|J1,J2,J3,J4,J5,J6|pos|0.150544,-1.268785,1.296275,-0.001715,-1.324154,-0.000083|vel|0.000000,-0.000000,0.000000,0.000000,0.000000,0.000000|eff|0.000000,0.000000,0.000000,0.000000,0.000000,0.000000
cobot_dynamixel_driver/joint_states|name|J1,J2,J3,J4,J5,J6|pos|0.150544,-1.268785,1.296275,-0.001715,-1.324154,-0.000083|vel|0.000000,-0.000000,0.000000,0.000000,0.000000,0.000000|eff|0.000000,0.000000,0.000000,0.000000,0.000000,0.000000
cobot_dynamixel_driver/joint_states|name|J1,J2,J3,J4,J5,J6|pos|0.150544,-1.268785,1.296275,-0.001715,-1.324154,-0.000083|vel|0.000000,-0.000000,0.000000,0.000000,0.000000,0.000000|eff|0.000000,0.000000,0.000000,0.000000,0.000000,0.000000
cobot_dynamixel_driver/joint_states|name|J1,J2,J3,J4,J5,J6|pos|0.150544,-1.268785,1.296275,-0.001715,-1.324154,-0.000083|vel|0.000000,-0.000000,0.000000,0.000000,0.000000,0.000000|eff|0.000000,0.000000,0.000000,0.000000,0.000000,0.000000
cobot_dynamixel_driver/joint_states|name|J1,J2,J3,J4,J5,J6|pos|0.150544,-1.268785,1.296275,-0.001715,-1.324154,-0.000083|vel|0.000000,-0.000000,0.000000,0.000000,0.000000,0.000000|eff|0.000000,0.000000,0.000000,0.000000,0.000000,0.000000
cobot_dynamixel_driver/joint_states|name|J1,J2,J3,J4,J5,J6|pos|0.150544,-1.268785,1.296275,-0.001715,-1.324154,-0.000083|vel|0.000000,-0.000000,0.000000,0.000000,0.000000,0.000000|eff|0.000000,0.000000,0.000000,0.000000,0.000000,0.000000
cobot_dynamixel_driver/joint_states|name|J1,J2,J3,J4,J5,J6|pos|0.150544,-1.268785,1.296275,-0.001715,-1.324154,-0.000083|vel|0.000000,-0.000000,0.000000,0.000000,0.000000,0.000000|eff|0.000000,0.000000,0.000000,0.000000,0.000000,0.000000
cobot_dynamixel_driver/joint_states|name|J1,J2,J3,J4,J5,J6|pos|0.150544,-1.268785,1.296275,-0.001715,-1.324154,-0.000083|vel|0.000000,-0.000000,0.000000,0.000000,0.000000,0.000000|eff|0.000000,0.000000,0.000000,0.000000,0.000000,0.000000
cobot_dynamixel_driver/joint_states|name|J1,J2,J3,J4,J5,J6|pos|0.150544,-1.268785,1.296275,-0.001715,-1.324154,-0.000083|vel|0.000000,-0.000000,0.000000,0.000000,0.000000,0.000000|eff|0.000000,0.000000,0.000000,0.000000,0.000000,0.000000
cobot_dynamixel_driver/joint_states|name|J1,J2,J3,J4,J5,J6|pos|0.150544,-1.268785,1.296275,-0.001715,-1.324154,-0.000083|vel|0.000000,-0.000000,0.000000,0.000000,0.000000,0.000000|eff|0.000000,0.000000,0.000000,0.000000,0.000000,0.000000
cobot_dynamixel_driver/joint_states|name|J1,J2,J3,J4,J5,J6|pos|0.150544,-1.268785,1.296275,-0.001715,-1.324154,-0.000083|vel|0.000000,-0.000000,0.000000,0.000000,0.000000,0.000000|eff|0.000000,0.000000,0.000000,0.000000,0.000000,0.000000
cobot_dynamixel_driver/joint_states|name|J1,J2,J3,J4,J5,J6|pos|0.150544,-1.268785,1.296275,-0.001715,-1.324154,-0.000083|vel|0.000000,-0.000000,0.000000,0.000000,0.000000,0.000000|eff|0.000000,0.000000,0.000000,0.000000,0.000000,0.000000
cobot_dynamixel_driver/joint_states|name|J1,J2,J3,J4,J5,J6|pos|0.150544,-1.268785,1.296275,-0.001715,-1.324154,-0.000083|vel|0.000000,-0.000000,0.000000,0.000000,0.000000,0.000000|eff|0.000000,0.000000,0.000000,0.000000,0.000000,0.000000
cobot_dynamixel_driver/joint_states|name|J1,J2,J3,J4,J5,J6|pos|0.150544,-1.268785,1.296275,-0.001715,-1.324154,-0.000083|vel|0.000000,-0.000000,0.000000,0.000000,0.000000,0.000000|eff|0.000000,0.000000,0.000000,0.000000,0.000000,0.000000
cobot_dynamixel_driver/joint_states|name|J1,J2,J3,J4,J5,J6|pos|0.150544,-1.268785,1.296275,-0.001715,-1.324154,-0.000083|vel|0.000000,-0.000000,0.000000,0.000000,0.000000,0.000000|eff|0.000000,0.000000,0.000000,0.000000,0.000000,0.000000
cobot_dynamixel_driver/joint_states|name|J1,J2,J3,J4,J5,J6|pos|0.150544,-1.268785,1.296275,-0.001715,-1.324154,-0.000083|vel|0.000000,-0.000000,0.000000,0.000000,0.000000,0.000000|eff|0.000000,0.000000,0.000000,0.000000,0.000000,0.000000
cobot_dynamixel_driver/goal|-:J1,J2,J3,J4,J5,J6:0.000000,0.000000,0.000000,0.000000,0.000000,0.000000:0.700000,0.700000,0.700000,0.700000,0.700000,0.700000:pos_vel_
cobot_dynamixel_driver/joint_states|name|J1,J2,J3,J4,J5,J6|pos|0.150544,-1.267658,1.296275,-0.001715,-1.324154,-0.000083|vel|0.000000,-0.000000,0.000000,0.000000,0.000000,0.000000|eff|0.000000,0.000000,0.000000,0.000000,0.000000,0.000000
cobot_dynamixel_driver/joint_states|name|J1,J2,J3,J4,J5,J6|pos|0.150544,-1.267658,1.296262,-0.001715,-1.324092,-0.000083|vel|0.000000,-0.000000,0.000000,0.000000,0.013788,0.000000|eff|-241.699219,-322.265625,-177.246094,161.132812,116.821289,0.000000
cobot_dynamixel_driver/joint_states|name|J1,J2,J3,J4,J5,J6|pos|0.150131,-1.267220,1.295824,-0.001540,-1.322872,-0.000083|vel|-0.042773,0.045485,-0.044859,0.005842,0.103755,0.000000|eff|-708.984375,-676.757812,-499.511719,64.453125,112.792969,0.000000
cobot_dynamixel_driver/joint_states|name|J1,J2,J3,J4,J5,J6|pos|0.148654,-1.265730,1.294472,-0.001465,-1.319955,-0.000083|vel|-0.108496,0.110791,-0.089301,0.004799,0.201649,0.000000|eff|-1031.250000,-1015.136719,-982.910156,128.906250,112.792969,0.000000
cobot_dynamixel_driver/joint_states|name|J1,J2,J3,J4,J5,J6|pos|0.145700,-1.263101,1.292056,-0.001327,-1.315487,-0.000083|vel|-0.181940,0.163788,-0.161284,0.007303,0.293684,0.000000|eff|-1353.515625,-1724.121094,-1595.214844,112.792969,96.679688,0.000000
cobot_dynamixel_driver/joint_states|name|J1,J2,J3,J4,J5,J6|pos|0.141306,-1.259221,1.287988,-0.001202,-1.309798,-0.000083|vel|-0.252671,0.242865,-0.245786,0.006259,0.335737,0.000000|eff|-1192.382812,-1885.253906,-1498.535156,128.906250,80.566406,0.000000
cobot_dynamixel_driver/joint_states|name|J1,J2,J3,J4,J5,J6|pos|0.135472,-1.253851,1.281954,-0.001077,-1.303179,-0.000083|vel|-0.320273,0.311509,-0.354073,0.005425,0.370207,0.000000|eff|-1482.421875,-1981.933594,-1353.515625,64.453125,88.623047,0.000000
cobot_dynamixel_driver/joint_states|name|J1,J2,J3,J4,J5,J6|pos|0.128500,-1.246815,1.274618,-0.000989,-1.295753,-0.000083|vel|-0.382032,0.357203,-0.412494,0.004590,0.404677,0.000000|eff|-1047.363281,-2014.160156,-1031.250000,145.019531,68.481445,0.000000
cobot_dynamixel_driver/joint_states|name|J1,J2,J3,J4,J5,J6|pos|0.120613,-1.239354,1.266469,-0.000901,-1.287582,-0.000083|vel|-0.435863,0.457979,-0.421258,0.004382,0.428806,0.000000|eff|-1144.042969,-1853.027344,-1724.121094,225.585938,64.453125,8.056641
cobot_dynamixel_driver/joint_states|name|J1,J2,J3,J4,J5,J6|pos|0.111913,-1.230717,1.257618,-0.000801,-1.278750,-0.000083|vel|-0.432107,0.469246,-0.501378,0.005216,0.461553,0.000000|eff|-708.984375,-2642.578125,-1160.156250,145.019531,68.481445,0.000000
cobot_dynamixel_driver/joint_states|name|J1,J2,J3,J4,J5,J6|pos|0.102637,-1.221403,1.248217,-0.000739,-1.269234,-0.000083|vel|-0.509306,0.477801,-0.489068,0.002921,0.529459,0.000000|eff|-547.851562,-3029.296875,-1240.722656,161.132812,40.283203,0.000000
cobot_dynamixel_driver/joint_states|name|J1,J2,J3,J4,J5,J6|pos|0.092810,-1.211351,1.238290,-0.000663,-1.259285,-0.000083|vel|-0.522451,0.546863,-0.508055,0.003964,0.544625,0.000000|eff|-1708.007812,-1369.628906,-1691.894531,161.132812,68.481445,8.056641
cobot_dynamixel_driver/joint_states|name|J1,J2,J3,J4,J5,J6|pos|0.082583,-1.200761,1.227850,-0.000613,-1.248942,-0.000083|vel|-0.540186,0.529337,-0.571483,0.002712,0.477064,0.000000|eff|-950.683594,-2062.500000,-1272.949219,193.359375,52.368164,8.056641
cobot_dynamixel_driver/joint_states|name|J1,J2,J3,J4,J5,J6|pos|0.072205,-1.189870,1.217022,-0.000576,-1.238165,-0.000083|vel|-0.518696,0.584628,-0.503047,0.001669,0.481545,0.000000|eff|-467.285156,-1208.496094,-999.023438,225.585938,20.141602,8.056641
cobot_dynamixel_driver/joint_states|name|J1,J2,J3,J4,J5,J6|pos|0.062466,-1.178516,1.205793,-0.000513,-1.227181,-0.000083|vel|-0.463196,0.601528,-0.581707,0.002921,0.602190,0.000000|eff|-1079.589844,-2126.953125,-725.097656,193.359375,76.538086,0.000000
cobot_dynamixel_driver/joint_states|name|J1,J2,J3,J4,J5,J6|pos|0.054004,-1.166361,1.194326,-0.000463,-1.215783,-0.000083|vel|-0.405400,0.594226,-0.618011,0.002295,0.538766,0.000000|eff|-1079.589844,-1240.722656,-741.210938,193.359375,24.169922,12.084961
cobot_dynamixel_driver/joint_states|name|J1,J2,J3,J4,J5,J6|pos|0.046756,-1.155132,1.182672,-0.000426,-1.204096,-0.000083|vel|-0.314848,0.516400,-0.603197,0.002086,0.590126,0.000000|eff|-757.324219,-1305.175781,-805.664062,241.699219,24.169922,0.000000
cobot_dynamixel_driver/joint_states|name|J1,J2,J3,J4,J5,J6|pos|0.040496,-1.142388,1.170805,-0.000363,-1.192223,-0.000083|vel|-0.302120,0.671216,-0.638667,0.002712,0.692846,0.000000|eff|-612.304688,-1369.628906,-1981.933594,193.359375,24.169922,0.000000
cobot_dynamixel_driver/joint_states|name|J1,J2,J3,J4,J5,J6|pos|0.035114,-1.130671,1.158674,-0.000288,-1.180225,-0.000083|vel|-0.260391,0.635538,-0.630739,0.004382,0.523599,0.000000|eff|-660.644531,-1691.894531,-950.683594,161.132812,56.396484,12.084961
cobot_dynamixel_driver/joint_states|name|J1,J2,J3,J4,J5,J6|pos|0.030494,-1.117652,1.146231,-0.000213,-1.168000,-0.000083|vel|-0.210316,0.575865,-0.678728,0.002921,0.649069,0.000000|eff|-209.472656,-2964.843750,-773.437500,161.132812,64.453125,12.084961
cobot_dynamixel_driver/joint_states|name|J1,J2,J3,J4,J5,J6|pos|0.026501,-1.105710,1.133776,-0.000163,-1.155589,-0.000083|vel|-0.194667,0.637833,-0.678102,0.002712,0.647346,0.000000|eff|-64.453125,-3142.089844,-628.417969,161.132812,28.198242,12.084961
cobot_dynamixel_driver/joint_states|name|J1,J2,J3,J4,J5,J6|pos|0.023008,-1.093091,1.121132,-0.000125,-1.143033,-0.000083|vel|-0.157737,0.584002,-0.667252,0.002504,0.571167,0.000000|eff|-161.132812,-2529.785156,-870.117188,96.679688,40.283203,12.084961
cobot_dynamixel_driver/joint_states|name|J1,J2,J3,J4,J5,J6|pos|0.020042,-1.080235,1.108514,-0.000113,-1.130332,-0.000083|vel|-0.142088,0.707938,-0.697714,0.002504,0.658032,0.000000|eff|-257.812500,-499.511719,-1079.589844,161.132812,32.226562,12.084961
cobot_dynamixel_driver/joint_states|name|J1,J2,J3,J4,J5,J6|pos|0.017463,-1.066590,1.095533,-0.000113,-1.117693,-0.000083|vel|-0.121224,0.687073,-0.647431,0.002504,0.709047,0.000000|eff|-338.378906,-3238.769531,-1498.535156,161.132812,60.424805,12.084961
cobot_dynamixel_driver/joint_states|name|J1,J2,J3,J4,J5,J6|pos|0.015197,-1.054172,1.082651,-0.000113,-1.104868,-0.000083|vel|-0.110374,0.668295,-0.707521,0.002504,0.702153,0.000000|eff|-257.812500,-290.039062,-644.531250,145.019531,16.113281,12.084961
cobot_dynamixel_driver/joint_states|name|J1,J2,J3,J4,J5,J6|pos|0.013219,-1.041016,1.069670,-0.000113,-1.091981,-0.000083|vel|-0.088883,0.642214,-0.664122,0.002504,0.662513,0.000000|eff|-290.039062,-3367.675781,-1643.554688,161.132812,40.283203,20.141602
cobot_dynamixel_driver/joint_states|name|J1,J2,J3,J4,J5,J6|pos|0.011529,-1.027959,1.056601,-0.000113,-1.079115,-0.000083|vel|-0.077408,0.635538,-0.663914,0.002504,0.582887,0.000000|eff|-241.699219,-773.437500,-708.984375,96.679688,40.283203,20.141602
cobot_dynamixel_driver/joint_states|name|J1,J2,J3,J4,J5,J6|pos|0.010040,-1.014214,1.043607,-0.000113,-1.066104,-0.000083|vel|-0.068645,0.741322,-0.696463,0.000417,0.654240,0.000000|eff|-241.699219,-2030.273438,-1724.121094,112.792969,0.000000,12.084961
cobot_dynamixel_driver/joint_states|name|J1,J2,J3,J4,J5,J6|pos|0.008763,-1.001671,1.030475,-0.000113,-1.053176,-0.000083|vel|-0.063011,0.696463,-0.679354,0.000417,0.693536,0.000000|eff|-257.812500,-1659.667969,-596.191406,112.792969,76.538086,20.141602
cobot_dynamixel_driver/joint_states|name|J1,J2,J3,J4,J5,J6|pos|0.007636,-0.988452,1.017218,-0.000113,-1.040123,-0.000083|vel|-0.052579,0.658489,-0.642214,0.000417,0.668373,0.000000|eff|-193.359375,-467.285156,-1611.328125,112.792969,80.566406,16.113281
cobot_dynamixel_driver/joint_states|name|J1,J2,J3,J4,J5,J6|pos|0.006660,-0.975020,1.003924,-0.000113,-1.027112,-0.000083|vel|-0.047154,0.651603,-0.687073,0.000417,0.590126,0.000000|eff|-193.359375,-644.531250,-1804.687500,112.792969,40.283203,20.141602
cobot_dynamixel_driver/joint_states|name|J1,J2,J3,J4,J5,J6|pos|0.005783,-0.961024,0.990717,-0.000113,-1.013729,-0.000083|vel|-0.041103,0.718579,-0.680188,0.000417,0.597020,0.000000|eff|-193.359375,-2707.031250,-886.230469,112.792969,68.481445,24.169922
cobot_dynamixel_driver/joint_states|name|J1,J2,J3,J4,J5,J6|pos|0.005057,-0.948281,0.977323,-0.000113,-1.000345,-0.000083|vel|-0.036096,0.654942,-0.735688,0.000417,0.696983,0.000000|eff|-177.246094,-2997.070312,-515.625000,112.792969,68.481445,20.141602
cobot_dynamixel_driver/joint_states|name|J1,J2,J3,J4,J5,J6|pos|0.004394,-0.934373,0.964029,-0.000113,-0.986858,-0.000083|vel|-0.030462,0.635955,-0.678728,0.000000,0.761097,0.000000|eff|-193.359375,-1240.722656,-1434.082031,96.679688,16.113281,20.141602
cobot_dynamixel_driver/joint_states|name|J1,J2,J3,J4,J5,J6|pos|0.003806,-0.921504,0.950672,-0.000113,-0.973723,-0.000083|vel|-0.030462,0.730472,-0.704182,0.000000,0.698706,0.000000|eff|-161.132812,-950.683594,-2545.898438,177.246094,72.509766,24.169922
cobot_dynamixel_driver/joint_states|name|J1,J2,J3,J4,J5,J6|pos|0.003292,-0.908097,0.937102,-0.000113,-0.960484,-0.000083|vel|-0.023160,0.692707,-0.653690,0.000000,0.718009,0.000000|eff|-145.019531,-370.605469,-1949.707031,112.792969,68.481445,20.141602
cobot_dynamixel_driver/joint_states|name|J1,J2,J3,J4,J5,J6|pos|0.002879,-0.894740,0.923607,-0.000113,-0.946956,-0.000083|vel|-0.021282,0.724421,-0.679145,0.000000,0.630456,0.000000|eff|-161.132812,-821.777344,-1546.875000,161.132812,-36.254883,20.141602
cobot_dynamixel_driver/joint_states|name|J1,J2,J3,J4,J5,J6|pos|0.002504,-0.881195,0.910263,-0.000100,-0.933552,-0.000041|vel|-0.015648,0.684361,-0.713363,0.000000,0.664926,0.000000|eff|-193.359375,-757.324219,-1176.269531,193.359375,-24.169922,24.169922
cobot_dynamixel_driver/joint_states|name|J1,J2,J3,J4,J5,J6|pos|0.002203,-0.867651,0.896881,-0.000100,-0.920438,0.000021|vel|-0.014605,0.672885,-0.666209,0.000000,0.593918,0.002758|eff|-225.585938,-1466.308594,-789.550781,161.132812,84.594727,20.141602
cobot_dynamixel_driver/joint_states|name|J1,J2,J3,J4,J5,J6|pos|0.001940,-0.854106,0.883549,-0.000100,-0.906868,0.000041|vel|-0.013979,0.666626,-0.692916,0.000000,0.697327,0.002758|eff|-225.585938,-1691.894531,-773.437500,177.246094,28.198242,16.113281
cobot_dynamixel_driver/joint_states|name|J1,J2,J3,J4,J5,J6|pos|0.001665,-0.839885,0.870305,-0.000088,-0.893464,0.000041|vel|-0.011684,0.734228,-0.672885,0.000000,0.674233,0.002758|eff|-161.132812,-1176.269531,-2449.218750,128.906250,108.764648,12.084961
cobot_dynamixel_driver/joint_states|name|J1,J2,J3,J4,J5,J6|pos|0.001452,-0.826992,0.856848,-0.000075,-0.879915,0.000041|vel|-0.010432,0.698758,-0.755927,0.000000,0.620804,0.002758|eff|-209.472656,-1579.101562,-1740.234375,96.679688,-16.113281,8.056641
cobot_dynamixel_driver/joint_states|name|J1,J2,J3,J4,J5,J6|pos|0.001252,-0.813422,0.843115,-0.000063,-0.866490,0.000041|vel|-0.010641,0.707521,-0.621350,0.000000,0.680437,0.002758|eff|-193.359375,-966.796875,-1853.027344,112.792969,-12.084961,0.000000
cobot_dynamixel_driver/joint_states|name|J1,J2,J3,J4,J5,J6|pos|0.001089,-0.799965,0.829395,-0.000063,-0.853231,0.000041|vel|-0.006885,0.705017,-0.730263,0.000417,0.599433,0.002758|eff|-257.812500,-1965.820312,-1079.589844,193.359375,48.339844,0.000000
cobot_dynamixel_driver/joint_states|name|J1,J2,J3,J4,J5,J6|pos|0.000926,-0.785731,0.815825,-0.000050,-0.840158,0.000041|vel|-0.007511,0.689160,-0.731724,0.000417,0.572546,0.000000|eff|-128.906250,-2271.972656,-1079.589844,161.132812,76.538086,-12.084961
cobot_dynamixel_driver/joint_states|name|J1,J2,J3,J4,J5,J6|pos|0.000814,-0.772988,0.802243,-0.000038,-0.826629,0.000041|vel|-0.005633,0.674137,-0.679771,0.000417,0.709392,0.000000|eff|-193.359375,-3045.410156,-1337.402344,177.246094,0.000000,-12.084961
cobot_dynamixel_driver/joint_states|name|J1,J2,J3,J4,J5,J6|pos|0.000726,-0.759381,0.788786,-0.000025,-0.812998,0.000041|vel|-0.004382,0.684152,-0.703765,0.000417,0.592883,0.000000|eff|-225.585938,-3109.863281,-1627.441406,193.359375,40.283203,-12.084961
cobot_dynamixel_driver/joint_states|name|J1,J2,J3,J4,J5,J6|pos|0.000651,-0.745961,0.775179,-0.000013,-0.799511,0.000041|vel|-0.003756,0.667878,-0.674137,0.000417,0.737657,0.000000|eff|-193.359375,-2320.312500,-1127.929688,128.906250,12.084961,-12.084961
cobot_dynamixel_driver/joint_states|name|J1,J2,J3,J4,J5,J6|pos|0.000588,-0.732429,0.761797,-0.000013,-0.786107,0.000041|vel|-0.002504,0.685196,-0.704391,0.000417,0.708358,0.000000|eff|-241.699219,-1869.140625,-2191.406250,161.132812,36.254883,0.000000
cobot_dynamixel_driver/joint_states|name|J1,J2,J3,J4,J5,J6|pos|0.000501,-0.718922,0.748177,0.000000,-0.772661,0.000041|vel|-0.003964,0.665166,-0.744660,0.000417,0.678369,0.000000|eff|-177.246094,-1917.480469,-2271.972656,112.792969,60.424805,0.000000
cobot_dynamixel_driver/joint_states|name|J1,J2,J3,J4,J5,J6|pos|0.000426,-0.704601,0.734707,0.000013,-0.759071,0.000041|vel|-0.003964,0.703765,-0.702931,0.000417,0.622872,0.000000|eff|-128.906250,-2239.746094,-1981.933594,161.132812,72.509766,0.000000
cobot_dynamixel_driver/joint_states|name|J1,J2,J3,J4,J5,J6|pos|0.000351,-0.691670,0.721050,0.000013,-0.745543,0.000041|vel|-0.003964,0.743617,-0.684361,0.000417,0.694915,0.000000|eff|-112.792969,-2594.238281,-1466.308594,112.792969,-12.084961,0.000000
cobot_dynamixel_driver/joint_states|name|J1,J2,J3,J4,J5,J6|pos|0.000313,-0.678025,0.707317,0.000013,-0.732138,0.000041|vel|-0.001878,0.709607,-0.722752,0.000417,0.725937,0.000000|eff|-112.792969,-2707.031250,-1079.589844,112.792969,56.396484,0.000000
cobot_dynamixel_driver/joint_states|name|J1,J2,J3,J4,J5,J6|pos|0.000250,-0.664505,0.693597,0.000013,-0.718672,0.000041|vel|-0.002712,0.652229,-0.750085,0.000417,0.738347,0.000000|eff|-273.925781,-2835.937500,-499.511719,96.679688,64.453125,0.000000
cobot_dynamixel_driver/joint_states|name|J1,J2,J3,J4,J5,J6|pos|0.000213,-0.650998,0.679990,0.000013,-0.705413,0.000041|vel|-0.002086,0.702513,-0.685404,0.000000,0.561171,0.000000|eff|-225.585938,-2191.406250,-644.531250,193.359375,28.198242,-12.084961
cobot_dynamixel_driver/joint_states|name|J1,J2,J3,J4,J5,J6|pos|0.000163,-0.637453,0.666545,0.000013,-0.692216,0.000041|vel|-0.002504,0.655359,-0.818521,0.000000,0.677680,0.000000|eff|-145.019531,-2271.972656,-547.851562,112.792969,84.594727,0.000000
cobot_dynamixel_driver/joint_states|name|J1,J2,J3,J4,J5,J6|pos|0.000150,-0.623921,0.653264,0.000013,-0.678667,0.000041|vel|-0.001669,0.629278,-0.624479,0.000000,0.674922,0.000000|eff|-145.019531,-2030.273438,-2239.746094,177.246094,28.198242,0.000000
cobot_dynamixel_driver/joint_states|name|J1,J2,J3,J4,J5,J6|pos|0.000125,-0.610376,0.639769,0.000013,-0.665180,0.000041|vel|-0.000835,0.675389,-0.646596,0.000000,0.770748,0.000000|eff|-145.019531,-1981.933594,-2046.386719,112.792969,116.821289,0.000000
cobot_dynamixel_driver/joint_states|name|J1,J2,J3,J4,J5,J6|pos|0.000100,-0.596731,0.626024,0.000013,-0.651590,0.000041|vel|-0.000835,0.683526,-0.742573,0.000000,0.735244,0.000000|eff|-145.019531,-2433.105469,-1514.648438,193.359375,40.283203,0.000000
cobot_dynamixel_driver/joint_states|name|J1,J2,J3,J4,J5,J6|pos|0.000088,-0.583199,0.612554,0.000013,-0.638103,0.000041|vel|-0.001043,0.665374,-0.725464,0.000000,0.626664,0.000000|eff|-145.019531,-2433.105469,-2175.292969,112.792969,80.566406,0.000000
cobot_dynamixel_driver/joint_states|name|J1,J2,J3,J4,J5,J6|pos|0.000063,-0.568916,0.598947,0.000013,-0.624864,0.000041|vel|-0.001043,0.674137,-0.698549,0.000000,0.573236,0.000000|eff|-145.019531,-4060.546875,-1611.328125,145.019531,48.339844,-12.084961
cobot_dynamixel_driver/joint_states|name|J1,J2,J3,J4,J5,J6|pos|0.000050,-0.555308,0.585365,0.000013,-0.611398,0.000041|vel|-0.001043,0.676641,-0.714615,0.000000,0.762820,0.000000|eff|-145.019531,-3158.203125,-1530.761719,112.792969,76.538086,-12.084961
cobot_dynamixel_driver/joint_states|name|J1,J2,J3,J4,J5,J6|pos|0.000025,-0.542452,0.571670,0.000013,-0.597808,0.000041|vel|-0.000835,0.727760,-0.609666,0.000000,0.683539,0.000000|eff|-145.019531,-2400.878906,-1208.496094,128.906250,48.339844,0.000000
cobot_dynamixel_driver/joint_states|name|J1,J2,J3,J4,J5,J6|pos|0.000013,-0.528282,0.558000,0.000025,-0.584300,0.000041|vel|-0.000835,0.624062,-0.713154,0.000000,0.625630,0.000000|eff|0.000000,-2626.464844,-531.738281,145.019531,84.594727,-12.084961
cobot_dynamixel_driver/joint_states|name|J1,J2,J3,J4,J5,J6|pos|0.000000,-0.515325,0.544543,0.000025,-0.570813,0.000041|vel|-0.000835,0.701261,-0.690620,0.000000,0.702843,0.000000|eff|-96.679688,-2384.765625,-902.343750,193.359375,24.169922,0.000000
cobot_dynamixel_driver/joint_states|name|J1,J2,J3,J4,J5,J6|pos|0.000000,-0.501067,0.531273,0.000025,-0.557740,0.000041|vel|-0.000835,0.680188,-0.687699,0.000000,0.691123,0.000000|eff|-161.132812,-3093.750000,-1450.195312,112.792969,92.651367,0.000000
cobot_dynamixel_driver/joint_states|name|J1,J2,J3,J4,J5,J6|pos|-0.000013,-0.487535,0.517666,0.000025,-0.544150,0.000041|vel|-0.000417,0.702722,-0.636581,0.000000,0.755582,0.000000|eff|-177.246094,-2255.859375,-1579.101562,112.792969,-28.198242,0.000000
cobot_dynamixel_driver/joint_states|name|J1,J2,J3,J4,J5,J6|pos|-0.000025,-0.473940,0.503896,0.000025,-0.530973,0.000041|vel|-0.000417,0.815182,-0.722961,0.000000,0.670786,0.000000|eff|-161.132812,-2997.070312,-1095.703125,128.906250,36.254883,0.000000
cobot_dynamixel_driver/joint_states|name|J1,J2,J3,J4,J5,J6|pos|-0.000025,-0.461034,0.490376,0.000025,-0.517507,0.000041|vel|-0.000417,0.660993,-0.724630,0.000000,0.612876,0.000000|eff|-161.132812,-2562.011719,-1579.101562,128.906250,0.000000,-12.084961
cobot_dynamixel_driver/joint_states|name|J1,J2,J3,J4,J5,J6|pos|-0.000038,-0.446788,0.476682,0.000025,-0.504020,0.000041|vel|-0.000417,0.685196,-0.706060,0.000000,0.658376,0.000000|eff|-112.792969,-2771.484375,-757.324219,161.132812,64.453125,-12.084961
cobot_dynamixel_driver/joint_states|name|J1,J2,J3,J4,J5,J6|pos|-0.000038,-0.433894,0.463037,0.000025,-0.490492,0.000041|vel|-0.000209,0.682275,-0.654316,0.000000,0.675611,0.000000|eff|-80.566406,-2771.484375,-547.851562,112.792969,72.509766,0.000000
cobot_dynamixel_driver/joint_states|name|J1,J2,J3,J4,J5,J6|pos|-0.000038,-0.419699,0.449392,0.000025,-0.476922,0.000041|vel|-0.000209,0.689369,-0.668087,0.000000,0.585645,0.000000|eff|-161.132812,-2690.917969,-499.511719,112.792969,56.396484,-8.056641
cobot_dynamixel_driver/joint_states|name|J1,J2,J3,J4,J5,J6|pos|-0.000038,-0.406166,0.435847,0.000025,-0.463415,0.000041|vel|-0.000209,0.701053,-0.688534,0.000000,0.733866,0.000000|eff|-177.246094,-2980.957031,-644.531250,112.792969,16.113281,-12.084961
cobot_dynamixel_driver/joint_states|name|J1,J2,J3,J4,J5,J6|pos|-0.000038,-0.393223,0.422340,0.000025,-0.449866,0.000041|vel|-0.000209,0.707521,-0.705226,0.000000,0.694570,0.000000|eff|-128.906250,-3077.636719,-628.417969,112.792969,48.339844,-12.084961
cobot_dynamixel_driver/joint_states|name|J1,J2,J3,J4,J5,J6|pos|-0.000038,-0.379628,0.408783,0.000025,-0.436420,0.000041|vel|-0.000209,0.700635,-0.726299,0.000000,0.614255,0.000000|eff|-145.019531,-1756.347656,-563.964844,112.792969,52.368164,0.000000
cobot_dynamixel_driver/joint_states|name|J1,J2,J3,J4,J5,J6|pos|-0.000050,-0.365457,0.395250,0.000025,-0.422851,0.000041|vel|-0.000209,0.718996,-0.715241,0.000000,0.698362,0.000000|eff|-177.246094,-1160.156250,-660.644531,112.792969,28.198242,0.000000
cobot_dynamixel_driver/joint_states|name|J1,J2,J3,J4,J5,J6|pos|-0.000050,-0.352688,0.381681,0.000025,-0.409571,0.000041|vel|-0.000209,0.666626,-0.689160,0.000000,0.712149,0.000000|eff|-161.132812,-2078.613281,-580.078125,128.906250,116.821289,0.000000
cobot_dynamixel_driver/joint_states|name|J1,J2,J3,J4,J5,J6|pos|-0.000050,-0.338393,0.368374,0.000025,-0.396042,0.000041|vel|0.000000,0.681023,-0.626566,0.000000,0.725593,0.000000|eff|-32.226562,-2320.312500,-1562.988281,112.792969,-12.084961,0.000000
cobot_dynamixel_driver/joint_states|name|J1,J2,J3,J4,J5,J6|pos|-0.000050,-0.324798,0.354767,0.000025,-0.382928,0.000041|vel|0.000000,0.705226,-0.647639,0.000000,0.671475,0.000000|eff|-80.566406,-1482.421875,-1176.269531,112.792969,161.132812,0.000000
cobot_dynamixel_driver/joint_states|name|J1,J2,J3,J4,J5,J6|pos|-0.000050,-0.311178,0.341159,0.000025,-0.369379,0.000041|vel|0.000000,0.735271,-0.728594,0.000000,0.593918,0.000000|eff|-161.132812,-2529.785156,-999.023438,96.679688,44.311523,0.000000
cobot_dynamixel_driver/joint_states|name|J1,J2,J3,J4,J5,J6|pos|-0.000050,-0.297608,0.327452,0.000025,-0.355892,0.000041|vel|0.000000,0.731515,-0.720666,0.000000,0.654240,0.000000|eff|-96.679688,-1691.894531,-467.285156,112.792969,76.538086,0.000000
cobot_dynamixel_driver/joint_states|name|J1,J2,J3,J4,J5,J6|pos|-0.000050,-0.284064,0.313757,0.000025,-0.342405,0.000041|vel|0.000000,0.683735,-0.711485,0.000000,0.677335,0.000000|eff|-161.132812,-2255.859375,-708.984375,112.792969,80.566406,-12.084961
cobot_dynamixel_driver/joint_states|name|J1,J2,J3,J4,J5,J6|pos|-0.000050,-0.271182,0.300200,0.000025,-0.328856,0.000041|vel|0.000000,0.685404,-0.677267,0.000000,0.604948,0.000000|eff|-112.792969,-2449.218750,-531.738281,177.246094,0.000000,0.000000
cobot_dynamixel_driver/joint_states|name|J1,J2,J3,J4,J5,J6|pos|-0.000050,-0.256849,0.286517,0.000025,-0.315369,0.000041|vel|0.000000,0.712737,-0.752588,0.000000,0.624596,0.000000|eff|-161.132812,-1949.707031,-854.003906,145.019531,100.708008,0.000000
cobot_dynamixel_driver/joint_states|name|J1,J2,J3,J4,J5,J6|pos|-0.000050,-0.243980,0.273123,0.000025,-0.301820,0.000041|vel|0.000000,0.696671,-0.687908,0.000000,0.681816,0.000000|eff|-96.679688,-2449.218750,-547.851562,96.679688,116.821289,0.000000
cobot_dynamixel_driver/joint_states|name|J1,J2,J3,J4,J5,J6|pos|-0.000063,-0.229697,0.259603,0.000025,-0.288313,0.000041|vel|0.000000,0.718579,-0.711485,0.000000,0.632524,0.000000|eff|0.000000,-950.683594,-580.078125,112.792969,20.141602,0.000000
cobot_dynamixel_driver/joint_states|name|J1,J2,J3,J4,J5,J6|pos|-0.000063,-0.216690,0.246058,0.000025,-0.274867,0.000041|vel|0.000000,0.718370,-0.727134,0.000000,0.617357,0.000000|eff|-177.246094,-112.792969,-451.171875,128.906250,132.934570,0.000000
cobot_dynamixel_driver/joint_states|name|J1,J2,J3,J4,J5,J6|pos|-0.000063,-0.202345,0.232451,0.000025,-0.261360,0.000041|vel|0.000000,0.712946,-0.689786,0.000000,0.789018,0.000000|eff|-161.132812,886.230469,-580.078125,193.359375,0.000000,-12.084961
cobot_dynamixel_driver/joint_states|name|J1,J2,J3,J4,J5,J6|pos|-0.000063,-0.188862,0.219119,0.000025,-0.247935,0.000041|vel|0.000000,0.659323,-0.628444,0.000000,0.781434,0.000000|eff|-161.132812,386.718750,-1224.609375,193.359375,32.226562,0.000000
cobot_dynamixel_driver/joint_states|name|J1,J2,J3,J4,J5,J6|pos|-0.000063,-0.176244,0.205762,0.000025,-0.234469,0.000041|vel|0.000000,0.677476,-0.697506,0.000000,0.632179,0.000000|eff|-145.019531,-2997.070312,-2175.292969,112.792969,108.764648,-12.084961
cobot_dynamixel_driver/joint_states|name|J1,J2,J3,J4,J5,J6|pos|-0.000063,-0.162011,0.192242,0.000025,-0.221127,0.000041|vel|0.000000,0.678728,-0.700427,0.000000,0.684574,0.000000|eff|0.000000,-2562.011719,-1031.250000,145.019531,132.934570,0.000000
cobot_dynamixel_driver/joint_states|name|J1,J2,J3,J4,J5,J6|pos|-0.000063,-0.148404,0.178623,0.000025,-0.207578,0.000041|vel|0.000000,0.697088,-0.618637,0.000000,0.791430,0.000000|eff|-177.246094,-1708.007812,-1659.667969,96.679688,32.226562,0.000000
cobot_dynamixel_driver/joint_states|name|J1,J2,J3,J4,J5,J6|pos|-0.000063,-0.134809,0.164940,0.000025,-0.194153,0.000041|vel|0.000000,0.727551,-0.730055,0.000000,0.618736,0.000000|eff|0.000000,-1482.421875,-1369.628906,112.792969,40.283203,-12.084961
cobot_dynamixel_driver/joint_states|name|J1,J2,J3,J4,J5,J6|pos|-0.000063,-0.121189,0.151358,0.000025,-0.180625,0.000041|vel|0.000000,0.649934,-0.719622,0.000000,0.708358,0.000000|eff|-32.226562,-950.683594,-1450.195312,112.792969,48.339844,0.000000
cobot_dynamixel_driver/joint_states|name|J1,J2,J3,J4,J5,J6|pos|-0.000063,-0.107694,0.137613,0.000025,-0.167241,0.000041|vel|0.000000,0.707521,-0.738818,0.000000,0.792465,0.000000|eff|0.000000,-1611.328125,-435.058594,112.792969,84.594727,0.000000
cobot_dynamixel_driver/joint_states|name|J1,J2,J3,J4,J5,J6|pos|-0.000063,-0.094300,0.124081,0.000025,-0.153754,0.000041|vel|0.000000,0.707521,-0.709816,0.000000,0.716286,0.000000|eff|-161.132812,-1611.328125,-483.398438,112.792969,100.708008,0.000000
cobot_dynamixel_driver/joint_states|name|J1,J2,J3,J4,J5,J6|pos|-0.000050,-0.082407,0.110586,0.000038,-0.140309,0.000041|vel|0.000000,0.580872,-0.715241,0.000000,0.698706,0.000000|eff|-32.226562,-918.457031,-1095.703125,112.792969,108.764648,0.000000
cobot_dynamixel_driver/joint_states|name|J1,J2,J3,J4,J5,J6|pos|-0.000050,-0.070766,0.097129,0.000038,-0.126905,0.000041|vel|0.000000,0.508472,-0.690412,0.000000,0.588058,0.000000|eff|-145.019531,1176.269531,-1482.421875,112.792969,8.056641,-12.084961
cobot_dynamixel_driver/joint_states|name|J1,J2,J3,J4,J5,J6|pos|-0.000050,-0.061289,0.084335,0.000038,-0.113790,0.000041|vel|0.000000,0.456936,-0.593182,0.000000,0.676301,0.000000|eff|-96.679688,612.304688,-145.019531,96.679688,136.962891,0.000000
cobot_dynamixel_driver/joint_states|name|J1,J2,J3,J4,J5,J6|pos|-0.000050,-0.053202,0.073207,0.000038,-0.100241,0.000041|vel|0.000000,0.389543,-0.529545,0.000000,0.694570,0.000000|eff|-80.566406,854.003906,-1337.402344,112.792969,80.566406,-12.084961
cobot_dynamixel_driver/joint_states|name|J1,J2,J3,J4,J5,J6|pos|-0.000050,-0.046630,0.063705,0.000038,-0.087499,0.000041|vel|0.000000,0.330705,-0.434611,0.000000,0.611152,0.000000|eff|-161.132812,-225.585938,-982.910156,145.019531,24.169922,0.000000
cobot_dynamixel_driver/joint_states|name|J1,J2,J3,J4,J5,J6|pos|-0.000050,-0.040346,0.055568,0.000038,-0.076329,0.000041|vel|0.000000,0.285220,-0.390169,0.000000,0.518428,0.000000|eff|-145.019531,241.699219,-886.230469,112.792969,12.084961,0.000000
cobot_dynamixel_driver/joint_states|name|J1,J2,J3,J4,J5,J6|pos|-0.000050,-0.035389,0.048508,0.000038,-0.066648,0.000041|vel|0.000000,0.256009,-0.360541,0.000000,0.490163,0.000000|eff|-80.566406,209.472656,-741.210938,112.792969,-28.198242,0.000000
cobot_dynamixel_driver/joint_states|name|J1,J2,J3,J4,J5,J6|pos|-0.000050,-0.030645,0.042399,0.000038,-0.058312,0.000041|vel|0.000000,0.207603,-0.298156,0.000000,0.348491,0.000000|eff|0.000000,-257.812500,-660.644531,112.792969,0.000000,-12.084961
cobot_dynamixel_driver/joint_states|name|J1,J2,J3,J4,J5,J6|pos|-0.000050,-0.026914,0.037142,0.000038,-0.051031,0.000041|vel|0.000000,0.189243,-0.248290,0.000000,0.371586,0.000000|eff|0.000000,161.132812,-741.210938,96.679688,20.141602,0.000000
cobot_dynamixel_driver/joint_states|name|J1,J2,J3,J4,J5,J6|pos|-0.000050,-0.023472,0.032597,0.000038,-0.044742,0.000041|vel|0.000000,0.163370,-0.223669,0.000000,0.302991,0.000000|eff|-145.019531,161.132812,-821.777344,128.906250,44.311523,0.000000
cobot_dynamixel_driver/joint_states|name|J1,J2,J3,J4,J5,J6|pos|-0.000050,-0.020567,0.028517,0.000038,-0.039199,0.000041|vel|0.000000,0.140628,-0.206560,0.000000,0.230949,0.000000|eff|0.000000,112.792969,-789.550781,112.792969,36.254883,0.000000
cobot_dynamixel_driver/joint_states|name|J1,J2,J3,J4,J5,J6|pos|-0.000050,-0.017976,0.024899,0.000038,-0.034276,0.000041|vel|0.000000,0.123102,-0.174011,0.000000,0.209922,0.000000|eff|0.000000,193.359375,-757.324219,112.792969,28.198242,0.000000
cobot_dynamixel_driver/joint_states|name|J1,J2,J3,J4,J5,J6|pos|-0.000050,-0.015898,0.021757,0.000038,-0.030077,0.000041|vel|0.000000,0.107453,-0.147513,0.000000,0.184070,0.000000|eff|-177.246094,193.359375,-757.324219,96.679688,52.368164,0.000000
cobot_dynamixel_driver/joint_states|name|J1,J2,J3,J4,J5,J6|pos|-0.000050,-0.013895,0.019103,0.000038,-0.026374,0.000041|vel|0.000000,0.099733,-0.121432,0.000000,0.199236,0.000000|eff|-80.566406,257.812500,-821.777344,112.792969,56.396484,-12.084961
cobot_dynamixel_driver/joint_states|name|J1,J2,J3,J4,J5,J6|pos|-0.000050,-0.012105,0.016749,0.000038,-0.023147,0.000041|vel|0.000000,0.078242,-0.116842,0.000000,0.160630,0.000000|eff|-112.792969,209.472656,-854.003906,112.792969,68.481445,0.000000
cobot_dynamixel_driver/joint_states|name|J1,J2,J3,J4,J5,J6|pos|-0.000050,-0.010540,0.014709,0.000038,-0.020251,0.000041|vel|0.000000,0.060925,-0.100985,0.000000,0.138914,0.000000|eff|0.000000,225.585938,-854.003906,96.679688,56.396484,0.000000
cobot_dynamixel_driver/joint_states|name|J1,J2,J3,J4,J5,J6|pos|-0.000050,-0.009351,0.012894,0.000038,-0.017707,0.000041|vel|0.000000,0.061342,-0.091387,0.000000,0.101686,0.000000|eff|-145.019531,177.246094,-870.117188,96.679688,52.368164,0.000000
cobot_dynamixel_driver/joint_states|name|J1,J2,J3,J4,J5,J6|pos|-0.000050,-0.008224,0.011229,0.000038,-0.015473,0.000041|vel|0.000000,0.058004,-0.075947,0.000000,0.106167,0.000000|eff|-128.906250,177.246094,-789.550781,112.792969,56.396484,0.000000
cobot_dynamixel_driver/joint_states|name|J1,J2,J3,J4,J5,J6|pos|-0.000050,-0.007198,0.009839,0.000038,-0.013549,0.000041|vel|0.000000,0.048615,-0.067184,0.000000,0.077213,0.000000|eff|-145.019531,241.699219,-854.003906,112.792969,64.453125,0.000000
cobot_dynamixel_driver/joint_states|name|J1,J2,J3,J4,J5,J6|pos|-0.000050,-0.006222,0.008688,0.000038,-0.011873,0.000041|vel|0.000000,0.044859,-0.051953,0.000000,0.072042,0.000000|eff|-80.566406,257.812500,-950.683594,112.792969,64.453125,0.000000
cobot_dynamixel_driver/joint_states|name|J1,J2,J3,J4,J5,J6|pos|-0.000050,-0.005408,0.007711,0.000038,-0.010384,0.000041|vel|0.000000,0.037556,-0.051118,0.000000,0.075489,0.000000|eff|-161.132812,257.812500,-918.457031,96.679688,56.396484,0.000000
cobot_dynamixel_driver/joint_states|name|J1,J2,J3,J4,J5,J6|pos|-0.000050,-0.004744,0.006760,0.000038,-0.009081,0.000041|vel|0.000000,0.030462,-0.044859,0.000000,0.066182,0.000000|eff|-80.566406,209.472656,-870.117188,96.679688,80.566406,0.000000
cobot_dynamixel_driver/joint_states|name|J1,J2,J3,J4,J5,J6|pos|-0.000050,-0.004181,0.005871,0.000038,-0.007964,0.000041|vel|0.000000,0.028167,-0.041103,0.000000,0.053084,0.000000|eff|0.000000,209.472656,-886.230469,96.679688,68.481445,0.000000
cobot_dynamixel_driver/joint_states|name|J1,J2,J3,J4,J5,J6|pos|-0.000050,-0.003705,0.005057,0.000038,-0.007012,0.000041|vel|0.000000,0.023786,-0.032758,0.000000,0.041019,0.000000|eff|0.000000,128.906250,-821.777344,96.679688,60.424805,0.000000
cobot_dynamixel_driver/joint_states|name|J1,J2,J3,J4,J5,J6|pos|-0.000050,-0.003242,0.004431,0.000038,-0.006185,0.000041|vel|0.000000,0.027750,-0.032340,0.000000,0.033436,0.000000|eff|-145.019531,193.359375,-854.003906,96.679688,72.509766,0.000000
cobot_dynamixel_driver/joint_states|name|J1,J2,J3,J4,J5,J6|pos|-0.000050,-0.002867,0.003881,0.000038,-0.005420,0.000041|vel|0.000000,0.018570,-0.022534,0.000000,0.037917,0.000000|eff|-112.792969,209.472656,-902.343750,112.792969,72.509766,0.000000
cobot_dynamixel_driver/joint_states|name|J1,J2,J3,J4,J5,J6|pos|-0.000050,-0.002516,0.003455,0.000038,-0.004758,0.000041|vel|0.000000,0.014605,-0.024829,0.000000,0.033091,0.000000|eff|0.000000,177.246094,-902.343750,96.679688,68.481445,0.000000
cobot_dynamixel_driver/joint_states|name|J1,J2,J3,J4,J5,J6|pos|-0.000050,-0.002178,0.002967,0.000038,-0.004178,0.000041|vel|0.000000,0.017109,-0.018570,0.000000,0.029989,0.000000|eff|0.000000,193.359375,-837.890625,64.453125,76.538086,-12.084961
cobot_dynamixel_driver/joint_states|name|J1,J2,J3,J4,J5,J6|pos|-0.000050,-0.001890,0.002666,0.000038,-0.003641,0.000041|vel|0.000000,0.013145,-0.016066,0.000000,0.020682,0.000000|eff|-145.019531,177.246094,-918.457031,96.679688,76.538086,-12.084961
cobot_dynamixel_driver/joint_states|name|J1,J2,J3,J4,J5,J6|pos|-0.000050,-0.001627,0.002316,0.000038,-0.003186,0.000041|vel|0.000000,0.013353,-0.020865,0.000000,0.022061,0.000000|eff|-112.792969,193.359375,-886.230469,96.679688,76.538086,0.000000
cobot_dynamixel_driver/joint_states|name|J1,J2,J3,J4,J5,J6|pos|-0.000050,-0.001377,0.002015,0.000038,-0.002834,0.000041|vel|0.000000,0.012519,-0.009389,0.000000,0.014822,0.000000|eff|0.000000,193.359375,-999.023438,96.679688,96.679688,0.000000
cobot_dynamixel_driver/joint_states|name|J1,J2,J3,J4,J5,J6|pos|-0.000050,-0.001177,0.001903,0.000038,-0.002482,0.000041|vel|0.000000,0.007720,-0.005633,0.000000,0.019303,0.000000|eff|0.000000,290.039062,-950.683594,96.679688,84.594727,0.000000
cobot_dynamixel_driver/joint_states|name|J1,J2,J3,J4,J5,J6|pos|-0.000050,-0.001077,0.001715,0.000038,-0.002151,0.000041|vel|0.000000,0.004799,-0.010641,0.000000,0.015167,0.000000|eff|0.000000,96.679688,-934.570312,96.679688,80.566406,-12.084961
cobot_dynamixel_driver/joint_states|name|J1,J2,J3,J4,J5,J6|pos|-0.000050,-0.000989,0.001415,0.000038,-0.001924,0.000041|vel|0.000000,0.005216,-0.018570,0.000000,0.011375,0.000000|eff|-112.792969,241.699219,-870.117188,96.679688,84.594727,-12.084961
cobot_dynamixel_driver/joint_states|name|J1,J2,J3,J4,J5,J6|pos|-0.000050,-0.000901,0.001064,0.000038,-0.001717,0.000041|vel|0.000000,0.003547,-0.015857,0.000000,0.009996,0.000000|eff|0.000000,80.566406,-773.437500,112.792969,84.594727,0.000000
cobot_dynamixel_driver/joint_states|name|J1,J2,J3,J4,J5,J6|pos|-0.000050,-0.000814,0.000914,0.000025,-0.001489,0.000041|vel|0.000000,0.004590,-0.005633,0.000000,0.010341,0.000000|eff|-112.792969,161.132812,-837.890625,96.679688,92.651367,-12.084961
cobot_dynamixel_driver/joint_states|name|J1,J2,J3,J4,J5,J6|pos|-0.000050,-0.000726,0.000876,0.000025,-0.001303,0.000041|vel|0.000000,0.004382,-0.001669,0.000000,0.008617,0.000000|eff|-64.453125,225.585938,-918.457031,96.679688,84.594727,-12.084961
cobot_dynamixel_driver/joint_states|name|J1,J2,J3,J4,J5,J6|pos|-0.000050,-0.000638,0.000814,0.000025,-0.001179,0.000041|vel|0.000000,0.004590,-0.003547,0.000000,0.006205,0.000000|eff|0.000000,161.132812,-902.343750,112.792969,80.566406,0.000000
cobot_dynamixel_driver/joint_states|name|J1,J2,J3,J4,J5,J6|pos|-0.000050,-0.000538,0.000689,0.000025,-0.000993,0.000041|vel|0.000000,0.004590,-0.007094,0.000000,0.009307,0.000000|eff|-80.566406,128.906250,-870.117188,32.226562,76.538086,-12.084961
cobot_dynamixel_driver/joint_states|name|J1,J2,J3,J4,J5,J6|pos|-0.000050,-0.000438,0.000526,0.000025,-0.000807,0.000041|vel|0.000000,0.004799,-0.007929,0.000000,0.008273,0.000000|eff|-145.019531,193.359375,-821.777344,96.679688,88.623047,0.000000
cobot_dynamixel_driver/joint_states|name|J1,J2,J3,J4,J5,J6|pos|-0.000050,-0.000363,0.000338,0.000025,-0.000703,0.000041|vel|0.000000,0.004173,-0.008346,0.000000,0.005170,0.000000|eff|0.000000,225.585938,-773.437500,80.566406,80.566406,0.000000
cobot_dynamixel_driver/joint_states|name|J1,J2,J3,J4,J5,J6|pos|-0.000050,-0.000263,0.000225,0.000025,-0.000641,0.000041|vel|0.000000,0.004590,-0.004799,0.000000,0.003102,0.000000|eff|0.000000,209.472656,-773.437500,80.566406,80.566406,-12.084961
cobot_dynamixel_driver/joint_states|name|J1,J2,J3,J4,J5,J6|pos|-0.000050,-0.000188,0.000188,0.000025,-0.000579,0.000041|vel|0.000000,0.004173,-0.003130,0.000000,0.003102,0.000000|eff|-112.792969,241.699219,-757.324219,96.679688,80.566406,-16.113281
cobot_dynamixel_driver/joint_states|name|J1,J2,J3,J4,J5,J6|pos|-0.000050,-0.000113,0.000175,0.000025,-0.000496,0.000041|vel|0.000000,0.003964,-0.003130,0.000000,0.003102,0.000000|eff|-64.453125,209.472656,-757.324219,96.679688,84.594727,-12.084961
cobot_dynamixel_driver/joint_states|name|J1,J2,J3,J4,J5,J6|pos|-0.000050,-0.000038,0.000175,0.000025,-0.000414,0.000041|vel|0.000000,0.005216,-0.003130,0.000000,0.004826,0.000000|eff|0.000000,354.492188,-757.324219,32.226562,76.538086,0.000000
cobot_dynamixel_driver/joint_states|name|J1,J2,J3,J4,J5,J6|pos|-0.000050,-0.000038,0.000175,0.000025,-0.000372,0.000041|vel|0.000000,0.000835,-0.003130,0.000000,0.003102,0.000000|eff|-80.566406,225.585938,-757.324219,96.679688,80.566406,0.000000
cobot_dynamixel_driver/joint_states|name|J1,J2,J3,J4,J5,J6|pos|-0.000050,-0.000000,0.000175,0.000025,-0.000372,0.000041|vel|0.000000,0.001252,-0.003130,0.000000,0.003102,0.000000|eff|-64.453125,306.152344,-757.324219,96.679688,72.509766,-12.084961
cobot_dynamixel_driver/joint_states|name|J1,J2,J3,J4,J5,J6|pos|-0.000050,0.000013,0.000175,0.000025,-0.000372,0.000041|vel|0.000000,0.001252,-0.003130,0.000000,0.003102,0.000000|eff|0.000000,257.812500,-757.324219,96.679688,76.538086,-12.084961
cobot_dynamixel_driver/joint_states|name|J1,J2,J3,J4,J5,J6|pos|-0.000050,0.000013,0.000175,0.000025,-0.000372,0.000041|vel|0.000000,0.000417,0.000000,0.000000,0.003102,0.000000|eff|-80.566406,257.812500,-757.324219,96.679688,76.538086,0.000000
cobot_dynamixel_driver/joint_states|name|J1,J2,J3,J4,J5,J6|pos|-0.000050,0.000013,0.000175,0.000025,-0.000372,0.000041|vel|0.000000,0.000417,0.000000,0.000000,0.003102,0.000000|eff|-145.019531,257.812500,-692.871094,96.679688,72.509766,0.000000
cobot_dynamixel_driver/joint_states|name|J1,J2,J3,J4,J5,J6|pos|-0.000050,0.000013,0.000175,0.000025,-0.000372,0.000041|vel|0.000000,0.000417,0.000000,0.000000,0.003102,0.000000|eff|0.000000,257.812500,-692.871094,96.679688,72.509766,0.000000
cobot_dynamixel_driver/joint_states|name|J1,J2,J3,J4,J5,J6|pos|-0.000050,0.000025,0.000175,0.000025,-0.000372,0.000041|vel|0.000000,0.000417,0.000000,0.000000,0.000000,0.000000|eff|0.000000,257.812500,-757.324219,80.566406,80.566406,0.000000
cobot_dynamixel_driver/joint_states|name|J1,J2,J3,J4,J5,J6|pos|-0.000038,0.000025,0.000175,0.000025,-0.000372,0.000041|vel|0.000000,0.000417,0.000000,0.000000,0.000000,0.000000|eff|0.000000,273.925781,-757.324219,112.792969,72.509766,0.000000
cobot_dynamixel_driver/joint_states|name|J1,J2,J3,J4,J5,J6|pos|-0.000038,0.000025,0.000175,0.000025,-0.000331,0.000041|vel|0.000000,0.000417,0.000000,0.000000,0.000000,0.000000|eff|-112.792969,257.812500,-757.324219,96.679688,88.623047,0.000000
cobot_dynamixel_driver/joint_states|name|J1,J2,J3,J4,J5,J6|pos|-0.000038,0.000025,0.000175,0.000025,-0.000228,0.000041|vel|0.000000,-0.000000,0.000000,0.000000,0.005170,0.000000|eff|-112.792969,257.812500,-805.664062,0.000000,68.481445,-12.084961
cobot_dynamixel_driver/joint_states|name|J1,J2,J3,J4,J5,J6|pos|-0.000038,0.000038,0.000175,0.000025,-0.000207,0.000041|vel|0.000000,-0.000000,0.000000,0.000000,0.004136,0.000000|eff|-112.792969,273.925781,-773.437500,32.226562,72.509766,0.000000
cobot_dynamixel_driver/joint_states|name|J1,J2,J3,J4,J5,J6|pos|-0.000038,0.000038,0.000175,0.000025,-0.000207,0.000041|vel|0.000000,-0.000000,0.000000,0.000000,0.004136,0.000000|eff|-80.566406,257.812500,-757.324219,64.453125,64.453125,-12.084961
cobot_dynamixel_driver/joint_states|name|J1,J2,J3,J4,J5,J6|pos|-0.000038,0.000038,0.000163,0.000025,-0.000207,0.000041|vel|0.000000,-0.000000,0.000000,0.000000,0.004136,0.000000|eff|0.000000,370.605469,-757.324219,112.792969,60.424805,-12.084961
cobot_dynamixel_driver/joint_states|name|J1,J2,J3,J4,J5,J6|pos|-0.000038,0.000038,0.000163,0.000025,-0.000207,0.000041|vel|0.000000,-0.000000,0.000000,0.000000,0.004136,0.000000|eff|0.000000,306.152344,-757.324219,96.679688,56.396484,-12.084961
cobot_dynamixel_driver/joint_states|name|J1,J2,J3,J4,J5,J6|pos|-0.000038,0.000038,0.000150,0.000025,-0.000207,0.000041|vel|0.000000,-0.000000,0.000000,0.000000,0.004136,0.000000|eff|0.000000,257.812500,-773.437500,96.679688,44.311523,-12.084961
cobot_dynamixel_driver/joint_states|name|J1,J2,J3,J4,J5,J6|pos|-0.000038,0.000038,0.000150,0.000025,-0.000207,0.000041|vel|0.000000,-0.000000,-0.000209,0.000000,0.004136,0.000000|eff|-112.792969,370.605469,-821.777344,96.679688,44.311523,0.000000
cobot_dynamixel_driver/joint_states|name|J1,J2,J3,J4,J5,J6|pos|-0.000038,0.000038,0.000138,0.000025,-0.000207,0.000041|vel|0.000000,-0.000000,-0.000209,0.000000,0.000000,0.000000|eff|0.000000,257.812500,-789.550781,112.792969,48.339844,0.000000
cobot_dynamixel_driver/joint_states|name|J1,J2,J3,J4,J5,J6|pos|-0.000038,0.000038,0.000138,0.000025,-0.000207,0.000041|vel|0.000000,-0.000000,-0.000209,0.000000,0.000000,0.000000|eff|0.000000,273.925781,-854.003906,96.679688,56.396484,-12.084961
cobot_dynamixel_driver/joint_states|name|J1,J2,J3,J4,J5,J6|pos|-0.000038,0.000038,0.000125,0.000025,-0.000207,0.000041|vel|0.000000,-0.000000,-0.000209,0.000000,0.000000,0.000000|eff|-80.566406,257.812500,-837.890625,96.679688,56.396484,-12.084961
cobot_dynamixel_driver/joint_states|name|J1,J2,J3,J4,J5,J6|pos|-0.000038,0.000038,0.000113,0.000025,-0.000207,0.000041|vel|0.000000,-0.000000,-0.000209,0.000000,0.000000,0.000000|eff|0.000000,306.152344,-837.890625,96.679688,56.396484,0.000000
cobot_dynamixel_driver/joint_states|name|J1,J2,J3,J4,J5,J6|pos|-0.000038,0.000038,0.000113,0.000025,-0.000207,0.000041|vel|0.000000,-0.000000,-0.000209,0.000000,0.000000,0.000000|eff|0.000000,338.378906,-854.003906,96.679688,64.453125,-12.084961
cobot_dynamixel_driver/joint_states|name|J1,J2,J3,J4,J5,J6|pos|-0.000038,0.000038,0.000100,0.000025,-0.000207,0.000041|vel|0.000000,-0.000000,-0.000209,0.000000,0.000000,0.000000|eff|0.000000,370.605469,-789.550781,80.566406,60.424805,0.000000
cobot_dynamixel_driver/joint_states|name|J1,J2,J3,J4,J5,J6|pos|-0.000038,0.000038,0.000100,0.000025,-0.000207,0.000041|vel|0.000000,-0.000000,-0.000209,0.000000,0.000000,0.000000|eff|-48.339844,418.945312,-821.777344,48.339844,68.481445,-12.084961
cobot_dynamixel_driver/joint_states|name|J1,J2,J3,J4,J5,J6|pos|-0.000025,0.000038,0.000088,0.000025,-0.000207,0.000041|vel|0.000000,-0.000000,-0.000209,0.000000,0.000000,0.000000|eff|0.000000,273.925781,-837.890625,80.566406,68.481445,-12.084961
cobot_dynamixel_driver/joint_states|name|J1,J2,J3,J4,J5,J6|pos|-0.000025,0.000038,0.000075,0.000025,-0.000207,0.000041|vel|0.000000,-0.000000,-0.000626,0.000000,0.000000,0.000000|eff|0.000000,273.925781,-854.003906,96.679688,68.481445,0.000000
cobot_dynamixel_driver/joint_states|name|J1,J2,J3,J4,J5,J6|pos|-0.000025,0.000038,0.000075,0.000025,-0.000207,0.000041|vel|0.000000,-0.000000,-0.000626,0.000000,0.000000,0.000000|eff|0.000000,370.605469,-854.003906,32.226562,72.509766,0.000000
cobot_dynamixel_driver/joint_states|name|J1,J2,J3,J4,J5,J6|pos|-0.000025,0.000038,0.000063,0.000025,-0.000207,0.000041|vel|0.000000,-0.000000,-0.000626,0.000000,0.000000,0.000000|eff|-80.566406,322.265625,-821.777344,96.679688,76.538086,-16.113281
cobot_dynamixel_driver/joint_states|name|J1,J2,J3,J4,J5,J6|pos|-0.000025,0.000038,0.000063,0.000025,-0.000207,0.000041|vel|0.000000,-0.000000,-0.000626,0.000000,0.000000,0.000000|eff|-48.339844,257.812500,-805.664062,0.000000,76.538086,0.000000
cobot_dynamixel_driver/joint_states|name|J1,J2,J3,J4,J5,J6|pos|-0.000025,0.000038,0.000063,0.000025,-0.000207,0.000041|vel|0.000000,-0.000000,-0.000626,0.000000,0.000000,0.000000|eff|0.000000,290.039062,-821.777344,32.226562,76.538086,0.000000
cobot_dynamixel_driver/joint_states|name|J1,J2,J3,J4,J5,J6|pos|-0.000025,0.000038,0.000063,0.000025,-0.000165,0.000041|vel|0.000000,-0.000000,-0.000626,0.000000,0.000000,0.000000|eff|0.000000,273.925781,-854.003906,48.339844,80.566406,-12.084961
cobot_dynamixel_driver/joint_states|name|J1,J2,J3,J4,J5,J6|pos|-0.000025,0.000038,0.000063,0.000025,-0.000124,0.000041|vel|0.000000,-0.000000,0.000000,0.000000,0.001723,0.000000|eff|0.000000,257.812500,-854.003906,96.679688,84.594727,0.000000
cobot_dynamixel_driver/joint_states|name|J1,J2,J3,J4,J5,J6|pos|-0.000025,0.000038,0.000050,0.000025,-0.000083,0.000041|vel|0.000000,-0.000000,0.000000,0.000000,0.002758,0.000000|eff|-112.792969,273.925781,-854.003906,96.679688,76.538086,-12.084961
cobot_dynamixel_driver/joint_states|name|J1,J2,J3,J4,J5,J6|pos|-0.000025,0.000038,0.000050,0.000025,-0.000083,0.000041|vel|0.000000,-0.000000,0.000000,0.000000,0.002758,0.000000|eff|0.000000,338.378906,-854.003906,96.679688,68.481445,0.000000
cobot_dynamixel_driver/joint_states|name|J1,J2,J3,J4,J5,J6|pos|-0.000025,0.000038,0.000050,0.000025,-0.000083,0.000041|vel|0.000000,-0.000000,0.000000,0.000000,0.002758,0.000000|eff|0.000000,418.945312,-854.003906,96.679688,68.481445,-12.084961
cobot_dynamixel_driver/joint_states|name|J1,J2,J3,J4,J5,J6|pos|-0.000025,0.000038,0.000050,0.000025,-0.000083,0.000041|vel|0.000000,-0.000000,0.000000,0.000000,0.002758,0.000000|eff|0.000000,322.265625,-789.550781,96.679688,56.396484,-12.084961
cobot_dynamixel_driver/joint_states|name|J1,J2,J3,J4,J5,J6|pos|-0.000025,0.000038,0.000050,0.000025,-0.000083,0.000041|vel|0.000000,-0.000000,0.000000,0.000000,0.002758,0.000000|eff|0.000000,306.152344,-837.890625,32.226562,56.396484,0.000000
cobot_dynamixel_driver/joint_states|name|J1,J2,J3,J4,J5,J6|pos|-0.000025,0.000038,0.000050,0.000025,-0.000083,0.000041|vel|0.000000,-0.000000,0.000000,0.000000,0.002758,0.000000|eff|0.000000,338.378906,-837.890625,96.679688,48.339844,-12.084961
cobot_dynamixel_driver/joint_states|name|J1,J2,J3,J4,J5,J6|pos|-0.000025,0.000038,0.000050,0.000025,-0.000083,0.000041|vel|0.000000,-0.000000,0.000000,0.000000,0.000000,0.000000|eff|0.000000,306.152344,-854.003906,64.453125,52.368164,0.000000
cobot_dynamixel_driver/joint_states|name|J1,J2,J3,J4,J5,J6|pos|-0.000025,0.000038,0.000050,0.000025,-0.000083,0.000041|vel|0.000000,-0.000000,0.000000,0.000000,0.000000,0.000000|eff|0.000000,257.812500,-837.890625,0.000000,56.396484,0.000000
cobot_dynamixel_driver/joint_states|name|J1,J2,J3,J4,J5,J6|pos|-0.000025,0.000038,0.000050,0.000025,-0.000083,0.000041|vel|0.000000,-0.000000,0.000000,0.000000,0.000000,0.000000|eff|-80.566406,322.265625,-854.003906,112.792969,56.396484,0.000000
cobot_dynamixel_driver/joint_states|name|J1,J2,J3,J4,J5,J6|pos|-0.000025,0.000038,0.000050,0.000025,-0.000083,0.000041|vel|0.000000,-0.000000,0.000000,0.000000,0.000000,0.000000|eff|0.000000,386.718750,-854.003906,0.000000,56.396484,0.000000
cobot_dynamixel_driver/joint_states|name|J1,J2,J3,J4,J5,J6|pos|-0.000025,0.000038,0.000038,0.000025,-0.000083,0.000041|vel|0.000000,-0.000000,0.000000,0.000000,0.000000,0.000000|eff|0.000000,273.925781,-854.003906,112.792969,56.396484,0.000000
cobot_dynamixel_driver/joint_states|name|J1,J2,J3,J4,J5,J6|pos|-0.000025,0.000038,0.000038,0.000025,-0.000083,0.000041|vel|0.000000,-0.000000,0.000000,0.000000,0.000000,0.000000|eff|0.000000,257.812500,-854.003906,48.339844,56.396484,0.000000
cobot_dynamixel_driver/joint_states|name|J1,J2,J3,J4,J5,J6|pos|-0.000013,0.000038,0.000038,0.000025,-0.000083,0.000041|vel|0.000000,-0.000000,0.000000,0.000000,0.000000,0.000000|eff|0.000000,241.699219,-854.003906,96.679688,56.396484,0.000000
cobot_dynamixel_driver/joint_states|name|J1,J2,J3,J4,J5,J6|pos|-0.000013,0.000038,0.000038,0.000025,-0.000083,0.000041|vel|0.000000,-0.000000,0.000000,0.000000,0.000000,0.000000|eff|0.000000,306.152344,-854.003906,96.679688,56.396484,0.000000
cobot_dynamixel_driver/joint_states|name|J1,J2,J3,J4,J5,J6|pos|-0.000013,0.000038,0.000038,0.000025,-0.000083,0.000041|vel|0.000000,-0.000000,0.000000,0.000000,0.000000,0.000000|eff|0.000000,257.812500,-854.003906,96.679688,60.424805,0.000000
cobot_dynamixel_driver/joint_states|name|J1,J2,J3,J4,J5,J6|pos|-0.000013,0.000038,0.000038,0.000025,-0.000083,0.000041|vel|0.000000,-0.000000,0.000000,0.000000,0.000000,0.000000|eff|0.000000,257.812500,-854.003906,112.792969,60.424805,-12.084961
cobot_dynamixel_driver/joint_states|name|J1,J2,J3,J4,J5,J6|pos|-0.000013,0.000038,0.000038,0.000025,-0.000083,0.000041|vel|0.000000,-0.000000,0.000000,0.000000,0.000000,0.000000|eff|-80.566406,257.812500,-854.003906,32.226562,56.396484,-12.084961
cobot_dynamixel_driver/joint_states|name|J1,J2,J3,J4,J5,J6|pos|-0.000013,0.000038,0.000025,0.000025,-0.000083,0.000041|vel|0.000000,-0.000000,0.000000,0.000000,0.000000,0.000000|eff|0.000000,322.265625,-854.003906,32.226562,60.424805,0.000000
cobot_dynamixel_driver/joint_states|name|J1,J2,J3,J4,J5,J6|pos|-0.000013,0.000038,0.000025,0.000025,-0.000083,0.000041|vel|0.000000,-0.000000,0.000000,0.000000,0.000000,0.000000|eff|0.000000,418.945312,-870.117188,96.679688,64.453125,0.000000
cobot_dynamixel_driver/joint_states|name|J1,J2,J3,J4,J5,J6|pos|-0.000013,0.000038,0.000025,0.000025,-0.000083,0.000041|vel|0.000000,-0.000000,0.000000,0.000000,0.000000,0.000000|eff|0.000000,257.812500,-854.003906,48.339844,60.424805,0.000000
cobot_dynamixel_driver/goal|-:J1,J2,J3,J4,J5,J6:1.047198,0.000000,0.000000,0.000000,0.000000,0.000000:0.500000,0.500000,0.500000,0.500000,0.500000,0.500000:pos_vel_
cobot_dynamixel_driver/joint_states|name|J1,J2,J3,J4,J5,J6|pos|-0.000013,0.000038,0.000025,0.000025,-0.000083,0.000041|vel|0.000000,-0.000000,0.000000,0.000000,0.000000,0.000000|eff|-80.566406,273.925781,-854.003906,80.566406,60.424805,0.000000
cobot_dynamixel_driver/joint_states|name|J1,J2,J3,J4,J5,J6|pos|-0.000013,0.000038,0.000025,0.000025,-0.000083,0.000041|vel|0.000000,-0.000000,0.000000,0.000000,0.000000,0.000000|eff|306.152344,418.945312,-854.003906,32.226562,68.481445,0.000000
cobot_dynamixel_driver/joint_states|name|J1,J2,J3,J4,J5,J6|pos|0.000526,0.000038,0.000025,0.000025,-0.000083,0.000041|vel|0.051118,-0.000000,0.000000,0.000000,0.000000,0.000000|eff|531.738281,290.039062,-854.003906,80.566406,68.481445,-12.084961
cobot_dynamixel_driver/joint_states|name|J1,J2,J3,J4,J5,J6|pos|0.002103,0.000038,0.000025,0.000025,-0.000083,0.000041|vel|0.107244,-0.000000,0.000000,0.000000,0.000000,0.000000|eff|757.324219,386.718750,-854.003906,96.679688,64.453125,-12.084961
cobot_dynamixel_driver/joint_states|name|J1,J2,J3,J4,J5,J6|pos|0.004732,0.000038,0.000025,0.000025,-0.000083,0.000041|vel|0.168795,-0.000000,0.000000,0.000000,0.000000,0.000000|eff|902.343750,257.812500,-854.003906,112.792969,68.481445,0.000000
cobot_dynamixel_driver/joint_states|name|J1,J2,J3,J4,J5,J6|pos|0.008312,0.000038,0.000025,0.000025,-0.000083,0.000041|vel|0.209690,-0.000000,0.000000,0.000000,0.000000,0.000000|eff|934.570312,257.812500,-854.003906,96.679688,68.481445,0.000000
cobot_dynamixel_driver/joint_states|name|J1,J2,J3,J4,J5,J6|pos|0.012806,0.000038,0.000025,0.000025,-0.000083,0.000041|vel|0.250585,-0.000000,0.000000,0.000000,0.000000,0.000000|eff|1111.816406,273.925781,-854.003906,96.679688,68.481445,-12.084961
cobot_dynamixel_driver/joint_states|name|J1,J2,J3,J4,J5,J6|pos|0.018114,0.000038,0.000025,0.000025,-0.000083,0.000041|vel|0.281256,-0.000000,0.000000,0.000000,0.000000,0.000000|eff|982.910156,370.605469,-854.003906,112.792969,68.481445,0.000000
cobot_dynamixel_driver/joint_states|name|J1,J2,J3,J4,J5,J6|pos|0.024035,0.000038,0.000025,0.000025,-0.000083,0.000041|vel|0.301494,-0.000000,0.000000,0.000000,0.000000,0.000000|eff|1015.136719,306.152344,-854.003906,112.792969,68.481445,0.000000
cobot_dynamixel_driver/joint_states|name|J1,J2,J3,J4,J5,J6|pos|0.030432,0.000038,0.000025,0.000025,-0.000083,0.000041|vel|0.300451,-0.000000,0.000000,0.000000,0.000000,0.000000|eff|1305.175781,370.605469,-854.003906,48.339844,68.481445,0.000000
cobot_dynamixel_driver/joint_states|name|J1,J2,J3,J4,J5,J6|pos|0.037292,0.000038,0.000025,0.000025,-0.000083,0.000041|vel|0.347605,-0.000000,0.000000,0.000000,0.000000,0.000000|eff|547.851562,273.925781,-854.003906,80.566406,76.538086,-12.084961
cobot_dynamixel_driver/joint_states|name|J1,J2,J3,J4,J5,J6|pos|0.044515,0.000038,0.000025,0.000025,-0.000083,0.000041|vel|0.370556,-0.000000,0.000000,0.000000,0.000000,0.000000|eff|547.851562,418.945312,-854.003906,96.679688,80.566406,0.000000
cobot_dynamixel_driver/joint_states|name|J1,J2,J3,J4,J5,J6|pos|0.052013,0.000038,0.000025,0.000025,-0.000083,0.000041|vel|0.408739,-0.000000,0.000000,0.000000,0.000000,0.000000|eff|837.890625,273.925781,-854.003906,112.792969,68.481445,0.000000
cobot_dynamixel_driver/joint_states|name|J1,J2,J3,J4,J5,J6|pos|0.059850,0.000038,0.000025,0.000025,-0.000083,0.000041|vel|0.408739,-0.000000,0.000000,0.000000,0.000000,0.000000|eff|886.230469,451.171875,-854.003906,96.679688,72.509766,0.000000
cobot_dynamixel_driver/joint_states|name|J1,J2,J3,J4,J5,J6|pos|0.068037,0.000038,0.000025,0.000025,-0.000083,0.000041|vel|0.409156,-0.000000,0.000000,0.000000,0.000000,0.000000|eff|1804.687500,354.492188,-854.003906,96.679688,80.566406,0.000000
cobot_dynamixel_driver/joint_states|name|J1,J2,J3,J4,J5,J6|pos|0.076386,0.000038,0.000025,0.000025,-0.000083,0.000041|vel|0.441496,-0.000000,0.000000,0.000000,0.000000,0.000000|eff|1836.914062,290.039062,-854.003906,96.679688,68.481445,0.000000
cobot_dynamixel_driver/joint_states|name|J1,J2,J3,J4,J5,J6|pos|0.084798,0.000038,0.000013,0.000025,-0.000041,0.000041|vel|0.439410,-0.000000,0.000000,0.000000,0.000000,0.000000|eff|2336.425781,451.171875,-854.003906,96.679688,76.538086,0.000000
cobot_dynamixel_driver/joint_states|name|J1,J2,J3,J4,J5,J6|pos|0.093373,0.000038,0.000013,0.000025,0.000000,0.000041|vel|0.453598,-0.000000,0.000000,0.000000,0.003447,0.000000|eff|209.472656,467.285156,-854.003906,96.679688,64.453125,0.000000
cobot_dynamixel_driver/joint_states|name|J1,J2,J3,J4,J5,J6|pos|0.102136,0.000038,0.000013,0.000025,0.000000,0.000041|vel|0.436072,-0.000000,0.000000,0.000000,0.003447,0.000000|eff|1063.476562,386.718750,-854.003906,32.226562,52.368164,0.000000
cobot_dynamixel_driver/joint_states|name|J1,J2,J3,J4,J5,J6|pos|0.111024,0.000038,0.000013,0.000025,0.000000,0.000041|vel|0.438993,-0.000000,0.000000,0.000000,0.003447,0.000000|eff|499.511719,402.832031,-854.003906,96.679688,48.339844,0.000000
cobot_dynamixel_driver/joint_states|name|J1,J2,J3,J4,J5,J6|pos|0.120037,0.000038,0.000013,0.000025,0.000000,0.000041|vel|0.455684,-0.000000,0.000000,0.000000,0.003447,0.000000|eff|1546.875000,273.925781,-854.003906,96.679688,52.368164,-12.084961
cobot_dynamixel_driver/joint_states|name|J1,J2,J3,J4,J5,J6|pos|0.129163,0.000038,0.000013,0.000025,0.000000,0.000041|vel|0.503047,-0.000000,0.000000,0.000000,0.003447,0.000000|eff|805.664062,338.378906,-854.003906,112.792969,28.198242,-12.084961
cobot_dynamixel_driver/joint_states|name|J1,J2,J3,J4,J5,J6|pos|0.138289,0.000038,0.000013,0.000025,0.000000,0.000041|vel|0.475297,-0.000000,0.000000,0.000000,0.003447,0.000000|eff|386.718750,451.171875,-854.003906,96.679688,24.169922,0.000000
cobot_dynamixel_driver/joint_states|name|J1,J2,J3,J4,J5,J6|pos|0.147452,0.000038,0.000013,0.000025,0.000000,0.000041|vel|0.463404,-0.000000,0.000000,0.000000,0.000000,0.000000|eff|725.097656,290.039062,-854.003906,48.339844,28.198242,0.000000
cobot_dynamixel_driver/joint_states|name|J1,J2,J3,J4,J5,J6|pos|0.156716,0.000038,0.000013,0.000025,0.000000,0.000041|vel|0.469664,-0.000000,0.000000,0.000000,0.000000,0.000000|eff|2191.406250,386.718750,-854.003906,96.679688,28.198242,-12.084961
cobot_dynamixel_driver/joint_states|name|J1,J2,J3,J4,J5,J6|pos|0.166580,0.000038,0.000013,0.000025,0.000000,0.000041|vel|0.486564,-0.000000,0.000000,0.000000,0.000000,0.000000|eff|418.945312,338.378906,-854.003906,80.566406,28.198242,0.000000
cobot_dynamixel_driver/joint_states|name|J1,J2,J3,J4,J5,J6|pos|0.175455,0.000038,0.000013,0.000025,0.000000,0.000041|vel|0.467786,-0.000000,0.000000,0.000000,0.000000,0.000000|eff|1208.496094,467.285156,-854.003906,48.339844,36.254883,0.000000
cobot_dynamixel_driver/joint_states|name|J1,J2,J3,J4,J5,J6|pos|0.184869,0.000038,0.000013,0.000025,0.000000,0.000041|vel|0.549575,-0.000000,0.000000,0.000000,0.000000,0.000000|eff|2207.519531,386.718750,-854.003906,96.679688,36.254883,0.000000
cobot_dynamixel_driver/joint_states|name|J1,J2,J3,J4,J5,J6|pos|0.194796,0.000038,0.000013,0.000025,0.000000,0.000041|vel|0.496996,-0.000000,0.000000,0.000000,0.000000,0.000000|eff|322.265625,290.039062,-854.003906,48.339844,24.169922,-12.084961
cobot_dynamixel_driver/joint_states|name|J1,J2,J3,J4,J5,J6|pos|0.203834,0.000038,0.000013,0.000025,0.000000,0.000041|vel|0.493867,-0.000000,0.000000,0.000000,0.000000,0.000000|eff|483.398438,290.039062,-854.003906,96.679688,36.254883,-12.084961
cobot_dynamixel_driver/joint_states|name|J1,J2,J3,J4,J5,J6|pos|0.213311,0.000038,0.000013,0.000025,0.000000,0.000041|vel|0.498874,-0.000000,0.000000,0.000000,0.000000,0.000000|eff|451.171875,402.832031,-870.117188,96.679688,36.254883,0.000000
cobot_dynamixel_driver/joint_states|name|J1,J2,J3,J4,J5,J6|pos|0.223300,0.000038,0.000000,0.000025,0.000000,0.000041|vel|0.479053,-0.000000,0.000000,0.000000,0.000000,0.000000|eff|1530.761719,418.945312,-854.003906,112.792969,28.198242,0.000000
cobot_dynamixel_driver/joint_states|name|J1,J2,J3,J4,J5,J6|pos|0.232363,0.000038,0.000000,0.000025,0.000000,0.000041|vel|0.498040,-0.000000,0.000000,0.000000,0.000000,0.000000|eff|531.738281,418.945312,-854.003906,48.339844,24.169922,0.000000
cobot_dynamixel_driver/joint_states|name|J1,J2,J3,J4,J5,J6|pos|0.241965,0.000038,0.000000,0.000025,0.000000,0.000041|vel|0.502838,-0.000000,0.000000,0.000000,0.000000,0.000000|eff|1305.175781,322.265625,-854.003906,112.792969,36.254883,0.000000
cobot_dynamixel_driver/joint_states|name|J1,J2,J3,J4,J5,J6|pos|0.251566,0.000038,0.000000,0.000025,0.000000,0.000041|vel|0.499083,-0.000000,0.000000,0.000000,0.000000,0.000000|eff|1965.820312,386.718750,-854.003906,96.679688,24.169922,-12.084961
cobot_dynamixel_driver/joint_states|name|J1,J2,J3,J4,J5,J6|pos|0.261180,0.000038,0.000000,0.000025,0.000000,0.000041|vel|0.467369,-0.000000,0.000000,0.000000,0.000000,0.000000|eff|1047.363281,418.945312,-854.003906,80.566406,28.198242,0.000000
cobot_dynamixel_driver/joint_states|name|J1,J2,J3,J4,J5,J6|pos|0.270794,0.000038,0.000000,0.000025,0.000000,0.000041|vel|0.484269,-0.000000,0.000000,0.000000,0.000000,0.000000|eff|290.039062,290.039062,-854.003906,96.679688,36.254883,0.000000
cobot_dynamixel_driver/joint_states|name|J1,J2,J3,J4,J5,J6|pos|0.280947,0.000038,0.000000,0.000025,0.000000,0.000041|vel|0.445252,-0.000000,0.000000,0.000000,0.000000,0.000000|eff|1434.082031,257.812500,-854.003906,48.339844,24.169922,0.000000
cobot_dynamixel_driver/joint_states|name|J1,J2,J3,J4,J5,J6|pos|0.290097,0.000038,0.000000,0.000025,0.000000,0.000041|vel|0.467577,-0.000000,0.000000,0.000000,0.000000,0.000000|eff|1836.914062,338.378906,-854.003906,96.679688,24.169922,0.000000
cobot_dynamixel_driver/joint_states|name|J1,J2,J3,J4,J5,J6|pos|0.299661,0.000038,0.000000,0.000025,0.000000,0.000041|vel|0.489485,-0.000000,0.000000,0.000000,0.000000,0.000000|eff|1127.929688,451.171875,-854.003906,96.679688,24.169922,-12.084961
cobot_dynamixel_driver/joint_states|name|J1,J2,J3,J4,J5,J6|pos|0.309238,0.000038,0.000000,0.000025,0.000000,0.000041|vel|0.504716,-0.000000,0.000000,0.000000,0.000000,0.000000|eff|128.906250,418.945312,-854.003906,96.679688,48.339844,0.000000
cobot_dynamixel_driver/joint_states|name|J1,J2,J3,J4,J5,J6|pos|0.318902,0.000038,0.000000,0.000025,0.000000,0.000041|vel|0.504508,-0.000000,0.000000,0.000000,0.000000,0.000000|eff|370.605469,338.378906,-854.003906,96.679688,24.169922,0.000000
cobot_dynamixel_driver/joint_states|name|J1,J2,J3,J4,J5,J6|pos|0.328653,0.000038,0.000000,0.000025,0.000000,0.000041|vel|0.490111,-0.000000,0.000000,0.000000,0.000000,0.000000|eff|1691.894531,273.925781,-854.003906,96.679688,24.169922,0.000000
cobot_dynamixel_driver/joint_states|name|J1,J2,J3,J4,J5,J6|pos|0.338255,0.000038,0.000000,0.000025,0.000000,0.000041|vel|0.494910,-0.000000,0.000000,0.000000,0.000000,0.000000|eff|322.265625,354.492188,-854.003906,96.679688,24.169922,-12.084961
cobot_dynamixel_driver/joint_states|name|J1,J2,J3,J4,J5,J6|pos|0.347819,0.000038,0.000000,0.000025,0.000000,0.000041|vel|0.480722,-0.000000,0.000000,0.000000,0.000000,0.000000|eff|177.246094,322.265625,-854.003906,112.792969,28.198242,0.000000
cobot_dynamixel_driver/joint_states|name|J1,J2,J3,J4,J5,J6|pos|0.357483,0.000038,0.000000,0.000025,0.000000,0.000041|vel|0.488233,-0.000000,0.000000,0.000000,0.000000,0.000000|eff|402.832031,273.925781,-854.003906,96.679688,24.169922,0.000000
cobot_dynamixel_driver/joint_states|name|J1,J2,J3,J4,J5,J6|pos|0.367235,0.000038,0.000000,0.000025,0.000000,0.000041|vel|0.498874,-0.000000,0.000000,0.000000,0.000000,0.000000|eff|1417.968750,467.285156,-854.003906,80.566406,24.169922,0.000000
cobot_dynamixel_driver/joint_states|name|J1,J2,J3,J4,J5,J6|pos|0.376986,0.000038,0.000000,0.000025,0.000000,0.000041|vel|0.472376,-0.000000,0.000000,0.000000,0.000000,0.000000|eff|886.230469,402.832031,-854.003906,96.679688,40.283203,0.000000
cobot_dynamixel_driver/joint_states|name|J1,J2,J3,J4,J5,J6|pos|0.386638,0.000038,0.000000,0.000025,0.000000,0.000041|vel|0.517652,-0.000000,0.000000,0.000000,0.000000,0.000000|eff|306.152344,386.718750,-854.003906,96.679688,44.311523,0.000000
cobot_dynamixel_driver/joint_states|name|J1,J2,J3,J4,J5,J6|pos|0.396277,0.000038,0.000000,0.000025,0.000000,0.000041|vel|0.473002,-0.000000,0.000000,0.000000,0.000000,0.000000|eff|950.683594,290.039062,-854.003906,80.566406,24.169922,-12.084961
cobot_dynamixel_driver/joint_states|name|J1,J2,J3,J4,J5,J6|pos|0.406004,0.000038,0.000000,0.000025,0.000000,0.000041|vel|0.460900,-0.000000,0.000000,0.000000,0.000000,0.000000|eff|2255.859375,451.171875,-854.003906,96.679688,36.254883,-12.084961
cobot_dynamixel_driver/joint_states|name|J1,J2,J3,J4,J5,J6|pos|0.415730,0.000038,0.000000,0.000025,0.000000,0.000041|vel|0.508889,-0.000000,0.000000,0.000000,0.000000,0.000000|eff|112.792969,451.171875,-854.003906,96.679688,24.169922,0.000000
cobot_dynamixel_driver/joint_states|name|J1,J2,J3,J4,J5,J6|pos|0.425319,0.000038,0.000000,0.000025,0.000000,0.000041|vel|0.481974,-0.000000,0.000000,0.000000,0.000000,0.000000|eff|515.625000,435.058594,-854.003906,96.679688,36.254883,-12.084961
