surachairobotic/cobot/cobot_dynamixel_driver/log/2018-12-11T11:28:13.902811_driver_log.txt
cobot_dynamixel_driver/joint_states|name|J1,J2,J3,J4,J5,J6|pos|0.747250,-1.267658,1.296275,-0.001715,-1.802442,-0.000083|vel|0.000000,-0.000000,0.000000,0.000000,0.000000,0.000000|eff|0.000000,0.000000,0.000000,0.000000,0.000000,-8.056641
cobot_dynamixel_driver/joint_states|name|J1,J2,J3,J4,J5,J6|pos|0.747250,-1.267658,1.296275,-0.001715,-1.802442,-0.000083|vel|0.000000,-0.000000,0.000000,0.000000,0.000000,0.000000|eff|0.000000,0.000000,0.000000,0.000000,0.000000,0.000000
cobot_dynamixel_driver/joint_states|name|J1,J2,J3,J4,J5,J6|pos|0.747250,-1.267658,1.296275,-0.001715,-1.802442,-0.000083|vel|0.000000,-0.000000,0.000000,0.000000,0.000000,0.000000|eff|0.000000,0.000000,0.000000,0.000000,0.000000,0.000000
cobot_dynamixel_driver/joint_states|name|J1,J2,J3,J4,J5,J6|pos|0.747250,-1.267658,1.296275,-0.001715,-1.802442,-0.000083|vel|0.000000,-0.000000,0.000000,0.000000,0.000000,0.000000|eff|0.000000,0.000000,0.000000,0.000000,0.000000,-8.056641
cobot_dynamixel_driver/joint_states|name|J1,J2,J3,J4,J5,J6|pos|0.747250,-1.267658,1.296275,-0.001715,-1.802442,-0.000083|vel|0.000000,-0.000000,0.000000,0.000000,0.000000,0.000000|eff|0.000000,0.000000,0.000000,0.000000,0.000000,-8.056641
cobot_dynamixel_driver/joint_states|name|J1,J2,J3,J4,J5,J6|pos|0.747250,-1.267658,1.296275,-0.001715,-1.802442,-0.000083|vel|0.000000,-0.000000,0.000000,0.000000,0.000000,0.000000|eff|0.000000,0.000000,0.000000,0.000000,0.000000,0.000000
cobot_dynamixel_driver/joint_states|name|J1,J2,J3,J4,J5,J6|pos|0.747250,-1.267658,1.296275,-0.001715,-1.802442,-0.000083|vel|0.000000,-0.000000,0.000000,0.000000,0.000000,0.000000|eff|0.000000,0.000000,0.000000,0.000000,0.000000,0.000000
cobot_dynamixel_driver/joint_states|name|J1,J2,J3,J4,J5,J6|pos|0.747250,-1.267658,1.296275,-0.001715,-1.802442,-0.000083|vel|0.000000,-0.000000,0.000000,0.000000,0.000000,0.000000|eff|0.000000,0.000000,0.000000,0.000000,0.000000,0.000000
cobot_dynamixel_driver/joint_states|name|J1,J2,J3,J4,J5,J6|pos|0.747250,-1.267658,1.296275,-0.001715,-1.802442,-0.000083|vel|0.000000,-0.000000,0.000000,0.000000,0.000000,0.000000|eff|0.000000,0.000000,0.000000,0.000000,0.000000,0.000000
cobot_dynamixel_driver/joint_states|name|J1,J2,J3,J4,J5,J6|pos|0.747250,-1.267658,1.296275,-0.001715,-1.802442,-0.000083|vel|0.000000,-0.000000,0.000000,0.000000,0.000000,0.000000|eff|0.000000,0.000000,0.000000,0.000000,0.000000,0.000000
cobot_dynamixel_driver/joint_states|name|J1,J2,J3,J4,J5,J6|pos|0.747250,-1.267658,1.296275,-0.001715,-1.802442,-0.000083|vel|0.000000,-0.000000,0.000000,0.000000,0.000000,0.000000|eff|0.000000,0.000000,0.000000,0.000000,0.000000,8.056641
cobot_dynamixel_driver/joint_states|name|J1,J2,J3,J4,J5,J6|pos|0.747250,-1.267658,1.296275,-0.001715,-1.802442,-0.000083|vel|0.000000,-0.000000,0.000000,0.000000,0.000000,0.000000|eff|0.000000,0.000000,0.000000,0.000000,0.000000,0.000000
cobot_dynamixel_driver/joint_states|name|J1,J2,J3,J4,J5,J6|pos|0.747250,-1.267658,1.296275,-0.001715,-1.802442,-0.000083|vel|0.000000,-0.000000,0.000000,0.000000,0.000000,0.000000|eff|0.000000,0.000000,0.000000,0.000000,0.000000,0.000000
cobot_dynamixel_driver/joint_states|name|J1,J2,J3,J4,J5,J6|pos|0.747250,-1.267658,1.296275,-0.001715,-1.802442,-0.000083|vel|0.000000,-0.000000,0.000000,0.000000,0.000000,0.000000|eff|0.000000,0.000000,0.000000,0.000000,0.000000,0.000000
cobot_dynamixel_driver/joint_states|name|J1,J2,J3,J4,J5,J6|pos|0.747250,-1.267658,1.296275,-0.001715,-1.802442,-0.000083|vel|0.000000,-0.000000,0.000000,0.000000,0.000000,0.000000|eff|0.000000,0.000000,0.000000,0.000000,0.000000,0.000000
cobot_dynamixel_driver/joint_states|name|J1,J2,J3,J4,J5,J6|pos|0.747250,-1.267658,1.296275,-0.001715,-1.802442,-0.000083|vel|0.000000,-0.000000,0.000000,0.000000,0.000000,0.000000|eff|0.000000,0.000000,0.000000,0.000000,0.000000,-8.056641
cobot_dynamixel_driver/joint_states|name|J1,J2,J3,J4,J5,J6|pos|0.747250,-1.267658,1.296275,-0.001715,-1.802442,-0.000083|vel|0.000000,-0.000000,0.000000,0.000000,0.000000,0.000000|eff|0.000000,0.000000,0.000000,0.000000,0.000000,0.000000
cobot_dynamixel_driver/joint_states|name|J1,J2,J3,J4,J5,J6|pos|0.747250,-1.267658,1.296275,-0.001715,-1.802442,-0.000083|vel|0.000000,-0.000000,0.000000,0.000000,0.000000,0.000000|eff|0.000000,0.000000,0.000000,0.000000,0.000000,0.000000
cobot_dynamixel_driver/joint_states|name|J1,J2,J3,J4,J5,J6|pos|0.747250,-1.267658,1.296275,-0.001715,-1.802442,-0.000083|vel|0.000000,-0.000000,0.000000,0.000000,0.000000,0.000000|eff|0.000000,0.000000,0.000000,0.000000,0.000000,0.000000
cobot_dynamixel_driver/joint_states|name|J1,J2,J3,J4,J5,J6|pos|0.747250,-1.267658,1.296275,-0.001715,-1.802442,-0.000083|vel|0.000000,-0.000000,0.000000,0.000000,0.000000,0.000000|eff|0.000000,0.000000,0.000000,0.000000,0.000000,0.000000
cobot_dynamixel_driver/joint_states|name|J1,J2,J3,J4,J5,J6|pos|0.747250,-1.267658,1.296275,-0.001715,-1.802442,-0.000083|vel|0.000000,-0.000000,0.000000,0.000000,0.000000,0.000000|eff|0.000000,0.000000,0.000000,0.000000,0.000000,8.056641
cobot_dynamixel_driver/joint_states|name|J1,J2,J3,J4,J5,J6|pos|0.747250,-1.267658,1.296275,-0.001715,-1.802442,-0.000083|vel|0.000000,-0.000000,0.000000,0.000000,0.000000,0.000000|eff|0.000000,0.000000,0.000000,0.000000,0.000000,-8.056641
cobot_dynamixel_driver/joint_states|name|J1,J2,J3,J4,J5,J6|pos|0.747250,-1.267658,1.296275,-0.001715,-1.802442,-0.000083|vel|0.000000,-0.000000,0.000000,0.000000,0.000000,0.000000|eff|0.000000,0.000000,0.000000,0.000000,0.000000,0.000000
cobot_dynamixel_driver/joint_states|name|J1,J2,J3,J4,J5,J6|pos|0.747250,-1.267658,1.296275,-0.001715,-1.802442,-0.000083|vel|0.000000,-0.000000,0.000000,0.000000,0.000000,0.000000|eff|0.000000,0.000000,0.000000,0.000000,0.000000,0.000000
cobot_dynamixel_driver/joint_states|name|J1,J2,J3,J4,J5,J6|pos|0.747250,-1.267658,1.296275,-0.001715,-1.802442,-0.000083|vel|0.000000,-0.000000,0.000000,0.000000,0.000000,0.000000|eff|0.000000,0.000000,0.000000,0.000000,0.000000,0.000000
cobot_dynamixel_driver/joint_states|name|J1,J2,J3,J4,J5,J6|pos|0.747250,-1.267658,1.296275,-0.001715,-1.802442,-0.000083|vel|0.000000,-0.000000,0.000000,0.000000,0.000000,0.000000|eff|0.000000,0.000000,0.000000,0.000000,0.000000,0.000000
cobot_dynamixel_driver/joint_states|name|J1,J2,J3,J4,J5,J6|pos|0.747250,-1.267658,1.296275,-0.001715,-1.802442,-0.000083|vel|0.000000,-0.000000,0.000000,0.000000,0.000000,0.000000|eff|0.000000,0.000000,0.000000,0.000000,0.000000,-8.056641
cobot_dynamixel_driver/joint_states|name|J1,J2,J3,J4,J5,J6|pos|0.747250,-1.267658,1.296275,-0.001715,-1.802442,-0.000083|vel|0.000000,-0.000000,0.000000,0.000000,0.000000,0.000000|eff|0.000000,0.000000,0.000000,0.000000,0.000000,0.000000
cobot_dynamixel_driver/joint_states|name|J1,J2,J3,J4,J5,J6|pos|0.747250,-1.267658,1.296275,-0.001715,-1.802442,-0.000083|vel|0.000000,-0.000000,0.000000,0.000000,0.000000,0.000000|eff|0.000000,0.000000,0.000000,0.000000,0.000000,-8.056641
cobot_dynamixel_driver/joint_states|name|J1,J2,J3,J4,J5,J6|pos|0.747250,-1.267658,1.296275,-0.001715,-1.802442,-0.000083|vel|0.000000,-0.000000,0.000000,0.000000,0.000000,0.000000|eff|0.000000,0.000000,0.000000,0.000000,0.000000,0.000000
cobot_dynamixel_driver/joint_states|name|J1,J2,J3,J4,J5,J6|pos|0.747250,-1.267658,1.296275,-0.001715,-1.802442,-0.000083|vel|0.000000,-0.000000,0.000000,0.000000,0.000000,0.000000|eff|0.000000,0.000000,0.000000,0.000000,0.000000,0.000000
cobot_dynamixel_driver/joint_states|name|J1,J2,J3,J4,J5,J6|pos|0.747250,-1.267658,1.296275,-0.001715,-1.802442,-0.000083|vel|0.000000,-0.000000,0.000000,0.000000,0.000000,0.000000|eff|0.000000,0.000000,0.000000,0.000000,0.000000,0.000000
cobot_dynamixel_driver/joint_states|name|J1,J2,J3,J4,J5,J6|pos|0.747250,-1.267658,1.296275,-0.001715,-1.802442,-0.000083|vel|0.000000,-0.000000,0.000000,0.000000,0.000000,0.000000|eff|0.000000,0.000000,0.000000,0.000000,0.000000,0.000000
cobot_dynamixel_driver/joint_states|name|J1,J2,J3,J4,J5,J6|pos|0.747250,-1.267658,1.296275,-0.001715,-1.802442,-0.000083|vel|0.000000,-0.000000,0.000000,0.000000,0.000000,0.000000|eff|0.000000,0.000000,0.000000,0.000000,0.000000,-8.056641
cobot_dynamixel_driver/joint_states|name|J1,J2,J3,J4,J5,J6|pos|0.747250,-1.267658,1.296275,-0.001715,-1.802442,-0.000083|vel|0.000000,-0.000000,0.000000,0.000000,0.000000,0.000000|eff|0.000000,0.000000,0.000000,0.000000,0.000000,8.056641
cobot_dynamixel_driver/joint_states|name|J1,J2,J3,J4,J5,J6|pos|0.747250,-1.267658,1.296275,-0.001715,-1.802442,-0.000083|vel|0.000000,-0.000000,0.000000,0.000000,0.000000,0.000000|eff|0.000000,0.000000,0.000000,0.000000,0.000000,0.000000
cobot_dynamixel_driver/joint_states|name|J1,J2,J3,J4,J5,J6|pos|0.747250,-1.267658,1.296275,-0.001715,-1.802442,-0.000083|vel|0.000000,-0.000000,0.000000,0.000000,0.000000,0.000000|eff|0.000000,0.000000,0.000000,0.000000,0.000000,8.056641
cobot_dynamixel_driver/joint_states|name|J1,J2,J3,J4,J5,J6|pos|0.747250,-1.267658,1.296275,-0.001715,-1.802442,-0.000083|vel|0.000000,-0.000000,0.000000,0.000000,0.000000,0.000000|eff|0.000000,0.000000,0.000000,0.000000,0.000000,0.000000
cobot_dynamixel_driver/joint_states|name|J1,J2,J3,J4,J5,J6|pos|0.747250,-1.267658,1.296275,-0.001715,-1.802442,-0.000083|vel|0.000000,-0.000000,0.000000,0.000000,0.000000,0.000000|eff|0.000000,0.000000,0.000000,0.000000,0.000000,-8.056641
cobot_dynamixel_driver/joint_states|name|J1,J2,J3,J4,J5,J6|pos|0.747250,-1.267658,1.296275,-0.001715,-1.802442,-0.000083|vel|0.000000,-0.000000,0.000000,0.000000,0.000000,0.000000|eff|0.000000,0.000000,0.000000,0.000000,0.000000,0.000000
cobot_dynamixel_driver/joint_states|name|J1,J2,J3,J4,J5,J6|pos|0.747250,-1.267658,1.296275,-0.001715,-1.802442,-0.000083|vel|0.000000,-0.000000,0.000000,0.000000,0.000000,0.000000|eff|0.000000,0.000000,0.000000,0.000000,0.000000,8.056641
cobot_dynamixel_driver/joint_states|name|J1,J2,J3,J4,J5,J6|pos|0.747250,-1.267658,1.296275,-0.001715,-1.802442,-0.000083|vel|0.000000,-0.000000,0.000000,0.000000,0.000000,0.000000|eff|0.000000,0.000000,0.000000,0.000000,0.000000,-8.056641
cobot_dynamixel_driver/joint_states|name|J1,J2,J3,J4,J5,J6|pos|0.747250,-1.267658,1.296275,-0.001715,-1.802442,-0.000083|vel|0.000000,-0.000000,0.000000,0.000000,0.000000,0.000000|eff|0.000000,0.000000,0.000000,0.000000,0.000000,0.000000
cobot_dynamixel_driver/joint_states|name|J1,J2,J3,J4,J5,J6|pos|0.747250,-1.267658,1.296275,-0.001715,-1.802442,-0.000083|vel|0.000000,-0.000000,0.000000,0.000000,0.000000,0.000000|eff|0.000000,0.000000,0.000000,0.000000,0.000000,0.000000
cobot_dynamixel_driver/joint_states|name|J1,J2,J3,J4,J5,J6|pos|0.747250,-1.267658,1.296275,-0.001715,-1.802442,-0.000083|vel|0.000000,-0.000000,0.000000,0.000000,0.000000,0.000000|eff|0.000000,0.000000,0.000000,0.000000,0.000000,-8.056641
cobot_dynamixel_driver/joint_states|name|J1,J2,J3,J4,J5,J6|pos|0.747250,-1.267658,1.296275,-0.001715,-1.802442,-0.000083|vel|0.000000,-0.000000,0.000000,0.000000,0.000000,0.000000|eff|0.000000,0.000000,0.000000,0.000000,0.000000,0.000000
cobot_dynamixel_driver/joint_states|name|J1,J2,J3,J4,J5,J6|pos|0.747250,-1.267658,1.296275,-0.001715,-1.802442,-0.000083|vel|0.000000,-0.000000,0.000000,0.000000,0.000000,0.000000|eff|0.000000,0.000000,0.000000,0.000000,0.000000,8.056641
cobot_dynamixel_driver/joint_states|name|J1,J2,J3,J4,J5,J6|pos|0.747250,-1.267658,1.296275,-0.001715,-1.802442,-0.000083|vel|0.000000,-0.000000,0.000000,0.000000,0.000000,0.000000|eff|0.000000,0.000000,0.000000,0.000000,0.000000,0.000000
cobot_dynamixel_driver/joint_states|name|J1,J2,J3,J4,J5,J6|pos|0.747250,-1.267658,1.296275,-0.001715,-1.802442,-0.000083|vel|0.000000,-0.000000,0.000000,0.000000,0.000000,0.000000|eff|0.000000,0.000000,0.000000,0.000000,0.000000,0.000000
cobot_dynamixel_driver/joint_states|name|J1,J2,J3,J4,J5,J6|pos|0.747250,-1.267658,1.296275,-0.001715,-1.802442,-0.000083|vel|0.000000,-0.000000,0.000000,0.000000,0.000000,0.000000|eff|0.000000,0.000000,0.000000,0.000000,0.000000,-8.056641
cobot_dynamixel_driver/joint_states|name|J1,J2,J3,J4,J5,J6|pos|0.747250,-1.267658,1.296275,-0.001715,-1.802442,-0.000083|vel|0.000000,-0.000000,0.000000,0.000000,0.000000,0.000000|eff|0.000000,0.000000,0.000000,0.000000,0.000000,0.000000
cobot_dynamixel_driver/joint_states|name|J1,J2,J3,J4,J5,J6|pos|0.747250,-1.267658,1.296275,-0.001715,-1.802442,-0.000083|vel|0.000000,-0.000000,0.000000,0.000000,0.000000,0.000000|eff|0.000000,0.000000,0.000000,0.000000,0.000000,0.000000
cobot_dynamixel_driver/joint_states|name|J1,J2,J3,J4,J5,J6|pos|0.747250,-1.267658,1.296275,-0.001715,-1.802442,-0.000083|vel|0.000000,-0.000000,0.000000,0.000000,0.000000,0.000000|eff|0.000000,0.000000,0.000000,0.000000,0.000000,0.000000
cobot_dynamixel_driver/joint_states|name|J1,J2,J3,J4,J5,J6|pos|0.747250,-1.267658,1.296275,-0.001715,-1.802442,-0.000083|vel|0.000000,-0.000000,0.000000,0.000000,0.000000,0.000000|eff|0.000000,0.000000,0.000000,0.000000,0.000000,-8.056641
cobot_dynamixel_driver/joint_states|name|J1,J2,J3,J4,J5,J6|pos|0.747250,-1.267658,1.296275,-0.001715,-1.802442,-0.000083|vel|0.000000,-0.000000,0.000000,0.000000,0.000000,0.000000|eff|0.000000,0.000000,0.000000,0.000000,0.000000,-8.056641
cobot_dynamixel_driver/joint_states|name|J1,J2,J3,J4,J5,J6|pos|0.747250,-1.267658,1.296275,-0.001715,-1.802442,-0.000083|vel|0.000000,-0.000000,0.000000,0.000000,0.000000,0.000000|eff|0.000000,0.000000,0.000000,0.000000,0.000000,0.000000
cobot_dynamixel_driver/joint_states|name|J1,J2,J3,J4,J5,J6|pos|0.747250,-1.267658,1.296275,-0.001715,-1.802442,-0.000083|vel|0.000000,-0.000000,0.000000,0.000000,0.000000,0.000000|eff|0.000000,0.000000,0.000000,0.000000,0.000000,0.000000
cobot_dynamixel_driver/joint_states|name|J1,J2,J3,J4,J5,J6|pos|0.747250,-1.267658,1.296275,-0.001715,-1.802442,-0.000083|vel|0.000000,-0.000000,0.000000,0.000000,0.000000,0.000000|eff|0.000000,0.000000,0.000000,0.000000,0.000000,-8.056641
cobot_dynamixel_driver/joint_states|name|J1,J2,J3,J4,J5,J6|pos|0.747250,-1.267658,1.296275,-0.001715,-1.802442,-0.000083|vel|0.000000,-0.000000,0.000000,0.000000,0.000000,0.000000|eff|0.000000,0.000000,0.000000,0.000000,0.000000,8.056641
cobot_dynamixel_driver/joint_states|name|J1,J2,J3,J4,J5,J6|pos|0.747250,-1.267658,1.296275,-0.001715,-1.802442,-0.000083|vel|0.000000,-0.000000,0.000000,0.000000,0.000000,0.000000|eff|0.000000,0.000000,0.000000,0.000000,0.000000,0.000000
cobot_dynamixel_driver/joint_states|name|J1,J2,J3,J4,J5,J6|pos|0.747250,-1.267658,1.296275,-0.001715,-1.802442,-0.000083|vel|0.000000,-0.000000,0.000000,0.000000,0.000000,0.000000|eff|0.000000,0.000000,0.000000,0.000000,0.000000,0.000000
cobot_dynamixel_driver/joint_states|name|J1,J2,J3,J4,J5,J6|pos|0.747250,-1.267658,1.296275,-0.001715,-1.802442,-0.000083|vel|0.000000,-0.000000,0.000000,0.000000,0.000000,0.000000|eff|0.000000,0.000000,0.000000,0.000000,0.000000,0.000000
cobot_dynamixel_driver/joint_states|name|J1,J2,J3,J4,J5,J6|pos|0.747250,-1.267658,1.296275,-0.001715,-1.802442,-0.000083|vel|0.000000,-0.000000,0.000000,0.000000,0.000000,0.000000|eff|0.000000,0.000000,0.000000,0.000000,0.000000,0.000000
cobot_dynamixel_driver/joint_states|name|J1,J2,J3,J4,J5,J6|pos|0.747250,-1.267658,1.296275,-0.001715,-1.802442,-0.000083|vel|0.000000,-0.000000,0.000000,0.000000,0.000000,0.000000|eff|0.000000,0.000000,0.000000,0.000000,0.000000,8.056641
cobot_dynamixel_driver/joint_states|name|J1,J2,J3,J4,J5,J6|pos|0.747250,-1.267658,1.296275,-0.001715,-1.802442,-0.000083|vel|0.000000,-0.000000,0.000000,0.000000,0.000000,0.000000|eff|0.000000,0.000000,0.000000,0.000000,0.000000,0.000000
cobot_dynamixel_driver/joint_states|name|J1,J2,J3,J4,J5,J6|pos|0.747250,-1.267658,1.296275,-0.001715,-1.802442,-0.000083|vel|0.000000,-0.000000,0.000000,0.000000,0.000000,0.000000|eff|0.000000,0.000000,0.000000,0.000000,0.000000,0.000000
cobot_dynamixel_driver/joint_states|name|J1,J2,J3,J4,J5,J6|pos|0.747250,-1.267658,1.296275,-0.001715,-1.802442,-0.000083|vel|0.000000,-0.000000,0.000000,0.000000,0.000000,0.000000|eff|0.000000,0.000000,0.000000,0.000000,0.000000,0.000000
cobot_dynamixel_driver/joint_states|name|J1,J2,J3,J4,J5,J6|pos|0.747250,-1.267658,1.296275,-0.001715,-1.802442,-0.000083|vel|0.000000,-0.000000,0.000000,0.000000,0.000000,0.000000|eff|0.000000,0.000000,0.000000,0.000000,0.000000,0.000000
cobot_dynamixel_driver/joint_states|name|J1,J2,J3,J4,J5,J6|pos|0.747250,-1.267658,1.296275,-0.001715,-1.802442,-0.000083|vel|0.000000,-0.000000,0.000000,0.000000,0.000000,0.000000|eff|0.000000,0.000000,0.000000,0.000000,0.000000,0.000000
cobot_dynamixel_driver/joint_states|name|J1,J2,J3,J4,J5,J6|pos|0.747250,-1.267658,1.296275,-0.001715,-1.802442,-0.000083|vel|0.000000,-0.000000,0.000000,0.000000,0.000000,0.000000|eff|0.000000,0.000000,0.000000,0.000000,0.000000,0.000000
cobot_dynamixel_driver/joint_states|name|J1,J2,J3,J4,J5,J6|pos|0.747250,-1.267658,1.296275,-0.001715,-1.802442,-0.000083|vel|0.000000,-0.000000,0.000000,0.000000,0.000000,0.000000|eff|0.000000,0.000000,0.000000,0.000000,0.000000,0.000000
cobot_dynamixel_driver/joint_states|name|J1,J2,J3,J4,J5,J6|pos|0.747250,-1.267658,1.296275,-0.001715,-1.802442,-0.000083|vel|0.000000,-0.000000,0.000000,0.000000,0.000000,0.000000|eff|0.000000,0.000000,0.000000,0.000000,0.000000,-8.056641
cobot_dynamixel_driver/joint_states|name|J1,J2,J3,J4,J5,J6|pos|0.747250,-1.267658,1.296275,-0.001715,-1.802442,-0.000083|vel|0.000000,-0.000000,0.000000,0.000000,0.000000,0.000000|eff|0.000000,0.000000,0.000000,0.000000,0.000000,0.000000
cobot_dynamixel_driver/joint_states|name|J1,J2,J3,J4,J5,J6|pos|0.747250,-1.267658,1.296275,-0.001715,-1.802442,-0.000083|vel|0.000000,-0.000000,0.000000,0.000000,0.000000,0.000000|eff|0.000000,0.000000,0.000000,0.000000,0.000000,0.000000
cobot_dynamixel_driver/joint_states|name|J1,J2,J3,J4,J5,J6|pos|0.747250,-1.267658,1.296275,-0.001715,-1.802442,-0.000083|vel|0.000000,-0.000000,0.000000,0.000000,0.000000,0.000000|eff|0.000000,0.000000,0.000000,0.000000,0.000000,8.056641
cobot_dynamixel_driver/joint_states|name|J1,J2,J3,J4,J5,J6|pos|0.747250,-1.267658,1.296275,-0.001715,-1.802442,-0.000083|vel|0.000000,-0.000000,0.000000,0.000000,0.000000,0.000000|eff|0.000000,0.000000,0.000000,0.000000,0.000000,0.000000
cobot_dynamixel_driver/joint_states|name|J1,J2,J3,J4,J5,J6|pos|0.747250,-1.267658,1.296275,-0.001715,-1.802442,-0.000083|vel|0.000000,-0.000000,0.000000,0.000000,0.000000,0.000000|eff|0.000000,0.000000,0.000000,0.000000,0.000000,12.084961
cobot_dynamixel_driver/joint_states|name|J1,J2,J3,J4,J5,J6|pos|0.747250,-1.267658,1.296275,-0.001715,-1.802442,-0.000083|vel|0.000000,-0.000000,0.000000,0.000000,0.000000,0.000000|eff|0.000000,0.000000,0.000000,0.000000,0.000000,0.000000
cobot_dynamixel_driver/joint_states|name|J1,J2,J3,J4,J5,J6|pos|0.747250,-1.267658,1.296275,-0.001715,-1.802442,-0.000083|vel|0.000000,-0.000000,0.000000,0.000000,0.000000,0.000000|eff|0.000000,0.000000,0.000000,0.000000,0.000000,12.084961
cobot_dynamixel_driver/joint_states|name|J1,J2,J3,J4,J5,J6|pos|0.747250,-1.267658,1.296275,-0.001715,-1.802442,-0.000083|vel|0.000000,-0.000000,0.000000,0.000000,0.000000,0.000000|eff|0.000000,0.000000,0.000000,0.000000,0.000000,-8.056641
cobot_dynamixel_driver/joint_states|name|J1,J2,J3,J4,J5,J6|pos|0.747250,-1.267658,1.296275,-0.001715,-1.802442,-0.000083|vel|0.000000,-0.000000,0.000000,0.000000,0.000000,0.000000|eff|0.000000,0.000000,0.000000,0.000000,0.000000,-8.056641
cobot_dynamixel_driver/joint_states|name|J1,J2,J3,J4,J5,J6|pos|0.747250,-1.267658,1.296275,-0.001715,-1.802442,-0.000083|vel|0.000000,-0.000000,0.000000,0.000000,0.000000,0.000000|eff|0.000000,0.000000,0.000000,0.000000,0.000000,12.084961
cobot_dynamixel_driver/joint_states|name|J1,J2,J3,J4,J5,J6|pos|0.747250,-1.267658,1.296275,-0.001715,-1.802442,-0.000083|vel|0.000000,-0.000000,0.000000,0.000000,0.000000,0.000000|eff|0.000000,0.000000,0.000000,0.000000,0.000000,0.000000
cobot_dynamixel_driver/joint_states|name|J1,J2,J3,J4,J5,J6|pos|0.747250,-1.267658,1.296275,-0.001715,-1.802442,-0.000083|vel|0.000000,-0.000000,0.000000,0.000000,0.000000,0.000000|eff|0.000000,0.000000,0.000000,0.000000,0.000000,0.000000
cobot_dynamixel_driver/goal|-:J1,J2,J3,J4,J5,J6:1.047198,0.000000,0.000000,0.000000,0.000000,0.000000:0.500000,0.500000,0.500000,0.500000,0.500000,0.500000:pos_vel_
cobot_dynamixel_driver/joint_states|name|J1,J2,J3,J4,J5,J6|pos|0.749141,-1.267658,1.294497,-0.001715,-1.802442,-0.000083|vel|0.000000,-0.000000,0.000000,0.000000,0.000000,0.000000|eff|0.000000,0.000000,0.000000,0.000000,0.000000,0.000000
cobot_dynamixel_driver/goal|-:J1,J2,J3,J4,J5,J6:1.047198,0.000000,0.000000,0.000000,0.000000,0.000000:0.500000,0.500000,0.500000,0.500000,0.500000,0.500000:pos_vel_
cobot_dynamixel_driver/goal|-:J1,J2,J3,J4,J5,J6:1.047198,0.000000,0.000000,0.000000,0.000000,0.000000:0.500000,0.500000,0.500000,0.500000,0.500000,0.500000:pos_vel_
cobot_dynamixel_driver/goal|-:J1,J2,J3,J4,J5,J6:1.047198,0.000000,0.000000,0.000000,0.000000,0.000000:0.500000,0.500000,0.500000,0.500000,0.500000,0.500000:pos_vel_
cobot_dynamixel_driver/goal|-:J1,J2,J3,J4,J5,J6:1.047198,0.000000,0.000000,0.000000,0.000000,0.000000:0.500000,0.500000,0.500000,0.500000,0.500000,0.500000:pos_vel_
cobot_dynamixel_driver/goal|-:J1,J2,J3,J4,J5,J6:1.047198,0.000000,0.000000,0.000000,0.000000,0.000000:0.500000,0.500000,0.500000,0.500000,0.500000,0.500000:pos_vel_
cobot_dynamixel_driver/goal|-:J1,J2,J3,J4,J5,J6:1.047198,0.000000,0.000000,0.000000,0.000000,0.000000:0.500000,0.500000,0.500000,0.500000,0.500000,0.500000:pos_vel_
cobot_dynamixel_driver/goal|-:J1,J2,J3,J4,J5,J6:1.047198,0.000000,0.000000,0.000000,0.000000,0.000000:0.500000,0.500000,0.500000,0.500000,0.500000,0.500000:pos_vel_
cobot_dynamixel_driver/goal|-:J1,J2,J3,J4,J5,J6:1.047198,0.000000,0.000000,0.000000,0.000000,0.000000:0.500000,0.500000,0.500000,0.500000,0.500000,0.500000:pos_vel_
cobot_dynamixel_driver/goal|-:J1,J2,J3,J4,J5,J6:1.047198,0.000000,0.000000,0.000000,0.000000,0.000000:0.500000,0.500000,0.500000,0.500000,0.500000,0.500000:pos_vel_
cobot_dynamixel_driver/goal|-:J1,J2,J3,J4,J5,J6:1.047198,0.000000,0.000000,0.000000,0.000000,0.000000:0.500000,0.500000,0.500000,0.500000,0.500000,0.500000:pos_vel_
cobot_dynamixel_driver/goal|-:J1,J2,J3,J4,J5,J6:1.047198,0.000000,0.000000,0.000000,0.000000,0.000000:0.500000,0.500000,0.500000,0.500000,0.500000,0.500000:pos_vel_
cobot_dynamixel_driver/goal|-:J1,J2,J3,J4,J5,J6:1.047198,0.000000,0.000000,0.000000,0.000000,0.000000:0.500000,0.500000,0.500000,0.500000,0.500000,0.500000:pos_vel_
cobot_dynamixel_driver/goal|-:J1,J2,J3,J4,J5,J6:1.047198,0.000000,0.000000,0.000000,0.000000,0.000000:0.500000,0.500000,0.500000,0.500000,0.500000,0.500000:pos_vel_
cobot_dynamixel_driver/goal|-:J1,J2,J3,J4,J5,J6:1.047198,0.000000,0.000000,0.000000,0.000000,0.000000:0.500000,0.500000,0.500000,0.500000,0.500000,0.500000:pos_vel_
cobot_dynamixel_driver/goal|-:J1,J2,J3,J4,J5,J6:1.047198,0.000000,0.000000,0.000000,0.000000,0.000000:0.500000,0.500000,0.500000,0.500000,0.500000,0.500000:pos_vel_
cobot_dynamixel_driver/goal|-:J1,J2,J3,J4,J5,J6:1.047198,0.000000,0.000000,0.000000,0.000000,0.000000:0.500000,0.500000,0.500000,0.500000,0.500000,0.500000:pos_vel_
cobot_dynamixel_driver/goal|-:J1,J2,J3,J4,J5,J6:1.047198,0.000000,0.000000,0.000000,0.000000,0.000000:0.500000,0.500000,0.500000,0.500000,0.500000,0.500000:pos_vel_
cobot_dynamixel_driver/goal|-:J1,J2,J3,J4,J5,J6:1.047198,0.000000,0.000000,0.000000,0.000000,0.000000:0.500000,0.500000,0.500000,0.500000,0.500000,0.500000:pos_vel_
cobot_dynamixel_driver/goal|-:J1,J2,J3,J4,J5,J6:1.047198,0.000000,0.000000,0.000000,0.000000,0.000000:0.500000,0.500000,0.500000,0.500000,0.500000,0.500000:pos_vel_
cobot_dynamixel_driver/goal|-:J1,J2,J3,J4,J5,J6:1.047198,0.000000,0.000000,0.000000,0.000000,0.000000:0.500000,0.500000,0.500000,0.500000,0.500000,0.500000:pos_vel_
cobot_dynamixel_driver/goal|-:J1,J2,J3,J4,J5,J6:1.047198,0.000000,0.000000,0.000000,0.000000,0.000000:0.500000,0.500000,0.500000,0.500000,0.500000,0.500000:pos_vel_
cobot_dynamixel_driver/goal|-:J1,J2,J3,J4,J5,J6:1.047198,0.000000,0.000000,0.000000,0.000000,0.000000:0.500000,0.500000,0.500000,0.500000,0.500000,0.500000:pos_vel_
cobot_dynamixel_driver/goal|-:J1,J2,J3,J4,J5,J6:1.047198,0.000000,0.000000,0.000000,0.000000,0.000000:0.500000,0.500000,0.500000,0.500000,0.500000,0.500000:pos_vel_
cobot_dynamixel_driver/goal|-:J1,J2,J3,J4,J5,J6:1.047198,0.000000,0.000000,0.000000,0.000000,0.000000:0.500000,0.500000,0.500000,0.500000,0.500000,0.500000:pos_vel_
cobot_dynamixel_driver/goal|-:J1,J2,J3,J4,J5,J6:1.047198,0.000000,0.000000,0.000000,0.000000,0.000000:0.500000,0.500000,0.500000,0.500000,0.500000,0.500000:pos_vel_
cobot_dynamixel_driver/goal|-:J1,J2,J3,J4,J5,J6:1.047198,0.000000,0.000000,0.000000,0.000000,0.000000:0.500000,0.500000,0.500000,0.500000,0.500000,0.500000:pos_vel_
cobot_dynamixel_driver/goal|-:J1,J2,J3,J4,J5,J6:1.047198,0.000000,0.000000,0.000000,0.000000,0.000000:0.500000,0.500000,0.500000,0.500000,0.500000,0.500000:pos_vel_
cobot_dynamixel_driver/goal|-:J1,J2,J3,J4,J5,J6:1.047198,0.000000,0.000000,0.000000,0.000000,0.000000:0.500000,0.500000,0.500000,0.500000,0.500000,0.500000:pos_vel_
cobot_dynamixel_driver/goal|-:J1,J2,J3,J4,J5,J6:1.047198,0.000000,0.000000,0.000000,0.000000,0.000000:0.500000,0.500000,0.500000,0.500000,0.500000,0.500000:pos_vel_
cobot_dynamixel_driver/joint_states|name|J1,J2,J3,J4,J5,J6|pos|0.749166,-1.267633,1.294422,-0.001677,-1.802214,-0.000083|vel|0.000000,-0.000000,-0.016483,0.000000,0.033436,0.000000|eff|435.058594,-338.378906,-225.585938,112.792969,80.566406,8.056641
cobot_dynamixel_driver/joint_states|name|J1,J2,J3,J4,J5,J6|pos|0.749566,-1.267120,1.293921,-0.001515,-1.801097,-0.000083|vel|0.042355,0.053622,-0.043816,0.005842,0.084796,0.000000|eff|757.324219,-580.078125,-499.511719,48.339844,100.708008,-8.056641
cobot_dynamixel_driver/joint_states|name|J1,J2,J3,J4,J5,J6|pos|0.750843,-1.265780,1.292632,-0.001427,-1.798884,-0.000083|vel|0.096395,0.098690,-0.084085,0.005425,0.160975,0.000000|eff|918.457031,-837.890625,-854.003906,145.019531,68.481445,-8.056641
cobot_dynamixel_driver/joint_states|name|J1,J2,J3,J4,J5,J6|pos|0.753485,-1.263327,1.290504,-0.001277,-1.795098,-0.000083|vel|0.166500,0.126023,-0.131865,0.006677,0.205786,0.000000|eff|1111.816406,-1417.968750,-1417.968750,161.132812,72.509766,0.000000
cobot_dynamixel_driver/joint_states|name|J1,J2,J3,J4,J5,J6|pos|0.756827,-1.260610,1.287499,-0.001177,-1.791209,-0.000083|vel|0.203013,0.182566,-0.177976,0.005842,0.222331,0.000000|eff|1031.250000,-1643.554688,-1401.855469,112.792969,48.339844,-8.056641
cobot_dynamixel_driver/joint_states|name|J1,J2,J3,J4,J5,J6|pos|0.761283,-1.256630,1.283156,-0.001064,-1.786286,-0.000083|vel|0.260391,0.229303,-0.227633,0.005216,0.263006,0.000000|eff|805.664062,-1498.535156,-1256.835938,128.906250,32.226562,0.000000
cobot_dynamixel_driver/joint_states|name|J1,J2,J3,J4,J5,J6|pos|0.766566,-1.251772,1.277660,-0.000976,-1.780867,-0.000083|vel|0.267694,0.270615,-0.245368,0.003756,0.291271,0.000000|eff|708.984375,-1756.347656,-1321.289062,161.132812,52.368164,0.000000
cobot_dynamixel_driver/joint_states|name|J1,J2,J3,J4,J5,J6|pos|0.772500,-1.246039,1.271201,-0.000914,-1.774847,-0.000083|vel|0.322776,0.322985,-0.352196,0.003547,0.341597,0.000000|eff|741.210938,-1724.121094,-1305.175781,225.585938,32.226562,0.000000
cobot_dynamixel_driver/joint_states|name|J1,J2,J3,J4,J5,J6|pos|0.779184,-1.239292,1.264328,-0.000814,-1.768062,-0.000083|vel|0.329870,0.342181,-0.319021,0.004382,0.312298,0.000000|eff|870.117188,-1659.667969,-1160.156250,177.246094,28.198242,0.000000
cobot_dynamixel_driver/joint_states|name|J1,J2,J3,J4,J5,J6|pos|0.785681,-1.232732,1.258094,-0.000726,-1.761629,-0.000083|vel|0.348649,0.358246,-0.353030,0.004590,0.388477,0.000000|eff|1272.949219,-2159.179688,-1337.402344,145.019531,48.339844,8.056641
cobot_dynamixel_driver/joint_states|name|J1,J2,J3,J4,J5,J6|pos|0.792892,-1.225334,1.250834,-0.000638,-1.754452,-0.000083|vel|0.378276,0.375773,-0.379320,0.004590,0.380893,0.000000|eff|1079.589844,-2110.839844,-1353.515625,193.359375,28.198242,0.000000
cobot_dynamixel_driver/joint_states|name|J1,J2,J3,J4,J5,J6|pos|0.800440,-1.217748,1.242872,-0.000538,-1.747025,-0.000083|vel|0.392464,0.405609,-0.366592,0.004382,0.408469,0.000000|eff|1643.554688,-1176.269531,-1192.382812,145.019531,44.311523,0.000000
cobot_dynamixel_driver/joint_states|name|J1,J2,J3,J4,J5,J6|pos|0.808289,-1.209611,1.235073,-0.000476,-1.739248,-0.000083|vel|0.419171,0.447964,-0.412912,0.003130,0.358488,0.000000|eff|483.398438,-2288.085938,-1208.496094,112.792969,16.113281,16.113281
cobot_dynamixel_driver/joint_states|name|J1,J2,J3,J4,J5,J6|pos|0.816476,-1.201349,1.227324,-0.000463,-1.731263,-0.000083|vel|0.425431,0.445252,-0.448173,0.001461,0.461898,0.000000|eff|177.246094,-2465.332031,-837.890625,145.019531,20.141602,20.141602
cobot_dynamixel_driver/joint_states|name|J1,J2,J3,J4,J5,J6|pos|0.824726,-1.192887,1.219037,-0.000401,-1.723113,-0.000083|vel|0.416876,0.456936,-0.442331,0.003547,0.469136,0.000000|eff|708.984375,-1305.175781,-902.343750,145.019531,36.254883,8.056641
cobot_dynamixel_driver/joint_states|name|J1,J2,J3,J4,J5,J6|pos|0.833075,-1.184299,1.210037,-0.000338,-1.714839,-0.000083|vel|0.424179,0.436280,-0.454641,0.003130,0.490508,0.000000|eff|660.644531,-934.570312,-1079.589844,161.132812,44.311523,0.000000
cobot_dynamixel_driver/joint_states|name|J1,J2,J3,J4,J5,J6|pos|0.841725,-1.175549,1.201825,-0.000275,-1.706255,-0.000083|vel|0.470290,0.452763,-0.448590,0.002921,0.466034,0.000000|eff|451.171875,-1627.441406,-1482.421875,112.792969,24.169922,0.000000
cobot_dynamixel_driver/joint_states|name|J1,J2,J3,J4,J5,J6|pos|0.850551,-1.166736,1.193075,-0.000275,-1.697629,-0.000083|vel|0.458814,0.457353,-0.456102,0.002921,0.413984,0.000000|eff|1933.593750,-1337.402344,-789.550781,161.132812,32.226562,0.000000
cobot_dynamixel_driver/joint_states|name|J1,J2,J3,J4,J5,J6|pos|0.859426,-1.157798,1.184224,-0.000263,-1.688900,-0.000083|vel|0.491154,0.477801,-0.468203,0.002921,0.497402,0.000000|eff|467.285156,-1853.027344,-1353.515625,145.019531,28.198242,16.113281
cobot_dynamixel_driver/joint_states|name|J1,J2,J3,J4,J5,J6|pos|0.868802,-1.148272,1.174347,-0.000263,-1.679529,-0.000083|vel|0.462570,0.493449,-0.465699,0.002921,0.446041,0.000000|eff|805.664062,-2110.839844,-1627.441406,128.906250,28.198242,16.113281
cobot_dynamixel_driver/joint_states|name|J1,J2,J3,J4,J5,J6|pos|0.877365,-1.139609,1.165810,-0.000263,-1.671007,-0.000083|vel|0.463404,0.495327,-0.413120,0.002921,0.517394,0.000000|eff|918.457031,-1321.289062,-708.984375,128.906250,24.169922,12.084961
cobot_dynamixel_driver/joint_states|name|J1,J2,J3,J4,J5,J6|pos|0.886516,-1.130408,1.157172,-0.000263,-1.661988,-0.000083|vel|0.469038,0.476966,-0.502004,0.002921,0.468102,0.000000|eff|306.152344,-2771.484375,-1337.402344,128.906250,36.254883,12.084961
cobot_dynamixel_driver/joint_states|name|J1,J2,J3,J4,J5,J6|pos|0.895729,-1.121207,1.147383,-0.000263,-1.652928,-0.000083|vel|0.457562,0.479053,-0.485521,0.000000,0.477754,0.000000|eff|402.832031,-2094.726562,-1127.929688,112.792969,32.226562,12.084961
cobot_dynamixel_driver/joint_states|name|J1,J2,J3,J4,J5,J6|pos|0.905043,-1.111881,1.138120,-0.000263,-1.643723,-0.000083|vel|0.481556,0.487816,-0.505134,0.000000,0.544281,0.000000|eff|708.984375,-1853.027344,-982.910156,112.792969,36.254883,12.084961
cobot_dynamixel_driver/joint_states|name|J1,J2,J3,J4,J5,J6|pos|0.914319,-1.102493,1.128731,-0.000263,-1.634518,-0.000083|vel|0.465491,0.485938,-0.442122,0.000000,0.492231,0.000000|eff|902.343750,-1804.687500,-982.910156,145.019531,32.226562,12.084961
cobot_dynamixel_driver/joint_states|name|J1,J2,J3,J4,J5,J6|pos|0.923632,-1.093217,1.119931,-0.000263,-1.625209,-0.000083|vel|0.500543,0.497622,-0.497831,0.000000,0.462587,0.000000|eff|2320.312500,-1530.761719,-821.777344,161.132812,12.084961,20.141602
cobot_dynamixel_driver/joint_states|name|J1,J2,J3,J4,J5,J6|pos|0.933109,-1.083202,1.110179,-0.000238,-1.615404,-0.000083|vel|0.479470,0.515983,-0.467994,0.000000,0.501193,0.000000|eff|499.511719,-1111.816406,-1466.308594,161.132812,0.000000,20.141602
cobot_dynamixel_driver/joint_states|name|J1,J2,J3,J4,J5,J6|pos|0.942635,-1.074151,1.101116,-0.000225,-1.606613,-0.000083|vel|0.498248,0.491989,-0.520156,0.000417,0.466379,0.000000|eff|177.246094,-2433.105469,-837.890625,112.792969,32.226562,12.084961
cobot_dynamixel_driver/joint_states|name|J1,J2,J3,J4,J5,J6|pos|0.952049,-1.064688,1.091126,-0.000200,-1.597222,-0.000083|vel|0.488859,0.505759,-0.501378,0.000835,0.488095,0.000000|eff|257.812500,-2562.011719,-1031.250000,112.792969,56.396484,20.141602
cobot_dynamixel_driver/joint_states|name|J1,J2,J3,J4,J5,J6|pos|0.961462,-1.055074,1.081562,-0.000188,-1.587665,-0.000083|vel|0.471750,0.490320,-0.469455,0.001043,0.473273,0.000000|eff|306.152344,-918.457031,-1385.742188,209.472656,24.169922,24.169922
cobot_dynamixel_driver/joint_states|name|J1,J2,J3,J4,J5,J6|pos|0.970989,-1.045547,1.072499,-0.000175,-1.578295,-0.000083|vel|0.494284,0.493658,-0.411868,0.001043,0.478098,0.000000|eff|354.492188,-773.437500,-1482.421875,128.906250,40.283203,24.169922
cobot_dynamixel_driver/joint_states|name|J1,J2,J3,J4,J5,J6|pos|0.980553,-1.035996,1.062522,-0.000163,-1.568862,-0.000083|vel|0.483852,0.502630,-0.511393,0.001043,0.483614,0.000000|eff|515.625000,-999.023438,-1240.722656,128.906250,16.113281,16.113281
cobot_dynamixel_driver/joint_states|name|J1,J2,J3,J4,J5,J6|pos|0.989466,-1.026444,1.053384,-0.000163,-1.559347,-0.000083|vel|0.418545,0.501587,-0.457979,0.000417,0.497402,0.000000|eff|499.511719,-1417.968750,-773.437500,209.472656,24.169922,24.169922
cobot_dynamixel_driver/joint_states|name|J1,J2,J3,J4,J5,J6|pos|0.997202,-1.016818,1.043432,-0.000150,-1.549914,-0.000083|vel|0.376816,0.489485,-0.515357,0.000417,0.466034,0.000000|eff|177.246094,-2239.746094,-805.664062,209.472656,28.198242,16.113281
cobot_dynamixel_driver/joint_states|name|J1,J2,J3,J4,J5,J6|pos|1.003899,-1.007191,1.033805,-0.000125,-1.540378,-0.000083|vel|0.307337,0.489276,-0.482182,0.000417,0.483269,0.000000|eff|773.437500,-1643.554688,-982.910156,209.472656,0.000000,24.169922
cobot_dynamixel_driver/joint_states|name|J1,J2,J3,J4,J5,J6|pos|1.009683,-0.997602,1.024091,-0.000100,-1.530843,-0.000062|vel|0.305667,0.515566,-0.431273,0.001252,0.511190,0.000000|eff|241.699219,-612.304688,-1450.195312,177.246094,8.056641,20.141602
cobot_dynamixel_driver/joint_states|name|J1,J2,J3,J4,J5,J6|pos|1.014602,-0.987976,1.015015,-0.000075,-1.521369,-0.000041|vel|0.240778,0.477592,-0.505551,0.001461,0.475341,0.000000|eff|0.000000,-837.890625,-1015.136719,161.132812,32.226562,24.169922
cobot_dynamixel_driver/joint_states|name|J1,J2,J3,J4,J5,J6|pos|1.018858,-0.978387,1.004863,-0.000075,-1.511791,-0.000041|vel|0.204265,0.599442,-0.515983,0.001461,0.489474,0.000000|eff|193.359375,-1691.894531,-708.984375,128.906250,8.056641,24.169922
cobot_dynamixel_driver/joint_states|name|J1,J2,J3,J4,J5,J6|pos|1.022501,-0.968785,0.995750,-0.000063,-1.502152,-0.000021|vel|0.184026,0.522869,-0.507429,0.001461,0.496023,0.000689|eff|354.492188,-2336.425781,-837.890625,128.906250,28.198242,24.169922
cobot_dynamixel_driver/joint_states|name|J1,J2,J3,J4,J5,J6|pos|1.025706,-0.959046,0.985785,-0.000063,-1.492616,0.000000|vel|0.156902,0.518070,-0.493658,0.001461,0.435356,0.000689|eff|322.265625,-547.851562,-1111.816406,128.906250,16.113281,20.141602
cobot_dynamixel_driver/joint_states|name|J1,J2,J3,J4,J5,J6|pos|1.028535,-0.949357,0.976547,-0.000063,-1.483163,0.000000|vel|0.130821,0.479470,-0.499083,0.001461,0.496023,0.000689|eff|257.812500,-934.570312,-1546.875000,128.906250,44.311523,20.141602
cobot_dynamixel_driver/joint_states|name|J1,J2,J3,J4,J5,J6|pos|1.030913,-0.939731,0.966457,-0.000063,-1.473461,0.000000|vel|0.106618,0.485938,-0.512645,0.001461,0.431909,0.000689|eff|306.152344,-1853.027344,-1305.175781,145.019531,0.000000,20.141602
cobot_dynamixel_driver/joint_states|name|J1,J2,J3,J4,J5,J6|pos|1.032966,-0.930042,0.957131,-0.000063,-1.463884,0.000000|vel|0.099524,0.490111,-0.513271,0.000000,0.484648,0.000689|eff|273.925781,-1208.496094,-870.117188,209.472656,20.141602,16.113281
cobot_dynamixel_driver/joint_states|name|J1,J2,J3,J4,J5,J6|pos|1.034857,-0.920315,0.946966,-0.000063,-1.454307,0.000000|vel|0.085128,0.495119,-0.417293,0.000000,0.490852,0.000689|eff|193.359375,-580.078125,-1353.515625,161.132812,44.311523,12.084961
cobot_dynamixel_driver/joint_states|name|J1,J2,J3,J4,J5,J6|pos|1.036434,-0.910651,0.937828,-0.000063,-1.444688,0.000000|vel|0.070314,0.510767,-0.420214,0.002295,0.518773,0.000000|eff|273.925781,-1192.382812,-1595.214844,128.906250,12.084961,12.084961
cobot_dynamixel_driver/joint_states|name|J1,J2,J3,J4,J5,J6|pos|1.037748,-0.901074,0.927663,-0.000063,-1.435152,0.000000|vel|0.063011,0.501378,-0.486564,-0.002295,0.577717,0.000000|eff|273.925781,-2046.386719,-660.644531,128.906250,64.453125,16.113281
cobot_dynamixel_driver/joint_states|name|J1,J2,J3,J4,J5,J6|pos|1.038950,-0.891423,0.918550,-0.000063,-1.425492,0.000000|vel|0.056543,0.517652,-0.498457,0.000835,0.410537,0.000000|eff|225.585938,-1933.593750,-870.117188,128.906250,0.000000,16.113281
cobot_dynamixel_driver/joint_states|name|J1,J2,J3,J4,J5,J6|pos|1.040052,-0.881721,0.908385,-0.000063,-1.415915,0.000000|vel|0.049449,0.487190,-0.450677,0.000835,0.524978,0.000000|eff|193.359375,-596.191406,-1385.742188,128.906250,12.084961,16.113281
cobot_dynamixel_driver/joint_states|name|J1,J2,J3,J4,J5,J6|pos|1.040966,-0.872082,0.899122,-0.000063,-1.406358,0.000000|vel|0.040060,0.496788,-0.511393,0.000835,0.479133,0.000000|eff|193.359375,-1095.703125,-1289.062500,128.906250,16.113281,12.084961
cobot_dynamixel_driver/joint_states|name|J1,J2,J3,J4,J5,J6|pos|1.041729,-0.862381,0.888969,-0.000063,-1.396760,0.000000|vel|0.037765,0.518696,-0.514731,0.000835,0.480856,0.000000|eff|193.359375,-2191.406250,-708.984375,128.906250,16.113281,12.084961
cobot_dynamixel_driver/joint_states|name|J1,J2,J3,J4,J5,J6|pos|1.042455,-0.852716,0.879693,-0.000063,-1.387183,0.000000|vel|0.031506,0.477801,-0.452346,0.000835,0.553243,0.000000|eff|193.359375,-789.550781,-1224.609375,128.906250,44.311523,16.113281
cobot_dynamixel_driver/joint_states|name|J1,J2,J3,J4,J5,J6|pos|1.043069,-0.843115,0.869566,-0.000063,-1.377605,0.000000|vel|0.027750,0.523912,-0.491780,0.000835,0.455348,0.000000|eff|225.585938,-499.511719,-1450.195312,128.906250,16.113281,16.113281
cobot_dynamixel_driver/joint_states|name|J1,J2,J3,J4,J5,J6|pos|1.043569,-0.833388,0.860052,-0.000063,-1.368049,0.000000|vel|0.023577,0.487190,-0.495744,0.000000,0.487061,0.000000|eff|273.925781,-1385.742188,-1240.722656,128.906250,20.141602,16.113281
cobot_dynamixel_driver/joint_states|name|J1,J2,J3,J4,J5,J6|pos|1.044007,-0.823649,0.850263,-0.000063,-1.358430,0.000000|vel|0.022325,0.581081,-0.491154,0.000000,0.489129,0.000000|eff|273.925781,-1434.082031,-902.343750,128.906250,28.198242,12.084961
cobot_dynamixel_driver/joint_states|name|J1,J2,J3,J4,J5,J6|pos|1.044433,-0.813923,0.841112,-0.000063,-1.348790,0.000000|vel|0.020030,0.464656,-0.505759,0.000000,0.513602,0.000000|eff|225.585938,-467.285156,-1144.042969,128.906250,0.000000,16.113281
cobot_dynamixel_driver/joint_states|name|J1,J2,J3,J4,J5,J6|pos|1.044759,-0.804221,0.830972,-0.000063,-1.339213,0.000000|vel|0.016274,0.477175,-0.511184,0.000000,0.568754,0.000000|eff|209.472656,-1208.496094,-1498.535156,128.906250,16.113281,16.113281
cobot_dynamixel_driver/joint_states|name|J1,J2,J3,J4,J5,J6|pos|1.045134,-0.794582,0.821696,-0.000063,-1.329512,0.000000|vel|0.018152,0.499083,-0.452972,0.000000,0.408814,0.000000|eff|112.792969,-2159.179688,-692.871094,112.792969,8.056641,16.113281
cobot_dynamixel_driver/joint_states|name|J1,J2,J3,J4,J5,J6|pos|1.045435,-0.784930,0.811582,-0.000063,-1.319893,0.000000|vel|0.013353,0.501795,-0.519322,0.000000,0.475686,0.000000|eff|225.585938,-789.550781,-1063.476562,128.906250,28.198242,16.113281
cobot_dynamixel_driver/joint_states|name|J1,J2,J3,J4,J5,J6|pos|1.045672,-0.775254,0.802356,-0.000063,-1.310274,0.000000|vel|0.010850,0.513271,-0.565015,0.000000,0.503606,0.000000|eff|193.359375,-580.078125,-1450.195312,161.132812,12.084961,16.113281
cobot_dynamixel_driver/joint_states|name|J1,J2,J3,J4,J5,J6|pos|1.045885,-0.765477,0.792266,-0.000063,-1.300697,0.000000|vel|0.010432,0.526416,-0.447130,0.000000,0.415018,0.000000|eff|161.132812,-1804.687500,-1353.515625,209.472656,16.113281,16.113281
cobot_dynamixel_driver/joint_states|name|J1,J2,J3,J4,J5,J6|pos|1.046060,-0.755800,0.783065,-0.000063,-1.291120,0.000000|vel|0.008555,0.471750,-0.513897,0.000000,0.522909,0.000000|eff|225.585938,-1562.988281,-676.757812,128.906250,16.113281,16.113281
cobot_dynamixel_driver/joint_states|name|J1,J2,J3,J4,J5,J6|pos|1.046236,-0.746224,0.772800,-0.000063,-1.281501,0.000000|vel|0.007720,0.513897,-0.506594,0.000000,0.468102,0.000000|eff|96.679688,-467.285156,-1272.949219,128.906250,12.084961,16.113281
cobot_dynamixel_driver/joint_states|name|J1,J2,J3,J4,J5,J6|pos|1.046361,-0.736547,0.763612,-0.000063,-1.271820,0.000000|vel|0.005842,0.483643,-0.456102,0.000000,0.490163,0.000000|eff|177.246094,-708.984375,-1579.101562,128.906250,36.254883,16.113281
cobot_dynamixel_driver/joint_states|name|J1,J2,J3,J4,J5,J6|pos|1.046449,-0.726858,0.753397,-0.000063,-1.262243,0.000000|vel|0.004173,0.473837,-0.491363,0.000000,0.551519,0.000000|eff|209.472656,-1691.894531,-708.984375,161.132812,32.226562,16.113281
cobot_dynamixel_driver/joint_states|name|J1,J2,J3,J4,J5,J6|pos|1.046549,-0.716168,0.742794,-0.000063,-1.251693,0.000000|vel|0.004382,0.535596,-0.452346,0.000000,0.518773,0.000000|eff|145.019531,-354.492188,-1224.609375,193.359375,24.169922,16.113281
cobot_dynamixel_driver/joint_states|name|J1,J2,J3,J4,J5,J6|pos|1.046599,-0.707405,0.734156,-0.000050,-1.243109,0.000000|vel|0.002712,0.508889,-0.453598,0.000000,0.529114,0.000000|eff|161.132812,-854.003906,-1562.988281,145.019531,24.169922,16.113281
cobot_dynamixel_driver/joint_states|name|J1,J2,J3,J4,J5,J6|pos|1.046674,-0.697691,0.724380,-0.000050,-1.233511,0.000000|vel|0.003756,0.470498,-0.491572,0.000000,0.442939,0.000000|eff|145.019531,-1530.761719,-1047.363281,161.132812,24.169922,16.113281
cobot_dynamixel_driver/joint_states|name|J1,J2,J3,J4,J5,J6|pos|1.046749,-0.687964,0.714628,-0.000050,-1.223892,0.000000|vel|0.004173,0.541229,-0.455684,0.000000,0.521875,0.000000|eff|161.132812,-1160.156250,-854.003906,128.906250,28.198242,16.113281
cobot_dynamixel_driver/joint_states|name|J1,J2,J3,J4,J5,J6|pos|1.046761,-0.678275,0.704964,-0.000050,-1.214273,0.000000|vel|0.000835,0.498457,-0.523077,0.000000,0.554622,0.000000|eff|193.359375,-354.492188,-1369.628906,177.246094,20.141602,16.113281
cobot_dynamixel_driver/joint_states|name|J1,J2,J3,J4,J5,J6|pos|1.046787,-0.668611,0.695650,-0.000050,-1.204655,0.000000|vel|0.000835,0.513479,-0.486564,0.000000,0.443628,0.000000|eff|209.472656,-966.796875,-1111.816406,161.132812,8.056641,16.113281
cobot_dynamixel_driver/joint_states|name|J1,J2,J3,J4,J5,J6|pos|1.046824,-0.658897,0.685561,-0.000038,-1.195077,0.000000|vel|0.001669,0.502004,-0.465282,0.000000,0.492231,0.000000|eff|161.132812,-1272.949219,-676.757812,193.359375,20.141602,20.141602
cobot_dynamixel_driver/joint_states|name|J1,J2,J3,J4,J5,J6|pos|1.046849,-0.649233,0.675984,-0.000038,-1.185521,0.000000|vel|0.001461,0.502421,-0.454224,0.000000,0.443284,0.000000|eff|193.359375,-306.152344,-1031.250000,193.359375,32.226562,20.141602
cobot_dynamixel_driver/joint_states|name|J1,J2,J3,J4,J5,J6|pos|1.046887,-0.639456,0.666345,-0.000038,-1.175923,0.000000|vel|0.002504,0.502421,-0.493658,0.000000,0.522565,0.000000|eff|209.472656,-580.078125,-1482.421875,128.906250,48.339844,12.084961
cobot_dynamixel_driver/joint_states|name|J1,J2,J3,J4,J5,J6|pos|1.046949,-0.629817,0.657094,-0.000038,-1.166263,0.000000|vel|0.002712,0.504090,-0.520156,0.000000,0.482924,0.000000|eff|225.585938,-1820.800781,-1353.515625,177.246094,44.311523,12.084961
cobot_dynamixel_driver/joint_states|name|J1,J2,J3,J4,J5,J6|pos|1.046999,-0.619702,0.646892,-0.000038,-1.156168,0.000000|vel|0.002504,0.506385,-0.446087,0.000000,0.515326,0.000000|eff|161.132812,-306.152344,-1434.082031,177.246094,20.141602,12.084961
cobot_dynamixel_driver/joint_states|name|J1,J2,J3,J4,J5,J6|pos|1.047012,-0.610526,0.637090,-0.000038,-1.147067,0.000000|vel|0.001043,0.509515,-0.516818,0.000000,0.546349,0.000000|eff|177.246094,-241.699219,-1321.289062,209.472656,32.226562,16.113281
cobot_dynamixel_driver/joint_states|name|J1,J2,J3,J4,J5,J6|pos|1.047049,-0.600862,0.627914,-0.000038,-1.137407,0.000000|vel|0.001252,0.484895,-0.447130,0.000000,0.495678,0.000000|eff|128.906250,-902.343750,-1401.855469,128.906250,40.283203,12.084961
cobot_dynamixel_driver/joint_states|name|J1,J2,J3,J4,J5,J6|pos|1.047087,-0.591098,0.618350,-0.000038,-1.127767,0.000000|vel|0.002295,0.451094,-0.416667,0.000000,0.521875,0.000000|eff|241.699219,-1417.968750,-950.683594,209.472656,0.000000,12.084961
cobot_dynamixel_driver/joint_states|name|J1,J2,J3,J4,J5,J6|pos|1.047112,-0.581346,0.608624,-0.000038,-1.118231,0.000000|vel|0.001043,0.509515,-0.513479,0.000000,0.514981,0.000000|eff|209.472656,-96.679688,-1047.363281,128.906250,28.198242,12.084961
cobot_dynamixel_driver/joint_states|name|J1,J2,J3,J4,J5,J6|pos|1.047125,-0.571620,0.598459,-0.000025,-1.108654,0.000000|vel|0.001043,0.501378,-0.433985,0.000000,0.513947,0.000000|eff|161.132812,-789.550781,-1514.648438,225.585938,20.141602,16.113281
cobot_dynamixel_driver/joint_states|name|J1,J2,J3,J4,J5,J6|pos|1.047162,-0.561417,0.588206,-0.000025,-1.098539,0.000000|vel|0.001669,0.477384,-0.538517,0.000000,0.501538,0.000000|eff|145.019531,-322.265625,-1337.402344,193.359375,20.141602,16.113281
cobot_dynamixel_driver/joint_states|name|J1,J2,J3,J4,J5,J6|pos|1.047187,-0.552229,0.579444,-0.000013,-1.089396,0.000000|vel|0.001669,0.501169,-0.520573,0.000000,0.508777,0.000000|eff|96.679688,-128.906250,-886.230469,209.472656,36.254883,16.113281
cobot_dynamixel_driver/joint_states|name|J1,J2,J3,J4,J5,J6|pos|1.047187,-0.542577,0.569654,-0.000013,-1.079756,0.000000|vel|0.001669,0.498874,-0.504090,0.000000,0.420189,0.000000|eff|209.472656,-209.472656,-1627.441406,161.132812,-16.113281,16.113281
cobot_dynamixel_driver/joint_states|name|J1,J2,J3,J4,J5,J6|pos|1.047187,-0.532913,0.559490,0.000000,-1.070179,0.000000|vel|0.000417,0.514105,-0.511393,0.000000,0.486027,0.000000|eff|193.359375,-1305.175781,-612.304688,145.019531,16.113281,20.141602
cobot_dynamixel_driver/joint_states|name|J1,J2,J3,J4,J5,J6|pos|1.047200,-0.523199,0.549951,0.000000,-1.060519,0.000000|vel|0.000417,0.526833,-0.519947,0.000000,0.505330,0.000000|eff|209.472656,-805.664062,-741.210938,225.585938,16.113281,12.084961
cobot_dynamixel_driver/joint_states|name|J1,J2,J3,J4,J5,J6|pos|1.047200,-0.513423,0.540837,0.000013,-1.050859,0.000000|vel|0.000417,0.486147,-0.494910,0.000000,0.474651,0.000000|eff|48.339844,-128.906250,-1015.136719,209.472656,24.169922,16.113281
cobot_dynamixel_driver/joint_states|name|J1,J2,J3,J4,J5,J6|pos|1.047200,-0.503821,0.531098,0.000013,-1.041282,0.000000|vel|0.000417,0.475923,-0.519530,0.000209,0.514981,0.000000|eff|193.359375,-837.890625,-1498.535156,209.472656,36.254883,16.113281
cobot_dynamixel_driver/joint_states|name|J1,J2,J3,J4,J5,J6|pos|1.047200,-0.494169,0.520933,0.000013,-1.031663,0.000000|vel|0.000417,0.500335,-0.513897,0.000209,0.480856,0.000000|eff|0.000000,-1772.460938,-918.457031,145.019531,8.056641,12.084961
cobot_dynamixel_driver/joint_states|name|J1,J2,J3,J4,J5,J6|pos|1.047200,-0.484468,0.511194,0.000013,-1.022085,0.000000|vel|0.000417,0.499291,-0.507220,0.000209,0.480856,0.000000|eff|128.906250,-644.531250,-950.683594,177.246094,24.169922,16.113281
cobot_dynamixel_driver/joint_states|name|J1,J2,J3,J4,J5,J6|pos|1.047212,-0.474804,0.502018,0.000013,-1.012487,0.000000|vel|0.000000,0.513688,-0.517235,0.000209,0.457072,0.000000|eff|209.472656,-225.585938,-1305.175781,128.906250,36.254883,24.169922
cobot_dynamixel_driver/joint_states|name|J1,J2,J3,J4,J5,J6|pos|1.047212,-0.465090,0.492492,0.000025,-1.002869,0.000000|vel|0.000000,0.496996,-0.509724,0.000209,0.423291,0.000000|eff|193.359375,-1127.929688,-1627.441406,225.585938,48.339844,12.084961
cobot_dynamixel_driver/joint_states|name|J1,J2,J3,J4,J5,J6|pos|1.047212,-0.455325,0.482215,0.000025,-0.993374,0.000000|vel|0.000000,0.523077,-0.502630,0.000209,0.548762,0.000000|eff|96.679688,-257.812500,-757.324219,128.906250,28.198242,12.084961
cobot_dynamixel_driver/joint_states|name|J1,J2,J3,J4,J5,J6|pos|1.047212,-0.445549,0.473026,0.000025,-0.983693,0.000000|vel|0.000000,0.512019,-0.507637,0.000000,0.432253,0.000000|eff|96.679688,-64.453125,-1015.136719,128.906250,8.056641,16.113281
cobot_dynamixel_driver/joint_states|name|J1,J2,J3,J4,J5,J6|pos|1.047212,-0.435885,0.463262,0.000025,-0.974178,0.000000|vel|0.000000,0.503047,-0.511184,0.000000,0.493265,0.000000|eff|193.359375,-1240.722656,-1627.441406,145.019531,64.453125,16.113281
cobot_dynamixel_driver/joint_states|name|J1,J2,J3,J4,J5,J6|pos|1.047212,-0.426233,0.453460,0.000025,-0.964456,0.000000|vel|0.000000,0.491154,-0.511602,0.000000,0.500159,0.000000|eff|193.359375,-2094.726562,-547.851562,209.472656,32.226562,16.113281
cobot_dynamixel_driver/joint_states|name|J1,J2,J3,J4,J5,J6|pos|1.047225,-0.416106,0.443295,0.000025,-0.954382,0.000000|vel|0.000000,0.507220,-0.511602,0.000000,0.551519,0.000000|eff|209.472656,-596.191406,-1498.535156,128.906250,8.056641,12.084961
cobot_dynamixel_driver/joint_states|name|J1,J2,J3,J4,J5,J6|pos|1.047225,-0.406917,0.434107,0.000025,-0.945425,0.000000|vel|0.000000,0.489276,-0.443165,0.000000,0.413295,0.000000|eff|193.359375,-241.699219,-1466.308594,161.132812,40.283203,16.113281
cobot_dynamixel_driver/joint_states|name|J1,J2,J3,J4,J5,J6|pos|1.047225,-0.397153,0.424518,0.000025,-0.935807,0.000000|vel|0.000000,0.477175,-0.505551,0.000000,0.432943,0.000000|eff|112.792969,-1434.082031,-1256.835938,193.359375,8.056641,16.113281
cobot_dynamixel_driver/joint_states|name|J1,J2,J3,J4,J5,J6|pos|1.047237,-0.387364,0.414378,0.000025,-0.926167,0.000000|vel|0.000000,0.478009,-0.514105,0.000000,0.542902,0.000000|eff|177.246094,402.832031,-821.777344,128.906250,24.169922,16.113281
cobot_dynamixel_driver/joint_states|name|J1,J2,J3,J4,J5,J6|pos|1.047237,-0.377675,0.404639,0.000025,-0.916569,0.000000|vel|0.000000,0.506803,-0.499500,0.000000,0.483958,0.000000|eff|193.359375,-467.285156,-1127.929688,128.906250,28.198242,12.084961
cobot_dynamixel_driver/joint_states|name|J1,J2,J3,J4,J5,J6|pos|1.047250,-0.368086,0.394887,0.000025,-0.906930,0.000000|vel|0.000000,0.474671,-0.496162,0.000000,0.450522,0.000000|eff|48.339844,-982.910156,-1047.363281,209.472656,24.169922,16.113281
cobot_dynamixel_driver/joint_states|name|J1,J2,J3,J4,J5,J6|pos|1.047250,-0.358497,0.385661,0.000025,-0.897291,0.000000|vel|0.000000,0.486355,-0.513479,0.000000,0.591505,0.000000|eff|209.472656,-1772.460938,-660.644531,209.472656,32.226562,20.141602
cobot_dynamixel_driver/joint_states|name|J1,J2,J3,J4,J5,J6|pos|1.047250,-0.348833,0.375509,0.000025,-0.887672,0.000000|vel|0.000000,0.499083,-0.493449,0.000000,0.479477,0.000000|eff|96.679688,-48.339844,-1079.589844,161.132812,24.169922,12.084961
cobot_dynamixel_driver/joint_states|name|J1,J2,J3,J4,J5,J6|pos|1.047250,-0.339094,0.365883,0.000025,-0.878074,0.000000|vel|0.000000,0.480722,-0.534553,0.000000,0.484303,0.000000|eff|161.132812,-290.039062,-1450.195312,161.132812,36.254883,16.113281
cobot_dynamixel_driver/joint_states|name|J1,J2,J3,J4,J5,J6|pos|1.047250,-0.329380,0.356081,0.000025,-0.868517,0.000000|vel|0.000000,0.509932,-0.454224,0.000000,0.492576,0.000000|eff|177.246094,-1353.515625,-741.210938,161.132812,32.226562,16.113281
cobot_dynamixel_driver/joint_states|name|J1,J2,J3,J4,J5,J6|pos|1.047262,-0.319640,0.346905,0.000038,-0.858878,0.000000|vel|0.000000,0.491989,-0.509724,0.000000,0.434666,0.000000|eff|145.019531,-80.566406,-757.324219,145.019531,0.000000,12.084961
cobot_dynamixel_driver/joint_states|name|J1,J2,J3,J4,J5,J6|pos|1.047275,-0.309889,0.336753,0.000038,-0.849259,0.000000|vel|0.000000,0.484478,-0.491780,0.000000,0.480167,0.000000|eff|32.226562,-354.492188,-1498.535156,193.359375,12.084961,16.113281
cobot_dynamixel_driver/joint_states|name|J1,J2,J3,J4,J5,J6|pos|1.047275,-0.299198,0.326488,0.000038,-0.838792,0.000000|vel|0.000000,0.504716,-0.441705,0.000000,0.487750,0.000000|eff|161.132812,-999.023438,-1675.781250,128.906250,24.169922,16.113281
cobot_dynamixel_driver/joint_states|name|J1,J2,J3,J4,J5,J6|pos|1.047287,-0.290498,0.317249,0.000038,-0.830063,0.000000|vel|0.000000,0.507011,-0.494075,0.000000,0.484303,0.000000|eff|193.359375,-886.230469,-708.984375,128.906250,36.254883,12.084961
cobot_dynamixel_driver/joint_states|name|J1,J2,J3,J4,J5,J6|pos|1.047287,-0.280859,0.308061,0.000038,-0.820444,0.000000|vel|0.000000,0.494910,-0.508055,0.000000,0.502917,0.000000|eff|193.359375,209.472656,-1224.609375,128.906250,32.226562,16.113281
cobot_dynamixel_driver/joint_states|name|J1,J2,J3,J4,J5,J6|pos|1.047287,-0.271195,0.298434,0.000038,-0.810805,0.000000|vel|0.000000,0.476549,-0.526416,0.000000,0.439492,0.000000|eff|48.339844,-370.605469,-1659.667969,128.906250,0.000000,16.113281
cobot_dynamixel_driver/joint_states|name|J1,J2,J3,J4,J5,J6|pos|1.047287,-0.261481,0.288733,0.000038,-0.801228,0.000000|vel|0.000209,0.474671,-0.519113,0.000000,0.572201,0.000000|eff|96.679688,-1595.214844,-741.210938,209.472656,32.226562,16.113281
cobot_dynamixel_driver/joint_states|name|J1,J2,J3,J4,J5,J6|pos|1.047287,-0.251792,0.278581,0.000038,-0.791609,0.000000|vel|0.000209,0.503256,-0.503256,0.000000,0.505674,0.000000|eff|161.132812,499.511719,-966.796875,193.359375,24.169922,16.113281
cobot_dynamixel_driver/joint_states|name|J1,J2,J3,J4,J5,J6|pos|1.047287,-0.242115,0.269405,0.000038,-0.782011,0.000000|vel|0.000209,0.506594,-0.530797,0.000000,0.455348,0.000000|eff|48.339844,32.226562,-1272.949219,112.792969,36.254883,16.113281
cobot_dynamixel_driver/joint_states|name|J1,J2,J3,J4,J5,J6|pos|1.047287,-0.232413,0.259252,0.000038,-0.772434,0.000000|vel|0.000209,0.502004,-0.496579,0.000000,0.562895,0.000000|eff|193.359375,-1079.589844,-1514.648438,145.019531,24.169922,16.113281
cobot_dynamixel_driver/joint_states|name|J1,J2,J3,J4,J5,J6|pos|1.047287,-0.221785,0.248650,0.000038,-0.761822,0.000000|vel|0.000209,0.517444,-0.484060,0.000000,0.511879,0.000000|eff|0.000000,-628.417969,-837.890625,177.246094,20.141602,16.113281
cobot_dynamixel_driver/joint_states|name|J1,J2,J3,J4,J5,J6|pos|1.047287,-0.213085,0.239887,0.000038,-0.753155,0.000000|vel|0.000209,0.502421,-0.512436,0.000000,0.478098,0.000000|eff|0.000000,209.472656,-1031.250000,128.906250,28.198242,20.141602
cobot_dynamixel_driver/joint_states|name|J1,J2,J3,J4,J5,J6|pos|1.047287,-0.203384,0.230686,0.000038,-0.743495,0.000000|vel|0.000000,0.481556,-0.478427,0.000000,0.508087,0.000000|eff|0.000000,-354.492188,-1498.535156,193.359375,28.198242,20.141602
cobot_dynamixel_driver/joint_states|name|J1,J2,J3,J4,J5,J6|pos|1.047287,-0.193669,0.220446,0.000038,-0.733855,0.000000|vel|0.000000,0.524538,-0.456728,0.000000,0.445697,0.000000|eff|193.359375,-1675.781250,-708.984375,177.246094,36.254883,20.141602
cobot_dynamixel_driver/joint_states|name|J1,J2,J3,J4,J5,J6|pos|1.047287,-0.184005,0.211170,0.000038,-0.724278,0.000000|vel|0.000000,0.472793,-0.502838,0.002086,0.515671,0.000000|eff|128.906250,225.585938,-982.910156,112.792969,32.226562,24.169922
cobot_dynamixel_driver/joint_states|name|J1,J2,J3,J4,J5,J6|pos|1.047287,-0.174291,0.200905,0.000038,-0.714659,0.000000|vel|0.000000,0.483852,-0.441914,-0.001878,0.502227,0.000000|eff|0.000000,96.679688,-1562.988281,112.792969,20.141602,16.113281
cobot_dynamixel_driver/joint_states|name|J1,J2,J3,J4,J5,J6|pos|1.047287,-0.164577,0.191692,0.000038,-0.705061,0.000000|vel|0.000000,0.524955,-0.507429,0.001878,0.478788,0.000000|eff|128.906250,-1031.250000,-612.304688,112.792969,16.113281,12.084961
cobot_dynamixel_driver/joint_states|name|J1,J2,J3,J4,J5,J6|pos|1.047287,-0.154913,0.181589,0.000038,-0.695525,0.000000|vel|0.000000,0.487816,-0.486147,-0.002086,0.505674,0.000000|eff|161.132812,-64.453125,-837.890625,96.679688,56.396484,16.113281
cobot_dynamixel_driver/joint_states|name|J1,J2,J3,J4,J5,J6|pos|1.047287,-0.145211,0.172414,0.000038,-0.685865,0.000000|vel|0.000000,0.503673,-0.479261,0.001878,0.434322,0.000000|eff|0.000000,322.265625,-1208.496094,96.679688,44.311523,12.084961
cobot_dynamixel_driver/joint_states|name|J1,J2,J3,J4,J5,J6|pos|1.047287,-0.135485,0.162249,0.000038,-0.676247,0.000000|vel|0.000000,0.500961,-0.499500,-0.001878,0.523254,0.000000|eff|96.679688,-467.285156,-1804.687500,96.679688,28.198242,16.113281
cobot_dynamixel_driver/goal|-:J1,J2,J3,J4,J5,J6:1.047198,0.000000,0.000000,0.000000,0.000000,0.000000:0.500000,0.500000,0.500000,0.500000,0.500000,0.500000:pos_vel_
cobot_dynamixel_driver/joint_states|name|J1,J2,J3,J4,J5,J6|pos|1.047287,-0.125783,0.153173,0.000038,-0.666607,0.000000|vel|0.000000,0.492823,-0.442122,0.001878,0.429840,0.000000|eff|128.906250,386.718750,-1144.042969,128.906250,36.254883,16.113281
cobot_dynamixel_driver/joint_states|name|J1,J2,J3,J4,J5,J6|pos|1.047287,-0.116082,0.143421,0.000038,-0.657092,0.000000|vel|0.000000,0.502212,-0.533092,-0.002086,0.511190,0.000000|eff|161.132812,515.625000,-918.457031,177.246094,28.198242,24.169922
cobot_dynamixel_driver/joint_states|name|J1,J2,J3,J4,J5,J6|pos|1.047287,-0.106405,0.133257,0.000038,-0.647639,0.000000|vel|0.000000,0.508055,-0.447547,-0.002086,0.495333,0.000000|eff|0.000000,-257.812500,-1321.289062,96.679688,56.396484,20.141602
cobot_dynamixel_driver/joint_states|name|J1,J2,J3,J4,J5,J6|pos|1.047287,-0.096716,0.123680,0.000038,-0.638020,0.000000|vel|0.000000,0.471750,-0.474045,0.002086,0.459829,0.000000|eff|96.679688,-1079.589844,-1562.988281,177.246094,24.169922,24.169922
cobot_dynamixel_driver/joint_states|name|J1,J2,J3,J4,J5,J6|pos|1.047287,-0.087064,0.114454,0.000038,-0.628360,0.000000|vel|0.000000,0.507637,-0.519739,-0.001669,0.590471,0.000000|eff|0.000000,-96.679688,-596.191406,112.792969,48.339844,24.169922
cobot_dynamixel_driver/joint_states|name|J1,J2,J3,J4,J5,J6|pos|1.047287,-0.077375,0.104277,0.000038,-0.618679,0.000000|vel|0.000000,0.523703,-0.496996,0.001878,0.511190,0.000000|eff|0.000000,193.359375,-1272.949219,96.679688,24.169922,16.113281
cobot_dynamixel_driver/joint_states|name|J1,J2,J3,J4,J5,J6|pos|1.047287,-0.067836,0.094488,0.000038,-0.609164,0.000000|vel|0.000000,0.488859,-0.532675,-0.001878,0.482580,0.000000|eff|0.000000,96.679688,-1579.101562,128.906250,56.396484,20.141602
cobot_dynamixel_driver/joint_states|name|J1,J2,J3,J4,J5,J6|pos|1.047287,-0.058811,0.085224,0.000038,-0.599545,0.000000|vel|0.000000,0.447964,-0.521825,0.002086,0.485682,0.000000|eff|161.132812,870.117188,-628.417969,96.679688,56.396484,20.141602
cobot_dynamixel_driver/joint_states|name|J1,J2,J3,J4,J5,J6|pos|1.047287,-0.050849,0.075535,0.000038,-0.589823,0.000000|vel|0.000000,0.359707,-0.441705,-0.001669,0.486027,0.000000|eff|96.679688,0.000000,-966.796875,112.792969,20.141602,12.084961
cobot_dynamixel_driver/joint_states|name|J1,J2,J3,J4,J5,J6|pos|1.047287,-0.043964,0.066059,0.000038,-0.580225,0.000000|vel|0.000000,0.330288,-0.430855,0.001669,0.544970,0.000000|eff|0.000000,757.324219,-999.023438,145.019531,32.226562,12.084961
cobot_dynamixel_driver/joint_states|name|J1,J2,J3,J4,J5,J6|pos|1.047287,-0.038118,0.056933,0.000038,-0.570606,0.000000|vel|0.000000,0.270197,-0.445252,-0.001878,0.504296,0.000000|eff|0.000000,96.679688,-1111.816406,96.679688,52.368164,16.113281
cobot_dynamixel_driver/joint_states|name|J1,J2,J3,J4,J5,J6|pos|1.047287,-0.033198,0.049860,0.000038,-0.561008,0.000000|vel|0.000000,0.215949,-0.356994,-0.001461,0.429496,0.000000|eff|0.000000,161.132812,-1031.250000,96.679688,40.283203,12.084961
cobot_dynamixel_driver/joint_states|name|J1,J2,J3,J4,J5,J6|pos|1.047287,-0.028955,0.043451,0.000038,-0.551431,0.000000|vel|0.000000,0.197380,-0.313596,-0.001461,0.511190,0.000000|eff|0.000000,161.132812,-563.964844,145.019531,48.339844,24.169922
cobot_dynamixel_driver/joint_states|name|J1,J2,J3,J4,J5,J6|pos|1.047287,-0.025249,0.037692,0.000038,-0.541792,0.000000|vel|0.000000,0.177767,-0.226799,-0.001043,0.439492,0.000000|eff|0.000000,354.492188,-741.210938,177.246094,40.283203,16.113281
cobot_dynamixel_driver/joint_states|name|J1,J2,J3,J4,J5,J6|pos|1.047275,-0.022070,0.033073,0.000038,-0.532152,0.000000|vel|0.000000,0.155442,-0.223669,-0.001043,0.489818,0.000000|eff|64.453125,338.378906,-886.230469,145.019531,28.198242,20.141602
cobot_dynamixel_driver/joint_states|name|J1,J2,J3,J4,J5,J6|pos|1.047275,-0.019303,0.028942,0.000038,-0.522554,0.000000|vel|0.000000,0.129570,-0.210107,0.000835,0.571512,0.000000|eff|96.679688,161.132812,-854.003906,96.679688,44.311523,24.169922
cobot_dynamixel_driver/joint_states|name|J1,J2,J3,J4,J5,J6|pos|1.047275,-0.016887,0.025437,0.000038,-0.512894,0.000000|vel|0.000000,0.118303,-0.181105,-0.000835,0.427428,0.000000|eff|0.000000,241.699219,-725.097656,96.679688,52.368164,12.084961
cobot_dynamixel_driver/joint_states|name|J1,J2,J3,J4,J5,J6|pos|1.047275,-0.014809,0.022257,0.000038,-0.503296,0.000000|vel|0.000000,0.105158,-0.141254,0.000626,0.522565,0.000000|eff|0.000000,241.699219,-773.437500,96.679688,24.169922,16.113281
cobot_dynamixel_driver/joint_states|name|J1,J2,J3,J4,J5,J6|pos|1.047275,-0.013006,0.019428,0.000038,-0.493719,0.000000|vel|0.000000,0.090135,-0.133743,-0.000626,0.500849,0.000000|eff|96.679688,161.132812,-918.457031,96.679688,44.311523,16.113281
cobot_dynamixel_driver/joint_states|name|J1,J2,J3,J4,J5,J6|pos|1.047275,-0.011392,0.017175,0.000038,-0.484100,0.000000|vel|0.000000,0.076991,-0.105575,0.000417,0.474996,0.000000|eff|0.000000,225.585938,-805.664062,112.792969,52.368164,20.141602
cobot_dynamixel_driver/joint_states|name|J1,J2,J3,J4,J5,J6|pos|1.047275,-0.009977,0.014947,0.000038,-0.474523,0.000000|vel|0.000000,0.069062,-0.104532,0.000417,0.514292,0.000000|eff|0.000000,177.246094,-854.003906,112.792969,92.651367,16.113281
cobot_dynamixel_driver/joint_states|name|J1,J2,J3,J4,J5,J6|pos|1.047275,-0.008763,0.013107,0.000038,-0.464863,0.000000|vel|0.000000,0.060090,-0.070314,-0.000417,0.488095,0.000000|eff|0.000000,209.472656,-918.457031,112.792969,32.226562,12.084961
cobot_dynamixel_driver/joint_states|name|J1,J2,J3,J4,J5,J6|pos|1.047275,-0.007711,0.011517,0.000038,-0.455223,0.000000|vel|0.000000,0.048406,-0.076573,0.000209,0.519462,0.000000|eff|0.000000,145.019531,-902.343750,112.792969,32.226562,16.113281
cobot_dynamixel_driver/joint_states|name|J1,J2,J3,J4,J5,J6|pos|1.047275,-0.006760,0.010102,0.000038,-0.445625,0.000000|vel|0.000000,0.044859,-0.075113,0.000209,0.543591,0.000000|eff|0.000000,209.472656,-870.117188,112.792969,44.311523,12.084961
cobot_dynamixel_driver/joint_states|name|J1,J2,J3,J4,J5,J6|pos|1.047275,-0.005896,0.008788,0.000038,-0.436027,0.000000|vel|0.000000,0.043399,-0.058212,0.000209,0.410537,0.000000|eff|0.000000,161.132812,-821.777344,145.019531,44.311523,16.113281
cobot_dynamixel_driver/joint_states|name|J1,J2,J3,J4,J5,J6|pos|1.047275,-0.005120,0.007699,0.000038,-0.426429,0.000000|vel|0.000000,0.032549,-0.048406,-0.000209,0.492576,0.000000|eff|0.000000,209.472656,-854.003906,112.792969,76.538086,12.084961
cobot_dynamixel_driver/joint_states|name|J1,J2,J3,J4,J5,J6|pos|1.047262,-0.004494,0.006797,0.000038,-0.416873,0.000000|vel|0.000000,0.030254,-0.040895,-0.000209,0.474651,0.000000|eff|0.000000,225.585938,-934.570312,96.679688,52.368164,16.113281
cobot_dynamixel_driver/joint_states|name|J1,J2,J3,J4,J5,J6|pos|1.047262,-0.003956,0.006096,0.000038,-0.407295,0.000000|vel|0.000000,0.023577,-0.036096,-0.000209,0.526356,0.000000|eff|0.000000,161.132812,-966.796875,96.679688,32.226562,16.113281
cobot_dynamixel_driver/joint_states|name|J1,J2,J3,J4,J5,J6|pos|1.047262,-0.003468,0.005383,0.000038,-0.397635,0.000000|vel|0.000000,0.024829,-0.037139,-0.000209,0.541523,0.000000|eff|0.000000,225.585938,-966.796875,112.792969,48.339844,20.141602
cobot_dynamixel_driver/joint_states|name|J1,J2,J3,J4,J5,J6|pos|1.047262,-0.003042,0.004682,0.000038,-0.387996,0.000000|vel|0.000000,0.020656,-0.033175,0.000000,0.485682,0.000000|eff|0.000000,177.246094,-918.457031,96.679688,48.339844,12.084961
cobot_dynamixel_driver/joint_states|name|J1,J2,J3,J4,J5,J6|pos|1.047262,-0.002679,0.004031,0.000038,-0.378439,0.000000|vel|0.000000,0.018361,-0.032758,0.000000,0.490163,0.000000|eff|0.000000,193.359375,-902.343750,96.679688,68.481445,24.169922
cobot_dynamixel_driver/joint_states|name|J1,J2,J3,J4,J5,J6|pos|1.047262,-0.002316,0.003543,0.000038,-0.368800,0.000000|vel|0.000000,0.018152,-0.020239,0.000000,0.505674,0.000000|eff|0.000000,193.359375,-950.683594,96.679688,28.198242,12.084961
cobot_dynamixel_driver/joint_states|name|J1,J2,J3,J4,J5,J6|pos|1.047262,-0.002040,0.003079,0.000038,-0.359181,0.000000|vel|0.000000,0.013145,-0.025455,0.000000,0.488784,0.000000|eff|0.000000,161.132812,-918.457031,96.679688,40.283203,20.141602
cobot_dynamixel_driver/joint_states|name|J1,J2,J3,J4,J5,J6|pos|1.047262,-0.001815,0.002641,0.000038,-0.349521,0.000000|vel|0.000000,0.012936,-0.016483,0.000000,0.486716,0.000000|eff|0.000000,386.718750,-918.457031,96.679688,36.254883,20.141602
cobot_dynamixel_driver/joint_states|name|J1,J2,J3,J4,J5,J6|pos|1.047262,-0.001590,0.002416,0.000038,-0.339902,0.000000|vel|0.000000,0.010224,-0.011684,0.000000,0.439837,0.000000|eff|0.000000,161.132812,-966.796875,96.679688,48.339844,16.113281
cobot_dynamixel_driver/joint_states|name|J1,J2,J3,J4,J5,J6|pos|1.047250,-0.001339,0.002103,0.000038,-0.330284,0.000000|vel|0.000000,0.011893,-0.017944,0.000000,0.522565,0.000000|eff|0.000000,435.058594,-934.570312,96.679688,40.283203,20.141602
cobot_dynamixel_driver/joint_states|name|J1,J2,J3,J4,J5,J6|pos|1.047250,-0.001152,0.001715,0.000038,-0.320706,0.000000|vel|0.000000,0.009598,-0.014188,0.000000,0.512224,0.000000|eff|0.000000,145.019531,-854.003906,96.679688,48.339844,12.084961
cobot_dynamixel_driver/joint_states|name|J1,J2,J3,J4,J5,J6|pos|1.047250,-0.001001,0.001615,0.000038,-0.311108,0.000000|vel|0.000000,0.005842,-0.007720,0.000000,0.521186,0.000000|eff|0.000000,273.925781,-982.910156,96.679688,52.368164,16.113281
cobot_dynamixel_driver/joint_states|name|J1,J2,J3,J4,J5,J6|pos|1.047250,-0.000914,0.001615,0.000038,-0.301407,0.000000|vel|0.000000,0.004173,-0.000626,0.000000,0.488439,0.000000|eff|0.000000,225.585938,-966.796875,96.679688,44.311523,16.113281
cobot_dynamixel_driver/joint_states|name|J1,J2,J3,J4,J5,J6|pos|1.047250,-0.000801,0.001527,0.000038,-0.291788,0.000000|vel|0.000000,0.005425,-0.006885,0.000000,0.492576,0.000000|eff|0.000000,96.679688,-999.023438,96.679688,72.509766,16.113281
cobot_dynamixel_driver/joint_states|name|J1,J2,J3,J4,J5,J6|pos|1.047250,-0.000689,0.001364,0.000038,-0.282190,0.000000|vel|0.000000,0.005633,-0.009806,0.000000,0.442250,0.000000|eff|0.000000,241.699219,-982.910156,96.679688,40.283203,20.141602
cobot_dynamixel_driver/joint_states|name|J1,J2,J3,J4,J5,J6|pos|1.047250,-0.000588,0.001089,0.000038,-0.272695,0.000000|vel|0.000000,0.004382,-0.013353,0.000000,0.546004,0.000000|eff|0.000000,225.585938,-934.570312,96.679688,68.481445,12.084961
cobot_dynamixel_driver/joint_states|name|J1,J2,J3,J4,J5,J6|pos|1.047250,-0.000501,0.000751,0.000038,-0.263159,0.000000|vel|0.000000,0.004590,-0.012936,0.000000,0.442939,0.000000|eff|0.000000,241.699219,-821.777344,96.679688,68.481445,16.113281
cobot_dynamixel_driver/joint_states|name|J1,J2,J3,J4,J5,J6|pos|1.047250,-0.000401,0.000638,0.000038,-0.253561,0.000000|vel|0.000000,0.004590,-0.005633,0.000000,0.583577,0.000000|eff|0.000000,225.585938,-999.023438,96.679688,68.481445,16.113281
cobot_dynamixel_driver/joint_states|name|J1,J2,J3,J4,J5,J6|pos|1.047250,-0.000313,0.000638,0.000038,-0.243901,0.000000|vel|0.000000,0.004173,-0.005633,0.000000,0.503951,0.000000|eff|0.000000,257.812500,-918.457031,96.679688,64.453125,16.113281
cobot_dynamixel_driver/joint_states|name|J1,J2,J3,J4,J5,J6|pos|1.047250,-0.000238,0.000638,0.000038,-0.234221,0.000000|vel|0.000000,0.003756,-0.005633,0.000000,0.480511,0.000000|eff|0.000000,225.585938,-886.230469,80.566406,48.339844,12.084961
cobot_dynamixel_driver/joint_states|name|J1,J2,J3,J4,J5,J6|pos|1.047250,-0.000150,0.000638,0.000038,-0.224643,0.000000|vel|0.000000,0.004799,-0.005633,0.000000,0.515326,0.000000|eff|0.000000,306.152344,-902.343750,96.679688,100.708008,16.113281
cobot_dynamixel_driver/joint_states|name|J1,J2,J3,J4,J5,J6|pos|1.047237,-0.000138,0.000638,0.000038,-0.215025,0.000000|vel|0.000000,0.004799,-0.005633,0.000000,0.477754,0.000000|eff|0.000000,241.699219,-902.343750,80.566406,48.339844,12.084961
cobot_dynamixel_driver/joint_states|name|J1,J2,J3,J4,J5,J6|pos|1.047237,-0.000138,0.000638,0.000038,-0.205571,0.000000|vel|0.000000,0.004799,-0.005633,0.000000,0.506708,0.000000|eff|0.000000,435.058594,-886.230469,48.339844,64.453125,20.141602
cobot_dynamixel_driver/joint_states|name|J1,J2,J3,J4,J5,J6|pos|1.047225,-0.000138,0.000638,0.000038,-0.196118,0.000000|vel|0.000000,0.000417,0.000000,0.000000,0.516360,0.000000|eff|0.000000,402.832031,-918.457031,96.679688,72.509766,12.084961
cobot_dynamixel_driver/joint_states|name|J1,J2,J3,J4,J5,J6|pos|1.047225,-0.000138,0.000638,0.000038,-0.186686,0.000000|vel|0.000000,0.000417,0.000000,0.000000,0.498436,0.000000|eff|-80.566406,338.378906,-934.570312,96.679688,60.424805,16.113281
cobot_dynamixel_driver/joint_states|name|J1,J2,J3,J4,J5,J6|pos|1.047225,-0.000138,0.000638,0.000038,-0.177170,0.000000|vel|0.000000,0.000417,0.000000,0.000000,0.483614,0.000000|eff|-80.566406,402.832031,-934.570312,64.453125,92.651367,16.113281
cobot_dynamixel_driver/joint_states|name|J1,J2,J3,J4,J5,J6|pos|1.047212,-0.000138,0.000638,0.000038,-0.167490,0.000000|vel|0.000000,0.000417,0.000000,0.000000,0.495678,0.000000|eff|0.000000,322.265625,-999.023438,96.679688,60.424805,12.084961
cobot_dynamixel_driver/joint_states|name|J1,J2,J3,J4,J5,J6|pos|1.047212,-0.000138,0.000626,0.000038,-0.157747,0.000000|vel|0.000000,0.000417,0.000000,0.000000,0.499125,0.000000|eff|0.000000,338.378906,-982.910156,80.566406,72.509766,24.169922
cobot_dynamixel_driver/joint_states|name|J1,J2,J3,J4,J5,J6|pos|1.047212,-0.000138,0.000613,0.000038,-0.148128,0.000000|vel|0.000000,0.000417,0.000000,0.000000,0.434322,0.000000|eff|0.000000,225.585938,-999.023438,96.679688,68.481445,24.169922
cobot_dynamixel_driver/joint_states|name|J1,J2,J3,J4,J5,J6|pos|1.047212,-0.000138,0.000576,0.000038,-0.138530,0.000000|vel|0.000000,-0.000000,-0.001878,0.000000,0.556690,0.000000|eff|0.000000,338.378906,-1015.136719,48.339844,48.339844,16.113281
cobot_dynamixel_driver/joint_states|name|J1,J2,J3,J4,J5,J6|pos|1.047212,-0.000138,0.000488,0.000038,-0.128808,0.000000|vel|0.000000,-0.000000,-0.003756,0.000000,0.499470,0.000000|eff|0.000000,209.472656,-982.910156,96.679688,48.339844,12.084961
cobot_dynamixel_driver/joint_states|name|J1,J2,J3,J4,J5,J6|pos|1.047212,-0.000125,0.000376,0.000038,-0.119189,0.000000|vel|0.000000,-0.000000,-0.006677,0.000000,0.485337,0.000000|eff|0.000000,386.718750,-934.570312,80.566406,76.538086,20.141602
cobot_dynamixel_driver/joint_states|name|J1,J2,J3,J4,J5,J6|pos|1.047212,-0.000113,0.000250,0.000038,-0.109591,0.000000|vel|0.000000,-0.000000,-0.006677,0.000000,0.520841,0.000000|eff|0.000000,225.585938,-918.457031,48.339844,84.594727,12.084961
cobot_dynamixel_driver/joint_states|name|J1,J2,J3,J4,J5,J6|pos|1.047200,-0.000113,0.000125,0.000038,-0.099952,0.000000|vel|0.000000,-0.000000,-0.006259,0.000000,0.457761,0.000000|eff|0.000000,193.359375,-902.343750,64.453125,60.424805,12.084961
cobot_dynamixel_driver/joint_states|name|J1,J2,J3,J4,J5,J6|pos|1.047200,-0.000113,0.000013,0.000038,-0.090333,0.000000|vel|0.000000,-0.000000,-0.005425,0.000000,0.525322,0.000000|eff|-80.566406,209.472656,-886.230469,48.339844,84.594727,12.084961
cobot_dynamixel_driver/joint_states|name|J1,J2,J3,J4,J5,J6|pos|1.047200,-0.000113,-0.000063,0.000038,-0.080652,0.000000|vel|0.000000,-0.000000,-0.003547,0.000000,0.515671,0.000000|eff|0.000000,209.472656,-870.117188,96.679688,64.453125,12.084961
cobot_dynamixel_driver/joint_states|name|J1,J2,J3,J4,J5,J6|pos|1.047200,-0.000100,-0.000088,0.000038,-0.070061,0.000000|vel|0.000000,-0.000000,-0.003547,0.000000,0.448454,0.000000|eff|0.000000,306.152344,-870.117188,96.679688,52.368164,12.084961
cobot_dynamixel_driver/joint_states|name|J1,J2,J3,J4,J5,J6|pos|1.047200,-0.000100,-0.000088,0.000038,-0.061663,0.000000|vel|0.000000,0.000209,-0.003547,0.000000,0.455693,0.000000|eff|-112.792969,225.585938,-821.777344,96.679688,-8.056641,12.084961
cobot_dynamixel_driver/joint_states|name|J1,J2,J3,J4,J5,J6|pos|1.047200,-0.000088,-0.000088,0.000038,-0.053617,0.000000|vel|0.000000,0.000209,-0.003547,0.000000,0.365037,0.000000|eff|0.000000,306.152344,-805.664062,96.679688,-12.084961,16.113281
cobot_dynamixel_driver/joint_states|name|J1,J2,J3,J4,J5,J6|pos|1.047200,-0.000088,-0.000075,0.000038,-0.046956,0.000000|vel|0.000000,0.000209,0.003547,0.000000,0.278517,0.000000|eff|0.000000,193.359375,-821.777344,0.000000,24.169922,12.084961
cobot_dynamixel_driver/joint_states|name|J1,J2,J3,J4,J5,J6|pos|1.047200,-0.000088,-0.000088,0.000038,-0.041185,0.000000|vel|0.000000,0.000209,-0.003547,0.000000,0.294029,0.000000|eff|-112.792969,225.585938,-757.324219,48.339844,28.198242,12.084961
cobot_dynamixel_driver/joint_states|name|J1,J2,J3,J4,J5,J6|pos|1.047200,-0.000088,-0.000075,0.000038,-0.035806,0.000000|vel|0.000000,0.000209,-0.003547,0.000000,0.259904,0.000000|eff|0.000000,193.359375,-805.664062,80.566406,24.169922,20.141602
cobot_dynamixel_driver/joint_states|name|J1,J2,J3,J4,J5,J6|pos|1.047200,-0.000088,-0.000088,0.000038,-0.031587,0.000000|vel|0.000000,0.000209,0.000000,0.000000,0.224744,0.000000|eff|0.000000,209.472656,-821.777344,96.679688,36.254883,12.084961
cobot_dynamixel_driver/joint_states|name|J1,J2,J3,J4,J5,J6|pos|1.047200,-0.000075,-0.000088,0.000038,-0.027698,0.000000|vel|0.000000,-0.000000,0.000000,0.000000,0.190274,0.000000|eff|0.000000,225.585938,-821.777344,96.679688,52.368164,16.113281
cobot_dynamixel_driver/joint_states|name|J1,J2,J3,J4,J5,J6|pos|1.047200,-0.000063,-0.000088,0.000038,-0.024285,0.000000|vel|0.000000,-0.000000,0.000000,0.000000,0.183380,0.000000|eff|-80.566406,209.472656,-805.664062,64.453125,48.339844,12.084961
cobot_dynamixel_driver/joint_states|name|J1,J2,J3,J4,J5,J6|pos|1.047200,-0.000063,-0.000088,0.000038,-0.021306,0.000000|vel|0.000000,-0.000000,0.000000,0.000000,0.129262,0.000000|eff|0.000000,209.472656,-805.664062,0.000000,52.368164,12.084961
cobot_dynamixel_driver/joint_states|name|J1,J2,J3,J4,J5,J6|pos|1.047200,-0.000063,-0.000088,0.000038,-0.018141,0.000000|vel|0.000000,-0.000000,0.000000,0.000000,0.119955,0.000000|eff|0.000000,193.359375,-821.777344,48.339844,48.339844,20.141602
cobot_dynamixel_driver/joint_states|name|J1,J2,J3,J4,J5,J6|pos|1.047200,-0.000063,-0.000088,0.000038,-0.016217,0.000000|vel|0.000000,-0.000000,0.000000,0.000000,0.109614,0.000000|eff|0.000000,193.359375,-741.210938,80.566406,64.453125,12.084961
cobot_dynamixel_driver/joint_states|name|J1,J2,J3,J4,J5,J6|pos|1.047200,-0.000050,-0.000075,0.000038,-0.014252,0.000000|vel|0.000000,-0.000000,0.000000,0.000000,0.103065,0.000000|eff|0.000000,193.359375,-757.324219,0.000000,52.368164,12.084961
cobot_dynamixel_driver/joint_states|name|J1,J2,J3,J4,J5,J6|pos|1.047187,-0.000050,-0.000075,0.000038,-0.012473,0.000000|vel|0.000000,-0.000000,0.000000,0.000000,0.091690,0.000000|eff|0.000000,306.152344,-757.324219,48.339844,52.368164,12.084961
cobot_dynamixel_driver/joint_states|name|J1,J2,J3,J4,J5,J6|pos|1.047187,-0.000050,-0.000075,0.000038,-0.010922,0.000000|vel|0.000000,-0.000000,0.000000,0.000000,0.076868,0.000000|eff|0.000000,273.925781,-821.777344,96.679688,52.368164,24.169922
cobot_dynamixel_driver/joint_states|name|J1,J2,J3,J4,J5,J6|pos|1.047187,-0.000050,-0.000075,0.000038,-0.009598,0.000000|vel|0.000000,-0.000000,0.000000,0.000000,0.060667,0.000000|eff|0.000000,225.585938,-773.437500,0.000000,64.453125,12.084961
cobot_dynamixel_driver/joint_states|name|J1,J2,J3,J4,J5,J6|pos|1.047187,-0.000050,-0.000075,0.000038,-0.008274,0.000000|vel|0.000000,-0.000000,0.000000,0.000000,0.052394,0.000000|eff|0.000000,241.699219,-789.550781,80.566406,64.453125,12.084961
cobot_dynamixel_driver/joint_states|name|J1,J2,J3,J4,J5,J6|pos|1.047187,-0.000050,-0.000075,0.000038,-0.007385,0.000000|vel|0.000000,-0.000000,0.000000,0.000000,0.045500,0.000000|eff|0.000000,257.812500,-741.210938,32.226562,72.509766,16.113281
cobot_dynamixel_driver/joint_states|name|J1,J2,J3,J4,J5,J6|pos|1.047187,-0.000050,-0.000075,0.000038,-0.006557,0.000000|vel|0.000000,-0.000000,0.000000,0.000000,0.041364,0.000000|eff|-112.792969,193.359375,-805.664062,80.566406,76.538086,16.113281
cobot_dynamixel_driver/joint_states|name|J1,J2,J3,J4,J5,J6|pos|1.047187,-0.000050,-0.000075,0.000038,-0.005813,0.000000|vel|0.000000,-0.000000,0.000000,0.000000,0.038262,0.000000|eff|0.000000,209.472656,-773.437500,96.679688,96.679688,16.113281
cobot_dynamixel_driver/joint_states|name|J1,J2,J3,J4,J5,J6|pos|1.047187,-0.000038,-0.000075,0.000038,-0.005130,0.000000|vel|0.000000,-0.000000,0.000000,0.000000,0.037917,0.000000|eff|-48.339844,225.585938,-757.324219,96.679688,92.651367,16.113281
cobot_dynamixel_driver/joint_states|name|J1,J2,J3,J4,J5,J6|pos|1.047187,-0.000038,-0.000075,0.000038,-0.004509,0.000000|vel|0.000000,-0.000000,0.000000,0.000000,0.029299,0.000000|eff|0.000000,209.472656,-741.210938,0.000000,104.736328,12.084961
cobot_dynamixel_driver/joint_states|name|J1,J2,J3,J4,J5,J6|pos|1.047187,-0.000025,-0.000075,0.000038,-0.003992,0.000000|vel|0.000000,-0.000000,0.000000,0.000000,0.023784,0.000000|eff|0.000000,209.472656,-741.210938,32.226562,100.708008,24.169922
cobot_dynamixel_driver/joint_states|name|J1,J2,J3,J4,J5,J6|pos|1.047187,-0.000025,-0.000075,0.000038,-0.003517,0.000000|vel|0.000000,-0.000000,0.000000,0.000000,0.028610,0.000000|eff|0.000000,225.585938,-757.324219,0.000000,100.708008,16.113281
cobot_dynamixel_driver/joint_states|name|J1,J2,J3,J4,J5,J6|pos|1.047187,-0.000025,-0.000075,0.000038,-0.003020,0.000000|vel|0.000000,0.000209,0.000000,0.000000,0.018614,0.000000|eff|0.000000,193.359375,-725.097656,0.000000,116.821289,16.113281
cobot_dynamixel_driver/joint_states|name|J1,J2,J3,J4,J5,J6|pos|1.047187,-0.000025,-0.000075,0.000038,-0.002710,0.000000|vel|0.000000,0.000209,0.000000,0.000000,0.020337,0.000000|eff|0.000000,225.585938,-725.097656,0.000000,104.736328,16.113281
cobot_dynamixel_driver/joint_states|name|J1,J2,J3,J4,J5,J6|pos|1.047187,-0.000013,-0.000075,0.000038,-0.002379,0.000000|vel|0.000000,0.000209,0.000000,0.000000,0.013788,0.000000|eff|0.000000,209.472656,-757.324219,0.000000,112.792969,16.113281
cobot_dynamixel_driver/joint_states|name|J1,J2,J3,J4,J5,J6|pos|1.047187,-0.000000,-0.000075,0.000038,-0.002151,0.000000|vel|0.000000,0.000209,0.000000,0.000000,0.014822,0.000000|eff|0.000000,209.472656,-725.097656,0.000000,112.792969,12.084961
cobot_dynamixel_driver/joint_states|name|J1,J2,J3,J4,J5,J6|pos|1.047187,-0.000000,-0.000075,0.000038,-0.001841,0.000000|vel|0.000000,0.000209,0.000000,0.000000,0.019993,0.000000|eff|0.000000,241.699219,-725.097656,0.000000,96.679688,12.084961
cobot_dynamixel_driver/joint_states|name|J1,J2,J3,J4,J5,J6|pos|1.047187,0.000013,-0.000075,0.000038,-0.001572,0.000000|vel|0.000000,0.000209,0.000000,0.000000,0.011030,0.000000|eff|0.000000,257.812500,-741.210938,48.339844,96.679688,16.113281
cobot_dynamixel_driver/joint_states|name|J1,J2,J3,J4,J5,J6|pos|1.047187,0.000013,-0.000075,0.000038,-0.001427,0.000000|vel|0.000000,0.000209,0.000000,0.000000,0.006205,0.000000|eff|0.000000,209.472656,-741.210938,64.453125,112.792969,16.113281
cobot_dynamixel_driver/joint_states|name|J1,J2,J3,J4,J5,J6|pos|1.047187,0.000025,-0.000075,0.000038,-0.001241,0.000000|vel|0.000000,0.000209,0.000000,0.000000,0.008273,0.000000|eff|0.000000,290.039062,-757.324219,80.566406,104.736328,16.113281
cobot_dynamixel_driver/joint_states|name|J1,J2,J3,J4,J5,J6|pos|1.047187,0.000025,-0.000075,0.000038,-0.001055,0.000000|vel|0.000000,0.000209,0.000000,0.000000,0.009307,0.000000|eff|0.000000,273.925781,-757.324219,80.566406,100.708008,16.113281
cobot_dynamixel_driver/joint_states|name|J1,J2,J3,J4,J5,J6|pos|1.047187,0.000038,-0.000075,0.000038,-0.000972,0.000000|vel|0.000000,0.000209,0.000000,0.000000,0.005170,0.000000|eff|0.000000,209.472656,-725.097656,48.339844,100.708008,16.113281
cobot_dynamixel_driver/joint_states|name|J1,J2,J3,J4,J5,J6|pos|1.047187,0.000050,-0.000075,0.000038,-0.000889,0.000000|vel|0.000000,0.000209,0.000000,0.000000,0.003447,0.000000|eff|0.000000,354.492188,-725.097656,0.000000,112.792969,16.113281
cobot_dynamixel_driver/joint_states|name|J1,J2,J3,J4,J5,J6|pos|1.047187,0.000063,-0.000075,0.000038,-0.000745,0.000000|vel|0.000000,0.000417,0.000000,0.000000,0.006894,0.000000|eff|0.000000,209.472656,-725.097656,0.000000,108.764648,12.084961
cobot_dynamixel_driver/joint_states|name|J1,J2,J3,J4,J5,J6|pos|1.047187,0.000063,-0.000075,0.000038,-0.000662,0.000000|vel|0.000000,0.000417,0.000000,0.000000,0.003792,0.000000|eff|-80.566406,322.265625,-725.097656,0.000000,108.764648,24.169922
cobot_dynamixel_driver/joint_states|name|J1,J2,J3,J4,J5,J6|pos|1.047187,0.000063,-0.000075,0.000038,-0.000641,0.000000|vel|0.000000,0.000417,0.000000,0.000000,0.003792,0.000000|eff|0.000000,193.359375,-725.097656,80.566406,104.736328,16.113281
cobot_dynamixel_driver/joint_states|name|J1,J2,J3,J4,J5,J6|pos|1.047187,0.000063,-0.000075,0.000038,-0.000621,0.000000|vel|0.000000,0.000417,0.000000,0.000000,0.003792,0.000000|eff|-80.566406,306.152344,-725.097656,0.000000,108.764648,16.113281
cobot_dynamixel_driver/joint_states|name|J1,J2,J3,J4,J5,J6|pos|1.047187,0.000063,-0.000075,0.000025,-0.000579,0.000000|vel|0.000000,0.000417,0.000000,0.000000,0.002413,0.000000|eff|0.000000,306.152344,-725.097656,0.000000,124.877930,12.084961
cobot_dynamixel_driver/joint_states|name|J1,J2,J3,J4,J5,J6|pos|1.047187,0.000063,-0.000075,0.000025,-0.000455,0.000000|vel|0.000000,0.000417,0.000000,0.000000,0.006549,0.000000|eff|-48.339844,209.472656,-725.097656,0.000000,112.792969,16.113281
cobot_dynamixel_driver/joint_states|name|J1,J2,J3,J4,J5,J6|pos|1.047187,0.000063,-0.000075,0.000025,-0.000393,0.000000|vel|0.000000,-0.000000,0.000000,0.000000,0.004481,0.000000|eff|0.000000,193.359375,-725.097656,48.339844,108.764648,12.084961
cobot_dynamixel_driver/joint_states|name|J1,J2,J3,J4,J5,J6|pos|1.047187,0.000063,-0.000075,0.000025,-0.000393,0.000000|vel|0.000000,-0.000000,0.000000,0.000000,0.004481,0.000000|eff|-80.566406,193.359375,-725.097656,0.000000,96.679688,12.084961
cobot_dynamixel_driver/joint_states|name|J1,J2,J3,J4,J5,J6|pos|1.047187,0.000063,-0.000075,0.000025,-0.000393,0.000000|vel|0.000000,-0.000000,0.000000,0.000000,0.004481,0.000000|eff|0.000000,322.265625,-725.097656,0.000000,96.679688,20.141602
cobot_dynamixel_driver/joint_states|name|J1,J2,J3,J4,J5,J6|pos|1.047187,0.000063,-0.000075,0.000025,-0.000393,0.000000|vel|0.000000,-0.000000,0.000000,0.000000,0.004481,0.000000|eff|0.000000,386.718750,-692.871094,80.566406,88.623047,16.113281
cobot_dynamixel_driver/joint_states|name|J1,J2,J3,J4,J5,J6|pos|1.047187,0.000063,-0.000075,0.000025,-0.000393,0.000000|vel|0.000000,-0.000000,0.000000,0.000000,0.004481,0.000000|eff|0.000000,193.359375,-708.984375,0.000000,92.651367,16.113281
cobot_dynamixel_driver/joint_states|name|J1,J2,J3,J4,J5,J6|pos|1.047187,0.000063,-0.000075,0.000025,-0.000393,0.000000|vel|0.000000,-0.000000,0.000000,0.000000,0.004481,0.000000|eff|-32.226562,338.378906,-708.984375,32.226562,92.651367,16.113281
cobot_dynamixel_driver/joint_states|name|J1,J2,J3,J4,J5,J6|pos|1.047187,0.000063,-0.000075,0.000025,-0.000393,0.000000|vel|0.000000,-0.000000,0.000000,0.000000,0.000000,0.000000|eff|0.000000,209.472656,-725.097656,32.226562,96.679688,16.113281
cobot_dynamixel_driver/joint_states|name|J1,J2,J3,J4,J5,J6|pos|1.047187,0.000063,-0.000075,0.000025,-0.000393,0.000000|vel|0.000000,-0.000000,0.000000,0.000000,0.000000,0.000000|eff|0.000000,225.585938,-725.097656,0.000000,100.708008,16.113281
cobot_dynamixel_driver/joint_states|name|J1,J2,J3,J4,J5,J6|pos|1.047187,0.000063,-0.000063,0.000025,-0.000393,0.000000|vel|0.000000,-0.000000,0.000000,0.000000,0.000000,0.000000|eff|0.000000,386.718750,-708.984375,80.566406,104.736328,16.113281
cobot_dynamixel_driver/joint_states|name|J1,J2,J3,J4,J5,J6|pos|1.047175,0.000063,-0.000063,0.000025,-0.000393,0.000000|vel|0.000000,-0.000000,0.000000,0.000000,0.000000,0.000000|eff|0.000000,209.472656,-725.097656,32.226562,108.764648,16.113281
cobot_dynamixel_driver/joint_states|name|J1,J2,J3,J4,J5,J6|pos|1.047175,0.000063,-0.000063,0.000025,-0.000331,0.000000|vel|0.000000,-0.000000,0.000000,0.000000,0.000000,0.000000|eff|-48.339844,322.265625,-708.984375,0.000000,116.821289,16.113281
cobot_dynamixel_driver/joint_states|name|J1,J2,J3,J4,J5,J6|pos|1.047175,0.000063,-0.000063,0.000025,-0.000269,0.000000|vel|0.000000,-0.000000,0.000000,0.000000,0.003447,0.000000|eff|0.000000,386.718750,-708.984375,0.000000,108.764648,16.113281
cobot_dynamixel_driver/joint_states|name|J1,J2,J3,J4,J5,J6|pos|1.047175,0.000063,-0.000063,0.000025,-0.000248,0.000000|vel|0.000000,-0.000000,0.000000,0.000000,0.003447,0.000000|eff|0.000000,370.605469,-725.097656,0.000000,104.736328,16.113281
cobot_dynamixel_driver/joint_states|name|J1,J2,J3,J4,J5,J6|pos|1.047175,0.000063,-0.000063,0.000025,-0.000248,0.000000|vel|0.000000,-0.000000,0.000000,0.000000,0.003447,0.000000|eff|0.000000,209.472656,-692.871094,32.226562,104.736328,16.113281
cobot_dynamixel_driver/joint_states|name|J1,J2,J3,J4,J5,J6|pos|1.047175,0.000063,-0.000063,0.000025,-0.000248,0.000000|vel|0.000000,-0.000000,0.000000,0.000000,0.003447,0.000000|eff|0.000000,386.718750,-708.984375,0.000000,96.679688,12.084961
cobot_dynamixel_driver/joint_states|name|J1,J2,J3,J4,J5,J6|pos|1.047175,0.000063,-0.000063,0.000025,-0.000248,0.000000|vel|0.000000,-0.000000,0.000000,0.000000,0.003447,0.000000|eff|0.000000,209.472656,-708.984375,0.000000,96.679688,12.084961
cobot_dynamixel_driver/joint_states|name|J1,J2,J3,J4,J5,J6|pos|1.047175,0.000063,-0.000063,0.000025,-0.000248,0.000000|vel|0.000000,-0.000000,0.000000,0.000000,0.003447,0.000000|eff|0.000000,225.585938,-676.757812,0.000000,88.623047,16.113281
cobot_dynamixel_driver/joint_states|name|J1,J2,J3,J4,J5,J6|pos|1.047175,0.000063,-0.000063,0.000025,-0.000248,0.000000|vel|0.000000,-0.000000,0.000000,0.000000,0.000000,0.000000|eff|0.000000,338.378906,-676.757812,48.339844,88.623047,16.113281
cobot_dynamixel_driver/joint_states|name|J1,J2,J3,J4,J5,J6|pos|1.047175,0.000063,-0.000063,0.000025,-0.000248,0.000000|vel|0.000000,-0.000000,0.000000,0.000000,0.000000,0.000000|eff|0.000000,290.039062,-676.757812,0.000000,96.679688,16.113281
cobot_dynamixel_driver/joint_states|name|J1,J2,J3,J4,J5,J6|pos|1.047175,0.000063,-0.000063,0.000025,-0.000248,0.000000|vel|0.000000,-0.000000,0.000000,0.000000,0.000000,0.000000|eff|0.000000,257.812500,-660.644531,32.226562,104.736328,16.113281
cobot_dynamixel_driver/joint_states|name|J1,J2,J3,J4,J5,J6|pos|1.047175,0.000063,-0.000063,0.000025,-0.000248,0.000000|vel|0.000000,-0.000000,0.000000,0.000000,0.000000,0.000000|eff|0.000000,386.718750,-708.984375,48.339844,108.764648,24.169922
cobot_dynamixel_driver/joint_states|name|J1,J2,J3,J4,J5,J6|pos|1.047175,0.000063,-0.000063,0.000025,-0.000248,0.000000|vel|0.000000,-0.000000,0.000000,0.000000,0.000000,0.000000|eff|0.000000,418.945312,-692.871094,0.000000,108.764648,16.113281
cobot_dynamixel_driver/joint_states|name|J1,J2,J3,J4,J5,J6|pos|1.047175,0.000063,-0.000063,0.000025,-0.000248,0.000000|vel|0.000000,-0.000000,0.000000,0.000000,0.000000,0.000000|eff|0.000000,338.378906,-660.644531,80.566406,112.792969,16.113281
cobot_dynamixel_driver/goal|-:J1,J2,J3,J4,J5,J6:1.047198,0.000000,0.000000,0.000000,0.000000,0.000000:0.500000,0.500000,0.500000,0.500000,0.500000,0.500000:pos_vel_
cobot_dynamixel_driver/joint_states|name|J1,J2,J3,J4,J5,J6|pos|1.047175,0.000063,-0.000050,0.000025,-0.000207,0.000000|vel|0.000000,-0.000000,0.000000,0.000000,0.000000,0.000000|eff|0.000000,338.378906,-628.417969,0.000000,108.764648,16.113281
cobot_dynamixel_driver/joint_states|name|J1,J2,J3,J4,J5,J6|pos|1.047175,0.000063,-0.000050,0.000025,-0.000186,0.000000|vel|0.000000,-0.000000,0.000000,0.000000,0.001034,0.000000|eff|0.000000,386.718750,-692.871094,0.000000,112.792969,16.113281
cobot_dynamixel_driver/joint_states|name|J1,J2,J3,J4,J5,J6|pos|1.047175,0.000063,-0.000050,0.000025,-0.000145,0.000000|vel|0.000000,-0.000000,0.000000,0.000000,0.001379,0.000000|eff|0.000000,418.945312,-644.531250,0.000000,112.792969,16.113281
cobot_dynamixel_driver/joint_states|name|J1,J2,J3,J4,J5,J6|pos|1.047175,0.000063,-0.000050,0.000025,-0.000124,0.000000|vel|0.000000,-0.000000,0.000000,0.000000,0.001723,0.000000|eff|0.000000,273.925781,-676.757812,0.000000,116.821289,16.113281
cobot_dynamixel_driver/joint_states|name|J1,J2,J3,J4,J5,J6|pos|1.047175,0.000063,-0.000050,0.000025,-0.000083,0.000000|vel|0.000000,-0.000000,0.000000,0.000000,0.001723,0.000000|eff|0.000000,338.378906,-676.757812,48.339844,112.792969,16.113281
cobot_dynamixel_driver/joint_states|name|J1,J2,J3,J4,J5,J6|pos|1.047175,0.000063,-0.000050,0.000025,-0.000083,0.000000|vel|0.000000,-0.000000,0.000000,0.000000,0.001723,0.000000|eff|0.000000,370.605469,-692.871094,0.000000,108.764648,16.113281
cobot_dynamixel_driver/joint_states|name|J1,J2,J3,J4,J5,J6|pos|1.047175,0.000063,-0.000050,0.000025,-0.000083,0.000000|vel|0.000000,-0.000000,0.000000,0.000000,0.001723,0.000000|eff|-80.566406,225.585938,-628.417969,0.000000,100.708008,16.113281
cobot_dynamixel_driver/joint_states|name|J1,J2,J3,J4,J5,J6|pos|1.047175,0.000063,-0.000050,0.000025,-0.000083,0.000000|vel|0.000000,-0.000000,0.000000,0.000000,0.001723,0.000000|eff|-80.566406,338.378906,-628.417969,48.339844,100.708008,16.113281
cobot_dynamixel_driver/joint_states|name|J1,J2,J3,J4,J5,J6|pos|1.047175,0.000063,-0.000050,0.000025,-0.000083,0.000000|vel|0.000000,-0.000000,0.000000,0.000000,0.001723,0.000000|eff|0.000000,370.605469,-660.644531,0.000000,96.679688,16.113281
cobot_dynamixel_driver/joint_states|name|J1,J2,J3,J4,J5,J6|pos|1.047175,0.000063,-0.000050,0.000025,-0.000083,0.000000|vel|0.000000,-0.000000,0.000000,0.000000,0.001723,0.000000|eff|0.000000,290.039062,-676.757812,0.000000,96.679688,16.113281
cobot_dynamixel_driver/joint_states|name|J1,J2,J3,J4,J5,J6|pos|1.047175,0.000063,-0.000050,0.000025,-0.000083,0.000000|vel|0.000000,-0.000000,0.000000,0.000000,0.001723,0.000000|eff|0.000000,338.378906,-676.757812,0.000000,88.623047,16.113281
cobot_dynamixel_driver/joint_states|name|J1,J2,J3,J4,J5,J6|pos|1.047175,0.000063,-0.000050,0.000025,-0.000083,0.000000|vel|0.000000,-0.000000,0.000000,0.000000,0.000000,0.000000|eff|0.000000,257.812500,-660.644531,0.000000,88.623047,16.113281
cobot_dynamixel_driver/joint_states|name|J1,J2,J3,J4,J5,J6|pos|1.047175,0.000063,-0.000050,0.000025,-0.000083,0.000000|vel|0.000000,-0.000000,0.000000,0.000000,0.000000,0.000000|eff|0.000000,257.812500,-692.871094,0.000000,96.679688,16.113281
cobot_dynamixel_driver/joint_states|name|J1,J2,J3,J4,J5,J6|pos|1.047175,0.000063,-0.000050,0.000025,-0.000083,0.000000|vel|0.000000,-0.000000,0.000000,0.000000,0.000000,0.000000|eff|0.000000,418.945312,-660.644531,32.226562,96.679688,16.113281
cobot_dynamixel_driver/joint_states|name|J1,J2,J3,J4,J5,J6|pos|1.047175,0.000063,-0.000050,0.000025,-0.000083,0.000000|vel|0.000000,-0.000000,0.000000,0.000000,0.000000,0.000000|eff|-80.566406,338.378906,-628.417969,0.000000,100.708008,16.113281
cobot_dynamixel_driver/joint_states|name|J1,J2,J3,J4,J5,J6|pos|1.047175,0.000063,-0.000050,0.000025,-0.000083,0.000000|vel|0.000000,-0.000000,0.000000,0.000000,0.000000,0.000000|eff|0.000000,290.039062,-628.417969,0.000000,88.623047,16.113281
cobot_dynamixel_driver/joint_states|name|J1,J2,J3,J4,J5,J6|pos|1.047175,0.000063,-0.000050,0.000025,-0.000083,0.000000|vel|0.000000,-0.000000,0.000000,0.000000,0.000000,0.000000|eff|-32.226562,338.378906,-612.304688,0.000000,100.708008,16.113281
cobot_dynamixel_driver/joint_states|name|J1,J2,J3,J4,J5,J6|pos|1.047175,0.000063,-0.000050,0.000025,-0.000083,0.000000|vel|0.000000,-0.000000,0.000000,0.000000,0.000000,0.000000|eff|0.000000,338.378906,-644.531250,48.339844,100.708008,16.113281
cobot_dynamixel_driver/joint_states|name|J1,J2,J3,J4,J5,J6|pos|1.047175,0.000063,-0.000050,0.000025,-0.000083,0.000000|vel|0.000000,-0.000000,0.000000,0.000000,0.000000,0.000000|eff|-48.339844,370.605469,-612.304688,48.339844,100.708008,16.113281
cobot_dynamixel_driver/joint_states|name|J1,J2,J3,J4,J5,J6|pos|1.047175,0.000063,-0.000050,0.000025,-0.000083,0.000000|vel|0.000000,-0.000000,0.000000,0.000000,0.000000,0.000000|eff|-112.792969,418.945312,-628.417969,0.000000,100.708008,16.113281
cobot_dynamixel_driver/joint_states|name|J1,J2,J3,J4,J5,J6|pos|1.047175,0.000063,-0.000050,0.000025,-0.000083,0.000000|vel|0.000000,-0.000000,0.000000,0.000000,0.000000,0.000000|eff|0.000000,418.945312,-644.531250,0.000000,100.708008,16.113281
cobot_dynamixel_driver/joint_states|name|J1,J2,J3,J4,J5,J6|pos|1.047175,0.000063,-0.000050,0.000025,-0.000083,0.000000|vel|0.000000,-0.000000,0.000000,0.000000,0.000000,0.000000|eff|0.000000,402.832031,-628.417969,32.226562,100.708008,16.113281
cobot_dynamixel_driver/joint_states|name|J1,J2,J3,J4,J5,J6|pos|1.047175,0.000063,-0.000050,0.000025,-0.000083,0.000000|vel|0.000000,-0.000000,0.000000,0.000000,0.000000,0.000000|eff|0.000000,225.585938,-676.757812,0.000000,100.708008,16.113281
cobot_dynamixel_driver/joint_states|name|J1,J2,J3,J4,J5,J6|pos|1.047175,0.000063,-0.000050,0.000025,-0.000083,0.000000|vel|0.000000,-0.000000,0.000000,0.000000,0.000000,0.000000|eff|0.000000,290.039062,-628.417969,64.453125,100.708008,16.113281
cobot_dynamixel_driver/joint_states|name|J1,J2,J3,J4,J5,J6|pos|1.047175,0.000063,-0.000050,0.000025,-0.000083,0.000000|vel|0.000000,-0.000000,0.000000,0.000000,0.000000,0.000000|eff|0.000000,257.812500,-628.417969,0.000000,100.708008,16.113281
cobot_dynamixel_driver/joint_states|name|J1,J2,J3,J4,J5,J6|pos|1.047175,0.000063,-0.000050,0.000025,-0.000083,0.000000|vel|0.000000,-0.000000,0.000000,0.000000,0.000000,0.000000|eff|0.000000,354.492188,-612.304688,0.000000,100.708008,16.113281
cobot_dynamixel_driver/joint_states|name|J1,J2,J3,J4,J5,J6|pos|1.047175,0.000063,-0.000050,0.000025,-0.000083,0.000000|vel|0.000000,-0.000000,0.000000,0.000000,0.000000,0.000000|eff|-80.566406,402.832031,-644.531250,0.000000,100.708008,16.113281
cobot_dynamixel_driver/joint_states|name|J1,J2,J3,J4,J5,J6|pos|1.047175,0.000063,-0.000038,0.000025,-0.000083,0.000000|vel|0.000000,-0.000000,0.000000,0.000000,0.000000,0.000000|eff|0.000000,418.945312,-644.531250,0.000000,108.764648,16.113281
cobot_dynamixel_driver/joint_states|name|J1,J2,J3,J4,J5,J6|pos|1.047175,0.000063,-0.000038,0.000025,-0.000083,0.000000|vel|0.000000,-0.000000,0.000000,0.000000,0.000000,0.000000|eff|0.000000,402.832031,-612.304688,0.000000,108.764648,12.084961
cobot_dynamixel_driver/joint_states|name|J1,J2,J3,J4,J5,J6|pos|1.047175,0.000063,-0.000038,0.000025,-0.000083,0.000000|vel|0.000000,-0.000000,0.000000,0.000000,0.000000,0.000000|eff|0.000000,418.945312,-628.417969,0.000000,104.736328,16.113281
cobot_dynamixel_driver/joint_states|name|J1,J2,J3,J4,J5,J6|pos|1.047175,0.000063,-0.000038,0.000025,-0.000083,0.000000|vel|0.000000,-0.000000,0.000000,0.000000,0.000000,0.000000|eff|0.000000,257.812500,-612.304688,80.566406,104.736328,16.113281
cobot_dynamixel_driver/joint_states|name|J1,J2,J3,J4,J5,J6|pos|1.047175,0.000063,-0.000038,0.000025,-0.000083,0.000000|vel|0.000000,-0.000000,0.000000,0.000000,0.000000,0.000000|eff|-32.226562,338.378906,-628.417969,0.000000,104.736328,16.113281
cobot_dynamixel_driver/joint_states|name|J1,J2,J3,J4,J5,J6|pos|1.047175,0.000063,-0.000038,0.000025,-0.000083,0.000000|vel|0.000000,-0.000000,0.000000,0.000000,0.000000,0.000000|eff|0.000000,418.945312,-644.531250,32.226562,104.736328,16.113281
cobot_dynamixel_driver/joint_states|name|J1,J2,J3,J4,J5,J6|pos|1.047175,0.000063,-0.000038,0.000025,-0.000062,0.000000|vel|0.000000,-0.000000,0.000000,0.000000,0.000000,0.000000|eff|0.000000,435.058594,-628.417969,0.000000,108.764648,16.113281
cobot_dynamixel_driver/joint_states|name|J1,J2,J3,J4,J5,J6|pos|1.047175,0.000063,-0.000038,0.000025,-0.000041,0.000000|vel|0.000000,-0.000000,0.000000,0.000000,0.000000,0.000000|eff|0.000000,338.378906,-628.417969,32.226562,112.792969,16.113281
cobot_dynamixel_driver/joint_states|name|J1,J2,J3,J4,J5,J6|pos|1.047175,0.000063,-0.000038,0.000025,-0.000041,0.000000|vel|0.000000,-0.000000,0.000000,0.000000,0.000000,0.000000|eff|-80.566406,354.492188,-628.417969,0.000000,112.792969,16.113281
cobot_dynamixel_driver/joint_states|name|J1,J2,J3,J4,J5,J6|pos|1.047175,0.000063,-0.000038,0.000025,-0.000041,0.000000|vel|0.000000,-0.000000,0.000000,0.000000,0.000000,0.000000|eff|0.000000,354.492188,-612.304688,0.000000,108.764648,16.113281
cobot_dynamixel_driver/joint_states|name|J1,J2,J3,J4,J5,J6|pos|1.047175,0.000063,-0.000038,0.000025,-0.000041,0.000000|vel|0.000000,-0.000000,0.000000,0.000000,0.000000,0.000000|eff|0.000000,241.699219,-612.304688,64.453125,108.764648,16.113281
cobot_dynamixel_driver/joint_states|name|J1,J2,J3,J4,J5,J6|pos|1.047175,0.000063,-0.000038,0.000025,-0.000041,0.000000|vel|0.000000,-0.000000,0.000000,0.000000,0.000000,0.000000|eff|0.000000,435.058594,-612.304688,0.000000,108.764648,16.113281
cobot_dynamixel_driver/joint_states|name|J1,J2,J3,J4,J5,J6|pos|1.047175,0.000063,-0.000038,0.000025,-0.000041,0.000000|vel|0.000000,-0.000000,0.000000,0.000000,0.000000,0.000000|eff|0.000000,306.152344,-612.304688,0.000000,108.764648,16.113281
cobot_dynamixel_driver/joint_states|name|J1,J2,J3,J4,J5,J6|pos|1.047175,0.000063,-0.000038,0.000025,-0.000041,0.000000|vel|0.000000,-0.000000,0.000000,0.000000,0.000000,0.000000|eff|0.000000,402.832031,-644.531250,0.000000,108.764648,16.113281
cobot_dynamixel_driver/joint_states|name|J1,J2,J3,J4,J5,J6|pos|1.047175,0.000063,-0.000038,0.000025,-0.000041,0.000000|vel|0.000000,-0.000000,0.000000,0.000000,0.000000,0.000000|eff|0.000000,435.058594,-628.417969,64.453125,108.764648,16.113281
cobot_dynamixel_driver/joint_states|name|J1,J2,J3,J4,J5,J6|pos|1.047175,0.000063,-0.000038,0.000025,-0.000041,0.000000|vel|0.000000,-0.000000,0.000000,0.000000,0.000000,0.000000|eff|0.000000,418.945312,-612.304688,0.000000,108.764648,16.113281
cobot_dynamixel_driver/joint_states|name|J1,J2,J3,J4,J5,J6|pos|1.047175,0.000063,-0.000038,0.000025,-0.000041,0.000000|vel|0.000000,-0.000000,0.000000,0.000000,0.000000,0.000000|eff|0.000000,322.265625,-612.304688,0.000000,108.764648,16.113281
cobot_dynamixel_driver/joint_states|name|J1,J2,J3,J4,J5,J6|pos|1.047175,0.000063,-0.000038,0.000025,-0.000041,0.000000|vel|0.000000,-0.000000,0.000000,0.000000,0.000000,0.000000|eff|0.000000,354.492188,-612.304688,0.000000,108.764648,16.113281
cobot_dynamixel_driver/joint_states|name|J1,J2,J3,J4,J5,J6|pos|1.047175,0.000063,-0.000038,0.000025,-0.000041,0.000000|vel|0.000000,-0.000000,0.000000,0.000000,0.000000,0.000000|eff|0.000000,354.492188,-612.304688,48.339844,108.764648,24.169922
cobot_dynamixel_driver/joint_states|name|J1,J2,J3,J4,J5,J6|pos|1.047175,0.000063,-0.000038,0.000025,-0.000041,0.000000|vel|0.000000,-0.000000,0.000000,0.000000,0.000000,0.000000|eff|0.000000,386.718750,-612.304688,32.226562,108.764648,16.113281
cobot_dynamixel_driver/joint_states|name|J1,J2,J3,J4,J5,J6|pos|1.047175,0.000063,-0.000038,0.000025,-0.000041,0.000000|vel|0.000000,-0.000000,0.000000,0.000000,0.000000,0.000000|eff|-48.339844,306.152344,-612.304688,0.000000,108.764648,16.113281
cobot_dynamixel_driver/joint_states|name|J1,J2,J3,J4,J5,J6|pos|1.047175,0.000063,-0.000038,0.000025,-0.000041,0.000000|vel|0.000000,-0.000000,0.000000,0.000000,0.000000,0.000000|eff|0.000000,273.925781,-596.191406,32.226562,108.764648,16.113281
cobot_dynamixel_driver/joint_states|name|J1,J2,J3,J4,J5,J6|pos|1.047175,0.000063,-0.000038,0.000025,-0.000041,0.000000|vel|0.000000,-0.000000,0.000000,0.000000,0.000000,0.000000|eff|0.000000,306.152344,-612.304688,80.566406,108.764648,16.113281
