surachairobotic/cobot/cobot_dynamixel_driver/log/2018-12-19T02:51:58.756565_driver_log.txt
cobot_dynamixel_driver/joint_states|name|J1,J2,J3,J4,J5,J6|pos|1.079760,-1.260423,1.295436,0.000025,-1.230387,0.000041|vel|0.000000,-0.000000,0.000000,0.000000,0.000000,0.000000|eff|0.000000,0.000000,0.000000,0.000000,0.000000,0.000000
cobot_dynamixel_driver/joint_states|name|J1,J2,J3,J4,J5,J6|pos|1.079760,-1.260423,1.295436,0.000025,-1.230387,0.000041|vel|0.000000,-0.000000,0.000000,0.000000,0.000000,0.000000|eff|0.000000,0.000000,0.000000,0.000000,0.000000,0.000000
cobot_dynamixel_driver/joint_states|name|J1,J2,J3,J4,J5,J6|pos|1.079760,-1.260423,1.295436,0.000025,-1.230387,0.000041|vel|0.000000,-0.000000,0.000000,0.000000,0.000000,0.000000|eff|0.000000,0.000000,0.000000,0.000000,0.000000,0.000000
cobot_dynamixel_driver/joint_states|name|J1,J2,J3,J4,J5,J6|pos|1.079760,-1.260423,1.295436,0.000025,-1.230387,0.000041|vel|0.000000,-0.000000,0.000000,0.000000,0.000000,0.000000|eff|0.000000,0.000000,0.000000,0.000000,0.000000,0.000000
cobot_dynamixel_driver/joint_states|name|J1,J2,J3,J4,J5,J6|pos|1.079760,-1.260423,1.295436,0.000025,-1.230387,0.000041|vel|0.000000,-0.000000,0.000000,0.000000,0.000000,0.000000|eff|0.000000,0.000000,0.000000,0.000000,0.000000,0.000000
cobot_dynamixel_driver/joint_states|name|J1,J2,J3,J4,J5,J6|pos|1.079760,-1.260423,1.295436,0.000025,-1.230387,0.000041|vel|0.000000,-0.000000,0.000000,0.000000,0.000000,0.000000|eff|0.000000,0.000000,0.000000,0.000000,0.000000,0.000000
cobot_dynamixel_driver/joint_states|name|J1,J2,J3,J4,J5,J6|pos|1.079760,-1.260423,1.295436,0.000025,-1.230387,0.000041|vel|0.000000,-0.000000,0.000000,0.000000,0.000000,0.000000|eff|0.000000,0.000000,0.000000,0.000000,0.000000,0.000000
cobot_dynamixel_driver/joint_states|name|J1,J2,J3,J4,J5,J6|pos|1.079760,-1.260423,1.295436,0.000025,-1.230387,0.000041|vel|0.000000,-0.000000,0.000000,0.000000,0.000000,0.000000|eff|0.000000,0.000000,0.000000,0.000000,0.000000,0.000000
cobot_dynamixel_driver/joint_states|name|J1,J2,J3,J4,J5,J6|pos|1.079760,-1.260423,1.295436,0.000025,-1.230387,0.000041|vel|0.000000,-0.000000,0.000000,0.000000,0.000000,0.000000|eff|0.000000,0.000000,0.000000,0.000000,0.000000,0.000000
cobot_dynamixel_driver/joint_states|name|J1,J2,J3,J4,J5,J6|pos|1.079760,-1.260423,1.295436,0.000025,-1.230387,0.000041|vel|0.000000,-0.000000,0.000000,0.000000,0.000000,0.000000|eff|0.000000,0.000000,0.000000,0.000000,0.000000,0.000000
cobot_dynamixel_driver/joint_states|name|J1,J2,J3,J4,J5,J6|pos|1.079760,-1.260423,1.295436,0.000025,-1.230387,0.000041|vel|0.000000,-0.000000,0.000000,0.000000,0.000000,0.000000|eff|0.000000,0.000000,0.000000,0.000000,0.000000,0.000000
cobot_dynamixel_driver/joint_states|name|J1,J2,J3,J4,J5,J6|pos|1.079760,-1.260423,1.295436,0.000025,-1.230387,0.000041|vel|0.000000,-0.000000,0.000000,0.000000,0.000000,0.000000|eff|0.000000,0.000000,0.000000,0.000000,0.000000,0.000000
cobot_dynamixel_driver/joint_states|name|J1,J2,J3,J4,J5,J6|pos|1.079760,-1.260423,1.295436,0.000025,-1.230387,0.000041|vel|0.000000,-0.000000,0.000000,0.000000,0.000000,0.000000|eff|0.000000,0.000000,0.000000,0.000000,0.000000,0.000000
cobot_dynamixel_driver/joint_states|name|J1,J2,J3,J4,J5,J6|pos|1.079760,-1.260423,1.295436,0.000025,-1.230387,0.000041|vel|0.000000,-0.000000,0.000000,0.000000,0.000000,0.000000|eff|0.000000,0.000000,0.000000,0.000000,0.000000,0.000000
cobot_dynamixel_driver/joint_states|name|J1,J2,J3,J4,J5,J6|pos|1.079760,-1.260423,1.295436,0.000025,-1.230387,0.000041|vel|0.000000,-0.000000,0.000000,0.000000,0.000000,0.000000|eff|0.000000,0.000000,0.000000,0.000000,0.000000,0.000000
cobot_dynamixel_driver/joint_states|name|J1,J2,J3,J4,J5,J6|pos|1.079760,-1.260423,1.295436,0.000025,-1.230387,0.000041|vel|0.000000,-0.000000,0.000000,0.000000,0.000000,0.000000|eff|0.000000,0.000000,0.000000,0.000000,0.000000,0.000000
cobot_dynamixel_driver/joint_states|name|J1,J2,J3,J4,J5,J6|pos|1.079760,-1.260423,1.295436,0.000025,-1.230387,0.000041|vel|0.000000,-0.000000,0.000000,0.000000,0.000000,0.000000|eff|0.000000,0.000000,0.000000,0.000000,0.000000,0.000000
cobot_dynamixel_driver/joint_states|name|J1,J2,J3,J4,J5,J6|pos|1.079760,-1.260423,1.295436,0.000025,-1.230387,0.000041|vel|0.000000,-0.000000,0.000000,0.000000,0.000000,0.000000|eff|0.000000,0.000000,0.000000,0.000000,0.000000,0.000000
cobot_dynamixel_driver/joint_states|name|J1,J2,J3,J4,J5,J6|pos|1.079760,-1.260423,1.295436,0.000025,-1.230387,0.000041|vel|0.000000,-0.000000,0.000000,0.000000,0.000000,0.000000|eff|0.000000,0.000000,0.000000,0.000000,0.000000,0.000000
cobot_dynamixel_driver/joint_states|name|J1,J2,J3,J4,J5,J6|pos|1.079760,-1.260423,1.295436,0.000025,-1.230387,0.000041|vel|0.000000,-0.000000,0.000000,0.000000,0.000000,0.000000|eff|0.000000,0.000000,0.000000,0.000000,0.000000,0.000000
cobot_dynamixel_driver/joint_states|name|J1,J2,J3,J4,J5,J6|pos|1.079760,-1.260423,1.295436,0.000025,-1.230387,0.000041|vel|0.000000,-0.000000,0.000000,0.000000,0.000000,0.000000|eff|0.000000,0.000000,0.000000,0.000000,0.000000,0.000000
cobot_dynamixel_driver/joint_states|name|J1,J2,J3,J4,J5,J6|pos|1.079760,-1.260423,1.295436,0.000025,-1.230387,0.000041|vel|0.000000,-0.000000,0.000000,0.000000,0.000000,0.000000|eff|0.000000,0.000000,0.000000,0.000000,0.000000,0.000000
cobot_dynamixel_driver/joint_states|name|J1,J2,J3,J4,J5,J6|pos|1.079760,-1.260423,1.295436,0.000025,-1.230387,0.000041|vel|0.000000,-0.000000,0.000000,0.000000,0.000000,0.000000|eff|0.000000,0.000000,0.000000,0.000000,0.000000,0.000000
cobot_dynamixel_driver/joint_states|name|J1,J2,J3,J4,J5,J6|pos|1.079760,-1.260423,1.295436,0.000025,-1.230387,0.000041|vel|0.000000,-0.000000,0.000000,0.000000,0.000000,0.000000|eff|0.000000,0.000000,0.000000,0.000000,0.000000,0.000000
cobot_dynamixel_driver/joint_states|name|J1,J2,J3,J4,J5,J6|pos|1.079760,-1.260423,1.295436,0.000025,-1.230387,0.000041|vel|0.000000,-0.000000,0.000000,0.000000,0.000000,0.000000|eff|0.000000,0.000000,0.000000,0.000000,0.000000,0.000000
cobot_dynamixel_driver/joint_states|name|J1,J2,J3,J4,J5,J6|pos|1.079760,-1.260423,1.295436,0.000025,-1.230387,0.000041|vel|0.000000,-0.000000,0.000000,0.000000,0.000000,0.000000|eff|0.000000,0.000000,0.000000,0.000000,0.000000,0.000000
cobot_dynamixel_driver/joint_states|name|J1,J2,J3,J4,J5,J6|pos|1.079760,-1.260423,1.295436,0.000025,-1.230387,0.000041|vel|0.000000,-0.000000,0.000000,0.000000,0.000000,0.000000|eff|0.000000,0.000000,0.000000,0.000000,0.000000,0.000000
cobot_dynamixel_driver/joint_states|name|J1,J2,J3,J4,J5,J6|pos|1.079760,-1.260423,1.295436,0.000025,-1.230387,0.000041|vel|0.000000,-0.000000,0.000000,0.000000,0.000000,0.000000|eff|0.000000,0.000000,0.000000,0.000000,0.000000,0.000000
cobot_dynamixel_driver/joint_states|name|J1,J2,J3,J4,J5,J6|pos|1.079760,-1.260423,1.295436,0.000025,-1.230387,0.000041|vel|0.000000,-0.000000,0.000000,0.000000,0.000000,0.000000|eff|0.000000,0.000000,0.000000,0.000000,0.000000,0.000000
cobot_dynamixel_driver/joint_states|name|J1,J2,J3,J4,J5,J6|pos|1.079760,-1.260423,1.295436,0.000025,-1.230387,0.000041|vel|0.000000,-0.000000,0.000000,0.000000,0.000000,0.000000|eff|0.000000,0.000000,0.000000,0.000000,0.000000,0.000000
cobot_dynamixel_driver/joint_states|name|J1,J2,J3,J4,J5,J6|pos|1.079760,-1.260423,1.295436,0.000025,-1.230387,0.000041|vel|0.000000,-0.000000,0.000000,0.000000,0.000000,0.000000|eff|0.000000,0.000000,0.000000,0.000000,0.000000,0.000000
cobot_dynamixel_driver/joint_states|name|J1,J2,J3,J4,J5,J6|pos|1.079760,-1.260423,1.295436,0.000025,-1.230387,0.000041|vel|0.000000,-0.000000,0.000000,0.000000,0.000000,0.000000|eff|0.000000,0.000000,0.000000,0.000000,0.000000,0.000000
cobot_dynamixel_driver/joint_states|name|J1,J2,J3,J4,J5,J6|pos|1.079760,-1.260423,1.295436,0.000025,-1.230387,0.000041|vel|0.000000,-0.000000,0.000000,0.000000,0.000000,0.000000|eff|0.000000,0.000000,0.000000,0.000000,0.000000,0.000000
cobot_dynamixel_driver/joint_states|name|J1,J2,J3,J4,J5,J6|pos|1.079760,-1.260423,1.295436,0.000025,-1.230387,0.000041|vel|0.000000,-0.000000,0.000000,0.000000,0.000000,0.000000|eff|0.000000,0.000000,0.000000,0.000000,-8.056641,0.000000
cobot_dynamixel_driver/joint_states|name|J1,J2,J3,J4,J5,J6|pos|1.079760,-1.260423,1.295436,0.000025,-1.230387,0.000041|vel|0.000000,-0.000000,0.000000,0.000000,0.000000,0.000000|eff|0.000000,0.000000,0.000000,0.000000,0.000000,0.000000
cobot_dynamixel_driver/joint_states|name|J1,J2,J3,J4,J5,J6|pos|1.079760,-1.260423,1.295436,0.000025,-1.230387,0.000041|vel|0.000000,-0.000000,0.000000,0.000000,0.000000,0.000000|eff|0.000000,0.000000,0.000000,0.000000,0.000000,0.000000
cobot_dynamixel_driver/joint_states|name|J1,J2,J3,J4,J5,J6|pos|1.079760,-1.260423,1.295436,0.000025,-1.230387,0.000041|vel|0.000000,-0.000000,0.000000,0.000000,0.000000,0.000000|eff|0.000000,0.000000,0.000000,0.000000,0.000000,0.000000
cobot_dynamixel_driver/joint_states|name|J1,J2,J3,J4,J5,J6|pos|1.079760,-1.260423,1.295436,0.000025,-1.230387,0.000041|vel|0.000000,-0.000000,0.000000,0.000000,0.000000,0.000000|eff|0.000000,0.000000,0.000000,0.000000,0.000000,0.000000
cobot_dynamixel_driver/joint_states|name|J1,J2,J3,J4,J5,J6|pos|1.079760,-1.260423,1.295436,0.000025,-1.230387,0.000041|vel|0.000000,-0.000000,0.000000,0.000000,0.000000,0.000000|eff|0.000000,0.000000,0.000000,0.000000,0.000000,0.000000
cobot_dynamixel_driver/joint_states|name|J1,J2,J3,J4,J5,J6|pos|1.079760,-1.260423,1.295436,0.000025,-1.230387,0.000041|vel|0.000000,-0.000000,0.000000,0.000000,0.000000,0.000000|eff|0.000000,0.000000,0.000000,0.000000,0.000000,0.000000
cobot_dynamixel_driver/joint_states|name|J1,J2,J3,J4,J5,J6|pos|1.079760,-1.260423,1.295436,0.000025,-1.230387,0.000041|vel|0.000000,-0.000000,0.000000,0.000000,0.000000,0.000000|eff|0.000000,0.000000,0.000000,0.000000,0.000000,0.000000
cobot_dynamixel_driver/joint_states|name|J1,J2,J3,J4,J5,J6|pos|1.079760,-1.260423,1.295436,0.000025,-1.230387,0.000041|vel|0.000000,-0.000000,0.000000,0.000000,0.000000,0.000000|eff|0.000000,0.000000,0.000000,0.000000,0.000000,0.000000
cobot_dynamixel_driver/joint_states|name|J1,J2,J3,J4,J5,J6|pos|1.079760,-1.260423,1.295436,0.000025,-1.230387,0.000041|vel|0.000000,-0.000000,0.000000,0.000000,0.000000,0.000000|eff|0.000000,0.000000,0.000000,0.000000,0.000000,0.000000
cobot_dynamixel_driver/joint_states|name|J1,J2,J3,J4,J5,J6|pos|1.079760,-1.260423,1.295436,0.000025,-1.230387,0.000041|vel|0.000000,-0.000000,0.000000,0.000000,0.000000,0.000000|eff|0.000000,0.000000,0.000000,0.000000,0.000000,0.000000
cobot_dynamixel_driver/joint_states|name|J1,J2,J3,J4,J5,J6|pos|1.079760,-1.260423,1.295436,0.000025,-1.230387,0.000041|vel|0.000000,-0.000000,0.000000,0.000000,0.000000,0.000000|eff|0.000000,0.000000,0.000000,0.000000,0.000000,0.000000
cobot_dynamixel_driver/joint_states|name|J1,J2,J3,J4,J5,J6|pos|1.079760,-1.260423,1.295436,0.000025,-1.230387,0.000041|vel|0.000000,-0.000000,0.000000,0.000000,0.000000,0.000000|eff|0.000000,0.000000,0.000000,0.000000,0.000000,0.000000
cobot_dynamixel_driver/joint_states|name|J1,J2,J3,J4,J5,J6|pos|1.079760,-1.260423,1.295436,0.000025,-1.230387,0.000041|vel|0.000000,-0.000000,0.000000,0.000000,0.000000,0.000000|eff|0.000000,0.000000,0.000000,0.000000,0.000000,0.000000
cobot_dynamixel_driver/joint_states|name|J1,J2,J3,J4,J5,J6|pos|1.079760,-1.260423,1.295436,0.000025,-1.230387,0.000041|vel|0.000000,-0.000000,0.000000,0.000000,0.000000,0.000000|eff|0.000000,0.000000,0.000000,0.000000,0.000000,0.000000
cobot_dynamixel_driver/joint_states|name|J1,J2,J3,J4,J5,J6|pos|1.079760,-1.260423,1.295436,0.000025,-1.230387,0.000041|vel|0.000000,-0.000000,0.000000,0.000000,0.000000,0.000000|eff|0.000000,0.000000,0.000000,0.000000,0.000000,0.000000
cobot_dynamixel_driver/joint_states|name|J1,J2,J3,J4,J5,J6|pos|1.079760,-1.260423,1.295436,0.000025,-1.230387,0.000041|vel|0.000000,-0.000000,0.000000,0.000000,0.000000,0.000000|eff|0.000000,0.000000,0.000000,0.000000,0.000000,0.000000
cobot_dynamixel_driver/joint_states|name|J1,J2,J3,J4,J5,J6|pos|1.079760,-1.260423,1.295436,0.000025,-1.230387,0.000041|vel|0.000000,-0.000000,0.000000,0.000000,0.000000,0.000000|eff|0.000000,0.000000,0.000000,0.000000,0.000000,0.000000
cobot_dynamixel_driver/joint_states|name|J1,J2,J3,J4,J5,J6|pos|1.079760,-1.260423,1.295436,0.000025,-1.230387,0.000041|vel|0.000000,-0.000000,0.000000,0.000000,0.000000,0.000000|eff|0.000000,0.000000,0.000000,0.000000,0.000000,0.000000
cobot_dynamixel_driver/joint_states|name|J1,J2,J3,J4,J5,J6|pos|1.079760,-1.260423,1.295436,0.000025,-1.230387,0.000041|vel|0.000000,-0.000000,0.000000,0.000000,0.000000,0.000000|eff|0.000000,0.000000,0.000000,0.000000,0.000000,0.000000
cobot_dynamixel_driver/joint_states|name|J1,J2,J3,J4,J5,J6|pos|1.079760,-1.260423,1.295436,0.000025,-1.230387,0.000041|vel|0.000000,-0.000000,0.000000,0.000000,0.000000,0.000000|eff|0.000000,0.000000,0.000000,0.000000,0.000000,0.000000
cobot_dynamixel_driver/joint_states|name|J1,J2,J3,J4,J5,J6|pos|1.079760,-1.260423,1.295436,0.000025,-1.230387,0.000041|vel|0.000000,-0.000000,0.000000,0.000000,0.000000,0.000000|eff|0.000000,0.000000,0.000000,0.000000,0.000000,0.000000
cobot_dynamixel_driver/joint_states|name|J1,J2,J3,J4,J5,J6|pos|1.079760,-1.260423,1.295436,0.000025,-1.230387,0.000041|vel|0.000000,-0.000000,0.000000,0.000000,0.000000,0.000000|eff|0.000000,0.000000,0.000000,0.000000,0.000000,0.000000
cobot_dynamixel_driver/joint_states|name|J1,J2,J3,J4,J5,J6|pos|1.079760,-1.260423,1.295436,0.000025,-1.230387,0.000041|vel|0.000000,-0.000000,0.000000,0.000000,0.000000,0.000000|eff|0.000000,0.000000,0.000000,0.000000,0.000000,0.000000
cobot_dynamixel_driver/joint_states|name|J1,J2,J3,J4,J5,J6|pos|1.079760,-1.260423,1.295436,0.000025,-1.230387,0.000041|vel|0.000000,-0.000000,0.000000,0.000000,0.000000,0.000000|eff|0.000000,0.000000,0.000000,0.000000,0.000000,0.000000
cobot_dynamixel_driver/joint_states|name|J1,J2,J3,J4,J5,J6|pos|1.079760,-1.260423,1.295436,0.000025,-1.230387,0.000041|vel|0.000000,-0.000000,0.000000,0.000000,0.000000,0.000000|eff|0.000000,0.000000,0.000000,0.000000,0.000000,0.000000
cobot_dynamixel_driver/joint_states|name|J1,J2,J3,J4,J5,J6|pos|1.079760,-1.260423,1.295436,0.000025,-1.230387,0.000041|vel|0.000000,-0.000000,0.000000,0.000000,0.000000,0.000000|eff|0.000000,0.000000,0.000000,0.000000,0.000000,0.000000
cobot_dynamixel_driver/joint_states|name|J1,J2,J3,J4,J5,J6|pos|1.079760,-1.260423,1.295436,0.000025,-1.230387,0.000041|vel|0.000000,-0.000000,0.000000,0.000000,0.000000,0.000000|eff|0.000000,0.000000,0.000000,0.000000,0.000000,0.000000
cobot_dynamixel_driver/joint_states|name|J1,J2,J3,J4,J5,J6|pos|1.079760,-1.260423,1.295436,0.000025,-1.230387,0.000041|vel|0.000000,-0.000000,0.000000,0.000000,0.000000,0.000000|eff|0.000000,0.000000,0.000000,0.000000,0.000000,0.000000
cobot_dynamixel_driver/joint_states|name|J1,J2,J3,J4,J5,J6|pos|1.079760,-1.260423,1.295436,0.000025,-1.230387,0.000041|vel|0.000000,-0.000000,0.000000,0.000000,0.000000,0.000000|eff|0.000000,0.000000,0.000000,0.000000,0.000000,0.000000
cobot_dynamixel_driver/joint_states|name|J1,J2,J3,J4,J5,J6|pos|1.079760,-1.260423,1.295436,0.000025,-1.230387,0.000041|vel|0.000000,-0.000000,0.000000,0.000000,0.000000,0.000000|eff|0.000000,0.000000,0.000000,0.000000,0.000000,0.000000
cobot_dynamixel_driver/joint_states|name|J1,J2,J3,J4,J5,J6|pos|1.079760,-1.260423,1.295436,0.000025,-1.230387,0.000041|vel|0.000000,-0.000000,0.000000,0.000000,0.000000,0.000000|eff|0.000000,0.000000,0.000000,0.000000,0.000000,0.000000
cobot_dynamixel_driver/joint_states|name|J1,J2,J3,J4,J5,J6|pos|1.079760,-1.260423,1.295436,0.000025,-1.230387,0.000041|vel|0.000000,-0.000000,0.000000,0.000000,0.000000,0.000000|eff|0.000000,0.000000,0.000000,0.000000,0.000000,0.000000
cobot_dynamixel_driver/joint_states|name|J1,J2,J3,J4,J5,J6|pos|1.079760,-1.260423,1.295436,0.000025,-1.230387,0.000041|vel|0.000000,-0.000000,0.000000,0.000000,0.000000,0.000000|eff|0.000000,0.000000,0.000000,0.000000,0.000000,0.000000
cobot_dynamixel_driver/joint_states|name|J1,J2,J3,J4,J5,J6|pos|1.079760,-1.260423,1.295436,0.000025,-1.230387,0.000041|vel|0.000000,-0.000000,0.000000,0.000000,0.000000,0.000000|eff|0.000000,0.000000,0.000000,0.000000,0.000000,0.000000
cobot_dynamixel_driver/joint_states|name|J1,J2,J3,J4,J5,J6|pos|1.079760,-1.260423,1.295436,0.000025,-1.230387,0.000041|vel|0.000000,-0.000000,0.000000,0.000000,0.000000,0.000000|eff|0.000000,0.000000,0.000000,0.000000,0.000000,0.000000
cobot_dynamixel_driver/joint_states|name|J1,J2,J3,J4,J5,J6|pos|1.079760,-1.260423,1.295436,0.000025,-1.230387,0.000041|vel|0.000000,-0.000000,0.000000,0.000000,0.000000,0.000000|eff|0.000000,0.000000,0.000000,0.000000,0.000000,0.000000
cobot_dynamixel_driver/joint_states|name|J1,J2,J3,J4,J5,J6|pos|1.079760,-1.260423,1.295436,0.000025,-1.230387,0.000041|vel|0.000000,-0.000000,0.000000,0.000000,0.000000,0.000000|eff|0.000000,0.000000,0.000000,0.000000,0.000000,0.000000
cobot_dynamixel_driver/joint_states|name|J1,J2,J3,J4,J5,J6|pos|1.079760,-1.260423,1.295436,0.000025,-1.230387,0.000041|vel|0.000000,-0.000000,0.000000,0.000000,0.000000,0.000000|eff|0.000000,0.000000,0.000000,0.000000,0.000000,0.000000
cobot_dynamixel_driver/joint_states|name|J1,J2,J3,J4,J5,J6|pos|1.079760,-1.260423,1.295436,0.000025,-1.230387,0.000041|vel|0.000000,-0.000000,0.000000,0.000000,0.000000,0.000000|eff|0.000000,0.000000,0.000000,0.000000,0.000000,0.000000
cobot_dynamixel_driver/joint_states|name|J1,J2,J3,J4,J5,J6|pos|1.079760,-1.260423,1.295436,0.000025,-1.230387,0.000041|vel|0.000000,-0.000000,0.000000,0.000000,0.000000,0.000000|eff|0.000000,0.000000,0.000000,0.000000,0.000000,0.000000
cobot_dynamixel_driver/joint_states|name|J1,J2,J3,J4,J5,J6|pos|1.079760,-1.260423,1.295436,0.000025,-1.230387,0.000041|vel|0.000000,-0.000000,0.000000,0.000000,0.000000,0.000000|eff|0.000000,0.000000,0.000000,0.000000,0.000000,0.000000
cobot_dynamixel_driver/joint_states|name|J1,J2,J3,J4,J5,J6|pos|1.079760,-1.260423,1.295436,0.000025,-1.230387,0.000041|vel|0.000000,-0.000000,0.000000,0.000000,0.000000,0.000000|eff|0.000000,0.000000,0.000000,0.000000,0.000000,0.000000
cobot_dynamixel_driver/joint_states|name|J1,J2,J3,J4,J5,J6|pos|1.079760,-1.260423,1.295436,0.000025,-1.230387,0.000041|vel|0.000000,-0.000000,0.000000,0.000000,0.000000,0.000000|eff|0.000000,0.000000,0.000000,0.000000,0.000000,0.000000
cobot_dynamixel_driver/joint_states|name|J1,J2,J3,J4,J5,J6|pos|1.079760,-1.260423,1.295436,0.000025,-1.230387,0.000041|vel|0.000000,-0.000000,0.000000,0.000000,0.000000,0.000000|eff|0.000000,0.000000,0.000000,0.000000,0.000000,0.000000
cobot_dynamixel_driver/joint_states|name|J1,J2,J3,J4,J5,J6|pos|1.079760,-1.260423,1.295436,0.000025,-1.230387,0.000041|vel|0.000000,-0.000000,0.000000,0.000000,0.000000,0.000000|eff|0.000000,0.000000,0.000000,0.000000,0.000000,0.000000
cobot_dynamixel_driver/joint_states|name|J1,J2,J3,J4,J5,J6|pos|1.079760,-1.260423,1.295436,0.000025,-1.230387,0.000041|vel|0.000000,-0.000000,0.000000,0.000000,0.000000,0.000000|eff|0.000000,0.000000,0.000000,0.000000,0.000000,0.000000
cobot_dynamixel_driver/joint_states|name|J1,J2,J3,J4,J5,J6|pos|1.079760,-1.260423,1.295436,0.000025,-1.230387,0.000041|vel|0.000000,-0.000000,0.000000,0.000000,0.000000,0.000000|eff|0.000000,0.000000,0.000000,0.000000,0.000000,0.000000
cobot_dynamixel_driver/joint_states|name|J1,J2,J3,J4,J5,J6|pos|1.079760,-1.260423,1.295436,0.000025,-1.230387,0.000041|vel|0.000000,-0.000000,0.000000,0.000000,0.000000,0.000000|eff|0.000000,0.000000,0.000000,0.000000,0.000000,0.000000
cobot_dynamixel_driver/joint_states|name|J1,J2,J3,J4,J5,J6|pos|1.079760,-1.260423,1.295436,0.000025,-1.230387,0.000041|vel|0.000000,-0.000000,0.000000,0.000000,0.000000,0.000000|eff|0.000000,0.000000,0.000000,0.000000,0.000000,0.000000
cobot_dynamixel_driver/joint_states|name|J1,J2,J3,J4,J5,J6|pos|1.079760,-1.260423,1.295436,0.000025,-1.230387,0.000041|vel|0.000000,-0.000000,0.000000,0.000000,0.000000,0.000000|eff|0.000000,0.000000,0.000000,0.000000,0.000000,0.000000
cobot_dynamixel_driver/joint_states|name|J1,J2,J3,J4,J5,J6|pos|1.079760,-1.260423,1.295436,0.000025,-1.230387,0.000041|vel|0.000000,-0.000000,0.000000,0.000000,0.000000,0.000000|eff|0.000000,0.000000,0.000000,0.000000,0.000000,0.000000
cobot_dynamixel_driver/joint_states|name|J1,J2,J3,J4,J5,J6|pos|1.079760,-1.260423,1.295436,0.000025,-1.230387,0.000041|vel|0.000000,-0.000000,0.000000,0.000000,0.000000,0.000000|eff|0.000000,0.000000,0.000000,0.000000,0.000000,0.000000
cobot_dynamixel_driver/joint_states|name|J1,J2,J3,J4,J5,J6|pos|1.079760,-1.260423,1.295436,0.000025,-1.230387,0.000041|vel|0.000000,-0.000000,0.000000,0.000000,0.000000,0.000000|eff|0.000000,0.000000,0.000000,0.000000,0.000000,0.000000
cobot_dynamixel_driver/joint_states|name|J1,J2,J3,J4,J5,J6|pos|1.079760,-1.260423,1.295436,0.000025,-1.230387,0.000041|vel|0.000000,-0.000000,0.000000,0.000000,0.000000,0.000000|eff|0.000000,0.000000,0.000000,0.000000,0.000000,0.000000
cobot_dynamixel_driver/joint_states|name|J1,J2,J3,J4,J5,J6|pos|1.079760,-1.260423,1.295436,0.000025,-1.230387,0.000041|vel|0.000000,-0.000000,0.000000,0.000000,0.000000,0.000000|eff|0.000000,0.000000,0.000000,0.000000,0.000000,0.000000
cobot_dynamixel_driver/joint_states|name|J1,J2,J3,J4,J5,J6|pos|1.079760,-1.260423,1.295436,0.000025,-1.230387,0.000041|vel|0.000000,-0.000000,0.000000,0.000000,0.000000,0.000000|eff|0.000000,0.000000,0.000000,0.000000,0.000000,0.000000
cobot_dynamixel_driver/joint_states|name|J1,J2,J3,J4,J5,J6|pos|1.079760,-1.260423,1.295436,0.000025,-1.230387,0.000041|vel|0.000000,-0.000000,0.000000,0.000000,0.000000,0.000000|eff|0.000000,0.000000,0.000000,0.000000,0.000000,0.000000
cobot_dynamixel_driver/joint_states|name|J1,J2,J3,J4,J5,J6|pos|1.079760,-1.260423,1.295436,0.000025,-1.230387,0.000041|vel|0.000000,-0.000000,0.000000,0.000000,0.000000,0.000000|eff|0.000000,0.000000,0.000000,0.000000,0.000000,0.000000
cobot_dynamixel_driver/joint_states|name|J1,J2,J3,J4,J5,J6|pos|1.079760,-1.260423,1.295436,0.000025,-1.230387,0.000041|vel|0.000000,-0.000000,0.000000,0.000000,0.000000,0.000000|eff|0.000000,0.000000,0.000000,0.000000,0.000000,0.000000
cobot_dynamixel_driver/joint_states|name|J1,J2,J3,J4,J5,J6|pos|1.079760,-1.260423,1.295436,0.000025,-1.230387,0.000041|vel|0.000000,-0.000000,0.000000,0.000000,0.000000,0.000000|eff|0.000000,0.000000,0.000000,0.000000,0.000000,0.000000
cobot_dynamixel_driver/joint_states|name|J1,J2,J3,J4,J5,J6|pos|1.079760,-1.260423,1.295436,0.000025,-1.230387,0.000041|vel|0.000000,-0.000000,0.000000,0.000000,0.000000,0.000000|eff|0.000000,0.000000,0.000000,0.000000,0.000000,0.000000
cobot_dynamixel_driver/joint_states|name|J1,J2,J3,J4,J5,J6|pos|1.079760,-1.260423,1.295436,0.000025,-1.230387,0.000041|vel|0.000000,-0.000000,0.000000,0.000000,0.000000,0.000000|eff|0.000000,0.000000,0.000000,0.000000,0.000000,0.000000
cobot_dynamixel_driver/joint_states|name|J1,J2,J3,J4,J5,J6|pos|1.079760,-1.260423,1.295436,0.000025,-1.230387,0.000041|vel|0.000000,-0.000000,0.000000,0.000000,0.000000,0.000000|eff|0.000000,0.000000,0.000000,0.000000,0.000000,0.000000
cobot_dynamixel_driver/joint_states|name|J1,J2,J3,J4,J5,J6|pos|1.079760,-1.260423,1.295436,0.000025,-1.230387,0.000041|vel|0.000000,-0.000000,0.000000,0.000000,0.000000,0.000000|eff|0.000000,0.000000,0.000000,0.000000,0.000000,0.000000
cobot_dynamixel_driver/joint_states|name|J1,J2,J3,J4,J5,J6|pos|1.079760,-1.260423,1.295436,0.000025,-1.230387,0.000041|vel|0.000000,-0.000000,0.000000,0.000000,0.000000,0.000000|eff|0.000000,0.000000,0.000000,0.000000,0.000000,0.000000
cobot_dynamixel_driver/joint_states|name|J1,J2,J3,J4,J5,J6|pos|1.079760,-1.260423,1.295436,0.000025,-1.230387,0.000041|vel|0.000000,-0.000000,0.000000,0.000000,0.000000,0.000000|eff|0.000000,0.000000,0.000000,0.000000,0.000000,0.000000
cobot_dynamixel_driver/joint_states|name|J1,J2,J3,J4,J5,J6|pos|1.079760,-1.260423,1.295436,0.000025,-1.230387,0.000041|vel|0.000000,-0.000000,0.000000,0.000000,0.000000,0.000000|eff|0.000000,0.000000,0.000000,0.000000,0.000000,0.000000
cobot_dynamixel_driver/joint_states|name|J1,J2,J3,J4,J5,J6|pos|1.079760,-1.260423,1.295436,0.000025,-1.230387,0.000041|vel|0.000000,-0.000000,0.000000,0.000000,0.000000,0.000000|eff|0.000000,0.000000,0.000000,0.000000,0.000000,0.000000
cobot_dynamixel_driver/joint_states|name|J1,J2,J3,J4,J5,J6|pos|1.079760,-1.260423,1.295436,0.000025,-1.230387,0.000041|vel|0.000000,-0.000000,0.000000,0.000000,0.000000,0.000000|eff|0.000000,0.000000,0.000000,0.000000,0.000000,0.000000
cobot_dynamixel_driver/joint_states|name|J1,J2,J3,J4,J5,J6|pos|1.079760,-1.260423,1.295436,0.000025,-1.230387,0.000041|vel|0.000000,-0.000000,0.000000,0.000000,0.000000,0.000000|eff|0.000000,0.000000,0.000000,0.000000,0.000000,0.000000
cobot_dynamixel_driver/joint_states|name|J1,J2,J3,J4,J5,J6|pos|1.079760,-1.260423,1.295436,0.000025,-1.230387,0.000041|vel|0.000000,-0.000000,0.000000,0.000000,0.000000,0.000000|eff|0.000000,0.000000,0.000000,0.000000,0.000000,0.000000
cobot_dynamixel_driver/joint_states|name|J1,J2,J3,J4,J5,J6|pos|1.079760,-1.260423,1.295436,0.000025,-1.230387,0.000041|vel|0.000000,-0.000000,0.000000,0.000000,0.000000,0.000000|eff|0.000000,0.000000,0.000000,0.000000,0.000000,0.000000
cobot_dynamixel_driver/joint_states|name|J1,J2,J3,J4,J5,J6|pos|1.079760,-1.260423,1.295436,0.000025,-1.230387,0.000041|vel|0.000000,-0.000000,0.000000,0.000000,0.000000,0.000000|eff|0.000000,0.000000,0.000000,0.000000,0.000000,0.000000
cobot_dynamixel_driver/joint_states|name|J1,J2,J3,J4,J5,J6|pos|1.079760,-1.260423,1.295436,0.000025,-1.230387,0.000041|vel|0.000000,-0.000000,0.000000,0.000000,0.000000,0.000000|eff|0.000000,0.000000,0.000000,0.000000,0.000000,0.000000
cobot_dynamixel_driver/joint_states|name|J1,J2,J3,J4,J5,J6|pos|1.079760,-1.260423,1.295436,0.000025,-1.230387,0.000041|vel|0.000000,-0.000000,0.000000,0.000000,0.000000,0.000000|eff|0.000000,0.000000,0.000000,0.000000,0.000000,0.000000
cobot_dynamixel_driver/joint_states|name|J1,J2,J3,J4,J5,J6|pos|1.079760,-1.260423,1.295436,0.000025,-1.230387,0.000041|vel|0.000000,-0.000000,0.000000,0.000000,0.000000,0.000000|eff|0.000000,0.000000,0.000000,0.000000,0.000000,0.000000
cobot_dynamixel_driver/joint_states|name|J1,J2,J3,J4,J5,J6|pos|1.079760,-1.260423,1.295436,0.000025,-1.230387,0.000041|vel|0.000000,-0.000000,0.000000,0.000000,0.000000,0.000000|eff|0.000000,0.000000,0.000000,0.000000,0.000000,0.000000
cobot_dynamixel_driver/joint_states|name|J1,J2,J3,J4,J5,J6|pos|1.079760,-1.260423,1.295436,0.000025,-1.230387,0.000041|vel|0.000000,-0.000000,0.000000,0.000000,0.000000,0.000000|eff|0.000000,0.000000,0.000000,0.000000,0.000000,0.000000
cobot_dynamixel_driver/joint_states|name|J1,J2,J3,J4,J5,J6|pos|1.079760,-1.260423,1.295436,0.000025,-1.230387,0.000041|vel|0.000000,-0.000000,0.000000,0.000000,0.000000,0.000000|eff|0.000000,0.000000,0.000000,0.000000,0.000000,0.000000
cobot_dynamixel_driver/joint_states|name|J1,J2,J3,J4,J5,J6|pos|1.079760,-1.260423,1.295436,0.000025,-1.230387,0.000041|vel|0.000000,-0.000000,0.000000,0.000000,0.000000,0.000000|eff|0.000000,0.000000,0.000000,0.000000,0.000000,0.000000
cobot_dynamixel_driver/joint_states|name|J1,J2,J3,J4,J5,J6|pos|1.079760,-1.260423,1.295436,0.000025,-1.230387,0.000041|vel|0.000000,-0.000000,0.000000,0.000000,0.000000,0.000000|eff|0.000000,0.000000,0.000000,0.000000,0.000000,0.000000
cobot_dynamixel_driver/joint_states|name|J1,J2,J3,J4,J5,J6|pos|1.079760,-1.260423,1.295436,0.000025,-1.230387,0.000041|vel|0.000000,-0.000000,0.000000,0.000000,0.000000,0.000000|eff|0.000000,0.000000,0.000000,0.000000,0.000000,0.000000
cobot_dynamixel_driver/joint_states|name|J1,J2,J3,J4,J5,J6|pos|1.079760,-1.260423,1.295436,0.000025,-1.230387,0.000041|vel|0.000000,-0.000000,0.000000,0.000000,0.000000,0.000000|eff|0.000000,0.000000,0.000000,0.000000,0.000000,0.000000
cobot_dynamixel_driver/joint_states|name|J1,J2,J3,J4,J5,J6|pos|1.079760,-1.260423,1.295436,0.000025,-1.230387,0.000041|vel|0.000000,-0.000000,0.000000,0.000000,0.000000,0.000000|eff|0.000000,0.000000,0.000000,0.000000,0.000000,0.000000
cobot_dynamixel_driver/joint_states|name|J1,J2,J3,J4,J5,J6|pos|1.079760,-1.260423,1.295436,0.000025,-1.230387,0.000041|vel|0.000000,-0.000000,0.000000,0.000000,0.000000,0.000000|eff|0.000000,0.000000,0.000000,0.000000,0.000000,0.000000
cobot_dynamixel_driver/joint_states|name|J1,J2,J3,J4,J5,J6|pos|1.079760,-1.260423,1.295436,0.000025,-1.230387,0.000041|vel|0.000000,-0.000000,0.000000,0.000000,0.000000,0.000000|eff|0.000000,0.000000,0.000000,0.000000,0.000000,0.000000
cobot_dynamixel_driver/joint_states|name|J1,J2,J3,J4,J5,J6|pos|1.079760,-1.260423,1.295436,0.000025,-1.230387,0.000041|vel|0.000000,-0.000000,0.000000,0.000000,0.000000,0.000000|eff|0.000000,0.000000,0.000000,0.000000,0.000000,0.000000
cobot_dynamixel_driver/joint_states|name|J1,J2,J3,J4,J5,J6|pos|1.079760,-1.260423,1.295436,0.000025,-1.230387,0.000041|vel|0.000000,-0.000000,0.000000,0.000000,0.000000,0.000000|eff|0.000000,0.000000,0.000000,0.000000,0.000000,0.000000
cobot_dynamixel_driver/joint_states|name|J1,J2,J3,J4,J5,J6|pos|1.079760,-1.260423,1.295436,0.000025,-1.230387,0.000041|vel|0.000000,-0.000000,0.000000,0.000000,0.000000,0.000000|eff|0.000000,0.000000,0.000000,0.000000,0.000000,0.000000
cobot_dynamixel_driver/joint_states|name|J1,J2,J3,J4,J5,J6|pos|1.079760,-1.260423,1.295436,0.000025,-1.230387,0.000041|vel|0.000000,-0.000000,0.000000,0.000000,0.000000,0.000000|eff|0.000000,0.000000,0.000000,0.000000,0.000000,0.000000
cobot_dynamixel_driver/joint_states|name|J1,J2,J3,J4,J5,J6|pos|1.079760,-1.260423,1.295436,0.000025,-1.230387,0.000041|vel|0.000000,-0.000000,0.000000,0.000000,0.000000,0.000000|eff|0.000000,0.000000,0.000000,0.000000,0.000000,0.000000
cobot_dynamixel_driver/joint_states|name|J1,J2,J3,J4,J5,J6|pos|1.079760,-1.260423,1.295436,0.000025,-1.230387,0.000041|vel|0.000000,-0.000000,0.000000,0.000000,0.000000,0.000000|eff|0.000000,0.000000,0.000000,0.000000,0.000000,0.000000
cobot_dynamixel_driver/joint_states|name|J1,J2,J3,J4,J5,J6|pos|1.079760,-1.260423,1.295436,0.000025,-1.230387,0.000041|vel|0.000000,-0.000000,0.000000,0.000000,0.000000,0.000000|eff|0.000000,0.000000,0.000000,0.000000,0.000000,0.000000
cobot_dynamixel_driver/joint_states|name|J1,J2,J3,J4,J5,J6|pos|1.079760,-1.260423,1.295436,0.000025,-1.230387,0.000041|vel|0.000000,-0.000000,0.000000,0.000000,0.000000,0.000000|eff|0.000000,0.000000,0.000000,0.000000,0.000000,0.000000
cobot_dynamixel_driver/joint_states|name|J1,J2,J3,J4,J5,J6|pos|1.079760,-1.260423,1.295436,0.000025,-1.230387,0.000041|vel|0.000000,-0.000000,0.000000,0.000000,0.000000,0.000000|eff|0.000000,0.000000,0.000000,0.000000,0.000000,0.000000
cobot_dynamixel_driver/joint_states|name|J1,J2,J3,J4,J5,J6|pos|1.079760,-1.260423,1.295436,0.000025,-1.230387,0.000041|vel|0.000000,-0.000000,0.000000,0.000000,0.000000,0.000000|eff|0.000000,0.000000,0.000000,0.000000,0.000000,0.000000
cobot_dynamixel_driver/joint_states|name|J1,J2,J3,J4,J5,J6|pos|1.079760,-1.260423,1.295436,0.000025,-1.230387,0.000041|vel|0.000000,-0.000000,0.000000,0.000000,0.000000,0.000000|eff|0.000000,0.000000,0.000000,0.000000,0.000000,0.000000
cobot_dynamixel_driver/joint_states|name|J1,J2,J3,J4,J5,J6|pos|1.079760,-1.260423,1.295436,0.000025,-1.230387,0.000041|vel|0.000000,-0.000000,0.000000,0.000000,0.000000,0.000000|eff|0.000000,0.000000,0.000000,0.000000,0.000000,0.000000
cobot_dynamixel_driver/joint_states|name|J1,J2,J3,J4,J5,J6|pos|1.079760,-1.260423,1.295436,0.000025,-1.230387,0.000041|vel|0.000000,-0.000000,0.000000,0.000000,0.000000,0.000000|eff|0.000000,0.000000,0.000000,0.000000,0.000000,0.000000
cobot_dynamixel_driver/joint_states|name|J1,J2,J3,J4,J5,J6|pos|1.079760,-1.260423,1.295436,0.000025,-1.230387,0.000041|vel|0.000000,-0.000000,0.000000,0.000000,0.000000,0.000000|eff|0.000000,0.000000,0.000000,0.000000,0.000000,0.000000
cobot_dynamixel_driver/joint_states|name|J1,J2,J3,J4,J5,J6|pos|1.079760,-1.260423,1.295436,0.000025,-1.230387,0.000041|vel|0.000000,-0.000000,0.000000,0.000000,0.000000,0.000000|eff|0.000000,0.000000,0.000000,0.000000,0.000000,0.000000
cobot_dynamixel_driver/joint_states|name|J1,J2,J3,J4,J5,J6|pos|1.079760,-1.260423,1.295436,0.000025,-1.230387,0.000041|vel|0.000000,-0.000000,0.000000,0.000000,0.000000,0.000000|eff|0.000000,0.000000,0.000000,0.000000,0.000000,0.000000
cobot_dynamixel_driver/joint_states|name|J1,J2,J3,J4,J5,J6|pos|1.079760,-1.260423,1.295436,0.000025,-1.230387,0.000041|vel|0.000000,-0.000000,0.000000,0.000000,0.000000,0.000000|eff|0.000000,0.000000,0.000000,0.000000,0.000000,0.000000
cobot_dynamixel_driver/joint_states|name|J1,J2,J3,J4,J5,J6|pos|1.079760,-1.260423,1.295436,0.000025,-1.230387,0.000041|vel|0.000000,-0.000000,0.000000,0.000000,0.000000,0.000000|eff|0.000000,0.000000,0.000000,0.000000,0.000000,0.000000
cobot_dynamixel_driver/joint_states|name|J1,J2,J3,J4,J5,J6|pos|1.079760,-1.260423,1.295436,0.000025,-1.230387,0.000041|vel|0.000000,-0.000000,0.000000,0.000000,0.000000,0.000000|eff|0.000000,0.000000,0.000000,0.000000,0.000000,0.000000
cobot_dynamixel_driver/joint_states|name|J1,J2,J3,J4,J5,J6|pos|1.079760,-1.260423,1.295436,0.000025,-1.230387,0.000041|vel|0.000000,-0.000000,0.000000,0.000000,0.000000,0.000000|eff|0.000000,0.000000,0.000000,0.000000,0.000000,0.000000
cobot_dynamixel_driver/joint_states|name|J1,J2,J3,J4,J5,J6|pos|1.079760,-1.260423,1.295436,0.000025,-1.230387,0.000041|vel|0.000000,-0.000000,0.000000,0.000000,0.000000,0.000000|eff|0.000000,0.000000,0.000000,0.000000,0.000000,0.000000
cobot_dynamixel_driver/joint_states|name|J1,J2,J3,J4,J5,J6|pos|1.079760,-1.260423,1.295436,0.000025,-1.230387,0.000041|vel|0.000000,-0.000000,0.000000,0.000000,0.000000,0.000000|eff|0.000000,0.000000,0.000000,0.000000,0.000000,0.000000
cobot_dynamixel_driver/joint_states|name|J1,J2,J3,J4,J5,J6|pos|1.079760,-1.260423,1.295436,0.000025,-1.230387,0.000041|vel|0.000000,-0.000000,0.000000,0.000000,0.000000,0.000000|eff|0.000000,0.000000,0.000000,0.000000,0.000000,0.000000
cobot_dynamixel_driver/joint_states|name|J1,J2,J3,J4,J5,J6|pos|1.079760,-1.260423,1.295436,0.000025,-1.230387,0.000041|vel|0.000000,-0.000000,0.000000,0.000000,0.000000,0.000000|eff|0.000000,0.000000,0.000000,0.000000,0.000000,0.000000
cobot_dynamixel_driver/joint_states|name|J1,J2,J3,J4,J5,J6|pos|1.079760,-1.260423,1.295436,0.000025,-1.230387,0.000041|vel|0.000000,-0.000000,0.000000,0.000000,0.000000,0.000000|eff|0.000000,0.000000,0.000000,0.000000,0.000000,0.000000
cobot_dynamixel_driver/joint_states|name|J1,J2,J3,J4,J5,J6|pos|1.079760,-1.260423,1.295436,0.000025,-1.230387,0.000041|vel|0.000000,-0.000000,0.000000,0.000000,0.000000,0.000000|eff|0.000000,0.000000,0.000000,0.000000,0.000000,0.000000
cobot_dynamixel_driver/joint_states|name|J1,J2,J3,J4,J5,J6|pos|1.079760,-1.260423,1.295436,0.000025,-1.230387,0.000041|vel|0.000000,-0.000000,0.000000,0.000000,0.000000,0.000000|eff|0.000000,0.000000,0.000000,0.000000,0.000000,0.000000
cobot_dynamixel_driver/joint_states|name|J1,J2,J3,J4,J5,J6|pos|1.079760,-1.260423,1.295436,0.000025,-1.230387,0.000041|vel|0.000000,-0.000000,0.000000,0.000000,0.000000,0.000000|eff|0.000000,0.000000,0.000000,0.000000,0.000000,0.000000
cobot_dynamixel_driver/joint_states|name|J1,J2,J3,J4,J5,J6|pos|1.079760,-1.260423,1.295436,0.000025,-1.230387,0.000041|vel|0.000000,-0.000000,0.000000,0.000000,0.000000,0.000000|eff|0.000000,0.000000,0.000000,0.000000,0.000000,0.000000
cobot_dynamixel_driver/joint_states|name|J1,J2,J3,J4,J5,J6|pos|1.079760,-1.260423,1.295436,0.000025,-1.230387,0.000041|vel|0.000000,-0.000000,0.000000,0.000000,0.000000,0.000000|eff|0.000000,0.000000,0.000000,0.000000,0.000000,0.000000
cobot_dynamixel_driver/joint_states|name|J1,J2,J3,J4,J5,J6|pos|1.079760,-1.260423,1.295436,0.000025,-1.230387,0.000041|vel|0.000000,-0.000000,0.000000,0.000000,0.000000,0.000000|eff|0.000000,0.000000,0.000000,0.000000,0.000000,0.000000
cobot_dynamixel_driver/joint_states|name|J1,J2,J3,J4,J5,J6|pos|1.079760,-1.260423,1.295436,0.000025,-1.230387,0.000041|vel|0.000000,-0.000000,0.000000,0.000000,0.000000,0.000000|eff|0.000000,0.000000,0.000000,0.000000,0.000000,0.000000
cobot_dynamixel_driver/joint_states|name|J1,J2,J3,J4,J5,J6|pos|1.079760,-1.260423,1.295436,0.000025,-1.230387,0.000041|vel|0.000000,-0.000000,0.000000,0.000000,0.000000,0.000000|eff|0.000000,0.000000,0.000000,0.000000,0.000000,0.000000
cobot_dynamixel_driver/joint_states|name|J1,J2,J3,J4,J5,J6|pos|1.079760,-1.260423,1.295436,0.000025,-1.230387,0.000041|vel|0.000000,-0.000000,0.000000,0.000000,0.000000,0.000000|eff|0.000000,0.000000,0.000000,0.000000,0.000000,0.000000
cobot_dynamixel_driver/joint_states|name|J1,J2,J3,J4,J5,J6|pos|1.079760,-1.260423,1.295436,0.000025,-1.230387,0.000041|vel|0.000000,-0.000000,0.000000,0.000000,0.000000,0.000000|eff|0.000000,0.000000,0.000000,0.000000,0.000000,0.000000
cobot_dynamixel_driver/joint_states|name|J1,J2,J3,J4,J5,J6|pos|1.079760,-1.260423,1.295436,0.000025,-1.230387,0.000041|vel|0.000000,-0.000000,0.000000,0.000000,0.000000,0.000000|eff|0.000000,0.000000,0.000000,0.000000,0.000000,0.000000
cobot_dynamixel_driver/joint_states|name|J1,J2,J3,J4,J5,J6|pos|1.079760,-1.260423,1.295436,0.000025,-1.230387,0.000041|vel|0.000000,-0.000000,0.000000,0.000000,0.000000,0.000000|eff|0.000000,0.000000,0.000000,0.000000,0.000000,0.000000
cobot_dynamixel_driver/joint_states|name|J1,J2,J3,J4,J5,J6|pos|1.079760,-1.260423,1.295436,0.000025,-1.230387,0.000041|vel|0.000000,-0.000000,0.000000,0.000000,0.000000,0.000000|eff|0.000000,0.000000,0.000000,0.000000,0.000000,0.000000
cobot_dynamixel_driver/joint_states|name|J1,J2,J3,J4,J5,J6|pos|1.079760,-1.260423,1.295436,0.000025,-1.230387,0.000041|vel|0.000000,-0.000000,0.000000,0.000000,0.000000,0.000000|eff|0.000000,0.000000,0.000000,0.000000,0.000000,0.000000
cobot_dynamixel_driver/joint_states|name|J1,J2,J3,J4,J5,J6|pos|1.079760,-1.260423,1.295436,0.000025,-1.230387,0.000041|vel|0.000000,-0.000000,0.000000,0.000000,0.000000,0.000000|eff|0.000000,0.000000,0.000000,0.000000,0.000000,0.000000
cobot_dynamixel_driver/joint_states|name|J1,J2,J3,J4,J5,J6|pos|1.079760,-1.260423,1.295436,0.000025,-1.230387,0.000041|vel|0.000000,-0.000000,0.000000,0.000000,0.000000,0.000000|eff|0.000000,0.000000,0.000000,0.000000,0.000000,0.000000
cobot_dynamixel_driver/joint_states|name|J1,J2,J3,J4,J5,J6|pos|1.079760,-1.260423,1.295436,0.000025,-1.230387,0.000041|vel|0.000000,-0.000000,0.000000,0.000000,0.000000,0.000000|eff|0.000000,0.000000,0.000000,0.000000,0.000000,0.000000
cobot_dynamixel_driver/joint_states|name|J1,J2,J3,J4,J5,J6|pos|1.079760,-1.260423,1.295436,0.000025,-1.230387,0.000041|vel|0.000000,-0.000000,0.000000,0.000000,0.000000,0.000000|eff|0.000000,0.000000,0.000000,0.000000,0.000000,0.000000
cobot_dynamixel_driver/joint_states|name|J1,J2,J3,J4,J5,J6|pos|1.079760,-1.260423,1.295436,0.000025,-1.230387,0.000041|vel|0.000000,-0.000000,0.000000,0.000000,0.000000,0.000000|eff|0.000000,0.000000,0.000000,0.000000,0.000000,0.000000
cobot_dynamixel_driver/joint_states|name|J1,J2,J3,J4,J5,J6|pos|1.079760,-1.260423,1.295436,0.000025,-1.230387,0.000041|vel|0.000000,-0.000000,0.000000,0.000000,0.000000,0.000000|eff|0.000000,0.000000,0.000000,0.000000,0.000000,0.000000
cobot_dynamixel_driver/joint_states|name|J1,J2,J3,J4,J5,J6|pos|1.079760,-1.260423,1.295436,0.000025,-1.230387,0.000041|vel|0.000000,-0.000000,0.000000,0.000000,0.000000,0.000000|eff|0.000000,0.000000,0.000000,0.000000,0.000000,0.000000
cobot_dynamixel_driver/joint_states|name|J1,J2,J3,J4,J5,J6|pos|1.079760,-1.260423,1.295436,0.000025,-1.230387,0.000041|vel|0.000000,-0.000000,0.000000,0.000000,0.000000,0.000000|eff|0.000000,0.000000,0.000000,0.000000,0.000000,0.000000
cobot_dynamixel_driver/joint_states|name|J1,J2,J3,J4,J5,J6|pos|1.079760,-1.260423,1.295436,0.000025,-1.230387,0.000041|vel|0.000000,-0.000000,0.000000,0.000000,0.000000,0.000000|eff|0.000000,0.000000,0.000000,0.000000,0.000000,0.000000
cobot_dynamixel_driver/joint_states|name|J1,J2,J3,J4,J5,J6|pos|1.079760,-1.260423,1.295436,0.000025,-1.230387,0.000041|vel|0.000000,-0.000000,0.000000,0.000000,0.000000,0.000000|eff|0.000000,0.000000,0.000000,0.000000,0.000000,0.000000
cobot_dynamixel_driver/joint_states|name|J1,J2,J3,J4,J5,J6|pos|1.079760,-1.260423,1.295436,0.000025,-1.230387,0.000041|vel|0.000000,-0.000000,0.000000,0.000000,0.000000,0.000000|eff|0.000000,0.000000,0.000000,0.000000,0.000000,0.000000
cobot_dynamixel_driver/joint_states|name|J1,J2,J3,J4,J5,J6|pos|1.079760,-1.260423,1.295436,0.000025,-1.230387,0.000041|vel|0.000000,-0.000000,0.000000,0.000000,0.000000,0.000000|eff|0.000000,0.000000,0.000000,0.000000,0.000000,0.000000
cobot_dynamixel_driver/joint_states|name|J1,J2,J3,J4,J5,J6|pos|1.079760,-1.260423,1.295436,0.000025,-1.230387,0.000041|vel|0.000000,-0.000000,0.000000,0.000000,0.000000,0.000000|eff|0.000000,0.000000,0.000000,0.000000,0.000000,0.000000
cobot_dynamixel_driver/joint_states|name|J1,J2,J3,J4,J5,J6|pos|1.079760,-1.260423,1.295436,0.000025,-1.230387,0.000041|vel|0.000000,-0.000000,0.000000,0.000000,0.000000,0.000000|eff|0.000000,0.000000,0.000000,0.000000,0.000000,0.000000
cobot_dynamixel_driver/joint_states|name|J1,J2,J3,J4,J5,J6|pos|1.079760,-1.260423,1.295436,0.000025,-1.230387,0.000041|vel|0.000000,-0.000000,0.000000,0.000000,0.000000,0.000000|eff|0.000000,0.000000,0.000000,0.000000,0.000000,0.000000
cobot_dynamixel_driver/joint_states|name|J1,J2,J3,J4,J5,J6|pos|1.079760,-1.260423,1.295436,0.000025,-1.230387,0.000041|vel|0.000000,-0.000000,0.000000,0.000000,0.000000,0.000000|eff|0.000000,0.000000,0.000000,0.000000,0.000000,0.000000
cobot_dynamixel_driver/joint_states|name|J1,J2,J3,J4,J5,J6|pos|1.079760,-1.260423,1.295436,0.000025,-1.230387,0.000041|vel|0.000000,-0.000000,0.000000,0.000000,0.000000,0.000000|eff|0.000000,0.000000,0.000000,0.000000,0.000000,0.000000
cobot_dynamixel_driver/joint_states|name|J1,J2,J3,J4,J5,J6|pos|1.079760,-1.260423,1.295436,0.000025,-1.230387,0.000041|vel|0.000000,-0.000000,0.000000,0.000000,0.000000,0.000000|eff|0.000000,0.000000,0.000000,0.000000,0.000000,0.000000
cobot_dynamixel_driver/joint_states|name|J1,J2,J3,J4,J5,J6|pos|1.079760,-1.260423,1.295436,0.000025,-1.230387,0.000041|vel|0.000000,-0.000000,0.000000,0.000000,0.000000,0.000000|eff|0.000000,0.000000,0.000000,0.000000,0.000000,0.000000
cobot_dynamixel_driver/joint_states|name|J1,J2,J3,J4,J5,J6|pos|1.079760,-1.260423,1.295436,0.000025,-1.230387,0.000041|vel|0.000000,-0.000000,0.000000,0.000000,0.000000,0.000000|eff|0.000000,0.000000,0.000000,0.000000,0.000000,0.000000
cobot_dynamixel_driver/joint_states|name|J1,J2,J3,J4,J5,J6|pos|1.079760,-1.260423,1.295436,0.000025,-1.230387,0.000041|vel|0.000000,-0.000000,0.000000,0.000000,0.000000,0.000000|eff|0.000000,0.000000,0.000000,0.000000,0.000000,0.000000
cobot_dynamixel_driver/joint_states|name|J1,J2,J3,J4,J5,J6|pos|1.079760,-1.260423,1.295436,0.000025,-1.230387,0.000041|vel|0.000000,-0.000000,0.000000,0.000000,0.000000,0.000000|eff|0.000000,0.000000,0.000000,0.000000,0.000000,0.000000
cobot_dynamixel_driver/joint_states|name|J1,J2,J3,J4,J5,J6|pos|1.079760,-1.260423,1.295436,0.000025,-1.230387,0.000041|vel|0.000000,-0.000000,0.000000,0.000000,0.000000,0.000000|eff|0.000000,0.000000,0.000000,0.000000,0.000000,0.000000
cobot_dynamixel_driver/joint_states|name|J1,J2,J3,J4,J5,J6|pos|1.079760,-1.260423,1.295436,0.000025,-1.230387,0.000041|vel|0.000000,-0.000000,0.000000,0.000000,0.000000,0.000000|eff|0.000000,0.000000,0.000000,0.000000,0.000000,0.000000
cobot_dynamixel_driver/joint_states|name|J1,J2,J3,J4,J5,J6|pos|1.079760,-1.260423,1.295436,0.000025,-1.230387,0.000041|vel|0.000000,-0.000000,0.000000,0.000000,0.000000,0.000000|eff|0.000000,0.000000,0.000000,0.000000,0.000000,0.000000
cobot_dynamixel_driver/joint_states|name|J1,J2,J3,J4,J5,J6|pos|1.079760,-1.260423,1.295436,0.000025,-1.230387,0.000041|vel|0.000000,-0.000000,0.000000,0.000000,0.000000,0.000000|eff|0.000000,0.000000,0.000000,0.000000,0.000000,0.000000
cobot_dynamixel_driver/joint_states|name|J1,J2,J3,J4,J5,J6|pos|1.079760,-1.260423,1.295436,0.000025,-1.230387,0.000041|vel|0.000000,-0.000000,0.000000,0.000000,0.000000,0.000000|eff|0.000000,0.000000,0.000000,0.000000,0.000000,0.000000
cobot_dynamixel_driver/goal|-:J1,J2,J3,J4,J5,J6:1.047198,0.000000,0.000000,0.000000,0.000000,0.000000:0.500000,0.500000,0.500000,0.500000,0.500000,0.500000:pos_vel_
cobot_dynamixel_driver/joint_states|name|J1,J2,J3,J4,J5,J6|pos|1.079922,-1.266694,1.296275,-0.001715,-1.231235,-0.000083|vel|0.000000,-0.000000,0.000000,0.000000,0.000000,0.000000|eff|0.000000,0.000000,0.000000,0.000000,0.000000,0.000000
cobot_dynamixel_driver/goal|-:J1,J2,J3,J4,J5,J6:1.047198,0.000000,0.000000,0.000000,0.000000,0.000000:0.500000,0.500000,0.500000,0.500000,0.500000,0.500000:pos_vel_
cobot_dynamixel_driver/goal|-:J1,J2,J3,J4,J5,J6:1.047198,0.000000,0.000000,0.000000,0.000000,0.000000:0.500000,0.500000,0.500000,0.500000,0.500000,0.500000:pos_vel_
cobot_dynamixel_driver/goal|-:J1,J2,J3,J4,J5,J6:1.047198,0.000000,0.000000,0.000000,0.000000,0.000000:0.500000,0.500000,0.500000,0.500000,0.500000,0.500000:pos_vel_
cobot_dynamixel_driver/goal|-:J1,J2,J3,J4,J5,J6:1.047198,0.000000,0.000000,0.000000,0.000000,0.000000:0.500000,0.500000,0.500000,0.500000,0.500000,0.500000:pos_vel_
cobot_dynamixel_driver/goal|-:J1,J2,J3,J4,J5,J6:1.047198,0.000000,0.000000,0.000000,0.000000,0.000000:0.500000,0.500000,0.500000,0.500000,0.500000,0.500000:pos_vel_
cobot_dynamixel_driver/goal|-:J1,J2,J3,J4,J5,J6:1.047198,0.000000,0.000000,0.000000,0.000000,0.000000:0.500000,0.500000,0.500000,0.500000,0.500000,0.500000:pos_vel_
cobot_dynamixel_driver/goal|-:J1,J2,J3,J4,J5,J6:1.047198,0.000000,0.000000,0.000000,0.000000,0.000000:0.500000,0.500000,0.500000,0.500000,0.500000,0.500000:pos_vel_
cobot_dynamixel_driver/goal|-:J1,J2,J3,J4,J5,J6:1.047198,0.000000,0.000000,0.000000,0.000000,0.000000:0.500000,0.500000,0.500000,0.500000,0.500000,0.500000:pos_vel_
cobot_dynamixel_driver/goal|-:J1,J2,J3,J4,J5,J6:1.047198,0.000000,0.000000,0.000000,0.000000,0.000000:0.500000,0.500000,0.500000,0.500000,0.500000,0.500000:pos_vel_
cobot_dynamixel_driver/goal|-:J1,J2,J3,J4,J5,J6:1.047198,0.000000,0.000000,0.000000,0.000000,0.000000:0.500000,0.500000,0.500000,0.500000,0.500000,0.500000:pos_vel_
cobot_dynamixel_driver/goal|-:J1,J2,J3,J4,J5,J6:1.047198,0.000000,0.000000,0.000000,0.000000,0.000000:0.500000,0.500000,0.500000,0.500000,0.500000,0.500000:pos_vel_
cobot_dynamixel_driver/goal|-:J1,J2,J3,J4,J5,J6:1.047198,0.000000,0.000000,0.000000,0.000000,0.000000:0.500000,0.500000,0.500000,0.500000,0.500000,0.500000:pos_vel_
cobot_dynamixel_driver/goal|-:J1,J2,J3,J4,J5,J6:1.047198,0.000000,0.000000,0.000000,0.000000,0.000000:0.500000,0.500000,0.500000,0.500000,0.500000,0.500000:pos_vel_
cobot_dynamixel_driver/goal|-:J1,J2,J3,J4,J5,J6:1.047198,0.000000,0.000000,0.000000,0.000000,0.000000:0.500000,0.500000,0.500000,0.500000,0.500000,0.500000:pos_vel_
cobot_dynamixel_driver/goal|-:J1,J2,J3,J4,J5,J6:1.047198,0.000000,0.000000,0.000000,0.000000,0.000000:0.500000,0.500000,0.500000,0.500000,0.500000,0.500000:pos_vel_
cobot_dynamixel_driver/goal|-:J1,J2,J3,J4,J5,J6:1.047198,0.000000,0.000000,0.000000,0.000000,0.000000:0.500000,0.500000,0.500000,0.500000,0.500000,0.500000:pos_vel_
cobot_dynamixel_driver/goal|-:J1,J2,J3,J4,J5,J6:1.047198,0.000000,0.000000,0.000000,0.000000,0.000000:0.500000,0.500000,0.500000,0.500000,0.500000,0.500000:pos_vel_
cobot_dynamixel_driver/goal|-:J1,J2,J3,J4,J5,J6:1.047198,0.000000,0.000000,0.000000,0.000000,0.000000:0.500000,0.500000,0.500000,0.500000,0.500000,0.500000:pos_vel_
cobot_dynamixel_driver/goal|-:J1,J2,J3,J4,J5,J6:1.047198,0.000000,0.000000,0.000000,0.000000,0.000000:0.500000,0.500000,0.500000,0.500000,0.500000,0.500000:pos_vel_
cobot_dynamixel_driver/goal|-:J1,J2,J3,J4,J5,J6:1.047198,0.000000,0.000000,0.000000,0.000000,0.000000:0.500000,0.500000,0.500000,0.500000,0.500000,0.500000:pos_vel_
cobot_dynamixel_driver/goal|-:J1,J2,J3,J4,J5,J6:1.047198,0.000000,0.000000,0.000000,0.000000,0.000000:0.500000,0.500000,0.500000,0.500000,0.500000,0.500000:pos_vel_
cobot_dynamixel_driver/goal|-:J1,J2,J3,J4,J5,J6:1.047198,0.000000,0.000000,0.000000,0.000000,0.000000:0.500000,0.500000,0.500000,0.500000,0.500000,0.500000:pos_vel_
cobot_dynamixel_driver/goal|-:J1,J2,J3,J4,J5,J6:1.047198,0.000000,0.000000,0.000000,0.000000,0.000000:0.500000,0.500000,0.500000,0.500000,0.500000,0.500000:pos_vel_
cobot_dynamixel_driver/goal|-:J1,J2,J3,J4,J5,J6:1.047198,0.000000,0.000000,0.000000,0.000000,0.000000:0.500000,0.500000,0.500000,0.500000,0.500000,0.500000:pos_vel_
cobot_dynamixel_driver/goal|-:J1,J2,J3,J4,J5,J6:1.047198,0.000000,0.000000,0.000000,0.000000,0.000000:0.500000,0.500000,0.500000,0.500000,0.500000,0.500000:pos_vel_
cobot_dynamixel_driver/goal|-:J1,J2,J3,J4,J5,J6:1.047198,0.000000,0.000000,0.000000,0.000000,0.000000:0.500000,0.500000,0.500000,0.500000,0.500000,0.500000:pos_vel_
cobot_dynamixel_driver/goal|-:J1,J2,J3,J4,J5,J6:1.047198,0.000000,0.000000,0.000000,0.000000,0.000000:0.500000,0.500000,0.500000,0.500000,0.500000,0.500000:pos_vel_
cobot_dynamixel_driver/goal|-:J1,J2,J3,J4,J5,J6:1.047198,0.000000,0.000000,0.000000,0.000000,0.000000:0.500000,0.500000,0.500000,0.500000,0.500000,0.500000:pos_vel_
cobot_dynamixel_driver/goal|-:J1,J2,J3,J4,J5,J6:1.047198,0.000000,0.000000,0.000000,0.000000,0.000000:0.500000,0.500000,0.500000,0.500000,0.500000,0.500000:pos_vel_
cobot_dynamixel_driver/joint_states|name|J1,J2,J3,J4,J5,J6|pos|1.079835,-1.266607,1.296187,-0.001640,-1.230842,-0.000083|vel|-0.015023,0.017735,-0.015023,0.011893,0.052394,0.000000|eff|-547.851562,-402.832031,-370.605469,145.019531,88.623047,0.000000
cobot_dynamixel_driver/joint_states|name|J1,J2,J3,J4,J5,J6|pos|1.079146,-1.265956,1.295549,-0.001490,-1.229436,-0.000083|vel|-0.061968,0.054457,-0.048823,0.006259,0.115819,0.000000|eff|-660.644531,-757.324219,-547.851562,112.792969,96.679688,0.000000
cobot_dynamixel_driver/joint_states|name|J1,J2,J3,J4,J5,J6|pos|1.077719,-1.264616,1.294334,-0.001402,-1.227202,-0.000083|vel|-0.106410,0.102654,-0.089092,0.005425,0.151668,0.000000|eff|-805.664062,-1015.136719,-966.796875,112.792969,88.623047,0.000000
cobot_dynamixel_driver/joint_states|name|J1,J2,J3,J4,J5,J6|pos|1.075629,-1.262688,1.292569,-0.001289,-1.224264,-0.000083|vel|-0.150226,0.142506,-0.113921,0.006259,0.236119,0.000000|eff|-966.796875,-1353.515625,-1498.535156,112.792969,68.481445,0.000000
cobot_dynamixel_driver/joint_states|name|J1,J2,J3,J4,J5,J6|pos|1.072399,-1.259559,1.289415,-0.001189,-1.220003,-0.000083|vel|-0.163370,0.173177,-0.210107,0.005008,0.233362,0.000000|eff|-499.511719,-1562.988281,-1434.082031,145.019531,52.368164,0.000000
cobot_dynamixel_driver/joint_states|name|J1,J2,J3,J4,J5,J6|pos|1.068981,-1.255540,1.284846,-0.001102,-1.215101,-0.000083|vel|-0.162118,0.195085,-0.258722,0.004382,0.268866,0.000000|eff|-322.265625,-1627.441406,-1192.382812,161.132812,56.396484,-8.056641
cobot_dynamixel_driver/joint_states|name|J1,J2,J3,J4,J5,J6|pos|1.065977,-1.250708,1.279375,-0.001014,-1.209681,-0.000083|vel|-0.137915,0.269571,-0.324028,0.003964,0.309196,0.000000|eff|-273.925781,-1675.781250,-1176.269531,145.019531,56.396484,0.000000
cobot_dynamixel_driver/joint_states|name|J1,J2,J3,J4,J5,J6|pos|1.063411,-1.244963,1.273291,-0.000914,-1.203724,-0.000083|vel|-0.125397,0.300660,-0.319438,0.005425,0.325396,0.000000|eff|-306.152344,-1627.441406,-1111.816406,145.019531,56.396484,0.000000
cobot_dynamixel_driver/joint_states|name|J1,J2,J3,J4,J5,J6|pos|1.061233,-1.238616,1.266819,-0.000826,-1.197270,-0.000083|vel|-0.103071,0.345102,-0.335921,0.004382,0.360556,0.000000|eff|-273.925781,-1836.914062,-1289.062500,145.019531,44.311523,0.000000
cobot_dynamixel_driver/joint_states|name|J1,J2,J3,J4,J5,J6|pos|1.059342,-1.231731,1.259859,-0.000726,-1.190465,-0.000083|vel|-0.081372,0.369305,-0.360124,0.004799,0.392268,0.000000|eff|-322.265625,-1272.949219,-1047.363281,177.246094,60.424805,8.056641
cobot_dynamixel_driver/joint_states|name|J1,J2,J3,J4,J5,J6|pos|1.057715,-1.224408,1.252574,-0.000626,-1.183328,-0.000083|vel|-0.076365,0.365132,-0.388709,0.004590,0.320571,0.000000|eff|-241.699219,-1401.855469,-1015.136719,161.132812,48.339844,0.000000
cobot_dynamixel_driver/joint_states|name|J1,J2,J3,J4,J5,J6|pos|1.056325,-1.216822,1.244988,-0.000551,-1.175819,-0.000083|vel|-0.069271,0.496162,-0.402897,0.003756,0.385030,0.000000|eff|-273.925781,-1885.253906,-1321.289062,161.132812,36.254883,0.000000
cobot_dynamixel_driver/joint_states|name|J1,J2,J3,J4,J5,J6|pos|1.055099,-1.208797,1.237214,-0.000488,-1.168021,-0.000083|vel|-0.059882,0.442331,-0.406444,0.003130,0.445352,0.000000|eff|-209.472656,-1095.703125,-1256.835938,161.132812,32.226562,20.141602
cobot_dynamixel_driver/joint_states|name|J1,J2,J3,J4,J5,J6|pos|1.054047,-1.200636,1.229064,-0.000438,-1.160078,-0.000083|vel|-0.050075,0.431273,-0.392464,0.002295,0.435356,0.000000|eff|-193.359375,-1192.382812,-1740.234375,128.906250,52.368164,8.056641
cobot_dynamixel_driver/joint_states|name|J1,J2,J3,J4,J5,J6|pos|1.053171,-1.192173,1.220702,-0.000401,-1.151886,-0.000083|vel|-0.043816,0.423344,-0.428560,0.001669,0.415018,0.000000|eff|-241.699219,-805.664062,-1272.949219,209.472656,36.254883,0.000000
cobot_dynamixel_driver/joint_states|name|J1,J2,J3,J4,J5,J6|pos|1.052370,-1.183473,1.212090,-0.000388,-1.143488,-0.000083|vel|-0.039643,0.464865,-0.382658,0.001252,0.425704,0.000000|eff|-241.699219,-1611.328125,-692.871094,145.019531,44.311523,8.056641
cobot_dynamixel_driver/joint_states|name|J1,J2,J3,J4,J5,J6|pos|1.051681,-1.174698,1.203427,-0.000351,-1.134986,-0.000083|vel|-0.032132,0.481556,-0.465908,0.001252,0.494989,0.000000|eff|-273.925781,-1691.894531,-1047.363281,145.019531,56.396484,0.000000
cobot_dynamixel_driver/joint_states|name|J1,J2,J3,J4,J5,J6|pos|1.051080,-1.165860,1.194714,-0.000300,-1.126340,-0.000083|vel|-0.028793,0.441496,-0.454015,0.002295,0.387787,0.000000|eff|-177.246094,-1305.175781,-1031.250000,177.246094,24.169922,0.000000
cobot_dynamixel_driver/joint_states|name|J1,J2,J3,J4,J5,J6|pos|1.050592,-1.156959,1.185902,-0.000263,-1.117631,-0.000083|vel|-0.022742,0.444417,-0.449216,0.002086,0.471894,0.000000|eff|-161.132812,-1192.382812,-950.683594,161.132812,40.283203,12.084961
cobot_dynamixel_driver/joint_states|name|J1,J2,J3,J4,J5,J6|pos|1.050204,-1.147934,1.176951,-0.000238,-1.108778,-0.000083|vel|-0.018152,0.481348,-0.443791,0.001461,0.456382,0.000000|eff|-241.699219,-2030.273438,-821.777344,177.246094,36.254883,20.141602
cobot_dynamixel_driver/joint_states|name|J1,J2,J3,J4,J5,J6|pos|1.049854,-1.138795,1.167963,-0.000213,-1.099759,-0.000083|vel|-0.017526,0.476132,-0.474462,0.001461,0.454314,0.000000|eff|-257.812500,-1224.609375,-1095.703125,128.906250,12.084961,0.000000
cobot_dynamixel_driver/joint_states|name|J1,J2,J3,J4,J5,J6|pos|1.049490,-1.129545,1.158837,-0.000200,-1.090699,-0.000083|vel|-0.018987,0.487607,-0.493032,0.001043,0.491197,0.000000|eff|-161.132812,-870.117188,-821.777344,225.585938,52.368164,12.084961
cobot_dynamixel_driver/joint_states|name|J1,J2,J3,J4,J5,J6|pos|1.049152,-1.120344,1.149549,-0.000188,-1.081577,-0.000083|vel|-0.016900,0.479261,-0.431899,0.000626,0.403299,0.000000|eff|-177.246094,-837.890625,-725.097656,161.132812,28.198242,0.000000
cobot_dynamixel_driver/joint_states|name|J1,J2,J3,J4,J5,J6|pos|1.048865,-1.111055,1.140310,-0.000175,-1.072392,-0.000062|vel|-0.013771,0.461318,-0.495119,0.000626,0.477064,0.000000|eff|-161.132812,-805.664062,-934.570312,177.246094,24.169922,24.169922
cobot_dynamixel_driver/joint_states|name|J1,J2,J3,J4,J5,J6|pos|1.048552,-1.098449,1.127679,-0.000163,-1.059960,-0.000062|vel|-0.011684,0.452972,-0.492615,0.000417,0.464310,0.000000|eff|-161.132812,-821.777344,-757.324219,193.359375,36.254883,16.113281
cobot_dynamixel_driver/joint_states|name|J1,J2,J3,J4,J5,J6|pos|1.048376,-1.090012,1.119255,-0.000150,-1.051624,-0.000062|vel|-0.011267,0.494910,-0.440036,0.000417,0.413295,0.000000|eff|-161.132812,-1981.933594,-1466.308594,145.019531,16.113281,0.000000
cobot_dynamixel_driver/joint_states|name|J1,J2,J3,J4,J5,J6|pos|1.048201,-1.081838,1.111431,-0.000125,-1.043619,-0.000062|vel|-0.009806,0.517026,-0.466325,0.000835,0.502227,0.000000|eff|-145.019531,-80.566406,-1127.929688,193.359375,48.339844,28.198242
cobot_dynamixel_driver/joint_states|name|J1,J2,J3,J4,J5,J6|pos|1.048051,-1.073313,1.102831,-0.000100,-1.035241,-0.000062|vel|-0.006885,0.460066,-0.512436,0.001252,0.461898,0.000000|eff|-145.019531,-886.230469,-1385.742188,193.359375,48.339844,16.113281
cobot_dynamixel_driver/joint_states|name|J1,J2,J3,J4,J5,J6|pos|1.047913,-1.063774,1.093329,-0.000075,-1.025912,-0.000062|vel|-0.006259,0.467786,-0.460275,0.001461,0.539110,0.000000|eff|-145.019531,-870.117188,-950.683594,112.792969,48.339844,28.198242
cobot_dynamixel_driver/joint_states|name|J1,J2,J3,J4,J5,J6|pos|1.047813,-1.054185,1.083765,-0.000050,-1.016542,-0.000062|vel|-0.005008,0.493241,-0.499917,0.001252,0.477409,0.000000|eff|-128.906250,-1369.628906,-741.210938,209.472656,52.368164,32.226562
cobot_dynamixel_driver/joint_states|name|J1,J2,J3,J4,J5,J6|pos|1.047750,-1.044646,1.074226,-0.000050,-1.006964,-0.000062|vel|-0.003130,0.481139,-0.511393,0.001252,0.486027,0.000000|eff|-161.132812,-2030.273438,-918.457031,112.792969,24.169922,32.226562
cobot_dynamixel_driver/joint_states|name|J1,J2,J3,J4,J5,J6|pos|1.047688,-1.035069,1.064688,-0.000038,-0.997449,-0.000062|vel|-0.004590,0.494493,-0.509098,0.000417,0.513258,0.000000|eff|-128.906250,-2255.859375,-1240.722656,209.472656,0.000000,28.198242
cobot_dynamixel_driver/joint_states|name|J1,J2,J3,J4,J5,J6|pos|1.047600,-1.025518,1.055136,-0.000025,-0.988079,-0.000062|vel|-0.004173,0.501169,-0.565850,0.000417,0.478788,0.000000|eff|-145.019531,-1256.835938,-1401.855469,209.472656,28.198242,28.198242
cobot_dynamixel_driver/joint_states|name|J1,J2,J3,J4,J5,J6|pos|1.047563,-1.015967,1.045647,-0.000025,-0.978563,-0.000062|vel|-0.002295,0.488233,-0.496162,0.000417,0.552554,0.000000|eff|-161.132812,-531.738281,-1675.781250,112.792969,0.000000,24.169922
cobot_dynamixel_driver/joint_states|name|J1,J2,J3,J4,J5,J6|pos|1.047513,-1.006353,1.036071,-0.000013,-0.969131,-0.000062|vel|-0.002295,0.511393,-0.509515,0.000417,0.431219,0.000000|eff|-209.472656,-1240.722656,-1111.816406,145.019531,48.339844,16.113281
cobot_dynamixel_driver/joint_states|name|J1,J2,J3,J4,J5,J6|pos|1.047450,-0.996275,1.025931,-0.000013,-0.958726,-0.000062|vel|-0.002504,0.501378,-0.458188,0.000209,0.437424,0.000000|eff|-241.699219,-725.097656,-1498.535156,128.906250,60.424805,32.226562
cobot_dynamixel_driver/joint_states|name|J1,J2,J3,J4,J5,J6|pos|1.047400,-0.987112,1.016830,-0.000013,-0.950059,-0.000062|vel|-0.002921,0.494284,-0.435237,0.000209,0.521531,0.000000|eff|-112.792969,-2674.804688,-918.457031,209.472656,44.311523,0.000000
cobot_dynamixel_driver/joint_states|name|J1,J2,J3,J4,J5,J6|pos|1.047350,-0.977498,1.007179,0.000000,-0.940502,-0.000062|vel|-0.002921,0.478635,-0.525164,0.000209,0.526701,0.000000|eff|-96.679688,-708.984375,-1401.855469,209.472656,80.566406,20.141602
cobot_dynamixel_driver/joint_states|name|J1,J2,J3,J4,J5,J6|pos|1.047337,-0.967959,0.997590,0.000000,-0.930946,-0.000062|vel|-0.001669,0.498874,-0.511810,0.000209,0.420878,0.000000|eff|-112.792969,-676.757812,-1498.535156,128.906250,48.339844,32.226562
cobot_dynamixel_driver/joint_states|name|J1,J2,J3,J4,J5,J6|pos|1.047300,-0.958233,0.988101,0.000000,-0.921348,-0.000062|vel|-0.000835,0.459649,-0.517235,0.000209,0.518773,0.000000|eff|-112.792969,-1530.761719,-1305.175781,128.906250,0.000000,32.226562
cobot_dynamixel_driver/joint_states|name|J1,J2,J3,J4,J5,J6|pos|1.047275,-0.948531,0.978362,0.000013,-0.911791,-0.000062|vel|-0.001669,0.501795,-0.510558,0.000209,0.495333,0.000000|eff|-193.359375,-1981.933594,-741.210938,177.246094,56.396484,32.226562
cobot_dynamixel_driver/joint_states|name|J1,J2,J3,J4,J5,J6|pos|1.047250,-0.938842,0.968735,0.000013,-0.902152,-0.000062|vel|-0.001669,0.449425,-0.523912,0.000209,0.421912,0.000000|eff|-112.792969,-467.285156,-1224.609375,145.019531,16.113281,32.226562
cobot_dynamixel_driver/joint_states|name|J1,J2,J3,J4,J5,J6|pos|1.047237,-0.929140,0.959034,0.000013,-0.892574,-0.000062|vel|-0.000835,0.524120,-0.504299,0.000209,0.486027,0.000000|eff|-128.906250,-999.023438,-1337.402344,193.359375,20.141602,32.226562
cobot_dynamixel_driver/joint_states|name|J1,J2,J3,J4,J5,J6|pos|1.047225,-0.919000,0.948856,0.000025,-0.882645,-0.000062|vel|-0.000626,0.515775,-0.499709,0.000209,0.494989,0.000000|eff|-112.792969,-1611.328125,-950.683594,193.359375,56.396484,32.226562
cobot_dynamixel_driver/joint_states|name|J1,J2,J3,J4,J5,J6|pos|1.047212,-0.909349,0.939205,0.000025,-0.873027,-0.000062|vel|-0.000626,0.502421,-0.488442,0.000209,0.437424,0.000000|eff|-128.906250,-580.078125,-1434.082031,145.019531,40.283203,16.113281
cobot_dynamixel_driver/joint_states|name|J1,J2,J3,J4,J5,J6|pos|1.047200,-0.900173,0.930004,0.000025,-0.863863,-0.000062|vel|-0.000626,0.478009,-0.511184,0.000209,0.507053,0.000000|eff|-128.906250,-596.191406,-1434.082031,145.019531,24.169922,32.226562
cobot_dynamixel_driver/joint_states|name|J1,J2,J3,J4,J5,J6|pos|1.047200,-0.890446,0.920390,0.000025,-0.854286,-0.000062|vel|-0.000417,0.524746,-0.528711,0.000209,0.481890,0.000000|eff|-145.019531,-1385.742188,-870.117188,112.792969,8.056641,32.226562
cobot_dynamixel_driver/joint_states|name|J1,J2,J3,J4,J5,J6|pos|1.047187,-0.880757,0.910688,0.000025,-0.844812,-0.000062|vel|-0.000417,0.468412,-0.480513,0.000209,0.494989,0.000000|eff|-112.792969,-2690.917969,-757.324219,128.906250,84.594727,32.226562
cobot_dynamixel_driver/joint_states|name|J1,J2,J3,J4,J5,J6|pos|1.047187,-0.871131,0.900949,0.000025,-0.835234,-0.000062|vel|-0.000417,0.516818,-0.503256,0.000000,0.487750,0.000000|eff|0.000000,-789.550781,-1192.382812,145.019531,24.169922,28.198242
cobot_dynamixel_driver/joint_states|name|J1,J2,J3,J4,J5,J6|pos|1.047187,-0.861454,0.891273,0.000025,-0.825119,-0.000062|vel|-0.000417,0.576908,-0.429186,0.000000,0.527390,0.000000|eff|-145.019531,-934.570312,-1514.648438,193.359375,48.339844,28.198242
cobot_dynamixel_driver/joint_states|name|J1,J2,J3,J4,J5,J6|pos|1.047175,-0.851803,0.881571,0.000025,-0.815521,-0.000062|vel|-0.000209,0.470915,-0.521617,0.000000,0.508432,0.000000|eff|-145.019531,-2046.386719,-708.984375,161.132812,32.226562,40.283203
cobot_dynamixel_driver/joint_states|name|J1,J2,J3,J4,J5,J6|pos|1.047162,-0.842176,0.871919,0.000025,-0.805903,-0.000062|vel|-0.000209,0.445043,-0.502004,0.000000,0.480167,0.000000|eff|-128.906250,-2578.125000,-982.910156,145.019531,20.141602,32.226562
cobot_dynamixel_driver/joint_states|name|J1,J2,J3,J4,J5,J6|pos|1.047162,-0.832412,0.862381,0.000025,-0.796263,-0.000062|vel|-0.000209,0.500961,-0.496579,0.000000,0.503606,0.000000|eff|-64.453125,-386.718750,-1224.609375,112.792969,48.339844,32.226562
cobot_dynamixel_driver/joint_states|name|J1,J2,J3,J4,J5,J6|pos|1.047150,-0.822723,0.852654,0.000025,-0.787141,-0.000062|vel|-0.000209,0.509306,-0.505968,0.000000,0.418810,0.000000|eff|-128.906250,-1144.042969,-1627.441406,177.246094,44.311523,40.283203
cobot_dynamixel_driver/joint_states|name|J1,J2,J3,J4,J5,J6|pos|1.047150,-0.812996,0.842915,0.000038,-0.777584,-0.000041|vel|-0.000209,0.479887,-0.496996,0.000000,0.479133,0.000000|eff|-128.906250,-966.796875,-596.191406,193.359375,52.368164,44.311523
cobot_dynamixel_driver/joint_states|name|J1,J2,J3,J4,J5,J6|pos|1.047137,-0.803295,0.833201,0.000038,-0.768028,-0.000041|vel|-0.000209,0.521617,-0.470290,0.000000,0.528425,0.000000|eff|-64.453125,-402.832031,-1063.476562,112.792969,44.311523,36.254883
cobot_dynamixel_driver/joint_states|name|J1,J2,J3,J4,J5,J6|pos|1.047125,-0.793630,0.823461,0.000038,-0.757892,-0.000021|vel|-0.000209,0.471124,-0.522660,0.000000,0.442250,0.000000|eff|-145.019531,-870.117188,-1643.554688,112.792969,40.283203,36.254883
cobot_dynamixel_driver/joint_states|name|J1,J2,J3,J4,J5,J6|pos|1.047125,-0.783966,0.813797,0.000038,-0.748232,-0.000021|vel|-0.000209,0.499291,-0.501169,0.000000,0.483614,0.000000|eff|-64.453125,-1836.914062,-725.097656,112.792969,24.169922,32.226562
cobot_dynamixel_driver/joint_states|name|J1,J2,J3,J4,J5,J6|pos|1.047125,-0.774290,0.804133,0.000038,-0.738634,-0.000021|vel|-0.000209,0.530380,-0.442122,0.000000,0.504985,0.000000|eff|-145.019531,-1434.082031,-950.683594,145.019531,40.283203,32.226562
cobot_dynamixel_driver/joint_states|name|J1,J2,J3,J4,J5,J6|pos|1.047125,-0.764526,0.794482,0.000038,-0.728994,-0.000021|vel|-0.000209,0.517652,-0.506385,0.000000,0.518428,0.000000|eff|-112.792969,-386.718750,-1417.968750,209.472656,12.084961,32.226562
cobot_dynamixel_driver/joint_states|name|J1,J2,J3,J4,J5,J6|pos|1.047125,-0.754862,0.784743,0.000038,-0.719975,-0.000021|vel|0.000000,0.496370,-0.504299,0.000000,0.473962,0.000000|eff|-64.453125,-1224.609375,-1562.988281,112.792969,44.311523,32.226562
cobot_dynamixel_driver/joint_states|name|J1,J2,J3,J4,J5,J6|pos|1.047125,-0.745260,0.775003,0.000038,-0.709922,-0.000021|vel|0.000000,0.499500,-0.471333,0.000000,0.481201,0.000000|eff|0.000000,-2143.066406,-837.890625,112.792969,44.311523,36.254883
cobot_dynamixel_driver/joint_states|name|J1,J2,J3,J4,J5,J6|pos|1.047125,-0.735558,0.765314,0.000038,-0.700759,-0.000021|vel|0.000000,0.476340,-0.494910,0.000000,0.558758,0.000000|eff|-145.019531,-563.964844,-1160.156250,145.019531,52.368164,36.254883
cobot_dynamixel_driver/joint_states|name|J1,J2,J3,J4,J5,J6|pos|1.047125,-0.725894,0.755650,0.000038,-0.691140,-0.000021|vel|0.000000,0.484895,-0.509098,0.000000,0.450522,0.000000|eff|-96.679688,-563.964844,-1659.667969,112.792969,40.283203,36.254883
cobot_dynamixel_driver/joint_states|name|J1,J2,J3,J4,J5,J6|pos|1.047125,-0.716180,0.746049,0.000038,-0.681004,-0.000021|vel|0.000000,0.533718,-0.418962,0.000000,0.489474,0.000000|eff|-145.019531,-1611.328125,-1079.589844,112.792969,20.141602,36.254883
cobot_dynamixel_driver/joint_states|name|J1,J2,J3,J4,J5,J6|pos|1.047125,-0.706479,0.736385,0.000038,-0.671427,-0.000021|vel|0.000000,0.486773,-0.512228,0.000000,0.538766,0.000000|eff|-112.792969,-1740.234375,-725.097656,128.906250,48.339844,40.283203
cobot_dynamixel_driver/joint_states|name|J1,J2,J3,J4,J5,J6|pos|1.047125,-0.696289,0.726145,0.000038,-0.661870,-0.000021|vel|0.000000,0.513897,-0.526416,0.000000,0.500849,0.000000|eff|-112.792969,-1353.515625,-1224.609375,112.792969,64.453125,36.254883
cobot_dynamixel_driver/joint_states|name|J1,J2,J3,J4,J5,J6|pos|1.047125,-0.686562,0.716393,0.000038,-0.652210,-0.000021|vel|0.000000,0.525790,-0.399558,0.000000,0.514292,0.000000|eff|-128.906250,-1192.382812,-821.777344,145.019531,40.283203,36.254883
cobot_dynamixel_driver/joint_states|name|J1,J2,J3,J4,J5,J6|pos|1.047125,-0.677349,0.707180,0.000038,-0.642612,-0.000021|vel|0.000000,0.519113,-0.495744,0.000000,0.478443,0.000000|eff|-145.019531,-1756.347656,-741.210938,112.792969,32.226562,36.254883
cobot_dynamixel_driver/joint_states|name|J1,J2,J3,J4,J5,J6|pos|1.047125,-0.667159,0.696990,0.000038,-0.633035,-0.000021|vel|0.000000,0.472167,-0.505759,0.000000,0.439837,0.000000|eff|0.000000,-483.398438,-1595.214844,112.792969,36.254883,36.254883
cobot_dynamixel_driver/joint_states|name|J1,J2,J3,J4,J5,J6|pos|1.047125,-0.657970,0.687789,0.000038,-0.623457,-0.000021|vel|0.000000,0.506803,-0.522869,0.000000,0.505330,0.000000|eff|0.000000,-982.910156,-1579.101562,112.792969,76.538086,36.254883
cobot_dynamixel_driver/joint_states|name|J1,J2,J3,J4,J5,J6|pos|1.047125,-0.648281,0.678187,0.000038,-0.613839,-0.000021|vel|0.000000,0.474254,-0.487399,0.000000,0.442250,0.000000|eff|-145.019531,-1901.367188,-789.550781,145.019531,48.339844,36.254883
cobot_dynamixel_driver/joint_states|name|J1,J2,J3,J4,J5,J6|pos|1.047125,-0.638016,0.668110,0.000038,-0.604282,-0.000021|vel|0.000000,0.449634,-0.454850,0.000000,0.482924,0.000000|eff|-128.906250,-193.359375,-999.023438,112.792969,56.396484,36.254883
cobot_dynamixel_driver/joint_states|name|J1,J2,J3,J4,J5,J6|pos|1.047125,-0.628841,0.658847,0.000038,-0.594725,-0.000021|vel|0.000000,0.464865,-0.501795,0.000000,0.489474,0.000000|eff|-64.453125,-580.078125,-1417.968750,96.679688,52.368164,36.254883
cobot_dynamixel_driver/joint_states|name|J1,J2,J3,J4,J5,J6|pos|1.047125,-0.619176,0.649170,0.000038,-0.584983,-0.000021|vel|0.000000,0.502212,-0.544568,0.000000,0.491197,0.000000|eff|0.000000,-1579.101562,-1450.195312,112.792969,20.141602,36.254883
cobot_dynamixel_driver/joint_states|name|J1,J2,J3,J4,J5,J6|pos|1.047125,-0.609450,0.639431,0.000038,-0.575405,-0.000021|vel|0.000000,0.476132,-0.447547,0.000000,0.554622,0.000000|eff|0.000000,-999.023438,-837.890625,177.246094,68.481445,36.254883
cobot_dynamixel_driver/joint_states|name|J1,J2,J3,J4,J5,J6|pos|1.047125,-0.599310,0.629241,0.000038,-0.565807,-0.000021|vel|0.000000,0.480305,-0.483434,0.000000,0.520841,0.000000|eff|-112.792969,-322.265625,-1272.949219,193.359375,56.396484,36.254883
cobot_dynamixel_driver/joint_states|name|J1,J2,J3,J4,J5,J6|pos|1.047125,-0.590034,0.620165,0.000038,-0.556168,-0.000021|vel|0.000000,0.506594,-0.512228,0.000000,0.517049,0.000000|eff|0.000000,-1111.816406,-1643.554688,96.679688,28.198242,36.254883
cobot_dynamixel_driver/joint_states|name|J1,J2,J3,J4,J5,J6|pos|1.047125,-0.579819,0.609875,0.000038,-0.546611,-0.000021|vel|0.000000,0.500752,-0.501795,0.000000,0.488439,0.000000|eff|0.000000,-177.246094,-1015.136719,112.792969,48.339844,36.254883
cobot_dynamixel_driver/joint_states|name|J1,J2,J3,J4,J5,J6|pos|1.047125,-0.570618,0.600700,0.000038,-0.536993,-0.000021|vel|0.000000,0.488859,-0.505134,0.000000,0.437769,0.000000|eff|0.000000,-225.585938,-982.910156,112.792969,44.311523,36.254883
cobot_dynamixel_driver/joint_states|name|J1,J2,J3,J4,J5,J6|pos|1.047125,-0.560942,0.590960,0.000038,-0.527353,-0.000021|vel|0.000000,0.524746,-0.514314,0.000000,0.502572,0.000000|eff|0.000000,-886.230469,-1595.214844,96.679688,48.339844,36.254883
cobot_dynamixel_driver/joint_states|name|J1,J2,J3,J4,J5,J6|pos|1.047125,-0.551290,0.581209,0.000038,-0.517755,-0.000021|vel|0.000000,0.466117,-0.476758,0.000000,0.482924,0.000000|eff|-96.679688,-1917.480469,-660.644531,96.679688,48.339844,36.254883
cobot_dynamixel_driver/joint_states|name|J1,J2,J3,J4,J5,J6|pos|1.047125,-0.541689,0.571482,0.000038,-0.508074,-0.000021|vel|0.000000,0.519947,-0.507846,0.000000,0.518773,0.000000|eff|0.000000,-1289.062500,-982.910156,96.679688,24.169922,36.254883
cobot_dynamixel_driver/joint_states|name|J1,J2,J3,J4,J5,J6|pos|1.047125,-0.532012,0.561843,0.000038,-0.498456,-0.000021|vel|0.000000,0.477801,-0.522243,0.000000,0.550485,0.000000|eff|-112.792969,-225.585938,-1482.421875,112.792969,52.368164,36.254883
cobot_dynamixel_driver/joint_states|name|J1,J2,J3,J4,J5,J6|pos|1.047125,-0.522248,0.552254,0.000038,-0.488878,-0.000021|vel|0.000000,0.468412,-0.451929,0.000000,0.524978,0.000000|eff|0.000000,-1256.835938,-1530.761719,112.792969,64.453125,36.254883
cobot_dynamixel_driver/joint_states|name|J1,J2,J3,J4,J5,J6|pos|1.047125,-0.512484,0.542615,0.000038,-0.479280,-0.000021|vel|0.000000,0.480722,-0.504925,0.000000,0.487405,0.000000|eff|0.000000,-1321.289062,-692.871094,96.679688,92.651367,36.254883
cobot_dynamixel_driver/joint_states|name|J1,J2,J3,J4,J5,J6|pos|1.047125,-0.502870,0.532901,0.000038,-0.469682,-0.000021|vel|0.000000,0.518904,-0.496162,0.000000,0.503951,0.000000|eff|0.000000,-32.226562,-1015.136719,112.792969,60.424805,36.254883
cobot_dynamixel_driver/joint_states|name|J1,J2,J3,J4,J5,J6|pos|1.047125,-0.492742,0.522749,0.000038,-0.460043,-0.000021|vel|0.000000,0.518487,-0.493867,0.000000,0.443284,0.000000|eff|-128.906250,-789.550781,-1562.988281,96.679688,60.424805,36.254883
cobot_dynamixel_driver/joint_states|name|J1,J2,J3,J4,J5,J6|pos|1.047125,-0.483066,0.513022,0.000038,-0.450466,-0.000021|vel|0.000000,0.487190,-0.499083,0.000000,0.553932,0.000000|eff|-64.453125,-1675.781250,-854.003906,112.792969,80.566406,36.254883
cobot_dynamixel_driver/joint_states|name|J1,J2,J3,J4,J5,J6|pos|1.047125,-0.473865,0.503834,0.000038,-0.440930,-0.000021|vel|0.000000,0.503882,-0.496579,0.000000,0.446041,0.000000|eff|0.000000,-821.777344,-821.777344,112.792969,76.538086,36.254883
cobot_dynamixel_driver/joint_states|name|J1,J2,J3,J4,J5,J6|pos|1.047125,-0.464126,0.494220,0.000038,-0.431228,-0.000021|vel|0.000000,0.476340,-0.461526,0.000000,0.505674,0.000000|eff|0.000000,-209.472656,-1240.722656,96.679688,48.339844,36.254883
cobot_dynamixel_driver/joint_states|name|J1,J2,J3,J4,J5,J6|pos|1.047125,-0.453923,0.483879,0.000038,-0.421630,-0.000021|vel|0.000000,0.512645,-0.500961,0.000000,0.493610,0.000000|eff|0.000000,-2787.597656,-660.644531,112.792969,68.481445,36.254883
cobot_dynamixel_driver/joint_states|name|J1,J2,J3,J4,J5,J6|pos|1.047125,-0.444234,0.474190,0.000038,-0.412074,-0.000021|vel|0.000000,0.531423,-0.476340,0.000000,0.481545,0.000000|eff|0.000000,-1498.535156,-741.210938,112.792969,52.368164,36.254883
cobot_dynamixel_driver/joint_states|name|J1,J2,J3,J4,J5,J6|pos|1.047125,-0.434558,0.464501,0.000038,-0.402496,-0.000021|vel|0.000000,0.501378,-0.493241,0.000000,0.544281,0.000000|eff|0.000000,-48.339844,-1144.042969,112.792969,68.481445,36.254883
cobot_dynamixel_driver/joint_states|name|J1,J2,J3,J4,J5,J6|pos|1.047125,-0.425382,0.455263,0.000038,-0.392857,-0.000021|vel|0.000000,0.497831,-0.498248,0.000000,0.530493,0.000000|eff|0.000000,-660.644531,-1289.062500,112.792969,64.453125,36.254883
cobot_dynamixel_driver/joint_states|name|J1,J2,J3,J4,J5,J6|pos|1.047125,-0.415280,0.445035,0.000038,-0.383238,-0.000021|vel|0.000000,0.491780,-0.499291,0.000000,0.517394,0.000000|eff|0.000000,-1595.214844,-757.324219,96.679688,44.311523,36.254883
cobot_dynamixel_driver/joint_states|name|J1,J2,J3,J4,J5,J6|pos|1.047125,-0.405628,0.435371,0.000038,-0.373681,-0.000021|vel|0.000000,0.521199,-0.518904,0.000000,0.500849,0.000000|eff|0.000000,-1240.722656,-1047.363281,112.792969,36.254883,36.254883
cobot_dynamixel_driver/joint_states|name|J1,J2,J3,J4,J5,J6|pos|1.047125,-0.395839,0.425770,0.000038,-0.364083,-0.000021|vel|0.000000,0.526624,-0.525581,0.000000,0.420534,0.000000|eff|0.000000,-418.945312,-1579.101562,96.679688,60.424805,36.254883
cobot_dynamixel_driver/joint_states|name|J1,J2,J3,J4,J5,J6|pos|1.047125,-0.386062,0.416118,0.000038,-0.354506,-0.000021|vel|0.000000,0.488442,-0.468620,0.000000,0.489818,0.000000|eff|0.000000,-1965.820312,-1095.703125,80.566406,64.453125,36.254883
cobot_dynamixel_driver/joint_states|name|J1,J2,J3,J4,J5,J6|pos|1.047137,-0.376385,0.406404,0.000038,-0.344825,-0.000021|vel|0.000000,0.523286,-0.489276,0.000000,0.482580,0.000000|eff|0.000000,-757.324219,-773.437500,112.792969,68.481445,36.254883
cobot_dynamixel_driver/joint_states|name|J1,J2,J3,J4,J5,J6|pos|1.047137,-0.366746,0.396703,0.000038,-0.335145,-0.000021|vel|0.000000,0.472167,-0.451511,0.000000,0.406056,0.000000|eff|0.000000,-112.792969,-1224.609375,112.792969,40.283203,44.311523
cobot_dynamixel_driver/joint_states|name|J1,J2,J3,J4,J5,J6|pos|1.047137,-0.357032,0.387026,0.000038,-0.325547,-0.000021|vel|0.000000,0.515983,-0.508681,0.000000,0.485337,0.000000|eff|0.000000,-918.457031,-1691.894531,96.679688,60.424805,36.254883
cobot_dynamixel_driver/joint_states|name|J1,J2,J3,J4,J5,J6|pos|1.047137,-0.347281,0.377362,0.000038,-0.315990,-0.000021|vel|0.000000,0.529337,-0.484686,0.000000,0.444318,0.000000|eff|0.000000,-1353.515625,-789.550781,96.679688,48.339844,36.254883
cobot_dynamixel_driver/joint_states|name|J1,J2,J3,J4,J5,J6|pos|1.047137,-0.337554,0.367685,0.000038,-0.306392,-0.000021|vel|0.000000,0.479053,-0.539560,0.000000,0.479822,0.000000|eff|0.000000,209.472656,-854.003906,112.792969,80.566406,36.254883
cobot_dynamixel_driver/joint_states|name|J1,J2,J3,J4,J5,J6|pos|1.047137,-0.326863,0.357020,0.000038,-0.295346,0.000000|vel|0.000000,0.519739,-0.448799,0.000000,0.425015,0.000000|eff|0.000000,-934.570312,-999.023438,96.679688,48.339844,36.254883
cobot_dynamixel_driver/joint_states|name|J1,J2,J3,J4,J5,J6|pos|1.047137,-0.318126,0.348245,0.000038,-0.287217,0.000000|vel|0.000000,0.502004,-0.523494,0.000000,0.480511,0.000000|eff|0.000000,-1853.027344,-1321.289062,112.792969,76.538086,36.254883
cobot_dynamixel_driver/joint_states|name|J1,J2,J3,J4,J5,J6|pos|1.047137,-0.308412,0.338518,0.000038,-0.277577,0.000000|vel|0.000000,0.504299,-0.520365,0.000000,0.495678,0.000000|eff|0.000000,-112.792969,-1192.382812,80.566406,56.396484,36.254883
cobot_dynamixel_driver/joint_states|name|J1,J2,J3,J4,J5,J6|pos|1.047137,-0.297295,0.327302,0.000038,-0.266076,0.000000|vel|0.000000,0.473419,-0.521617,0.000000,0.491886,0.000000|eff|0.000000,0.000000,-999.023438,112.792969,92.651367,36.254883
cobot_dynamixel_driver/joint_states|name|J1,J2,J3,J4,J5,J6|pos|1.047137,-0.289083,0.319077,0.000038,-0.258360,0.000000|vel|0.000000,0.501378,-0.525790,0.000000,0.520841,0.000000|eff|0.000000,-741.210938,-757.324219,96.679688,68.481445,36.254883
cobot_dynamixel_driver/joint_states|name|J1,J2,J3,J4,J5,J6|pos|1.047137,-0.279394,0.309400,0.000038,-0.248762,0.000000|vel|0.000000,0.507637,-0.508681,0.000000,0.513602,0.000000|eff|0.000000,-257.812500,-741.210938,0.000000,64.453125,36.254883
cobot_dynamixel_driver/joint_states|name|J1,J2,J3,J4,J5,J6|pos|1.047137,-0.269730,0.299736,0.000038,-0.239123,0.000000|vel|0.000000,0.502212,-0.490528,0.000000,0.444318,0.000000|eff|0.000000,177.246094,-1095.703125,48.339844,52.368164,36.254883
cobot_dynamixel_driver/joint_states|name|J1,J2,J3,J4,J5,J6|pos|1.047137,-0.260029,0.290060,0.000038,-0.229484,0.000000|vel|0.000000,0.507846,-0.450259,0.000000,0.544625,0.000000|eff|0.000000,-837.890625,-1256.835938,96.679688,60.424805,36.254883
cobot_dynamixel_driver/joint_states|name|J1,J2,J3,J4,J5,J6|pos|1.047137,-0.250339,0.280408,0.000038,-0.219865,0.000000|vel|0.000000,0.502004,-0.472167,0.000000,0.417087,0.000000|eff|0.000000,-1482.421875,-837.890625,96.679688,80.566406,36.254883
cobot_dynamixel_driver/joint_states|name|J1,J2,J3,J4,J5,J6|pos|1.047150,-0.240625,0.270619,0.000038,-0.210267,0.000021|vel|0.000000,0.531214,-0.497831,0.000000,0.445007,0.000000|eff|0.000000,225.585938,-950.683594,112.792969,68.481445,36.254883
cobot_dynamixel_driver/joint_states|name|J1,J2,J3,J4,J5,J6|pos|1.047150,-0.230899,0.260955,0.000038,-0.200669,0.000021|vel|0.000000,0.484686,-0.444417,0.000000,0.511879,0.000000|eff|0.000000,-322.265625,-1466.308594,96.679688,64.453125,36.254883
cobot_dynamixel_driver/joint_states|name|J1,J2,J3,J4,J5,J6|pos|1.047150,-0.221210,0.251391,0.000038,-0.191092,0.000021|vel|0.000000,0.503256,-0.471124,0.000000,0.522220,0.000000|eff|0.000000,-1675.781250,-821.777344,96.679688,68.481445,36.254883
cobot_dynamixel_driver/joint_states|name|J1,J2,J3,J4,J5,J6|pos|1.047162,-0.211533,0.241664,0.000038,-0.181473,0.000021|vel|0.000000,0.496162,-0.491780,0.000000,0.540489,0.000000|eff|0.000000,306.152344,-612.304688,96.679688,100.708008,36.254883
cobot_dynamixel_driver/joint_states|name|J1,J2,J3,J4,J5,J6|pos|1.047162,-0.201831,0.231975,0.000038,-0.171854,0.000021|vel|0.000000,0.516400,-0.471959,0.000000,0.484648,0.000000|eff|0.000000,-32.226562,-1160.156250,112.792969,104.736328,36.254883
cobot_dynamixel_driver/joint_states|name|J1,J2,J3,J4,J5,J6|pos|1.047162,-0.192155,0.222236,0.000038,-0.162194,0.000041|vel|0.000000,0.478844,-0.523703,0.000000,0.443973,0.000000|eff|0.000000,-999.023438,-1627.441406,112.792969,44.311523,36.254883
cobot_dynamixel_driver/joint_states|name|J1,J2,J3,J4,J5,J6|pos|1.047162,-0.182503,0.212484,0.000038,-0.152596,0.000041|vel|0.000000,0.483434,-0.517026,0.000000,0.480167,0.000000|eff|0.000000,-1289.062500,-628.417969,0.000000,76.538086,36.254883
cobot_dynamixel_driver/joint_states|name|J1,J2,J3,J4,J5,J6|pos|1.047162,-0.172789,0.202745,0.000038,-0.143019,0.000041|vel|0.000000,0.528711,-0.518904,0.000000,0.444663,0.000000|eff|0.000000,338.378906,-1079.589844,48.339844,88.623047,36.254883
cobot_dynamixel_driver/joint_states|name|J1,J2,J3,J4,J5,J6|pos|1.047162,-0.163087,0.193006,0.000038,-0.133338,0.000041|vel|0.000000,0.507220,-0.501795,0.000000,0.485682,0.000000|eff|0.000000,-451.171875,-1659.667969,0.000000,72.509766,36.254883
cobot_dynamixel_driver/joint_states|name|J1,J2,J3,J4,J5,J6|pos|1.047162,-0.153423,0.183367,0.000038,-0.123719,0.000041|vel|0.000000,0.465491,-0.456728,0.000000,0.519807,0.000000|eff|0.000000,-1369.628906,-708.984375,96.679688,64.453125,36.254883
cobot_dynamixel_driver/joint_states|name|J1,J2,J3,J4,J5,J6|pos|1.047175,-0.143747,0.173715,0.000038,-0.114142,0.000041|vel|0.000000,0.502838,-0.491363,0.000000,0.507053,0.000000|eff|0.000000,435.058594,-999.023438,80.566406,76.538086,36.254883
cobot_dynamixel_driver/joint_states|name|J1,J2,J3,J4,J5,J6|pos|1.047175,-0.134058,0.164001,0.000038,-0.104627,0.000041|vel|0.000000,0.493032,-0.440244,0.000000,0.522565,0.000000|eff|0.000000,-225.585938,-1482.421875,96.679688,76.538086,36.254883
cobot_dynamixel_driver/goal|-:J1,J2,J3,J4,J5,J6:1.047198,0.000000,0.000000,0.000000,0.000000,0.000000:0.500000,0.500000,0.500000,0.500000,0.500000,0.500000:pos_vel_
cobot_dynamixel_driver/joint_states|name|J1,J2,J3,J4,J5,J6|pos|1.047175,-0.124344,0.154400,0.000038,-0.095070,0.000041|vel|0.000000,0.496996,-0.512228,0.000000,0.484992,0.000000|eff|0.000000,-902.343750,-483.398438,96.679688,76.538086,36.254883
cobot_dynamixel_driver/joint_states|name|J1,J2,J3,J4,J5,J6|pos|1.047175,-0.114667,0.144711,0.000038,-0.085431,0.000041|vel|0.000000,0.471750,-0.472376,0.000000,0.485337,0.000000|eff|0.000000,-580.078125,-741.210938,96.679688,88.623047,36.254883
cobot_dynamixel_driver/joint_states|name|J1,J2,J3,J4,J5,J6|pos|1.047175,-0.104940,0.134997,0.000038,-0.075853,0.000041|vel|0.000000,0.512436,-0.509515,0.000000,0.510845,0.000000|eff|0.000000,418.945312,-1063.476562,0.000000,72.509766,36.254883
cobot_dynamixel_driver/joint_states|name|J1,J2,J3,J4,J5,J6|pos|1.047175,-0.095251,0.125408,0.000038,-0.066255,0.000041|vel|0.000000,0.485312,-0.502838,0.000000,0.412950,0.000000|eff|0.000000,-741.210938,-1498.535156,96.679688,-8.056641,36.254883
cobot_dynamixel_driver/joint_states|name|J1,J2,J3,J4,J5,J6|pos|1.047175,-0.085575,0.115693,0.000038,-0.057609,0.000041|vel|0.000000,0.494493,-0.496162,0.000000,0.459140,0.000000|eff|0.000000,-1611.328125,-1256.835938,0.000000,0.000000,36.254883
cobot_dynamixel_driver/joint_states|name|J1,J2,J3,J4,J5,J6|pos|1.047175,-0.075885,0.105967,0.000038,-0.050286,0.000041|vel|0.000000,0.505968,-0.498040,0.000000,0.340219,0.000000|eff|0.000000,451.171875,-886.230469,80.566406,20.141602,36.254883
cobot_dynamixel_driver/joint_states|name|J1,J2,J3,J4,J5,J6|pos|1.047175,-0.066347,0.096278,0.000038,-0.043998,0.000041|vel|0.000000,0.481556,-0.446712,0.000000,0.292650,0.000000|eff|0.000000,515.625000,-1401.855469,48.339844,28.198242,36.254883
cobot_dynamixel_driver/joint_states|name|J1,J2,J3,J4,J5,J6|pos|1.047175,-0.057496,0.086564,0.000038,-0.038640,0.000041|vel|0.000000,0.435863,-0.515983,0.000000,0.265419,0.000000|eff|0.000000,-435.058594,-1385.742188,0.000000,44.311523,36.254883
cobot_dynamixel_driver/joint_states|name|J1,J2,J3,J4,J5,J6|pos|1.047175,-0.049672,0.076887,0.000038,-0.033862,0.000041|vel|0.000000,0.338216,-0.509724,0.000000,0.201994,0.000000|eff|0.000000,821.777344,-741.210938,64.453125,44.311523,36.254883
cobot_dynamixel_driver/joint_states|name|J1,J2,J3,J4,J5,J6|pos|1.047175,-0.042912,0.067285,0.000038,-0.029684,0.000041|vel|0.000000,0.332374,-0.495744,0.000000,0.209577,0.000000|eff|0.000000,80.566406,-821.777344,48.339844,56.396484,36.254883
cobot_dynamixel_driver/joint_states|name|J1,J2,J3,J4,J5,J6|pos|1.047175,-0.037254,0.058360,0.000038,-0.026022,0.000041|vel|0.000000,0.254340,-0.440453,0.000000,0.183725,0.000000|eff|0.000000,596.191406,-708.984375,96.679688,64.453125,36.254883
cobot_dynamixel_driver/joint_states|name|J1,J2,J3,J4,J5,J6|pos|1.047187,-0.032435,0.050699,0.000038,-0.022816,0.000041|vel|0.000000,0.230555,-0.359915,0.000000,0.159596,0.000000|eff|0.000000,0.000000,-580.078125,80.566406,68.481445,36.254883
cobot_dynamixel_driver/joint_states|name|J1,J2,J3,J4,J5,J6|pos|1.047187,-0.028266,0.044177,0.000038,-0.019982,0.000041|vel|0.000000,0.195502,-0.293149,0.000000,0.135812,0.000000|eff|0.000000,80.566406,-821.777344,0.000000,64.453125,36.254883
cobot_dynamixel_driver/joint_states|name|J1,J2,J3,J4,J5,J6|pos|1.047187,-0.024648,0.038569,0.000038,-0.017458,0.000041|vel|0.000000,0.165665,-0.274370,0.000000,0.127884,0.000000|eff|0.000000,338.378906,-821.777344,48.339844,64.453125,36.254883
cobot_dynamixel_driver/joint_states|name|J1,J2,J3,J4,J5,J6|pos|1.047187,-0.021519,0.033762,0.000038,-0.015245,0.000041|vel|0.000000,0.142088,-0.246829,0.000000,0.116164,0.000000|eff|0.000000,225.585938,-773.437500,0.000000,68.481445,36.254883
cobot_dynamixel_driver/joint_states|name|J1,J2,J3,J4,J5,J6|pos|1.047187,-0.018802,0.029493,0.000038,-0.013321,0.000041|vel|0.000000,0.136872,-0.214906,0.000000,0.096861,0.000000|eff|0.000000,177.246094,-789.550781,0.000000,52.368164,36.254883
cobot_dynamixel_driver/joint_states|name|J1,J2,J3,J4,J5,J6|pos|1.047187,-0.016424,0.025750,0.000038,-0.011646,0.000041|vel|0.000000,0.116425,-0.189034,0.000000,0.084796,0.000000|eff|0.000000,257.812500,-725.097656,48.339844,60.424805,36.254883
cobot_dynamixel_driver/joint_states|name|J1,J2,J3,J4,J5,J6|pos|1.047187,-0.014383,0.022545,0.000038,-0.010177,0.000041|vel|0.000000,0.100568,-0.152729,0.000000,0.068940,0.000000|eff|0.000000,257.812500,-805.664062,96.679688,64.453125,36.254883
cobot_dynamixel_driver/joint_states|name|J1,J2,J3,J4,J5,J6|pos|1.047187,-0.012631,0.019804,0.000038,-0.008936,0.000041|vel|0.000000,0.083041,-0.131447,0.000000,0.058599,0.000000|eff|0.000000,128.906250,-773.437500,0.000000,68.481445,36.254883
cobot_dynamixel_driver/joint_states|name|J1,J2,J3,J4,J5,J6|pos|1.047187,-0.011079,0.017338,0.000038,-0.007860,0.000041|vel|0.000000,0.077617,-0.118094,0.000000,0.061701,0.000000|eff|0.000000,177.246094,-789.550781,0.000000,72.509766,36.254883
cobot_dynamixel_driver/joint_states|name|J1,J2,J3,J4,J5,J6|pos|1.047187,-0.009689,0.015210,0.000038,-0.006909,0.000041|vel|0.000000,0.067393,-0.104115,0.000000,0.046534,0.000000|eff|0.000000,193.359375,-821.777344,96.679688,76.538086,36.254883
cobot_dynamixel_driver/joint_states|name|J1,J2,J3,J4,J5,J6|pos|1.047187,-0.008487,0.013369,0.000038,-0.006061,0.000041|vel|0.000000,0.056335,-0.090761,0.000000,0.039296,0.000000|eff|0.000000,161.132812,-821.777344,48.339844,72.509766,36.254883
cobot_dynamixel_driver/joint_states|name|J1,J2,J3,J4,J5,J6|pos|1.047187,-0.007461,0.011654,0.000038,-0.005337,0.000041|vel|0.000000,0.048823,-0.074487,0.000000,0.040675,0.000000|eff|0.000000,177.246094,-854.003906,0.000000,80.566406,36.254883
cobot_dynamixel_driver/joint_states|name|J1,J2,J3,J4,J5,J6|pos|1.047187,-0.006359,0.010015,0.000038,-0.004551,0.000041|vel|0.000000,0.045276,-0.067184,0.000000,0.031368,0.000000|eff|0.000000,177.246094,-837.890625,0.000000,84.594727,36.254883
cobot_dynamixel_driver/joint_states|name|J1,J2,J3,J4,J5,J6|pos|1.047187,-0.005658,0.008951,0.000038,-0.004116,0.000041|vel|0.000000,0.040269,-0.054665,0.000000,0.022061,0.000000|eff|0.000000,177.246094,-950.683594,0.000000,92.651367,36.254883
cobot_dynamixel_driver/joint_states|name|J1,J2,J3,J4,J5,J6|pos|1.047187,-0.004957,0.007987,0.000038,-0.003620,0.000041|vel|0.000000,0.034635,-0.050701,0.000000,0.029989,0.000000|eff|0.000000,273.925781,-934.570312,48.339844,76.538086,36.254883
cobot_dynamixel_driver/joint_states|name|J1,J2,J3,J4,J5,J6|pos|1.047187,-0.004331,0.006985,0.000038,-0.003165,0.000041|vel|0.000000,0.029211,-0.047154,0.000000,0.022750,0.000000|eff|0.000000,193.359375,-902.343750,0.000000,84.594727,36.254883
cobot_dynamixel_driver/joint_states|name|J1,J2,J3,J4,J5,J6|pos|1.047187,-0.003793,0.006084,0.000038,-0.002772,0.000041|vel|0.000000,0.026707,-0.041729,0.000000,0.018269,0.000000|eff|0.000000,257.812500,-870.117188,64.453125,84.594727,36.254883
cobot_dynamixel_driver/joint_states|name|J1,J2,J3,J4,J5,J6|pos|1.047187,-0.003355,0.005270,0.000038,-0.002420,0.000041|vel|0.000000,0.023368,-0.042147,0.000000,0.014133,0.000000|eff|0.000000,193.359375,-660.644531,0.000000,88.623047,36.254883
cobot_dynamixel_driver/joint_states|name|J1,J2,J3,J4,J5,J6|pos|1.047187,-0.002942,0.004619,0.000038,-0.002110,0.000041|vel|0.000000,0.021699,-0.029628,0.000000,0.014822,0.000000|eff|0.000000,177.246094,-837.890625,0.000000,84.594727,36.254883
cobot_dynamixel_driver/joint_states|name|J1,J2,J3,J4,J5,J6|pos|1.047187,-0.002529,0.003981,0.000038,-0.001820,0.000041|vel|0.000000,0.017526,-0.024620,0.000000,0.011375,0.000000|eff|0.000000,193.359375,-886.230469,80.566406,76.538086,36.254883
cobot_dynamixel_driver/joint_states|name|J1,J2,J3,J4,J5,J6|pos|1.047187,-0.002241,0.003555,0.000038,-0.001676,0.000041|vel|0.000000,0.016066,-0.026289,0.000000,0.008273,0.000000|eff|0.000000,177.246094,-918.457031,0.000000,88.623047,36.254883
cobot_dynamixel_driver/joint_states|name|J1,J2,J3,J4,J5,J6|pos|1.047187,-0.001903,0.002992,0.000038,-0.001427,0.000041|vel|0.000000,0.015440,-0.018570,0.000000,0.009652,0.000000|eff|0.000000,193.359375,-886.230469,80.566406,88.623047,36.254883
cobot_dynamixel_driver/joint_states|name|J1,J2,J3,J4,J5,J6|pos|1.047187,-0.001640,0.002679,0.000038,-0.001262,0.000041|vel|0.000000,0.012936,-0.016900,0.000000,0.010341,0.000000|eff|0.000000,193.359375,-886.230469,48.339844,88.623047,36.254883
cobot_dynamixel_driver/joint_states|name|J1,J2,J3,J4,J5,J6|pos|1.047187,-0.001452,0.002353,0.000038,-0.001096,0.000041|vel|0.000000,0.009180,-0.018987,0.000000,0.007239,0.000000|eff|0.000000,161.132812,-870.117188,0.000000,88.623047,36.254883
cobot_dynamixel_driver/joint_states|name|J1,J2,J3,J4,J5,J6|pos|1.047187,-0.001277,0.002078,0.000038,-0.001014,0.000041|vel|0.000000,0.008346,-0.009180,0.000000,0.004136,0.000000|eff|0.000000,257.812500,-902.343750,0.000000,96.679688,36.254883
cobot_dynamixel_driver/joint_states|name|J1,J2,J3,J4,J5,J6|pos|1.047187,-0.001152,0.001915,0.000038,-0.000869,0.000041|vel|0.000000,0.005633,-0.009598,0.000000,0.007928,0.000000|eff|0.000000,145.019531,-934.570312,48.339844,96.679688,36.254883
cobot_dynamixel_driver/joint_states|name|J1,J2,J3,J4,J5,J6|pos|1.047187,-0.001026,0.001677,0.000038,-0.000745,0.000041|vel|0.000000,0.007929,-0.016274,0.000000,0.006894,0.000000|eff|0.000000,193.359375,-886.230469,0.000000,88.623047,36.254883
cobot_dynamixel_driver/joint_states|name|J1,J2,J3,J4,J5,J6|pos|1.047187,-0.000851,0.001339,0.000038,-0.000662,0.000041|vel|0.000000,0.008972,-0.017735,0.000000,0.003792,0.000000|eff|0.000000,161.132812,-773.437500,48.339844,84.594727,36.254883
cobot_dynamixel_driver/joint_states|name|J1,J2,J3,J4,J5,J6|pos|1.047187,-0.000739,0.001064,0.000038,-0.000641,0.000041|vel|0.000000,0.004799,-0.010641,0.000000,0.003792,0.000000|eff|0.000000,209.472656,-854.003906,48.339844,84.594727,36.254883
cobot_dynamixel_driver/joint_states|name|J1,J2,J3,J4,J5,J6|pos|1.047187,-0.000676,0.000989,0.000038,-0.000621,0.000041|vel|0.000000,0.003547,-0.003756,0.000000,0.003792,0.000000|eff|0.000000,177.246094,-821.777344,80.566406,88.623047,36.254883
cobot_dynamixel_driver/joint_states|name|J1,J2,J3,J4,J5,J6|pos|1.047187,-0.000601,0.000926,0.000025,-0.000559,0.000041|vel|0.000000,0.003130,-0.003964,0.000000,0.003447,0.000000|eff|0.000000,193.359375,-902.343750,0.000000,92.651367,36.254883
cobot_dynamixel_driver/joint_states|name|J1,J2,J3,J4,J5,J6|pos|1.047187,-0.000538,0.000814,0.000025,-0.000393,0.000041|vel|0.000000,0.003338,-0.005842,0.000000,0.008962,0.000000|eff|0.000000,177.246094,-902.343750,0.000000,68.481445,36.254883
cobot_dynamixel_driver/joint_states|name|J1,J2,J3,J4,J5,J6|pos|1.047187,-0.000476,0.000663,0.000025,-0.000352,0.000041|vel|0.000000,0.003130,-0.010015,0.000000,0.005860,0.000000|eff|0.000000,177.246094,-805.664062,32.226562,68.481445,36.254883
cobot_dynamixel_driver/joint_states|name|J1,J2,J3,J4,J5,J6|pos|1.047187,-0.000413,0.000463,0.000025,-0.000352,0.000041|vel|0.000000,0.003130,-0.010850,0.000000,0.005860,0.000000|eff|0.000000,225.585938,-741.210938,32.226562,64.453125,36.254883
cobot_dynamixel_driver/joint_states|name|J1,J2,J3,J4,J5,J6|pos|1.047187,-0.000351,0.000313,0.000025,-0.000352,0.000041|vel|0.000000,0.003338,-0.006051,0.000000,0.005860,0.000000|eff|0.000000,209.472656,-741.210938,32.226562,60.424805,36.254883
cobot_dynamixel_driver/joint_states|name|J1,J2,J3,J4,J5,J6|pos|1.047187,-0.000275,0.000250,0.000025,-0.000352,0.000041|vel|0.000000,0.003338,-0.003338,0.000000,0.005860,0.000000|eff|0.000000,209.472656,-821.777344,64.453125,52.368164,36.254883
cobot_dynamixel_driver/joint_states|name|J1,J2,J3,J4,J5,J6|pos|1.047187,-0.000213,0.000250,0.000025,-0.000352,0.000041|vel|0.000000,0.004173,-0.001461,0.000000,0.005860,0.000000|eff|0.000000,209.472656,-757.324219,0.000000,52.368164,36.254883
cobot_dynamixel_driver/joint_states|name|J1,J2,J3,J4,J5,J6|pos|1.047187,-0.000113,0.000238,0.000025,-0.000352,0.000041|vel|0.000000,0.004173,-0.001461,0.000000,0.005860,0.000000|eff|0.000000,290.039062,-805.664062,0.000000,36.254883,36.254883
cobot_dynamixel_driver/joint_states|name|J1,J2,J3,J4,J5,J6|pos|1.047187,-0.000075,0.000225,0.000025,-0.000352,0.000041|vel|0.000000,0.002295,-0.001461,0.000000,0.000000,0.000000|eff|0.000000,241.699219,-757.324219,48.339844,32.226562,36.254883
cobot_dynamixel_driver/joint_states|name|J1,J2,J3,J4,J5,J6|pos|1.047187,-0.000050,0.000213,0.000025,-0.000352,0.000041|vel|0.000000,0.001252,-0.000417,0.000000,0.000000,0.000000|eff|0.000000,241.699219,-773.437500,80.566406,52.368164,36.254883
cobot_dynamixel_driver/joint_states|name|J1,J2,J3,J4,J5,J6|pos|1.047187,-0.000025,0.000213,0.000025,-0.000352,0.000041|vel|0.000000,0.001461,-0.000417,0.000000,0.000000,0.000000|eff|0.000000,209.472656,-805.664062,0.000000,60.424805,36.254883
cobot_dynamixel_driver/joint_states|name|J1,J2,J3,J4,J5,J6|pos|1.047187,-0.000013,0.000200,0.000025,-0.000352,0.000041|vel|0.000000,0.001461,-0.000417,0.000000,0.000000,0.000000|eff|0.000000,306.152344,-773.437500,0.000000,56.396484,36.254883
cobot_dynamixel_driver/joint_states|name|J1,J2,J3,J4,J5,J6|pos|1.047187,-0.000013,0.000188,0.000025,-0.000352,0.000041|vel|0.000000,0.000417,-0.000417,0.000000,0.000000,0.000000|eff|0.000000,225.585938,-757.324219,0.000000,64.453125,36.254883
cobot_dynamixel_driver/joint_states|name|J1,J2,J3,J4,J5,J6|pos|1.047187,-0.000000,0.000188,0.000025,-0.000352,0.000041|vel|0.000000,0.000417,-0.000417,0.000000,0.000000,0.000000|eff|0.000000,273.925781,-805.664062,0.000000,68.481445,36.254883
cobot_dynamixel_driver/joint_states|name|J1,J2,J3,J4,J5,J6|pos|1.047187,0.000013,0.000175,0.000025,-0.000352,0.000041|vel|0.000000,0.000626,-0.000417,0.000000,0.000000,0.000000|eff|0.000000,370.605469,-837.890625,80.566406,68.481445,36.254883
cobot_dynamixel_driver/joint_states|name|J1,J2,J3,J4,J5,J6|pos|1.047187,0.000025,0.000163,0.000025,-0.000352,0.000041|vel|0.000000,0.000626,-0.000417,0.000000,0.000000,0.000000|eff|0.000000,193.359375,-854.003906,0.000000,72.509766,36.254883
cobot_dynamixel_driver/joint_states|name|J1,J2,J3,J4,J5,J6|pos|1.047187,0.000025,0.000150,0.000025,-0.000290,0.000041|vel|0.000000,0.000626,-0.000417,0.000000,0.003102,0.000000|eff|0.000000,273.925781,-837.890625,0.000000,84.594727,36.254883
cobot_dynamixel_driver/joint_states|name|J1,J2,J3,J4,J5,J6|pos|1.047187,0.000025,0.000150,0.000025,-0.000207,0.000041|vel|0.000000,0.000626,-0.000417,0.000000,0.004136,0.000000|eff|0.000000,338.378906,-821.777344,0.000000,72.509766,36.254883
cobot_dynamixel_driver/joint_states|name|J1,J2,J3,J4,J5,J6|pos|1.047187,0.000025,0.000138,0.000025,-0.000207,0.000041|vel|0.000000,0.000626,-0.000417,0.000000,0.004136,0.000000|eff|0.000000,193.359375,-837.890625,0.000000,76.538086,36.254883
cobot_dynamixel_driver/joint_states|name|J1,J2,J3,J4,J5,J6|pos|1.047187,0.000038,0.000125,0.000025,-0.000207,0.000041|vel|0.000000,0.000626,-0.000417,0.000000,0.004136,0.000000|eff|0.000000,386.718750,-854.003906,32.226562,56.396484,36.254883
cobot_dynamixel_driver/joint_states|name|J1,J2,J3,J4,J5,J6|pos|1.047187,0.000038,0.000113,0.000025,-0.000207,0.000041|vel|0.000000,-0.000000,-0.000417,0.000000,0.004136,0.000000|eff|0.000000,257.812500,-821.777344,32.226562,60.424805,36.254883
cobot_dynamixel_driver/joint_states|name|J1,J2,J3,J4,J5,J6|pos|1.047187,0.000038,0.000113,0.000025,-0.000207,0.000041|vel|0.000000,-0.000000,-0.000417,0.000000,0.004136,0.000000|eff|0.000000,273.925781,-805.664062,0.000000,56.396484,36.254883
cobot_dynamixel_driver/joint_states|name|J1,J2,J3,J4,J5,J6|pos|1.047187,0.000038,0.000113,0.000025,-0.000207,0.000041|vel|0.000000,-0.000000,-0.000417,0.000000,0.004136,0.000000|eff|0.000000,225.585938,-854.003906,48.339844,40.283203,36.254883
cobot_dynamixel_driver/joint_states|name|J1,J2,J3,J4,J5,J6|pos|1.047187,0.000050,0.000113,0.000025,-0.000207,0.000041|vel|0.000000,-0.000000,-0.000417,0.000000,0.000000,0.000000|eff|0.000000,338.378906,-854.003906,0.000000,44.311523,36.254883
cobot_dynamixel_driver/joint_states|name|J1,J2,J3,J4,J5,J6|pos|1.047187,0.000050,0.000100,0.000025,-0.000207,0.000041|vel|0.000000,-0.000000,-0.000209,0.000000,0.000000,0.000000|eff|0.000000,370.605469,-854.003906,0.000000,48.339844,36.254883
cobot_dynamixel_driver/joint_states|name|J1,J2,J3,J4,J5,J6|pos|1.047187,0.000050,0.000088,0.000025,-0.000207,0.000041|vel|0.000000,-0.000000,-0.000209,0.000000,0.000000,0.000000|eff|0.000000,322.265625,-854.003906,0.000000,32.226562,36.254883
cobot_dynamixel_driver/joint_states|name|J1,J2,J3,J4,J5,J6|pos|1.047187,0.000050,0.000088,0.000025,-0.000207,0.000041|vel|0.000000,-0.000000,-0.000209,0.000000,0.000000,0.000000|eff|0.000000,193.359375,-854.003906,0.000000,56.396484,36.254883
cobot_dynamixel_driver/joint_states|name|J1,J2,J3,J4,J5,J6|pos|1.047187,0.000050,0.000088,0.000025,-0.000207,0.000041|vel|0.000000,-0.000000,-0.000209,0.000000,0.000000,0.000000|eff|0.000000,193.359375,-854.003906,0.000000,56.396484,36.254883
cobot_dynamixel_driver/joint_states|name|J1,J2,J3,J4,J5,J6|pos|1.047187,0.000050,0.000088,0.000025,-0.000207,0.000041|vel|0.000000,-0.000000,-0.000209,0.000000,0.000000,0.000000|eff|0.000000,322.265625,-821.777344,0.000000,56.396484,36.254883
cobot_dynamixel_driver/joint_states|name|J1,J2,J3,J4,J5,J6|pos|1.047187,0.000050,0.000088,0.000025,-0.000207,0.000041|vel|0.000000,-0.000000,-0.000209,0.000000,0.000000,0.000000|eff|0.000000,386.718750,-854.003906,32.226562,56.396484,36.254883
cobot_dynamixel_driver/joint_states|name|J1,J2,J3,J4,J5,J6|pos|1.047187,0.000050,0.000088,0.000025,-0.000207,0.000041|vel|0.000000,-0.000000,0.000000,0.000000,0.000000,0.000000|eff|0.000000,209.472656,-854.003906,0.000000,64.453125,36.254883
cobot_dynamixel_driver/joint_states|name|J1,J2,J3,J4,J5,J6|pos|1.047187,0.000050,0.000075,0.000025,-0.000207,0.000041|vel|0.000000,-0.000000,0.000000,0.000000,0.000000,0.000000|eff|0.000000,209.472656,-854.003906,32.226562,68.481445,36.254883
cobot_dynamixel_driver/joint_states|name|J1,J2,J3,J4,J5,J6|pos|1.047187,0.000050,0.000075,0.000025,-0.000207,0.000041|vel|0.000000,-0.000000,0.000000,0.000000,0.000000,0.000000|eff|0.000000,290.039062,-870.117188,32.226562,68.481445,36.254883
cobot_dynamixel_driver/joint_states|name|J1,J2,J3,J4,J5,J6|pos|1.047187,0.000050,0.000075,0.000025,-0.000207,0.000041|vel|0.000000,-0.000000,0.000000,0.000000,0.000000,0.000000|eff|0.000000,257.812500,-870.117188,0.000000,80.566406,36.254883
cobot_dynamixel_driver/joint_states|name|J1,J2,J3,J4,J5,J6|pos|1.047187,0.000050,0.000063,0.000025,-0.000207,0.000041|vel|0.000000,-0.000000,0.000000,0.000000,0.000000,0.000000|eff|0.000000,386.718750,-854.003906,48.339844,76.538086,36.254883
cobot_dynamixel_driver/joint_states|name|J1,J2,J3,J4,J5,J6|pos|1.047187,0.000050,0.000063,0.000025,-0.000186,0.000041|vel|0.000000,-0.000000,0.000000,0.000000,0.000000,0.000000|eff|0.000000,273.925781,-870.117188,0.000000,76.538086,36.254883
cobot_dynamixel_driver/joint_states|name|J1,J2,J3,J4,J5,J6|pos|1.047187,0.000050,0.000063,0.000025,-0.000145,0.000041|vel|0.000000,-0.000000,0.000000,0.000000,0.001034,0.000000|eff|0.000000,209.472656,-902.343750,0.000000,84.594727,36.254883
cobot_dynamixel_driver/joint_states|name|J1,J2,J3,J4,J5,J6|pos|1.047187,0.000050,0.000063,0.000025,-0.000103,0.000041|vel|0.000000,-0.000000,0.000000,0.000000,0.002068,0.000000|eff|0.000000,241.699219,-870.117188,0.000000,76.538086,36.254883
cobot_dynamixel_driver/joint_states|name|J1,J2,J3,J4,J5,J6|pos|1.047187,0.000050,0.000063,0.000025,-0.000083,0.000041|vel|0.000000,-0.000000,0.000000,0.000000,0.002413,0.000000|eff|0.000000,193.359375,-902.343750,0.000000,72.509766,36.254883
