surachairobotic/cobot/cobot_dynamixel_driver/log/2018-12-14T09:43:17.858604_driver_log.txt
cobot_dynamixel_driver/joint_states|name|J1,J2,J3,J4,J5,J6|pos|0.013307,-1.267658,1.296275,0.002216,-1.473234,-0.000083|vel|0.000000,-0.000000,0.000000,0.000000,0.000000,0.000000|eff|0.000000,0.000000,0.000000,0.000000,0.000000,0.000000
cobot_dynamixel_driver/joint_states|name|J1,J2,J3,J4,J5,J6|pos|0.013307,-1.267658,1.296275,0.002216,-1.473234,-0.000083|vel|0.000000,-0.000000,0.000000,0.000000,0.000000,0.000000|eff|0.000000,0.000000,0.000000,0.000000,0.000000,0.000000
cobot_dynamixel_driver/joint_states|name|J1,J2,J3,J4,J5,J6|pos|0.013307,-1.267658,1.296275,0.002216,-1.473234,-0.000083|vel|0.000000,-0.000000,0.000000,0.000000,0.000000,0.000000|eff|0.000000,0.000000,0.000000,0.000000,0.000000,0.000000
cobot_dynamixel_driver/joint_states|name|J1,J2,J3,J4,J5,J6|pos|0.013307,-1.267658,1.296275,0.002216,-1.473234,-0.000083|vel|0.000000,-0.000000,0.000000,0.000000,0.000000,0.000000|eff|0.000000,0.000000,0.000000,0.000000,0.000000,0.000000
cobot_dynamixel_driver/joint_states|name|J1,J2,J3,J4,J5,J6|pos|0.013307,-1.267658,1.296275,0.002216,-1.473234,-0.000083|vel|0.000000,-0.000000,0.000000,0.000000,0.000000,0.000000|eff|0.000000,0.000000,0.000000,0.000000,0.000000,0.000000
cobot_dynamixel_driver/joint_states|name|J1,J2,J3,J4,J5,J6|pos|0.013307,-1.267658,1.296275,0.002216,-1.473234,-0.000083|vel|0.000000,-0.000000,0.000000,0.000000,0.000000,0.000000|eff|0.000000,0.000000,0.000000,0.000000,0.000000,0.000000
cobot_dynamixel_driver/joint_states|name|J1,J2,J3,J4,J5,J6|pos|0.013307,-1.267658,1.296275,0.002216,-1.473234,-0.000083|vel|0.000000,-0.000000,0.000000,0.000000,0.000000,0.000000|eff|0.000000,0.000000,0.000000,0.000000,0.000000,0.000000
cobot_dynamixel_driver/joint_states|name|J1,J2,J3,J4,J5,J6|pos|0.013307,-1.267658,1.296275,0.002216,-1.473234,-0.000083|vel|0.000000,-0.000000,0.000000,0.000000,0.000000,0.000000|eff|0.000000,0.000000,0.000000,0.000000,0.000000,0.000000
cobot_dynamixel_driver/joint_states|name|J1,J2,J3,J4,J5,J6|pos|0.013307,-1.267658,1.296275,0.002216,-1.473234,-0.000083|vel|0.000000,-0.000000,0.000000,0.000000,0.000000,0.000000|eff|0.000000,0.000000,0.000000,0.000000,0.000000,0.000000
cobot_dynamixel_driver/joint_states|name|J1,J2,J3,J4,J5,J6|pos|0.013307,-1.267658,1.296275,0.002216,-1.473234,-0.000083|vel|0.000000,-0.000000,0.000000,0.000000,0.000000,0.000000|eff|0.000000,0.000000,0.000000,0.000000,0.000000,0.000000
cobot_dynamixel_driver/joint_states|name|J1,J2,J3,J4,J5,J6|pos|0.013307,-1.267658,1.296275,0.002216,-1.473234,-0.000083|vel|0.000000,-0.000000,0.000000,0.000000,0.000000,0.000000|eff|0.000000,0.000000,0.000000,0.000000,0.000000,0.000000
cobot_dynamixel_driver/joint_states|name|J1,J2,J3,J4,J5,J6|pos|0.013307,-1.267658,1.296275,0.002216,-1.473234,-0.000083|vel|0.000000,-0.000000,0.000000,0.000000,0.000000,0.000000|eff|0.000000,0.000000,0.000000,0.000000,0.000000,0.000000
cobot_dynamixel_driver/joint_states|name|J1,J2,J3,J4,J5,J6|pos|0.013307,-1.267658,1.296275,0.002216,-1.473234,-0.000083|vel|0.000000,-0.000000,0.000000,0.000000,0.000000,0.000000|eff|0.000000,0.000000,0.000000,0.000000,0.000000,0.000000
cobot_dynamixel_driver/joint_states|name|J1,J2,J3,J4,J5,J6|pos|0.013307,-1.267658,1.296275,0.002216,-1.473234,-0.000083|vel|0.000000,-0.000000,0.000000,0.000000,0.000000,0.000000|eff|0.000000,0.000000,0.000000,0.000000,0.000000,0.000000
cobot_dynamixel_driver/joint_states|name|J1,J2,J3,J4,J5,J6|pos|0.013307,-1.267658,1.296275,0.002216,-1.473234,-0.000083|vel|0.000000,-0.000000,0.000000,0.000000,0.000000,0.000000|eff|0.000000,0.000000,0.000000,0.000000,0.000000,0.000000
cobot_dynamixel_driver/joint_states|name|J1,J2,J3,J4,J5,J6|pos|0.013307,-1.267658,1.296275,0.002216,-1.473234,-0.000083|vel|0.000000,-0.000000,0.000000,0.000000,0.000000,0.000000|eff|0.000000,0.000000,0.000000,0.000000,0.000000,0.000000
cobot_dynamixel_driver/joint_states|name|J1,J2,J3,J4,J5,J6|pos|0.013307,-1.267658,1.296275,0.002216,-1.473234,-0.000083|vel|0.000000,-0.000000,0.000000,0.000000,0.000000,0.000000|eff|0.000000,0.000000,0.000000,0.000000,0.000000,0.000000
cobot_dynamixel_driver/joint_states|name|J1,J2,J3,J4,J5,J6|pos|0.013307,-1.267658,1.296275,0.002216,-1.473234,-0.000083|vel|0.000000,-0.000000,0.000000,0.000000,0.000000,0.000000|eff|0.000000,0.000000,0.000000,0.000000,0.000000,0.000000
cobot_dynamixel_driver/joint_states|name|J1,J2,J3,J4,J5,J6|pos|0.013307,-1.267658,1.296275,0.002216,-1.473234,-0.000083|vel|0.000000,-0.000000,0.000000,0.000000,0.000000,0.000000|eff|0.000000,0.000000,0.000000,0.000000,0.000000,0.000000
cobot_dynamixel_driver/joint_states|name|J1,J2,J3,J4,J5,J6|pos|0.013307,-1.267658,1.296275,0.002216,-1.473234,-0.000083|vel|0.000000,-0.000000,0.000000,0.000000,0.000000,0.000000|eff|0.000000,0.000000,0.000000,0.000000,0.000000,0.000000
cobot_dynamixel_driver/joint_states|name|J1,J2,J3,J4,J5,J6|pos|0.013307,-1.267658,1.296275,0.002216,-1.473234,-0.000083|vel|0.000000,-0.000000,0.000000,0.000000,0.000000,0.000000|eff|0.000000,0.000000,0.000000,0.000000,0.000000,0.000000
cobot_dynamixel_driver/joint_states|name|J1,J2,J3,J4,J5,J6|pos|0.013307,-1.267658,1.296275,0.002216,-1.473234,-0.000083|vel|0.000000,-0.000000,0.000000,0.000000,0.000000,0.000000|eff|0.000000,0.000000,0.000000,0.000000,0.000000,0.000000
cobot_dynamixel_driver/joint_states|name|J1,J2,J3,J4,J5,J6|pos|0.013307,-1.267658,1.296275,0.002216,-1.473234,-0.000083|vel|0.000000,-0.000000,0.000000,0.000000,0.000000,0.000000|eff|0.000000,0.000000,0.000000,0.000000,0.000000,0.000000
cobot_dynamixel_driver/joint_states|name|J1,J2,J3,J4,J5,J6|pos|0.013307,-1.267658,1.296275,0.002216,-1.473234,-0.000083|vel|0.000000,-0.000000,0.000000,0.000000,0.000000,0.000000|eff|0.000000,0.000000,0.000000,0.000000,0.000000,0.000000
cobot_dynamixel_driver/joint_states|name|J1,J2,J3,J4,J5,J6|pos|0.013307,-1.267658,1.296275,0.002216,-1.473234,-0.000083|vel|0.000000,-0.000000,0.000000,0.000000,0.000000,0.000000|eff|0.000000,0.000000,0.000000,0.000000,0.000000,0.000000
cobot_dynamixel_driver/joint_states|name|J1,J2,J3,J4,J5,J6|pos|0.013307,-1.267658,1.296275,0.002216,-1.473234,-0.000083|vel|0.000000,-0.000000,0.000000,0.000000,0.000000,0.000000|eff|0.000000,0.000000,0.000000,0.000000,0.000000,0.000000
cobot_dynamixel_driver/joint_states|name|J1,J2,J3,J4,J5,J6|pos|0.013307,-1.267658,1.296275,0.002216,-1.473234,-0.000083|vel|0.000000,-0.000000,0.000000,0.000000,0.000000,0.000000|eff|0.000000,0.000000,0.000000,0.000000,0.000000,0.000000
cobot_dynamixel_driver/joint_states|name|J1,J2,J3,J4,J5,J6|pos|0.013307,-1.267658,1.296275,0.002216,-1.473234,-0.000083|vel|0.000000,-0.000000,0.000000,0.000000,0.000000,0.000000|eff|0.000000,0.000000,0.000000,0.000000,0.000000,0.000000
cobot_dynamixel_driver/joint_states|name|J1,J2,J3,J4,J5,J6|pos|0.013307,-1.267658,1.296275,0.002216,-1.473234,-0.000083|vel|0.000000,-0.000000,0.000000,0.000000,0.000000,0.000000|eff|0.000000,0.000000,0.000000,0.000000,0.000000,0.000000
cobot_dynamixel_driver/joint_states|name|J1,J2,J3,J4,J5,J6|pos|0.013307,-1.267658,1.296275,0.002216,-1.473234,-0.000083|vel|0.000000,-0.000000,0.000000,0.000000,0.000000,0.000000|eff|0.000000,0.000000,0.000000,0.000000,0.000000,0.000000
cobot_dynamixel_driver/joint_states|name|J1,J2,J3,J4,J5,J6|pos|0.013307,-1.267658,1.296275,0.002216,-1.473234,-0.000083|vel|0.000000,-0.000000,0.000000,0.000000,0.000000,0.000000|eff|0.000000,0.000000,0.000000,0.000000,0.000000,0.000000
cobot_dynamixel_driver/joint_states|name|J1,J2,J3,J4,J5,J6|pos|0.013307,-1.267658,1.296275,0.002216,-1.473234,-0.000083|vel|0.000000,-0.000000,0.000000,0.000000,0.000000,0.000000|eff|0.000000,0.000000,0.000000,0.000000,0.000000,0.000000
cobot_dynamixel_driver/joint_states|name|J1,J2,J3,J4,J5,J6|pos|0.013307,-1.267658,1.296275,0.002216,-1.473234,-0.000083|vel|0.000000,-0.000000,0.000000,0.000000,0.000000,0.000000|eff|0.000000,0.000000,0.000000,0.000000,0.000000,0.000000
cobot_dynamixel_driver/joint_states|name|J1,J2,J3,J4,J5,J6|pos|0.013307,-1.267658,1.296275,0.002216,-1.473234,-0.000083|vel|0.000000,-0.000000,0.000000,0.000000,0.000000,0.000000|eff|0.000000,0.000000,0.000000,0.000000,0.000000,0.000000
cobot_dynamixel_driver/joint_states|name|J1,J2,J3,J4,J5,J6|pos|0.013307,-1.267658,1.296275,0.002216,-1.473234,-0.000083|vel|0.000000,-0.000000,0.000000,0.000000,0.000000,0.000000|eff|0.000000,0.000000,0.000000,0.000000,0.000000,0.000000
cobot_dynamixel_driver/joint_states|name|J1,J2,J3,J4,J5,J6|pos|0.013307,-1.267658,1.296275,0.002216,-1.473234,-0.000083|vel|0.000000,-0.000000,0.000000,0.000000,0.000000,0.000000|eff|0.000000,0.000000,0.000000,0.000000,0.000000,0.000000
cobot_dynamixel_driver/joint_states|name|J1,J2,J3,J4,J5,J6|pos|0.013307,-1.267658,1.296275,0.002216,-1.473234,-0.000083|vel|0.000000,-0.000000,0.000000,0.000000,0.000000,0.000000|eff|0.000000,0.000000,0.000000,0.000000,0.000000,0.000000
cobot_dynamixel_driver/joint_states|name|J1,J2,J3,J4,J5,J6|pos|0.013307,-1.267658,1.296275,0.002216,-1.473234,-0.000083|vel|0.000000,-0.000000,0.000000,0.000000,0.000000,0.000000|eff|0.000000,0.000000,0.000000,0.000000,0.000000,0.000000
cobot_dynamixel_driver/joint_states|name|J1,J2,J3,J4,J5,J6|pos|0.013307,-1.267658,1.296275,0.002216,-1.473234,-0.000083|vel|0.000000,-0.000000,0.000000,0.000000,0.000000,0.000000|eff|0.000000,0.000000,0.000000,0.000000,0.000000,0.000000
cobot_dynamixel_driver/joint_states|name|J1,J2,J3,J4,J5,J6|pos|0.013307,-1.267658,1.296275,0.002216,-1.473234,-0.000083|vel|0.000000,-0.000000,0.000000,0.000000,0.000000,0.000000|eff|0.000000,0.000000,0.000000,0.000000,0.000000,0.000000
cobot_dynamixel_driver/joint_states|name|J1,J2,J3,J4,J5,J6|pos|0.013307,-1.267658,1.296275,0.002216,-1.473234,-0.000083|vel|0.000000,-0.000000,0.000000,0.000000,0.000000,0.000000|eff|0.000000,0.000000,0.000000,0.000000,0.000000,0.000000
cobot_dynamixel_driver/joint_states|name|J1,J2,J3,J4,J5,J6|pos|0.013307,-1.267658,1.296275,0.002216,-1.473234,-0.000083|vel|0.000000,-0.000000,0.000000,0.000000,0.000000,0.000000|eff|0.000000,0.000000,0.000000,0.000000,0.000000,0.000000
cobot_dynamixel_driver/joint_states|name|J1,J2,J3,J4,J5,J6|pos|0.013307,-1.267658,1.296275,0.002216,-1.473234,-0.000083|vel|0.000000,-0.000000,0.000000,0.000000,0.000000,0.000000|eff|0.000000,0.000000,0.000000,0.000000,0.000000,0.000000
cobot_dynamixel_driver/joint_states|name|J1,J2,J3,J4,J5,J6|pos|0.013307,-1.267658,1.296275,0.002216,-1.473234,-0.000083|vel|0.000000,-0.000000,0.000000,0.000000,0.000000,0.000000|eff|0.000000,0.000000,0.000000,0.000000,0.000000,0.000000
cobot_dynamixel_driver/joint_states|name|J1,J2,J3,J4,J5,J6|pos|0.013307,-1.267658,1.296275,0.002216,-1.473234,-0.000083|vel|0.000000,-0.000000,0.000000,0.000000,0.000000,0.000000|eff|0.000000,0.000000,0.000000,0.000000,0.000000,0.000000
cobot_dynamixel_driver/joint_states|name|J1,J2,J3,J4,J5,J6|pos|0.013307,-1.267658,1.296275,0.002216,-1.473234,-0.000083|vel|0.000000,-0.000000,0.000000,0.000000,0.000000,0.000000|eff|0.000000,0.000000,0.000000,0.000000,0.000000,0.000000
cobot_dynamixel_driver/joint_states|name|J1,J2,J3,J4,J5,J6|pos|0.013307,-1.267658,1.296275,0.002216,-1.473234,-0.000083|vel|0.000000,-0.000000,0.000000,0.000000,0.000000,0.000000|eff|0.000000,0.000000,0.000000,0.000000,0.000000,0.000000
cobot_dynamixel_driver/joint_states|name|J1,J2,J3,J4,J5,J6|pos|0.013307,-1.267658,1.296275,0.002216,-1.473234,-0.000083|vel|0.000000,-0.000000,0.000000,0.000000,0.000000,0.000000|eff|0.000000,0.000000,0.000000,0.000000,0.000000,0.000000
cobot_dynamixel_driver/joint_states|name|J1,J2,J3,J4,J5,J6|pos|0.013307,-1.267658,1.296275,0.002216,-1.473234,-0.000083|vel|0.000000,-0.000000,0.000000,0.000000,0.000000,0.000000|eff|0.000000,0.000000,0.000000,0.000000,0.000000,0.000000
cobot_dynamixel_driver/joint_states|name|J1,J2,J3,J4,J5,J6|pos|0.013307,-1.267658,1.296275,0.002216,-1.473234,-0.000083|vel|0.000000,-0.000000,0.000000,0.000000,0.000000,0.000000|eff|0.000000,0.000000,0.000000,0.000000,0.000000,0.000000
cobot_dynamixel_driver/joint_states|name|J1,J2,J3,J4,J5,J6|pos|0.013307,-1.267658,1.296275,0.002216,-1.473234,-0.000083|vel|0.000000,-0.000000,0.000000,0.000000,0.000000,0.000000|eff|0.000000,0.000000,0.000000,0.000000,0.000000,0.000000
cobot_dynamixel_driver/joint_states|name|J1,J2,J3,J4,J5,J6|pos|0.013307,-1.267658,1.296275,0.002216,-1.473234,-0.000083|vel|0.000000,-0.000000,0.000000,0.000000,0.000000,0.000000|eff|0.000000,0.000000,0.000000,0.000000,0.000000,0.000000
cobot_dynamixel_driver/joint_states|name|J1,J2,J3,J4,J5,J6|pos|0.013307,-1.267658,1.296275,0.002216,-1.473234,-0.000083|vel|0.000000,-0.000000,0.000000,0.000000,0.000000,0.000000|eff|0.000000,0.000000,0.000000,0.000000,0.000000,0.000000
cobot_dynamixel_driver/joint_states|name|J1,J2,J3,J4,J5,J6|pos|0.013307,-1.267658,1.296275,0.002216,-1.473234,-0.000083|vel|0.000000,-0.000000,0.000000,0.000000,0.000000,0.000000|eff|0.000000,0.000000,0.000000,0.000000,0.000000,0.000000
cobot_dynamixel_driver/joint_states|name|J1,J2,J3,J4,J5,J6|pos|0.013307,-1.267658,1.296275,0.002216,-1.473234,-0.000083|vel|0.000000,-0.000000,0.000000,0.000000,0.000000,0.000000|eff|0.000000,0.000000,0.000000,0.000000,0.000000,0.000000
cobot_dynamixel_driver/joint_states|name|J1,J2,J3,J4,J5,J6|pos|0.013307,-1.267658,1.296275,0.002216,-1.473234,-0.000083|vel|0.000000,-0.000000,0.000000,0.000000,0.000000,0.000000|eff|0.000000,0.000000,0.000000,0.000000,0.000000,0.000000
cobot_dynamixel_driver/joint_states|name|J1,J2,J3,J4,J5,J6|pos|0.013307,-1.267658,1.296275,0.002216,-1.473234,-0.000083|vel|0.000000,-0.000000,0.000000,0.000000,0.000000,0.000000|eff|0.000000,0.000000,0.000000,0.000000,0.000000,0.000000
cobot_dynamixel_driver/joint_states|name|J1,J2,J3,J4,J5,J6|pos|0.013307,-1.267658,1.296275,0.002216,-1.473234,-0.000083|vel|0.000000,-0.000000,0.000000,0.000000,0.000000,0.000000|eff|0.000000,0.000000,0.000000,0.000000,0.000000,0.000000
cobot_dynamixel_driver/joint_states|name|J1,J2,J3,J4,J5,J6|pos|0.013307,-1.267658,1.296275,0.002216,-1.473234,-0.000083|vel|0.000000,-0.000000,0.000000,0.000000,0.000000,0.000000|eff|0.000000,0.000000,0.000000,0.000000,0.000000,0.000000
cobot_dynamixel_driver/joint_states|name|J1,J2,J3,J4,J5,J6|pos|0.013307,-1.267658,1.296275,0.002216,-1.473234,-0.000083|vel|0.000000,-0.000000,0.000000,0.000000,0.000000,0.000000|eff|0.000000,0.000000,0.000000,0.000000,0.000000,0.000000
cobot_dynamixel_driver/joint_states|name|J1,J2,J3,J4,J5,J6|pos|0.013307,-1.267658,1.296275,0.002216,-1.473234,-0.000083|vel|0.000000,-0.000000,0.000000,0.000000,0.000000,0.000000|eff|0.000000,0.000000,0.000000,0.000000,0.000000,0.000000
cobot_dynamixel_driver/joint_states|name|J1,J2,J3,J4,J5,J6|pos|0.013307,-1.267658,1.296275,0.002216,-1.473234,-0.000083|vel|0.000000,-0.000000,0.000000,0.000000,0.000000,0.000000|eff|0.000000,0.000000,0.000000,0.000000,0.000000,0.000000
cobot_dynamixel_driver/joint_states|name|J1,J2,J3,J4,J5,J6|pos|0.013307,-1.267658,1.296275,0.002216,-1.473234,-0.000083|vel|0.000000,-0.000000,0.000000,0.000000,0.000000,0.000000|eff|0.000000,0.000000,0.000000,0.000000,0.000000,0.000000
cobot_dynamixel_driver/joint_states|name|J1,J2,J3,J4,J5,J6|pos|0.013307,-1.267658,1.296275,0.002216,-1.473234,-0.000083|vel|0.000000,-0.000000,0.000000,0.000000,0.000000,0.000000|eff|0.000000,0.000000,0.000000,0.000000,0.000000,0.000000
cobot_dynamixel_driver/joint_states|name|J1,J2,J3,J4,J5,J6|pos|0.013307,-1.267658,1.296275,0.002216,-1.473234,-0.000083|vel|0.000000,-0.000000,0.000000,0.000000,0.000000,0.000000|eff|0.000000,0.000000,0.000000,0.000000,0.000000,0.000000
cobot_dynamixel_driver/joint_states|name|J1,J2,J3,J4,J5,J6|pos|0.013307,-1.267658,1.296275,0.002216,-1.473234,-0.000083|vel|0.000000,-0.000000,0.000000,0.000000,0.000000,0.000000|eff|0.000000,0.000000,0.000000,0.000000,0.000000,0.000000
cobot_dynamixel_driver/joint_states|name|J1,J2,J3,J4,J5,J6|pos|0.013307,-1.267658,1.296275,0.002216,-1.473234,-0.000083|vel|0.000000,-0.000000,0.000000,0.000000,0.000000,0.000000|eff|0.000000,0.000000,0.000000,0.000000,0.000000,0.000000
cobot_dynamixel_driver/joint_states|name|J1,J2,J3,J4,J5,J6|pos|0.013307,-1.267658,1.296275,0.002216,-1.473234,-0.000083|vel|0.000000,-0.000000,0.000000,0.000000,0.000000,0.000000|eff|0.000000,0.000000,0.000000,0.000000,0.000000,0.000000
cobot_dynamixel_driver/joint_states|name|J1,J2,J3,J4,J5,J6|pos|0.013307,-1.267658,1.296275,0.002216,-1.473234,-0.000083|vel|0.000000,-0.000000,0.000000,0.000000,0.000000,0.000000|eff|0.000000,0.000000,0.000000,0.000000,0.000000,0.000000
cobot_dynamixel_driver/joint_states|name|J1,J2,J3,J4,J5,J6|pos|0.013307,-1.267658,1.296275,0.002216,-1.473234,-0.000083|vel|0.000000,-0.000000,0.000000,0.000000,0.000000,0.000000|eff|0.000000,0.000000,0.000000,0.000000,0.000000,0.000000
cobot_dynamixel_driver/joint_states|name|J1,J2,J3,J4,J5,J6|pos|0.013307,-1.267658,1.296275,0.002216,-1.473234,-0.000083|vel|0.000000,-0.000000,0.000000,0.000000,0.000000,0.000000|eff|0.000000,0.000000,0.000000,0.000000,0.000000,0.000000
cobot_dynamixel_driver/joint_states|name|J1,J2,J3,J4,J5,J6|pos|0.013307,-1.267658,1.296275,0.002216,-1.473234,-0.000083|vel|0.000000,-0.000000,0.000000,0.000000,0.000000,0.000000|eff|0.000000,0.000000,0.000000,0.000000,0.000000,0.000000
cobot_dynamixel_driver/joint_states|name|J1,J2,J3,J4,J5,J6|pos|0.013307,-1.267658,1.296275,0.002216,-1.473234,-0.000083|vel|0.000000,-0.000000,0.000000,0.000000,0.000000,0.000000|eff|0.000000,0.000000,0.000000,0.000000,0.000000,0.000000
cobot_dynamixel_driver/joint_states|name|J1,J2,J3,J4,J5,J6|pos|0.013307,-1.267658,1.296275,0.002216,-1.473234,-0.000083|vel|0.000000,-0.000000,0.000000,0.000000,0.000000,0.000000|eff|0.000000,0.000000,0.000000,0.000000,0.000000,0.000000
cobot_dynamixel_driver/joint_states|name|J1,J2,J3,J4,J5,J6|pos|0.013307,-1.267658,1.296275,0.002216,-1.473234,-0.000083|vel|0.000000,-0.000000,0.000000,0.000000,0.000000,0.000000|eff|0.000000,0.000000,0.000000,0.000000,0.000000,0.000000
cobot_dynamixel_driver/joint_states|name|J1,J2,J3,J4,J5,J6|pos|0.013307,-1.267658,1.296275,0.002216,-1.473234,-0.000083|vel|0.000000,-0.000000,0.000000,0.000000,0.000000,0.000000|eff|0.000000,0.000000,0.000000,0.000000,0.000000,0.000000
cobot_dynamixel_driver/joint_states|name|J1,J2,J3,J4,J5,J6|pos|0.013307,-1.267658,1.296275,0.002216,-1.473234,-0.000083|vel|0.000000,-0.000000,0.000000,0.000000,0.000000,0.000000|eff|0.000000,0.000000,0.000000,0.000000,0.000000,0.000000
cobot_dynamixel_driver/joint_states|name|J1,J2,J3,J4,J5,J6|pos|0.013307,-1.267658,1.296275,0.002216,-1.473234,-0.000083|vel|0.000000,-0.000000,0.000000,0.000000,0.000000,0.000000|eff|0.000000,0.000000,0.000000,0.000000,0.000000,0.000000
cobot_dynamixel_driver/joint_states|name|J1,J2,J3,J4,J5,J6|pos|0.013307,-1.267658,1.296275,0.002216,-1.473234,-0.000083|vel|0.000000,-0.000000,0.000000,0.000000,0.000000,0.000000|eff|0.000000,0.000000,0.000000,0.000000,0.000000,0.000000
cobot_dynamixel_driver/joint_states|name|J1,J2,J3,J4,J5,J6|pos|0.013307,-1.267658,1.296275,0.002216,-1.473234,-0.000083|vel|0.000000,-0.000000,0.000000,0.000000,0.000000,0.000000|eff|0.000000,0.000000,0.000000,0.000000,0.000000,0.000000
cobot_dynamixel_driver/joint_states|name|J1,J2,J3,J4,J5,J6|pos|0.013307,-1.267658,1.296275,0.002216,-1.473234,-0.000083|vel|0.000000,-0.000000,0.000000,0.000000,0.000000,0.000000|eff|0.000000,0.000000,0.000000,0.000000,0.000000,0.000000
cobot_dynamixel_driver/joint_states|name|J1,J2,J3,J4,J5,J6|pos|0.013307,-1.267658,1.296275,0.002216,-1.473234,-0.000083|vel|0.000000,-0.000000,0.000000,0.000000,0.000000,0.000000|eff|0.000000,0.000000,0.000000,0.000000,0.000000,0.000000
cobot_dynamixel_driver/joint_states|name|J1,J2,J3,J4,J5,J6|pos|0.013307,-1.267658,1.296275,0.002216,-1.473234,-0.000083|vel|0.000000,-0.000000,0.000000,0.000000,0.000000,0.000000|eff|0.000000,0.000000,0.000000,0.000000,0.000000,0.000000
cobot_dynamixel_driver/joint_states|name|J1,J2,J3,J4,J5,J6|pos|0.013307,-1.267658,1.296275,0.002216,-1.473234,-0.000083|vel|0.000000,-0.000000,0.000000,0.000000,0.000000,0.000000|eff|0.000000,0.000000,0.000000,0.000000,0.000000,0.000000
cobot_dynamixel_driver/joint_states|name|J1,J2,J3,J4,J5,J6|pos|0.013307,-1.267658,1.296275,0.002216,-1.473234,-0.000083|vel|0.000000,-0.000000,0.000000,0.000000,0.000000,0.000000|eff|0.000000,0.000000,0.000000,0.000000,0.000000,0.000000
cobot_dynamixel_driver/joint_states|name|J1,J2,J3,J4,J5,J6|pos|0.013307,-1.267658,1.296275,0.002216,-1.473234,-0.000083|vel|0.000000,-0.000000,0.000000,0.000000,0.000000,0.000000|eff|0.000000,0.000000,0.000000,0.000000,0.000000,0.000000
cobot_dynamixel_driver/joint_states|name|J1,J2,J3,J4,J5,J6|pos|0.013307,-1.267658,1.296275,0.002216,-1.473234,-0.000083|vel|0.000000,-0.000000,0.000000,0.000000,0.000000,0.000000|eff|0.000000,0.000000,0.000000,0.000000,0.000000,0.000000
cobot_dynamixel_driver/joint_states|name|J1,J2,J3,J4,J5,J6|pos|0.013307,-1.267658,1.296275,0.002216,-1.473234,-0.000083|vel|0.000000,-0.000000,0.000000,0.000000,0.000000,0.000000|eff|0.000000,0.000000,0.000000,0.000000,0.000000,0.000000
cobot_dynamixel_driver/joint_states|name|J1,J2,J3,J4,J5,J6|pos|0.013307,-1.267658,1.296275,0.002216,-1.473234,-0.000083|vel|0.000000,-0.000000,0.000000,0.000000,0.000000,0.000000|eff|0.000000,0.000000,0.000000,0.000000,0.000000,0.000000
cobot_dynamixel_driver/joint_states|name|J1,J2,J3,J4,J5,J6|pos|0.013307,-1.267658,1.296275,0.002216,-1.473234,-0.000083|vel|0.000000,-0.000000,0.000000,0.000000,0.000000,0.000000|eff|0.000000,0.000000,0.000000,0.000000,0.000000,0.000000
cobot_dynamixel_driver/joint_states|name|J1,J2,J3,J4,J5,J6|pos|0.013307,-1.267658,1.296275,0.002216,-1.473234,-0.000083|vel|0.000000,-0.000000,0.000000,0.000000,0.000000,0.000000|eff|0.000000,0.000000,0.000000,0.000000,0.000000,0.000000
cobot_dynamixel_driver/joint_states|name|J1,J2,J3,J4,J5,J6|pos|0.013307,-1.267658,1.296275,0.002216,-1.473234,-0.000083|vel|0.000000,-0.000000,0.000000,0.000000,0.000000,0.000000|eff|0.000000,0.000000,0.000000,0.000000,0.000000,0.000000
cobot_dynamixel_driver/joint_states|name|J1,J2,J3,J4,J5,J6|pos|0.013307,-1.267658,1.296275,0.002216,-1.473234,-0.000083|vel|0.000000,-0.000000,0.000000,0.000000,0.000000,0.000000|eff|0.000000,0.000000,0.000000,0.000000,0.000000,0.000000
cobot_dynamixel_driver/joint_states|name|J1,J2,J3,J4,J5,J6|pos|0.013307,-1.267658,1.296275,0.002216,-1.473234,-0.000083|vel|0.000000,-0.000000,0.000000,0.000000,0.000000,0.000000|eff|0.000000,0.000000,0.000000,0.000000,0.000000,0.000000
cobot_dynamixel_driver/joint_states|name|J1,J2,J3,J4,J5,J6|pos|0.013307,-1.267658,1.296275,0.002216,-1.473234,-0.000083|vel|0.000000,-0.000000,0.000000,0.000000,0.000000,0.000000|eff|0.000000,0.000000,0.000000,0.000000,0.000000,0.000000
cobot_dynamixel_driver/joint_states|name|J1,J2,J3,J4,J5,J6|pos|0.013307,-1.267658,1.296275,0.002216,-1.473234,-0.000083|vel|0.000000,-0.000000,0.000000,0.000000,0.000000,0.000000|eff|0.000000,0.000000,0.000000,0.000000,0.000000,0.000000
cobot_dynamixel_driver/joint_states|name|J1,J2,J3,J4,J5,J6|pos|0.013307,-1.267658,1.296275,0.002216,-1.473234,-0.000083|vel|0.000000,-0.000000,0.000000,0.000000,0.000000,0.000000|eff|0.000000,0.000000,0.000000,0.000000,0.000000,0.000000
cobot_dynamixel_driver/joint_states|name|J1,J2,J3,J4,J5,J6|pos|0.013307,-1.267658,1.296275,0.002216,-1.473234,-0.000083|vel|0.000000,-0.000000,0.000000,0.000000,0.000000,0.000000|eff|0.000000,0.000000,0.000000,0.000000,0.000000,0.000000
cobot_dynamixel_driver/joint_states|name|J1,J2,J3,J4,J5,J6|pos|0.013307,-1.267658,1.296275,0.002216,-1.473234,-0.000083|vel|0.000000,-0.000000,0.000000,0.000000,0.000000,0.000000|eff|0.000000,0.000000,0.000000,0.000000,0.000000,0.000000
cobot_dynamixel_driver/joint_states|name|J1,J2,J3,J4,J5,J6|pos|0.013307,-1.267658,1.296275,0.002216,-1.473234,-0.000083|vel|0.000000,-0.000000,0.000000,0.000000,0.000000,0.000000|eff|0.000000,0.000000,0.000000,0.000000,0.000000,0.000000
cobot_dynamixel_driver/joint_states|name|J1,J2,J3,J4,J5,J6|pos|0.013307,-1.267658,1.296275,0.002216,-1.473234,-0.000083|vel|0.000000,-0.000000,0.000000,0.000000,0.000000,0.000000|eff|0.000000,0.000000,0.000000,0.000000,0.000000,0.000000
cobot_dynamixel_driver/joint_states|name|J1,J2,J3,J4,J5,J6|pos|0.013307,-1.267658,1.296275,0.002216,-1.473234,-0.000083|vel|0.000000,-0.000000,0.000000,0.000000,0.000000,0.000000|eff|0.000000,0.000000,0.000000,0.000000,0.000000,0.000000
cobot_dynamixel_driver/joint_states|name|J1,J2,J3,J4,J5,J6|pos|0.013307,-1.267658,1.296275,0.002216,-1.473234,-0.000083|vel|0.000000,-0.000000,0.000000,0.000000,0.000000,0.000000|eff|0.000000,0.000000,0.000000,0.000000,0.000000,0.000000
cobot_dynamixel_driver/joint_states|name|J1,J2,J3,J4,J5,J6|pos|0.013307,-1.267658,1.296275,0.002216,-1.473234,-0.000083|vel|0.000000,-0.000000,0.000000,0.000000,0.000000,0.000000|eff|0.000000,0.000000,0.000000,0.000000,0.000000,0.000000
cobot_dynamixel_driver/joint_states|name|J1,J2,J3,J4,J5,J6|pos|0.013307,-1.267658,1.296275,0.002216,-1.473234,-0.000083|vel|0.000000,-0.000000,0.000000,0.000000,0.000000,0.000000|eff|0.000000,0.000000,0.000000,0.000000,0.000000,0.000000
cobot_dynamixel_driver/joint_states|name|J1,J2,J3,J4,J5,J6|pos|0.013307,-1.267658,1.296275,0.002216,-1.473234,-0.000083|vel|0.000000,-0.000000,0.000000,0.000000,0.000000,0.000000|eff|0.000000,0.000000,0.000000,0.000000,0.000000,0.000000
cobot_dynamixel_driver/joint_states|name|J1,J2,J3,J4,J5,J6|pos|0.013307,-1.267658,1.296275,0.002216,-1.473234,-0.000083|vel|0.000000,-0.000000,0.000000,0.000000,0.000000,0.000000|eff|0.000000,0.000000,0.000000,0.000000,0.000000,0.000000
cobot_dynamixel_driver/joint_states|name|J1,J2,J3,J4,J5,J6|pos|0.013307,-1.267658,1.296275,0.002216,-1.473234,-0.000083|vel|0.000000,-0.000000,0.000000,0.000000,0.000000,0.000000|eff|0.000000,0.000000,0.000000,0.000000,0.000000,0.000000
cobot_dynamixel_driver/joint_states|name|J1,J2,J3,J4,J5,J6|pos|0.013307,-1.267658,1.296275,0.002216,-1.473234,-0.000083|vel|0.000000,-0.000000,0.000000,0.000000,0.000000,0.000000|eff|0.000000,0.000000,0.000000,0.000000,0.000000,0.000000
cobot_dynamixel_driver/joint_states|name|J1,J2,J3,J4,J5,J6|pos|0.013307,-1.267658,1.296275,0.002216,-1.473234,-0.000083|vel|0.000000,-0.000000,0.000000,0.000000,0.000000,0.000000|eff|0.000000,0.000000,0.000000,0.000000,0.000000,0.000000
cobot_dynamixel_driver/joint_states|name|J1,J2,J3,J4,J5,J6|pos|0.013307,-1.267658,1.296275,0.002216,-1.473234,-0.000083|vel|0.000000,-0.000000,0.000000,0.000000,0.000000,0.000000|eff|0.000000,0.000000,0.000000,0.000000,0.000000,0.000000
cobot_dynamixel_driver/joint_states|name|J1,J2,J3,J4,J5,J6|pos|0.013307,-1.267658,1.296275,0.002216,-1.473234,-0.000083|vel|0.000000,-0.000000,0.000000,0.000000,0.000000,0.000000|eff|0.000000,0.000000,0.000000,0.000000,0.000000,0.000000
cobot_dynamixel_driver/joint_states|name|J1,J2,J3,J4,J5,J6|pos|0.013307,-1.267658,1.296275,0.002216,-1.473234,-0.000083|vel|0.000000,-0.000000,0.000000,0.000000,0.000000,0.000000|eff|0.000000,0.000000,0.000000,0.000000,0.000000,0.000000
cobot_dynamixel_driver/joint_states|name|J1,J2,J3,J4,J5,J6|pos|0.013307,-1.267658,1.296275,0.002216,-1.473234,-0.000083|vel|0.000000,-0.000000,0.000000,0.000000,0.000000,0.000000|eff|0.000000,0.000000,0.000000,0.000000,0.000000,0.000000
cobot_dynamixel_driver/joint_states|name|J1,J2,J3,J4,J5,J6|pos|0.013307,-1.267658,1.296275,0.002216,-1.473234,-0.000083|vel|0.000000,-0.000000,0.000000,0.000000,0.000000,0.000000|eff|0.000000,0.000000,0.000000,0.000000,0.000000,0.000000
cobot_dynamixel_driver/joint_states|name|J1,J2,J3,J4,J5,J6|pos|0.013307,-1.267658,1.296275,0.002216,-1.473234,-0.000083|vel|0.000000,-0.000000,0.000000,0.000000,0.000000,0.000000|eff|0.000000,0.000000,0.000000,0.000000,0.000000,0.000000
cobot_dynamixel_driver/joint_states|name|J1,J2,J3,J4,J5,J6|pos|0.013307,-1.267658,1.296275,0.002216,-1.473234,-0.000083|vel|0.000000,-0.000000,0.000000,0.000000,0.000000,0.000000|eff|0.000000,0.000000,0.000000,0.000000,0.000000,0.000000
cobot_dynamixel_driver/joint_states|name|J1,J2,J3,J4,J5,J6|pos|0.013307,-1.267658,1.296275,0.002216,-1.473234,-0.000083|vel|0.000000,-0.000000,0.000000,0.000000,0.000000,0.000000|eff|0.000000,0.000000,0.000000,0.000000,0.000000,0.000000
cobot_dynamixel_driver/joint_states|name|J1,J2,J3,J4,J5,J6|pos|0.013307,-1.267658,1.296275,0.002216,-1.473234,-0.000083|vel|0.000000,-0.000000,0.000000,0.000000,0.000000,0.000000|eff|0.000000,0.000000,0.000000,0.000000,0.000000,0.000000
cobot_dynamixel_driver/joint_states|name|J1,J2,J3,J4,J5,J6|pos|0.013307,-1.267658,1.296275,0.002216,-1.473234,-0.000083|vel|0.000000,-0.000000,0.000000,0.000000,0.000000,0.000000|eff|0.000000,0.000000,0.000000,0.000000,0.000000,0.000000
cobot_dynamixel_driver/joint_states|name|J1,J2,J3,J4,J5,J6|pos|0.013307,-1.267658,1.296275,0.002216,-1.473234,-0.000083|vel|0.000000,-0.000000,0.000000,0.000000,0.000000,0.000000|eff|0.000000,0.000000,0.000000,0.000000,0.000000,0.000000
cobot_dynamixel_driver/joint_states|name|J1,J2,J3,J4,J5,J6|pos|0.013307,-1.267658,1.296275,0.002216,-1.473234,-0.000083|vel|0.000000,-0.000000,0.000000,0.000000,0.000000,0.000000|eff|0.000000,0.000000,0.000000,0.000000,0.000000,0.000000
cobot_dynamixel_driver/joint_states|name|J1,J2,J3,J4,J5,J6|pos|0.013307,-1.267658,1.296275,0.002216,-1.473234,-0.000083|vel|0.000000,-0.000000,0.000000,0.000000,0.000000,0.000000|eff|0.000000,0.000000,0.000000,0.000000,0.000000,0.000000
cobot_dynamixel_driver/joint_states|name|J1,J2,J3,J4,J5,J6|pos|0.013307,-1.267658,1.296275,0.002216,-1.473234,-0.000083|vel|0.000000,-0.000000,0.000000,0.000000,0.000000,0.000000|eff|0.000000,0.000000,0.000000,0.000000,0.000000,0.000000
cobot_dynamixel_driver/joint_states|name|J1,J2,J3,J4,J5,J6|pos|0.013307,-1.267658,1.296275,0.002216,-1.473234,-0.000083|vel|0.000000,-0.000000,0.000000,0.000000,0.000000,0.000000|eff|0.000000,0.000000,0.000000,0.000000,0.000000,0.000000
cobot_dynamixel_driver/joint_states|name|J1,J2,J3,J4,J5,J6|pos|0.013307,-1.267658,1.296275,0.002216,-1.473234,-0.000083|vel|0.000000,-0.000000,0.000000,0.000000,0.000000,0.000000|eff|0.000000,0.000000,0.000000,0.000000,0.000000,0.000000
cobot_dynamixel_driver/joint_states|name|J1,J2,J3,J4,J5,J6|pos|0.013307,-1.267658,1.296275,0.002216,-1.473234,-0.000083|vel|0.000000,-0.000000,0.000000,0.000000,0.000000,0.000000|eff|0.000000,0.000000,0.000000,0.000000,0.000000,0.000000
cobot_dynamixel_driver/joint_states|name|J1,J2,J3,J4,J5,J6|pos|0.013307,-1.267658,1.296275,0.002216,-1.473234,-0.000083|vel|0.000000,-0.000000,0.000000,0.000000,0.000000,0.000000|eff|0.000000,0.000000,0.000000,0.000000,0.000000,0.000000
cobot_dynamixel_driver/joint_states|name|J1,J2,J3,J4,J5,J6|pos|0.013307,-1.267658,1.296275,0.002216,-1.473234,-0.000083|vel|0.000000,-0.000000,0.000000,0.000000,0.000000,0.000000|eff|0.000000,0.000000,0.000000,0.000000,0.000000,0.000000
cobot_dynamixel_driver/joint_states|name|J1,J2,J3,J4,J5,J6|pos|0.013307,-1.267658,1.296275,0.002216,-1.473234,-0.000083|vel|0.000000,-0.000000,0.000000,0.000000,0.000000,0.000000|eff|0.000000,0.000000,0.000000,0.000000,0.000000,0.000000
cobot_dynamixel_driver/joint_states|name|J1,J2,J3,J4,J5,J6|pos|0.013307,-1.267658,1.296275,0.002216,-1.473234,-0.000083|vel|0.000000,-0.000000,0.000000,0.000000,0.000000,0.000000|eff|0.000000,0.000000,0.000000,0.000000,0.000000,0.000000
cobot_dynamixel_driver/joint_states|name|J1,J2,J3,J4,J5,J6|pos|0.013307,-1.267658,1.296275,0.002216,-1.473234,-0.000083|vel|0.000000,-0.000000,0.000000,0.000000,0.000000,0.000000|eff|0.000000,0.000000,0.000000,0.000000,0.000000,0.000000
cobot_dynamixel_driver/joint_states|name|J1,J2,J3,J4,J5,J6|pos|0.013307,-1.267658,1.296275,0.002216,-1.473234,-0.000083|vel|0.000000,-0.000000,0.000000,0.000000,0.000000,0.000000|eff|0.000000,0.000000,0.000000,0.000000,0.000000,0.000000
cobot_dynamixel_driver/joint_states|name|J1,J2,J3,J4,J5,J6|pos|0.013307,-1.267658,1.296275,0.002216,-1.473234,-0.000083|vel|0.000000,-0.000000,0.000000,0.000000,0.000000,0.000000|eff|0.000000,0.000000,0.000000,0.000000,0.000000,0.000000
cobot_dynamixel_driver/joint_states|name|J1,J2,J3,J4,J5,J6|pos|0.013307,-1.267658,1.296275,0.002216,-1.473234,-0.000083|vel|0.000000,-0.000000,0.000000,0.000000,0.000000,0.000000|eff|0.000000,0.000000,0.000000,0.000000,0.000000,0.000000
cobot_dynamixel_driver/joint_states|name|J1,J2,J3,J4,J5,J6|pos|0.013307,-1.267658,1.296275,0.002216,-1.473234,-0.000083|vel|0.000000,-0.000000,0.000000,0.000000,0.000000,0.000000|eff|0.000000,0.000000,0.000000,0.000000,0.000000,0.000000
cobot_dynamixel_driver/joint_states|name|J1,J2,J3,J4,J5,J6|pos|0.013307,-1.267658,1.296275,0.002216,-1.473234,-0.000083|vel|0.000000,-0.000000,0.000000,0.000000,0.000000,0.000000|eff|0.000000,0.000000,0.000000,0.000000,0.000000,0.000000
cobot_dynamixel_driver/joint_states|name|J1,J2,J3,J4,J5,J6|pos|0.013307,-1.267658,1.296275,0.002216,-1.473234,-0.000083|vel|0.000000,-0.000000,0.000000,0.000000,0.000000,0.000000|eff|0.000000,0.000000,0.000000,0.000000,0.000000,0.000000
cobot_dynamixel_driver/joint_states|name|J1,J2,J3,J4,J5,J6|pos|0.013307,-1.267658,1.296275,0.002216,-1.473234,-0.000083|vel|0.000000,-0.000000,0.000000,0.000000,0.000000,0.000000|eff|0.000000,0.000000,0.000000,0.000000,0.000000,0.000000
cobot_dynamixel_driver/joint_states|name|J1,J2,J3,J4,J5,J6|pos|0.013307,-1.267658,1.296275,0.002216,-1.473234,-0.000083|vel|0.000000,-0.000000,0.000000,0.000000,0.000000,0.000000|eff|0.000000,0.000000,0.000000,0.000000,0.000000,0.000000
cobot_dynamixel_driver/joint_states|name|J1,J2,J3,J4,J5,J6|pos|0.013307,-1.267658,1.296275,0.002216,-1.473234,-0.000083|vel|0.000000,-0.000000,0.000000,0.000000,0.000000,0.000000|eff|0.000000,0.000000,0.000000,0.000000,0.000000,0.000000
cobot_dynamixel_driver/joint_states|name|J1,J2,J3,J4,J5,J6|pos|0.013307,-1.267658,1.296275,0.002216,-1.473234,-0.000083|vel|0.000000,-0.000000,0.000000,0.000000,0.000000,0.000000|eff|0.000000,0.000000,0.000000,0.000000,0.000000,0.000000
cobot_dynamixel_driver/joint_states|name|J1,J2,J3,J4,J5,J6|pos|0.013307,-1.267658,1.296275,0.002216,-1.473234,-0.000083|vel|0.000000,-0.000000,0.000000,0.000000,0.000000,0.000000|eff|0.000000,0.000000,0.000000,0.000000,0.000000,0.000000
cobot_dynamixel_driver/joint_states|name|J1,J2,J3,J4,J5,J6|pos|0.013307,-1.267658,1.296275,0.002216,-1.473234,-0.000083|vel|0.000000,-0.000000,0.000000,0.000000,0.000000,0.000000|eff|0.000000,0.000000,0.000000,0.000000,0.000000,0.000000
cobot_dynamixel_driver/joint_states|name|J1,J2,J3,J4,J5,J6|pos|0.013307,-1.267658,1.296275,0.002216,-1.473234,-0.000083|vel|0.000000,-0.000000,0.000000,0.000000,0.000000,0.000000|eff|0.000000,0.000000,0.000000,0.000000,0.000000,0.000000
cobot_dynamixel_driver/joint_states|name|J1,J2,J3,J4,J5,J6|pos|0.013307,-1.267658,1.296275,0.002216,-1.473234,-0.000083|vel|0.000000,-0.000000,0.000000,0.000000,0.000000,0.000000|eff|0.000000,0.000000,0.000000,0.000000,0.000000,0.000000
cobot_dynamixel_driver/joint_states|name|J1,J2,J3,J4,J5,J6|pos|0.013307,-1.267658,1.296275,0.002216,-1.473234,-0.000083|vel|0.000000,-0.000000,0.000000,0.000000,0.000000,0.000000|eff|0.000000,0.000000,0.000000,0.000000,0.000000,0.000000
cobot_dynamixel_driver/joint_states|name|J1,J2,J3,J4,J5,J6|pos|0.013307,-1.267658,1.296275,0.002216,-1.473234,-0.000083|vel|0.000000,-0.000000,0.000000,0.000000,0.000000,0.000000|eff|0.000000,0.000000,0.000000,0.000000,0.000000,0.000000
cobot_dynamixel_driver/joint_states|name|J1,J2,J3,J4,J5,J6|pos|0.013307,-1.267658,1.296275,0.002216,-1.473234,-0.000083|vel|0.000000,-0.000000,0.000000,0.000000,0.000000,0.000000|eff|0.000000,0.000000,0.000000,0.000000,0.000000,0.000000
cobot_dynamixel_driver/joint_states|name|J1,J2,J3,J4,J5,J6|pos|0.013307,-1.267658,1.296275,0.002216,-1.473234,-0.000083|vel|0.000000,-0.000000,0.000000,0.000000,0.000000,0.000000|eff|0.000000,0.000000,0.000000,0.000000,0.000000,0.000000
cobot_dynamixel_driver/joint_states|name|J1,J2,J3,J4,J5,J6|pos|0.013307,-1.267658,1.296275,0.002216,-1.473234,-0.000083|vel|0.000000,-0.000000,0.000000,0.000000,0.000000,0.000000|eff|0.000000,0.000000,0.000000,0.000000,0.000000,0.000000
cobot_dynamixel_driver/joint_states|name|J1,J2,J3,J4,J5,J6|pos|0.013307,-1.267658,1.296275,0.002216,-1.473234,-0.000083|vel|0.000000,-0.000000,0.000000,0.000000,0.000000,0.000000|eff|0.000000,0.000000,0.000000,0.000000,0.000000,0.000000
cobot_dynamixel_driver/joint_states|name|J1,J2,J3,J4,J5,J6|pos|0.013307,-1.267658,1.296275,0.002216,-1.473234,-0.000083|vel|0.000000,-0.000000,0.000000,0.000000,0.000000,0.000000|eff|0.000000,0.000000,0.000000,0.000000,0.000000,0.000000
cobot_dynamixel_driver/joint_states|name|J1,J2,J3,J4,J5,J6|pos|0.013307,-1.267658,1.296275,0.002216,-1.473234,-0.000083|vel|0.000000,-0.000000,0.000000,0.000000,0.000000,0.000000|eff|0.000000,0.000000,0.000000,0.000000,0.000000,0.000000
cobot_dynamixel_driver/joint_states|name|J1,J2,J3,J4,J5,J6|pos|0.013307,-1.267658,1.296275,0.002216,-1.473234,-0.000083|vel|0.000000,-0.000000,0.000000,0.000000,0.000000,0.000000|eff|0.000000,0.000000,0.000000,0.000000,0.000000,0.000000
cobot_dynamixel_driver/joint_states|name|J1,J2,J3,J4,J5,J6|pos|0.013307,-1.267658,1.296275,0.002216,-1.473234,-0.000083|vel|0.000000,-0.000000,0.000000,0.000000,0.000000,0.000000|eff|0.000000,0.000000,0.000000,0.000000,0.000000,0.000000
cobot_dynamixel_driver/joint_states|name|J1,J2,J3,J4,J5,J6|pos|0.013307,-1.267658,1.296275,0.002216,-1.473234,-0.000083|vel|0.000000,-0.000000,0.000000,0.000000,0.000000,0.000000|eff|0.000000,0.000000,0.000000,0.000000,0.000000,0.000000
cobot_dynamixel_driver/joint_states|name|J1,J2,J3,J4,J5,J6|pos|0.013307,-1.267658,1.296275,0.002216,-1.473234,-0.000083|vel|0.000000,-0.000000,0.000000,0.000000,0.000000,0.000000|eff|0.000000,0.000000,0.000000,0.000000,0.000000,0.000000
cobot_dynamixel_driver/joint_states|name|J1,J2,J3,J4,J5,J6|pos|0.013307,-1.267658,1.296275,0.002216,-1.473234,-0.000083|vel|0.000000,-0.000000,0.000000,0.000000,0.000000,0.000000|eff|0.000000,0.000000,0.000000,0.000000,0.000000,0.000000
cobot_dynamixel_driver/joint_states|name|J1,J2,J3,J4,J5,J6|pos|0.013307,-1.267658,1.296275,0.002216,-1.473234,-0.000083|vel|0.000000,-0.000000,0.000000,0.000000,0.000000,0.000000|eff|0.000000,0.000000,0.000000,0.000000,0.000000,0.000000
cobot_dynamixel_driver/joint_states|name|J1,J2,J3,J4,J5,J6|pos|0.013307,-1.267658,1.296275,0.002216,-1.473234,-0.000083|vel|0.000000,-0.000000,0.000000,0.000000,0.000000,0.000000|eff|0.000000,0.000000,0.000000,0.000000,0.000000,0.000000
cobot_dynamixel_driver/joint_states|name|J1,J2,J3,J4,J5,J6|pos|0.013307,-1.267658,1.296275,0.002216,-1.473234,-0.000083|vel|0.000000,-0.000000,0.000000,0.000000,0.000000,0.000000|eff|0.000000,0.000000,0.000000,0.000000,0.000000,0.000000
cobot_dynamixel_driver/joint_states|name|J1,J2,J3,J4,J5,J6|pos|0.013307,-1.267658,1.296275,0.002216,-1.473234,-0.000083|vel|0.000000,-0.000000,0.000000,0.000000,0.000000,0.000000|eff|0.000000,0.000000,0.000000,0.000000,0.000000,0.000000
cobot_dynamixel_driver/joint_states|name|J1,J2,J3,J4,J5,J6|pos|0.013307,-1.267658,1.296275,0.002216,-1.473234,-0.000083|vel|0.000000,-0.000000,0.000000,0.000000,0.000000,0.000000|eff|0.000000,0.000000,0.000000,0.000000,0.000000,0.000000
cobot_dynamixel_driver/joint_states|name|J1,J2,J3,J4,J5,J6|pos|0.013307,-1.267658,1.296275,0.002216,-1.473234,-0.000083|vel|0.000000,-0.000000,0.000000,0.000000,0.000000,0.000000|eff|0.000000,0.000000,0.000000,0.000000,0.000000,0.000000
cobot_dynamixel_driver/joint_states|name|J1,J2,J3,J4,J5,J6|pos|0.013307,-1.267658,1.296275,0.002216,-1.473234,-0.000083|vel|0.000000,-0.000000,0.000000,0.000000,0.000000,0.000000|eff|0.000000,0.000000,0.000000,0.000000,0.000000,0.000000
cobot_dynamixel_driver/joint_states|name|J1,J2,J3,J4,J5,J6|pos|0.013307,-1.267658,1.296275,0.002216,-1.473234,-0.000083|vel|0.000000,-0.000000,0.000000,0.000000,0.000000,0.000000|eff|0.000000,0.000000,0.000000,0.000000,0.000000,0.000000
cobot_dynamixel_driver/joint_states|name|J1,J2,J3,J4,J5,J6|pos|0.013307,-1.267658,1.296275,0.002216,-1.473234,-0.000083|vel|0.000000,-0.000000,0.000000,0.000000,0.000000,0.000000|eff|0.000000,0.000000,0.000000,0.000000,0.000000,0.000000
cobot_dynamixel_driver/joint_states|name|J1,J2,J3,J4,J5,J6|pos|0.013307,-1.267658,1.296275,0.002216,-1.473234,-0.000083|vel|0.000000,-0.000000,0.000000,0.000000,0.000000,0.000000|eff|0.000000,0.000000,0.000000,0.000000,0.000000,0.000000
cobot_dynamixel_driver/joint_states|name|J1,J2,J3,J4,J5,J6|pos|0.013307,-1.267658,1.296275,0.002216,-1.473234,-0.000083|vel|0.000000,-0.000000,0.000000,0.000000,0.000000,0.000000|eff|0.000000,0.000000,0.000000,0.000000,0.000000,0.000000
cobot_dynamixel_driver/joint_states|name|J1,J2,J3,J4,J5,J6|pos|0.013307,-1.267658,1.296275,0.002216,-1.473234,-0.000083|vel|0.000000,-0.000000,0.000000,0.000000,0.000000,0.000000|eff|0.000000,0.000000,0.000000,0.000000,0.000000,0.000000
cobot_dynamixel_driver/joint_states|name|J1,J2,J3,J4,J5,J6|pos|0.013307,-1.267658,1.296275,0.002216,-1.473234,-0.000083|vel|0.000000,-0.000000,0.000000,0.000000,0.000000,0.000000|eff|0.000000,0.000000,0.000000,0.000000,0.000000,0.000000
cobot_dynamixel_driver/joint_states|name|J1,J2,J3,J4,J5,J6|pos|0.013307,-1.267658,1.296275,0.002216,-1.473234,-0.000083|vel|0.000000,-0.000000,0.000000,0.000000,0.000000,0.000000|eff|0.000000,0.000000,0.000000,0.000000,0.000000,0.000000
cobot_dynamixel_driver/joint_states|name|J1,J2,J3,J4,J5,J6|pos|0.013307,-1.267658,1.296275,0.002216,-1.473234,-0.000083|vel|0.000000,-0.000000,0.000000,0.000000,0.000000,0.000000|eff|0.000000,0.000000,0.000000,0.000000,0.000000,0.000000
cobot_dynamixel_driver/joint_states|name|J1,J2,J3,J4,J5,J6|pos|0.013307,-1.267658,1.296275,0.002216,-1.473234,-0.000083|vel|0.000000,-0.000000,0.000000,0.000000,0.000000,0.000000|eff|0.000000,0.000000,0.000000,0.000000,0.000000,0.000000
cobot_dynamixel_driver/joint_states|name|J1,J2,J3,J4,J5,J6|pos|0.013307,-1.267658,1.296275,0.002216,-1.473234,-0.000083|vel|0.000000,-0.000000,0.000000,0.000000,0.000000,0.000000|eff|0.000000,0.000000,0.000000,0.000000,0.000000,0.000000
cobot_dynamixel_driver/joint_states|name|J1,J2,J3,J4,J5,J6|pos|0.013307,-1.267658,1.296275,0.002216,-1.473234,-0.000083|vel|0.000000,-0.000000,0.000000,0.000000,0.000000,0.000000|eff|0.000000,0.000000,0.000000,0.000000,0.000000,0.000000
cobot_dynamixel_driver/joint_states|name|J1,J2,J3,J4,J5,J6|pos|0.013307,-1.267658,1.296275,0.002216,-1.473234,-0.000083|vel|0.000000,-0.000000,0.000000,0.000000,0.000000,0.000000|eff|0.000000,0.000000,0.000000,0.000000,0.000000,0.000000
cobot_dynamixel_driver/joint_states|name|J1,J2,J3,J4,J5,J6|pos|0.013307,-1.267658,1.296275,0.002216,-1.473234,-0.000083|vel|0.000000,-0.000000,0.000000,0.000000,0.000000,0.000000|eff|0.000000,0.000000,0.000000,0.000000,0.000000,0.000000
cobot_dynamixel_driver/joint_states|name|J1,J2,J3,J4,J5,J6|pos|0.013307,-1.267658,1.296275,0.002216,-1.473234,-0.000083|vel|0.000000,-0.000000,0.000000,0.000000,0.000000,0.000000|eff|0.000000,0.000000,0.000000,0.000000,0.000000,0.000000
cobot_dynamixel_driver/joint_states|name|J1,J2,J3,J4,J5,J6|pos|0.013307,-1.267658,1.296275,0.002216,-1.473234,-0.000083|vel|0.000000,-0.000000,0.000000,0.000000,0.000000,0.000000|eff|0.000000,0.000000,0.000000,0.000000,0.000000,0.000000
cobot_dynamixel_driver/joint_states|name|J1,J2,J3,J4,J5,J6|pos|0.013307,-1.267658,1.296275,0.002216,-1.473234,-0.000083|vel|0.000000,-0.000000,0.000000,0.000000,0.000000,0.000000|eff|0.000000,0.000000,0.000000,0.000000,0.000000,0.000000
cobot_dynamixel_driver/joint_states|name|J1,J2,J3,J4,J5,J6|pos|0.013307,-1.267658,1.296275,0.002216,-1.473234,-0.000083|vel|0.000000,-0.000000,0.000000,0.000000,0.000000,0.000000|eff|0.000000,0.000000,0.000000,0.000000,0.000000,0.000000
cobot_dynamixel_driver/joint_states|name|J1,J2,J3,J4,J5,J6|pos|0.013307,-1.267658,1.296275,0.002216,-1.473234,-0.000083|vel|0.000000,-0.000000,0.000000,0.000000,0.000000,0.000000|eff|0.000000,0.000000,0.000000,0.000000,0.000000,0.000000
cobot_dynamixel_driver/joint_states|name|J1,J2,J3,J4,J5,J6|pos|0.013307,-1.267658,1.296275,0.002216,-1.473234,-0.000083|vel|0.000000,-0.000000,0.000000,0.000000,0.000000,0.000000|eff|0.000000,0.000000,0.000000,0.000000,0.000000,0.000000
cobot_dynamixel_driver/joint_states|name|J1,J2,J3,J4,J5,J6|pos|0.013307,-1.267658,1.296275,0.002216,-1.473234,-0.000083|vel|0.000000,-0.000000,0.000000,0.000000,0.000000,0.000000|eff|0.000000,0.000000,0.000000,0.000000,0.000000,0.000000
cobot_dynamixel_driver/joint_states|name|J1,J2,J3,J4,J5,J6|pos|0.013307,-1.267658,1.296275,0.002216,-1.473234,-0.000083|vel|0.000000,-0.000000,0.000000,0.000000,0.000000,0.000000|eff|0.000000,0.000000,0.000000,0.000000,0.000000,0.000000
cobot_dynamixel_driver/joint_states|name|J1,J2,J3,J4,J5,J6|pos|0.013307,-1.267658,1.296275,0.002216,-1.473234,-0.000083|vel|0.000000,-0.000000,0.000000,0.000000,0.000000,0.000000|eff|0.000000,0.000000,0.000000,0.000000,0.000000,0.000000
cobot_dynamixel_driver/joint_states|name|J1,J2,J3,J4,J5,J6|pos|0.013307,-1.267658,1.296275,0.002216,-1.473234,-0.000083|vel|0.000000,-0.000000,0.000000,0.000000,0.000000,0.000000|eff|0.000000,0.000000,0.000000,0.000000,0.000000,0.000000
cobot_dynamixel_driver/joint_states|name|J1,J2,J3,J4,J5,J6|pos|0.013307,-1.267658,1.296275,0.002216,-1.473234,-0.000083|vel|0.000000,-0.000000,0.000000,0.000000,0.000000,0.000000|eff|0.000000,0.000000,0.000000,0.000000,0.000000,0.000000
cobot_dynamixel_driver/joint_states|name|J1,J2,J3,J4,J5,J6|pos|0.013307,-1.267658,1.296275,0.002216,-1.473234,-0.000083|vel|0.000000,-0.000000,0.000000,0.000000,0.000000,0.000000|eff|0.000000,0.000000,0.000000,0.000000,0.000000,0.000000
cobot_dynamixel_driver/joint_states|name|J1,J2,J3,J4,J5,J6|pos|0.013307,-1.267658,1.296275,0.002216,-1.473234,-0.000083|vel|0.000000,-0.000000,0.000000,0.000000,0.000000,0.000000|eff|0.000000,0.000000,0.000000,0.000000,0.000000,0.000000
cobot_dynamixel_driver/joint_states|name|J1,J2,J3,J4,J5,J6|pos|0.013307,-1.267658,1.296275,0.002216,-1.473234,-0.000083|vel|0.000000,-0.000000,0.000000,0.000000,0.000000,0.000000|eff|0.000000,0.000000,0.000000,0.000000,0.000000,0.000000
cobot_dynamixel_driver/joint_states|name|J1,J2,J3,J4,J5,J6|pos|0.013307,-1.267658,1.296275,0.002216,-1.473234,-0.000083|vel|0.000000,-0.000000,0.000000,0.000000,0.000000,0.000000|eff|0.000000,0.000000,0.000000,0.000000,0.000000,0.000000
cobot_dynamixel_driver/joint_states|name|J1,J2,J3,J4,J5,J6|pos|0.013307,-1.267658,1.296275,0.002216,-1.473234,-0.000083|vel|0.000000,-0.000000,0.000000,0.000000,0.000000,0.000000|eff|0.000000,0.000000,0.000000,0.000000,0.000000,0.000000
cobot_dynamixel_driver/joint_states|name|J1,J2,J3,J4,J5,J6|pos|0.013307,-1.267658,1.296275,0.002216,-1.473234,-0.000083|vel|0.000000,-0.000000,0.000000,0.000000,0.000000,0.000000|eff|0.000000,0.000000,0.000000,0.000000,0.000000,0.000000
cobot_dynamixel_driver/joint_states|name|J1,J2,J3,J4,J5,J6|pos|0.013307,-1.267658,1.296275,0.002216,-1.473234,-0.000083|vel|0.000000,-0.000000,0.000000,0.000000,0.000000,0.000000|eff|0.000000,0.000000,0.000000,0.000000,0.000000,0.000000
cobot_dynamixel_driver/joint_states|name|J1,J2,J3,J4,J5,J6|pos|0.013307,-1.267658,1.296275,0.002216,-1.473234,-0.000083|vel|0.000000,-0.000000,0.000000,0.000000,0.000000,0.000000|eff|0.000000,0.000000,0.000000,0.000000,0.000000,0.000000
cobot_dynamixel_driver/joint_states|name|J1,J2,J3,J4,J5,J6|pos|0.013307,-1.267658,1.296275,0.002216,-1.473234,-0.000083|vel|0.000000,-0.000000,0.000000,0.000000,0.000000,0.000000|eff|0.000000,0.000000,0.000000,0.000000,0.000000,0.000000
cobot_dynamixel_driver/joint_states|name|J1,J2,J3,J4,J5,J6|pos|0.013307,-1.267658,1.296275,0.002216,-1.473234,-0.000083|vel|0.000000,-0.000000,0.000000,0.000000,0.000000,0.000000|eff|0.000000,0.000000,0.000000,0.000000,0.000000,0.000000
cobot_dynamixel_driver/joint_states|name|J1,J2,J3,J4,J5,J6|pos|0.013307,-1.267658,1.296275,0.002216,-1.473234,-0.000083|vel|0.000000,-0.000000,0.000000,0.000000,0.000000,0.000000|eff|0.000000,0.000000,0.000000,0.000000,0.000000,0.000000
cobot_dynamixel_driver/joint_states|name|J1,J2,J3,J4,J5,J6|pos|0.013307,-1.267658,1.296275,0.002216,-1.473234,-0.000083|vel|0.000000,-0.000000,0.000000,0.000000,0.000000,0.000000|eff|0.000000,0.000000,0.000000,0.000000,0.000000,0.000000
cobot_dynamixel_driver/joint_states|name|J1,J2,J3,J4,J5,J6|pos|0.013307,-1.267658,1.296275,0.002216,-1.473234,-0.000083|vel|0.000000,-0.000000,0.000000,0.000000,0.000000,0.000000|eff|0.000000,0.000000,0.000000,0.000000,0.000000,0.000000
cobot_dynamixel_driver/joint_states|name|J1,J2,J3,J4,J5,J6|pos|0.013307,-1.267658,1.296275,0.002216,-1.473234,-0.000083|vel|0.000000,-0.000000,0.000000,0.000000,0.000000,0.000000|eff|0.000000,0.000000,0.000000,0.000000,0.000000,0.000000
cobot_dynamixel_driver/joint_states|name|J1,J2,J3,J4,J5,J6|pos|0.013307,-1.267658,1.296275,0.002216,-1.473234,-0.000083|vel|0.000000,-0.000000,0.000000,0.000000,0.000000,0.000000|eff|0.000000,0.000000,0.000000,0.000000,0.000000,0.000000
cobot_dynamixel_driver/joint_states|name|J1,J2,J3,J4,J5,J6|pos|0.013307,-1.267658,1.296275,0.002216,-1.473234,-0.000083|vel|0.000000,-0.000000,0.000000,0.000000,0.000000,0.000000|eff|0.000000,0.000000,0.000000,0.000000,0.000000,0.000000
cobot_dynamixel_driver/joint_states|name|J1,J2,J3,J4,J5,J6|pos|0.013307,-1.267658,1.296275,0.002216,-1.473234,-0.000083|vel|0.000000,-0.000000,0.000000,0.000000,0.000000,0.000000|eff|0.000000,0.000000,0.000000,0.000000,0.000000,0.000000
cobot_dynamixel_driver/joint_states|name|J1,J2,J3,J4,J5,J6|pos|0.013307,-1.267658,1.296275,0.002216,-1.473234,-0.000083|vel|0.000000,-0.000000,0.000000,0.000000,0.000000,0.000000|eff|0.000000,0.000000,0.000000,0.000000,0.000000,0.000000
cobot_dynamixel_driver/joint_states|name|J1,J2,J3,J4,J5,J6|pos|0.013307,-1.267658,1.296275,0.002216,-1.473234,-0.000083|vel|0.000000,-0.000000,0.000000,0.000000,0.000000,0.000000|eff|0.000000,0.000000,0.000000,0.000000,0.000000,0.000000
cobot_dynamixel_driver/joint_states|name|J1,J2,J3,J4,J5,J6|pos|0.013307,-1.267658,1.296275,0.002216,-1.473234,-0.000083|vel|0.000000,-0.000000,0.000000,0.000000,0.000000,0.000000|eff|0.000000,0.000000,0.000000,0.000000,0.000000,0.000000
cobot_dynamixel_driver/joint_states|name|J1,J2,J3,J4,J5,J6|pos|0.013307,-1.267658,1.296275,0.002216,-1.473234,-0.000083|vel|0.000000,-0.000000,0.000000,0.000000,0.000000,0.000000|eff|0.000000,0.000000,0.000000,0.000000,0.000000,0.000000
cobot_dynamixel_driver/joint_states|name|J1,J2,J3,J4,J5,J6|pos|0.013307,-1.267658,1.296275,0.002216,-1.473234,-0.000083|vel|0.000000,-0.000000,0.000000,0.000000,0.000000,0.000000|eff|0.000000,0.000000,0.000000,0.000000,0.000000,0.000000
cobot_dynamixel_driver/joint_states|name|J1,J2,J3,J4,J5,J6|pos|0.013307,-1.267658,1.296275,0.002216,-1.473234,-0.000083|vel|0.000000,-0.000000,0.000000,0.000000,0.000000,0.000000|eff|0.000000,0.000000,0.000000,0.000000,0.000000,0.000000
cobot_dynamixel_driver/joint_states|name|J1,J2,J3,J4,J5,J6|pos|0.013307,-1.267658,1.296275,0.002216,-1.473234,-0.000083|vel|0.000000,-0.000000,0.000000,0.000000,0.000000,0.000000|eff|0.000000,0.000000,0.000000,0.000000,0.000000,0.000000
cobot_dynamixel_driver/joint_states|name|J1,J2,J3,J4,J5,J6|pos|0.013307,-1.267658,1.296275,0.002216,-1.473234,-0.000083|vel|0.000000,-0.000000,0.000000,0.000000,0.000000,0.000000|eff|0.000000,0.000000,0.000000,0.000000,0.000000,0.000000
cobot_dynamixel_driver/joint_states|name|J1,J2,J3,J4,J5,J6|pos|0.013307,-1.267658,1.296275,0.002216,-1.473234,-0.000083|vel|0.000000,-0.000000,0.000000,0.000000,0.000000,0.000000|eff|0.000000,0.000000,0.000000,0.000000,0.000000,0.000000
cobot_dynamixel_driver/joint_states|name|J1,J2,J3,J4,J5,J6|pos|0.013307,-1.267658,1.296275,0.002216,-1.473234,-0.000083|vel|0.000000,-0.000000,0.000000,0.000000,0.000000,0.000000|eff|0.000000,0.000000,0.000000,0.000000,0.000000,0.000000
cobot_dynamixel_driver/joint_states|name|J1,J2,J3,J4,J5,J6|pos|0.013307,-1.267658,1.296275,0.002216,-1.473234,-0.000083|vel|0.000000,-0.000000,0.000000,0.000000,0.000000,0.000000|eff|0.000000,0.000000,0.000000,0.000000,0.000000,0.000000
cobot_dynamixel_driver/joint_states|name|J1,J2,J3,J4,J5,J6|pos|0.013307,-1.267658,1.296275,0.002216,-1.473234,-0.000083|vel|0.000000,-0.000000,0.000000,0.000000,0.000000,0.000000|eff|0.000000,0.000000,0.000000,0.000000,0.000000,0.000000
cobot_dynamixel_driver/joint_states|name|J1,J2,J3,J4,J5,J6|pos|0.013307,-1.267658,1.296275,0.002216,-1.473234,-0.000083|vel|0.000000,-0.000000,0.000000,0.000000,0.000000,0.000000|eff|0.000000,0.000000,0.000000,0.000000,0.000000,0.000000
cobot_dynamixel_driver/joint_states|name|J1,J2,J3,J4,J5,J6|pos|0.013307,-1.267658,1.296275,0.002216,-1.473234,-0.000083|vel|0.000000,-0.000000,0.000000,0.000000,0.000000,0.000000|eff|0.000000,0.000000,0.000000,0.000000,0.000000,0.000000
cobot_dynamixel_driver/joint_states|name|J1,J2,J3,J4,J5,J6|pos|0.013307,-1.267658,1.296275,0.002216,-1.473234,-0.000083|vel|0.000000,-0.000000,0.000000,0.000000,0.000000,0.000000|eff|0.000000,0.000000,0.000000,0.000000,0.000000,0.000000
cobot_dynamixel_driver/joint_states|name|J1,J2,J3,J4,J5,J6|pos|0.013307,-1.267658,1.296275,0.002216,-1.473234,-0.000083|vel|0.000000,-0.000000,0.000000,0.000000,0.000000,0.000000|eff|0.000000,0.000000,0.000000,0.000000,0.000000,0.000000
cobot_dynamixel_driver/joint_states|name|J1,J2,J3,J4,J5,J6|pos|0.013307,-1.267658,1.296275,0.002216,-1.473234,-0.000083|vel|0.000000,-0.000000,0.000000,0.000000,0.000000,0.000000|eff|0.000000,0.000000,0.000000,0.000000,0.000000,0.000000
cobot_dynamixel_driver/joint_states|name|J1,J2,J3,J4,J5,J6|pos|0.013307,-1.267658,1.296275,0.002216,-1.473234,-0.000083|vel|0.000000,-0.000000,0.000000,0.000000,0.000000,0.000000|eff|0.000000,0.000000,0.000000,0.000000,0.000000,0.000000
cobot_dynamixel_driver/goal|-:J1,J2,J3,J4,J5,J6:0.000000,0.000000,0.000000,0.000000,0.000000,0.000000:0.700000,0.700000,0.700000,0.700000,0.700000,0.700000:pos_vel_
cobot_dynamixel_driver/joint_states|name|J1,J2,J3,J4,J5,J6|pos|0.013307,-1.266694,1.294497,0.002216,-1.471910,-0.000083|vel|0.000000,-0.000000,0.000000,0.000000,0.000000,0.000000|eff|0.000000,0.000000,0.000000,0.000000,0.000000,0.000000
cobot_dynamixel_driver/joint_states|name|J1,J2,J3,J4,J5,J6|pos|0.009126,-1.258307,1.285922,0.001577,-1.457513,-0.000083|vel|-0.062177,0.222000,-0.272075,-0.008972,0.285756,0.000000|eff|-338.378906,-1965.820312,-1579.101562,-145.019531,68.481445,0.000000
cobot_dynamixel_driver/joint_states|name|J1,J2,J3,J4,J5,J6|pos|0.004707,-1.220377,1.245926,0.000926,-1.416949,-0.000083|vel|-0.030045,0.500961,-0.511184,-0.005633,0.505330,0.000000|eff|-306.152344,-2352.539062,-1224.609375,-177.246094,48.339844,12.084961
cobot_dynamixel_driver/joint_states|name|J1,J2,J3,J4,J5,J6|pos|0.002341,-1.165998,1.192186,0.000413,-1.363353,-0.000083|vel|-0.018570,0.593182,-0.608831,-0.004799,0.521875,0.000000|eff|-306.152344,-741.210938,-934.570312,-177.246094,60.424805,8.056641
cobot_dynamixel_driver/joint_states|name|J1,J2,J3,J4,J5,J6|pos|0.001102,-1.104796,1.131547,0.000213,-1.303241,-0.000083|vel|-0.009180,0.579412,-0.660158,-0.001669,0.628387,0.000000|eff|-273.925781,-2255.859375,-1015.136719,-161.132812,32.226562,12.084961
cobot_dynamixel_driver/joint_states|name|J1,J2,J3,J4,J5,J6|pos|0.000413,-1.040227,1.067366,0.000163,-1.239758,-0.000083|vel|-0.005008,0.626566,-0.707521,-0.000626,0.676645,0.000000|eff|-225.585938,-2674.804688,-1853.027344,-177.246094,52.368164,12.084961
cobot_dynamixel_driver/joint_states|name|J1,J2,J3,J4,J5,J6|pos|0.000163,-0.973956,1.001721,0.000063,-1.174268,0.000041|vel|-0.002295,0.661201,-0.585880,-0.000835,0.700774,0.003102|eff|-193.359375,-531.738281,-2239.746094,-145.019531,40.283203,0.000000
cobot_dynamixel_driver/joint_states|name|J1,J2,J3,J4,J5,J6|pos|0.000025,-0.907271,0.934360,0.000025,-1.108178,0.000041|vel|-0.000626,0.676224,-0.689994,-0.000209,0.686986,0.000000|eff|-209.472656,-209.472656,-966.796875,-112.792969,48.339844,-24.169922
cobot_dynamixel_driver/joint_states|name|J1,J2,J3,J4,J5,J6|pos|-0.000013,-0.839835,0.867313,0.000013,-1.040537,0.000041|vel|-0.000209,0.722961,-0.706895,-0.000209,0.685263,0.000000|eff|-80.566406,-1127.929688,-1514.648438,-193.359375,0.000000,-16.113281
cobot_dynamixel_driver/joint_states|name|J1,J2,J3,J4,J5,J6|pos|-0.000075,-0.772550,0.799689,0.000000,-0.974178,0.000041|vel|-0.001669,0.696045,-0.701053,0.000000,0.712149,0.000000|eff|-161.132812,-306.152344,-1192.382812,-112.792969,108.764648,-16.113281
cobot_dynamixel_driver/joint_states|name|J1,J2,J3,J4,J5,J6|pos|-0.000075,-0.704601,0.732279,0.000000,-0.907054,0.000021|vel|0.000000,0.681440,-0.707312,0.000000,0.750411,0.000000|eff|0.000000,-612.304688,-451.171875,-112.792969,20.141602,-24.169922
cobot_dynamixel_driver/joint_states|name|J1,J2,J3,J4,J5,J6|pos|-0.000075,-0.636664,0.664092,-0.000013,-0.839847,0.000021|vel|0.000000,0.660158,-0.709607,0.000000,0.613221,0.000000|eff|-145.019531,-1562.988281,-1353.515625,-177.246094,8.056641,-16.113281
cobot_dynamixel_driver/joint_states|name|J1,J2,J3,J4,J5,J6|pos|-0.000075,-0.568590,0.596669,-0.000013,-0.772454,0.000021|vel|0.000000,0.710025,-0.635955,0.000000,0.731797,0.000000|eff|-96.679688,-2368.652344,-531.738281,-145.019531,32.226562,-20.141602
cobot_dynamixel_driver/joint_states|name|J1,J2,J3,J4,J5,J6|pos|-0.000063,-0.500842,0.528407,-0.000013,-0.705041,0.000021|vel|0.000000,0.715032,-0.735688,0.000000,0.750411,0.000000|eff|-145.019531,-2594.238281,-1321.289062,-112.792969,32.226562,-20.141602
cobot_dynamixel_driver/joint_states|name|J1,J2,J3,J4,J5,J6|pos|-0.000063,-0.432868,0.461134,-0.000025,-0.637979,0.000021|vel|0.000000,0.646805,-0.704182,0.000000,0.706634,0.000000|eff|0.000000,-805.664062,-757.324219,-193.359375,20.141602,-20.141602
cobot_dynamixel_driver/joint_states|name|J1,J2,J3,J4,J5,J6|pos|-0.000063,-0.364969,0.392872,-0.000025,-0.571061,0.000021|vel|0.000000,0.698966,-0.657654,0.000000,0.678714,0.000000|eff|-64.453125,-918.457031,-1047.363281,-128.906250,48.339844,-20.141602
cobot_dynamixel_driver/joint_states|name|J1,J2,J3,J4,J5,J6|pos|-0.000063,-0.297032,0.325036,-0.000025,-0.503710,0.000021|vel|0.000000,0.664331,-0.725047,0.000000,0.584611,0.000000|eff|-112.792969,145.019531,-1337.402344,-112.792969,76.538086,-20.141602
cobot_dynamixel_driver/joint_states|name|J1,J2,J3,J4,J5,J6|pos|-0.000050,-0.229384,0.256874,-0.000025,-0.436213,0.000021|vel|0.000000,0.657237,-0.731307,0.000000,0.676645,0.000000|eff|-112.792969,-837.890625,-2030.273438,-128.906250,100.708008,-20.141602
cobot_dynamixel_driver/joint_states|name|J1,J2,J3,J4,J5,J6|pos|-0.000038,-0.161548,0.189225,-0.000038,-0.369007,0.000021|vel|0.000000,0.678519,-0.715449,0.000000,0.682850,0.000000|eff|0.000000,-837.890625,-1788.574219,-177.246094,32.226562,-20.141602
cobot_dynamixel_driver/joint_states|name|J1,J2,J3,J4,J5,J6|pos|-0.000013,-0.094225,0.122015,-0.000038,-0.302131,0.000021|vel|0.000000,0.676015,-0.710233,0.000000,0.676645,0.000000|eff|0.000000,-177.246094,-499.511719,-112.792969,72.509766,-20.141602
cobot_dynamixel_driver/joint_states|name|J1,J2,J3,J4,J5,J6|pos|-0.000013,-0.046292,0.062353,-0.000038,-0.234800,0.000021|vel|0.000000,0.320899,-0.382658,0.000000,0.587024,0.000000|eff|-96.679688,467.285156,-515.625000,-128.906250,80.566406,-20.141602
cobot_dynamixel_driver/joint_states|name|J1,J2,J3,J4,J5,J6|pos|-0.000013,-0.023296,0.031821,-0.000038,-0.167469,0.000021|vel|0.000000,0.156276,-0.188617,0.000000,0.690433,0.000000|eff|0.000000,370.605469,-821.777344,-112.792969,84.594727,-20.141602
cobot_dynamixel_driver/joint_states|name|J1,J2,J3,J4,J5,J6|pos|-0.000013,-0.011980,0.016361,-0.000038,-0.100283,0.000021|vel|0.000000,0.084293,-0.114130,0.000000,0.718354,0.000000|eff|0.000000,322.265625,-854.003906,-96.679688,12.084961,-20.141602
cobot_dynamixel_driver/joint_states|name|J1,J2,J3,J4,J5,J6|pos|0.000000,-0.006222,0.008437,-0.000038,-0.050948,0.000021|vel|0.000000,0.045276,-0.055709,0.000000,0.309885,0.000000|eff|0.000000,177.246094,-870.117188,-112.792969,8.056641,-20.141602
cobot_dynamixel_driver/joint_states|name|J1,J2,J3,J4,J5,J6|pos|0.000000,-0.003217,0.004356,-0.000038,-0.026291,0.000021|vel|0.000000,0.021699,-0.031297,0.000000,0.182691,0.000000|eff|0.000000,193.359375,-854.003906,-161.132812,52.368164,-20.141602
cobot_dynamixel_driver/joint_states|name|J1,J2,J3,J4,J5,J6|pos|0.000000,-0.001640,0.002216,-0.000038,-0.013549,0.000021|vel|0.000000,0.015023,-0.007929,0.000000,0.084451,0.000000|eff|-112.792969,209.472656,-918.457031,-96.679688,60.424805,-20.141602
cobot_dynamixel_driver/joint_states|name|J1,J2,J3,J4,J5,J6|pos|0.000000,-0.000876,0.001277,-0.000038,-0.006992,0.000021|vel|0.000000,0.005633,-0.005842,0.000000,0.038951,0.000000|eff|-112.792969,145.019531,-934.570312,-112.792969,72.509766,-20.141602
cobot_dynamixel_driver/joint_states|name|J1,J2,J3,J4,J5,J6|pos|0.000000,-0.000401,0.000739,-0.000038,-0.003661,0.000021|vel|0.000000,0.003130,-0.010850,0.000000,0.021371,0.000000|eff|-64.453125,177.246094,-886.230469,-96.679688,76.538086,-20.141602
cobot_dynamixel_driver/joint_states|name|J1,J2,J3,J4,J5,J6|pos|0.000000,-0.000113,0.000388,-0.000038,-0.001903,0.000021|vel|0.000000,0.004799,-0.000417,0.000000,0.013788,0.000000|eff|-64.453125,193.359375,-902.343750,-112.792969,76.538086,-20.141602
cobot_dynamixel_driver/joint_states|name|J1,J2,J3,J4,J5,J6|pos|0.000000,-0.000113,0.000325,-0.000038,-0.000972,0.000021|vel|0.000000,-0.004799,-0.001043,0.000000,0.008962,0.000000|eff|0.000000,402.832031,-918.457031,-96.679688,76.538086,-20.141602
cobot_dynamixel_driver/joint_states|name|J1,J2,J3,J4,J5,J6|pos|0.000000,-0.000113,0.000288,-0.000038,-0.000517,0.000021|vel|0.000000,-0.000000,-0.000626,0.000000,0.005170,0.000000|eff|0.000000,209.472656,-982.910156,-80.566406,68.481445,-20.141602
cobot_dynamixel_driver/joint_states|name|J1,J2,J3,J4,J5,J6|pos|0.000000,-0.000113,0.000263,-0.000025,-0.000517,0.000021|vel|0.000000,-0.000000,0.000000,0.000000,0.005170,0.000000|eff|0.000000,241.699219,-999.023438,-64.453125,52.368164,-20.141602
cobot_dynamixel_driver/joint_states|name|J1,J2,J3,J4,J5,J6|pos|0.000000,-0.000113,-0.000113,-0.000025,-0.000393,0.000021|vel|0.000000,-0.000000,-0.005842,0.000000,0.002758,0.000000|eff|0.000000,209.472656,-902.343750,-96.679688,80.566406,-20.141602
cobot_dynamixel_driver/joint_states|name|J1,J2,J3,J4,J5,J6|pos|0.000000,-0.000113,-0.000401,-0.000025,-0.000207,0.000021|vel|0.000000,-0.000000,-0.001878,0.000000,0.004136,0.000000|eff|0.000000,193.359375,-789.550781,-96.679688,72.509766,-20.141602
cobot_dynamixel_driver/joint_states|name|J1,J2,J3,J4,J5,J6|pos|0.000000,-0.000063,-0.000388,-0.000025,-0.000186,0.000021|vel|0.000000,-0.000000,0.000000,0.000000,0.004136,0.000000|eff|0.000000,225.585938,-692.871094,0.000000,48.339844,-20.141602
cobot_dynamixel_driver/joint_states|name|J1,J2,J3,J4,J5,J6|pos|0.000000,-0.000025,-0.000376,-0.000025,-0.000186,0.000021|vel|0.000000,0.000417,0.000000,0.000000,0.000000,0.000000|eff|-80.566406,225.585938,-596.191406,-80.566406,56.396484,-20.141602
cobot_dynamixel_driver/joint_states|name|J1,J2,J3,J4,J5,J6|pos|0.000000,-0.000000,-0.000338,-0.000025,-0.000186,0.000021|vel|0.000000,0.000626,0.000209,0.000000,0.000000,0.000000|eff|0.000000,193.359375,-547.851562,-64.453125,60.424805,-20.141602
cobot_dynamixel_driver/joint_states|name|J1,J2,J3,J4,J5,J6|pos|0.000000,0.000013,-0.000300,-0.000025,-0.000186,0.000021|vel|0.000000,-0.000000,0.000209,0.000000,0.000000,0.000000|eff|-64.453125,193.359375,-483.398438,-112.792969,72.509766,-20.141602
cobot_dynamixel_driver/joint_states|name|J1,J2,J3,J4,J5,J6|pos|0.000000,0.000038,-0.000275,-0.000025,-0.000103,0.000021|vel|0.000000,-0.000000,0.000209,0.000000,0.001379,0.000000|eff|-48.339844,193.359375,-467.285156,-96.679688,80.566406,-20.141602
cobot_dynamixel_driver/joint_states|name|J1,J2,J3,J4,J5,J6|pos|0.000000,0.000050,-0.000250,-0.000025,-0.000041,0.000021|vel|0.000000,-0.000000,0.000209,0.000000,0.002758,0.000000|eff|-64.453125,257.812500,-451.171875,-96.679688,52.368164,-20.141602
cobot_dynamixel_driver/joint_states|name|J1,J2,J3,J4,J5,J6|pos|0.000000,0.000050,-0.000225,-0.000025,-0.000041,0.000021|vel|0.000000,-0.000000,0.000209,0.000000,0.000000,0.000000|eff|-96.679688,273.925781,-354.492188,0.000000,40.283203,-20.141602
cobot_dynamixel_driver/joint_states|name|J1,J2,J3,J4,J5,J6|pos|0.000000,0.000050,-0.000188,-0.000025,-0.000041,0.000021|vel|0.000000,-0.000000,0.000209,0.000000,0.000000,0.000000|eff|-96.679688,209.472656,-354.492188,-32.226562,52.368164,-20.141602
cobot_dynamixel_driver/joint_states|name|J1,J2,J3,J4,J5,J6|pos|0.000000,0.000050,-0.000150,-0.000025,-0.000041,0.000021|vel|0.000000,-0.000000,0.000417,0.000000,0.000000,0.000000|eff|-112.792969,322.265625,-338.378906,-96.679688,28.198242,-20.141602
cobot_dynamixel_driver/joint_states|name|J1,J2,J3,J4,J5,J6|pos|0.000000,0.000050,-0.000100,-0.000025,-0.000041,0.000021|vel|0.000000,-0.000000,0.000209,0.000000,0.000000,0.000000|eff|-112.792969,354.492188,-273.925781,-80.566406,32.226562,-20.141602
cobot_dynamixel_driver/joint_states|name|J1,J2,J3,J4,J5,J6|pos|0.000000,0.000050,-0.000088,-0.000025,-0.000041,0.000021|vel|0.000000,-0.000000,0.000209,0.000000,0.000000,0.000000|eff|0.000000,273.925781,-290.039062,-96.679688,40.283203,-20.141602
cobot_dynamixel_driver/joint_states|name|J1,J2,J3,J4,J5,J6|pos|0.000000,0.000050,-0.000063,-0.000025,-0.000041,0.000021|vel|0.000000,-0.000000,0.000209,0.000000,0.000000,0.000000|eff|0.000000,273.925781,-273.925781,-48.339844,52.368164,-20.141602
cobot_dynamixel_driver/joint_states|name|J1,J2,J3,J4,J5,J6|pos|0.000000,0.000050,-0.000063,-0.000025,-0.000041,0.000021|vel|0.000000,-0.000000,0.000000,0.000000,0.000000,0.000000|eff|-112.792969,402.832031,-338.378906,-112.792969,40.283203,-20.141602
cobot_dynamixel_driver/joint_states|name|J1,J2,J3,J4,J5,J6|pos|0.000000,0.000050,-0.000050,-0.000025,-0.000041,0.000021|vel|0.000000,-0.000000,0.000000,0.000000,0.000000,0.000000|eff|0.000000,386.718750,-290.039062,-64.453125,52.368164,-20.141602
cobot_dynamixel_driver/joint_states|name|J1,J2,J3,J4,J5,J6|pos|0.000000,0.000050,-0.000038,-0.000025,-0.000041,0.000021|vel|0.000000,-0.000000,0.000000,0.000000,0.000000,0.000000|eff|0.000000,209.472656,-273.925781,-96.679688,52.368164,-20.141602
cobot_dynamixel_driver/joint_states|name|J1,J2,J3,J4,J5,J6|pos|0.000000,0.000050,-0.000038,-0.000025,-0.000041,0.000021|vel|0.000000,-0.000000,0.000000,0.000000,0.000000,0.000000|eff|0.000000,209.472656,-273.925781,-96.679688,52.368164,-20.141602
cobot_dynamixel_driver/joint_states|name|J1,J2,J3,J4,J5,J6|pos|0.000000,0.000050,0.000038,-0.000025,-0.000041,0.000021|vel|0.000000,-0.000000,0.000835,0.000000,0.000000,0.000000|eff|-48.339844,402.832031,-290.039062,-96.679688,44.311523,-20.141602
cobot_dynamixel_driver/joint_states|name|J1,J2,J3,J4,J5,J6|pos|0.000000,0.000050,0.000050,-0.000025,-0.000041,0.000021|vel|0.000000,-0.000000,0.000835,0.000000,0.000000,0.000000|eff|-112.792969,225.585938,-273.925781,-96.679688,48.339844,-20.141602
cobot_dynamixel_driver/joint_states|name|J1,J2,J3,J4,J5,J6|pos|0.000000,0.000050,0.000050,-0.000025,-0.000041,0.000021|vel|0.000000,-0.000000,0.000000,0.000000,0.000000,0.000000|eff|0.000000,257.812500,-338.378906,-48.339844,52.368164,-20.141602
cobot_dynamixel_driver/joint_states|name|J1,J2,J3,J4,J5,J6|pos|0.000000,0.000050,0.000050,-0.000025,-0.000041,0.000021|vel|0.000000,-0.000417,0.000000,0.000000,0.000000,0.000000|eff|0.000000,370.605469,-322.265625,-96.679688,52.368164,-20.141602
cobot_dynamixel_driver/joint_states|name|J1,J2,J3,J4,J5,J6|pos|0.000000,0.000050,0.000050,-0.000025,-0.000041,0.000021|vel|0.000000,-0.001252,0.000000,0.000000,0.000000,0.000000|eff|-112.792969,290.039062,-338.378906,-112.792969,48.339844,-20.141602
cobot_dynamixel_driver/joint_states|name|J1,J2,J3,J4,J5,J6|pos|0.000000,0.000050,0.000050,-0.000025,-0.000041,0.000021|vel|0.000000,0.001252,0.000000,0.000000,0.000000,0.000000|eff|-112.792969,209.472656,-338.378906,0.000000,48.339844,-20.141602
cobot_dynamixel_driver/joint_states|name|J1,J2,J3,J4,J5,J6|pos|0.000000,0.000050,0.000050,-0.000025,-0.000041,0.000021|vel|0.000000,-0.001252,0.000000,0.000000,0.000000,0.000000|eff|-96.679688,225.585938,-338.378906,-96.679688,48.339844,-20.141602
cobot_dynamixel_driver/joint_states|name|J1,J2,J3,J4,J5,J6|pos|0.000000,0.000050,0.000050,-0.000025,-0.000041,0.000021|vel|0.000000,-0.001252,0.000000,0.000000,0.000000,0.000000|eff|0.000000,338.378906,-354.492188,-96.679688,48.339844,-20.141602
cobot_dynamixel_driver/joint_states|name|J1,J2,J3,J4,J5,J6|pos|0.000000,0.000050,0.000050,-0.000025,-0.000041,0.000021|vel|0.000000,0.001252,0.000000,0.000000,0.000000,0.000000|eff|-96.679688,225.585938,-338.378906,-96.679688,48.339844,-20.141602
cobot_dynamixel_driver/joint_states|name|J1,J2,J3,J4,J5,J6|pos|0.000000,0.000050,0.000050,-0.000025,-0.000041,0.000021|vel|0.000000,-0.001252,0.000000,0.000000,0.000000,0.000000|eff|0.000000,402.832031,-370.605469,-80.566406,52.368164,-20.141602
cobot_dynamixel_driver/joint_states|name|J1,J2,J3,J4,J5,J6|pos|0.000000,0.000050,0.000050,-0.000025,-0.000041,0.000021|vel|0.000000,0.001252,0.000000,0.000000,0.000000,0.000000|eff|0.000000,273.925781,-338.378906,-96.679688,52.368164,-20.141602
cobot_dynamixel_driver/joint_states|name|J1,J2,J3,J4,J5,J6|pos|0.000000,0.000050,0.000050,-0.000025,-0.000041,0.000021|vel|0.000000,-0.001252,0.000000,0.000000,0.000000,0.000000|eff|0.000000,338.378906,-418.945312,-96.679688,48.339844,-20.141602
cobot_dynamixel_driver/joint_states|name|J1,J2,J3,J4,J5,J6|pos|0.000000,0.000050,0.000050,-0.000025,-0.000041,0.000021|vel|0.000000,0.001252,0.000000,0.000000,0.000000,0.000000|eff|-112.792969,257.812500,-402.832031,-112.792969,32.226562,-20.141602
cobot_dynamixel_driver/joint_states|name|J1,J2,J3,J4,J5,J6|pos|0.000000,0.000050,0.000050,-0.000025,-0.000041,0.000021|vel|0.000000,0.001252,0.000000,0.000000,0.000000,0.000000|eff|-112.792969,209.472656,-435.058594,-96.679688,52.368164,-20.141602
cobot_dynamixel_driver/joint_states|name|J1,J2,J3,J4,J5,J6|pos|0.000000,0.000050,0.000050,-0.000025,-0.000041,0.000021|vel|0.000000,-0.001252,0.000000,0.000000,0.000000,0.000000|eff|0.000000,418.945312,-354.492188,-96.679688,40.283203,-20.141602
cobot_dynamixel_driver/joint_states|name|J1,J2,J3,J4,J5,J6|pos|0.000000,0.000050,0.000050,-0.000025,-0.000041,0.000021|vel|0.000000,0.001252,0.000000,0.000000,0.000000,0.000000|eff|-64.453125,225.585938,-402.832031,-96.679688,40.283203,-20.141602
cobot_dynamixel_driver/joint_states|name|J1,J2,J3,J4,J5,J6|pos|0.000000,0.000050,0.000050,-0.000025,-0.000041,0.000021|vel|0.000000,0.001252,0.000000,0.000000,0.000000,0.000000|eff|0.000000,193.359375,-370.605469,-48.339844,28.198242,-20.141602
cobot_dynamixel_driver/joint_states|name|J1,J2,J3,J4,J5,J6|pos|0.000000,0.000050,0.000050,-0.000025,-0.000041,0.000021|vel|0.000000,-0.001252,0.000000,0.000000,0.000000,0.000000|eff|0.000000,402.832031,-418.945312,-96.679688,52.368164,-20.141602
cobot_dynamixel_driver/joint_states|name|J1,J2,J3,J4,J5,J6|pos|0.000000,0.000050,0.000050,-0.000025,-0.000041,0.000021|vel|0.000000,-0.001252,0.000000,0.000000,0.000000,0.000000|eff|-64.453125,338.378906,-354.492188,-96.679688,40.283203,-20.141602
cobot_dynamixel_driver/joint_states|name|J1,J2,J3,J4,J5,J6|pos|0.000000,0.000050,0.000050,-0.000025,-0.000041,0.000021|vel|0.000000,0.001252,0.000000,0.000000,0.000000,0.000000|eff|0.000000,402.832031,-386.718750,-112.792969,28.198242,-20.141602
cobot_dynamixel_driver/joint_states|name|J1,J2,J3,J4,J5,J6|pos|0.000000,0.000050,0.000050,-0.000025,-0.000041,0.000021|vel|0.000000,0.001252,0.000000,0.000000,0.000000,0.000000|eff|0.000000,273.925781,-435.058594,-48.339844,52.368164,-20.141602
cobot_dynamixel_driver/joint_states|name|J1,J2,J3,J4,J5,J6|pos|0.000000,0.000050,0.000050,-0.000025,-0.000041,0.000021|vel|0.000000,-0.001252,0.000000,0.000000,0.000000,0.000000|eff|-112.792969,241.699219,-402.832031,-96.679688,52.368164,-20.141602
cobot_dynamixel_driver/joint_states|name|J1,J2,J3,J4,J5,J6|pos|0.000000,0.000050,0.000038,-0.000025,-0.000041,0.000021|vel|0.000000,-0.001252,0.000000,0.000000,0.000000,0.000000|eff|0.000000,370.605469,-467.285156,-80.566406,40.283203,-20.141602
cobot_dynamixel_driver/joint_states|name|J1,J2,J3,J4,J5,J6|pos|0.000000,0.000050,0.000038,-0.000025,-0.000041,0.000021|vel|0.000000,0.001252,0.000000,0.000000,0.000000,0.000000|eff|0.000000,338.378906,-402.832031,-96.679688,52.368164,-20.141602
cobot_dynamixel_driver/joint_states|name|J1,J2,J3,J4,J5,J6|pos|0.000000,0.000050,0.000038,-0.000025,-0.000041,0.000021|vel|0.000000,0.001252,0.000000,0.000000,0.000000,0.000000|eff|0.000000,338.378906,-467.285156,-80.566406,32.226562,-20.141602
cobot_dynamixel_driver/joint_states|name|J1,J2,J3,J4,J5,J6|pos|0.000000,0.000050,0.000038,-0.000025,-0.000041,0.000021|vel|0.000000,-0.001252,0.000000,0.000000,0.000000,0.000000|eff|-112.792969,386.718750,-451.171875,-48.339844,52.368164,-20.141602
cobot_dynamixel_driver/joint_states|name|J1,J2,J3,J4,J5,J6|pos|0.000000,0.000050,0.000038,-0.000025,-0.000041,0.000021|vel|0.000000,-0.001252,0.000000,0.000000,0.000000,0.000000|eff|0.000000,209.472656,-467.285156,-96.679688,52.368164,-20.141602
cobot_dynamixel_driver/joint_states|name|J1,J2,J3,J4,J5,J6|pos|0.000000,0.000050,0.000038,-0.000025,-0.000041,0.000021|vel|0.000000,-0.001252,0.000000,0.000000,0.000000,0.000000|eff|0.000000,225.585938,-467.285156,-32.226562,52.368164,-20.141602
cobot_dynamixel_driver/joint_states|name|J1,J2,J3,J4,J5,J6|pos|0.000000,0.000050,0.000038,-0.000025,-0.000041,0.000021|vel|0.000000,-0.001252,0.000000,0.000000,0.000000,0.000000|eff|0.000000,209.472656,-467.285156,-96.679688,32.226562,-20.141602
cobot_dynamixel_driver/joint_states|name|J1,J2,J3,J4,J5,J6|pos|0.000000,0.000050,0.000038,-0.000025,-0.000041,0.000021|vel|0.000000,-0.001252,0.000000,0.000000,0.000000,0.000000|eff|0.000000,402.832031,-467.285156,-96.679688,32.226562,-20.141602
cobot_dynamixel_driver/joint_states|name|J1,J2,J3,J4,J5,J6|pos|0.000000,0.000050,0.000038,-0.000025,-0.000041,0.000021|vel|0.000000,0.001252,0.000000,0.000000,0.000000,0.000000|eff|0.000000,225.585938,-467.285156,-32.226562,32.226562,-20.141602
cobot_dynamixel_driver/joint_states|name|J1,J2,J3,J4,J5,J6|pos|0.000000,0.000050,0.000038,-0.000025,-0.000041,0.000021|vel|0.000000,0.001252,0.000000,0.000000,0.000000,0.000000|eff|0.000000,386.718750,-483.398438,0.000000,32.226562,-20.141602
cobot_dynamixel_driver/joint_states|name|J1,J2,J3,J4,J5,J6|pos|0.000000,0.000050,0.000038,-0.000025,-0.000041,0.000021|vel|0.000000,0.001252,0.000000,0.000000,0.000000,0.000000|eff|0.000000,322.265625,-483.398438,-96.679688,48.339844,-20.141602
cobot_dynamixel_driver/joint_states|name|J1,J2,J3,J4,J5,J6|pos|0.000000,0.000050,0.000025,-0.000025,-0.000041,0.000021|vel|0.000000,0.001252,0.000000,0.000000,0.000000,0.000000|eff|0.000000,209.472656,-467.285156,-32.226562,40.283203,-20.141602
cobot_dynamixel_driver/joint_states|name|J1,J2,J3,J4,J5,J6|pos|0.000000,0.000050,0.000025,-0.000025,-0.000041,0.000021|vel|0.000000,-0.001252,0.000000,0.000000,0.000000,0.000000|eff|-64.453125,241.699219,-547.851562,-80.566406,52.368164,-20.141602
cobot_dynamixel_driver/joint_states|name|J1,J2,J3,J4,J5,J6|pos|0.000000,0.000050,0.000025,-0.000025,-0.000041,0.000021|vel|0.000000,0.001043,0.000000,0.000000,0.000000,0.000000|eff|0.000000,370.605469,-467.285156,-96.679688,40.283203,-20.141602
cobot_dynamixel_driver/joint_states|name|J1,J2,J3,J4,J5,J6|pos|0.000000,0.000050,0.000025,-0.000025,-0.000041,0.000021|vel|0.000000,0.001252,0.000000,0.000000,0.000000,0.000000|eff|-64.453125,290.039062,-467.285156,-112.792969,52.368164,-20.141602
cobot_dynamixel_driver/joint_states|name|J1,J2,J3,J4,J5,J6|pos|0.000000,0.000050,0.000025,-0.000025,-0.000041,0.000021|vel|0.000000,-0.001252,0.000000,0.000000,0.000000,0.000000|eff|0.000000,338.378906,-499.511719,0.000000,52.368164,-20.141602
cobot_dynamixel_driver/joint_states|name|J1,J2,J3,J4,J5,J6|pos|0.000000,0.000050,0.000025,-0.000025,-0.000041,0.000021|vel|0.000000,-0.001043,0.000000,0.000000,0.000000,0.000000|eff|0.000000,386.718750,-547.851562,-48.339844,52.368164,0.000000
cobot_dynamixel_driver/joint_states|name|J1,J2,J3,J4,J5,J6|pos|0.000000,0.000050,0.000025,-0.000025,-0.000041,0.000021|vel|0.000000,-0.001252,0.000000,0.000000,0.000000,0.000000|eff|0.000000,257.812500,-547.851562,-80.566406,48.339844,0.000000
cobot_dynamixel_driver/goal|-:J1,J2,J3,J4,J5,J6:0.000000,0.000000,0.000000,0.000000,0.000000,7.647537:vel_
cobot_dynamixel_driver/joint_states|name|J1,J2,J3,J4,J5,J6|pos|0.000000,0.000050,0.000025,-0.000025,-0.000041,0.000021|vel|0.000000,-0.001252,0.000000,0.000000,0.000000,0.000000|eff|0.000000,386.718750,-467.285156,-96.679688,40.283203,0.000000
cobot_dynamixel_driver/goal|-:J1,J2,J3,J4,J5,J6:0.000000,0.000000,0.000000,0.000000,0.000000,-1.418102:vel_
cobot_dynamixel_driver/joint_states|name|J1,J2,J3,J4,J5,J6|pos|0.000025,0.001440,0.001890,-0.000013,-0.000041,0.000021|vel|0.000000,0.003756,0.000000,0.000000,0.000000,0.000000|eff|0.000000,225.585938,-338.378906,0.000000,0.000000,0.000000
cobot_dynamixel_driver/goal|-:J1,J2,J3,J4,J5,J6:0.000000,0.000000,0.000000,0.000000,0.000000,-1.423985:vel_
cobot_dynamixel_driver/joint_states|name|J1,J2,J3,J4,J5,J6|pos|0.000025,0.001452,0.001890,0.000000,-0.000041,-0.009888|vel|0.000000,0.000626,0.000000,0.000000,0.000000,-0.191653|eff|0.000000,241.699219,-354.492188,0.000000,0.000000,-128.906250
cobot_dynamixel_driver/goal|-:J1,J2,J3,J4,J5,J6:0.000000,0.000000,0.000000,0.000000,0.000000,-1.196811:vel_
cobot_dynamixel_driver/joint_states|name|J1,J2,J3,J4,J5,J6|pos|0.000038,0.001452,0.001890,0.000000,-0.000041,-0.040978|vel|0.000000,-0.000000,0.000000,0.000000,0.000000,-0.437424|eff|0.000000,225.585938,-354.492188,0.000000,0.000000,-88.623047
cobot_dynamixel_driver/goal|-:J1,J2,J3,J4,J5,J6:0.000000,0.000000,0.000000,0.000000,0.000000,-1.111112:vel_
cobot_dynamixel_driver/joint_states|name|J1,J2,J3,J4,J5,J6|pos|0.000038,0.001452,0.001890,0.000000,-0.000041,-0.092071|vel|0.000000,-0.000000,0.000000,0.000000,0.000000,-0.642520|eff|0.000000,241.699219,-354.492188,0.000000,0.000000,-100.708008
cobot_dynamixel_driver/goal|-:J1,J2,J3,J4,J5,J6:0.000000,0.000000,0.000000,0.000000,0.000000,-0.976762:vel_
cobot_dynamixel_driver/joint_states|name|J1,J2,J3,J4,J5,J6|pos|0.000038,0.001452,0.001890,0.000000,-0.000041,-0.163435|vel|0.000000,-0.000000,0.000000,0.000000,0.000000,-0.769025|eff|0.000000,241.699219,-354.492188,0.000000,0.000000,-120.849609
cobot_dynamixel_driver/goal|-:J1,J2,J3,J4,J5,J6:0.000000,0.000000,0.000000,0.000000,0.000000,-0.830826:vel_
cobot_dynamixel_driver/joint_states|name|J1,J2,J3,J4,J5,J6|pos|0.000038,0.001452,0.001890,0.000000,-0.000041,-0.245846|vel|0.000000,-0.000000,0.000000,0.000000,0.000000,-0.840033|eff|0.000000,225.585938,-354.492188,0.000000,0.000000,-96.679688
cobot_dynamixel_driver/goal|-:J1,J2,J3,J4,J5,J6:0.000000,0.000000,0.000000,0.000000,0.000000,-0.666594:vel_
cobot_dynamixel_driver/joint_states|name|J1,J2,J3,J4,J5,J6|pos|0.000038,0.001452,0.001890,0.000013,-0.000041,-0.320003|vel|0.000000,-0.000000,0.000000,0.000000,0.000000,-0.693880|eff|0.000000,273.925781,-354.492188,0.000000,0.000000,-52.368164
cobot_dynamixel_driver/goal|-:J1,J2,J3,J4,J5,J6:0.000000,0.000000,0.000000,0.000000,0.000000,-0.493750:vel_
cobot_dynamixel_driver/joint_states|name|J1,J2,J3,J4,J5,J6|pos|0.000038,0.001452,0.001890,0.000013,-0.000041,-0.377570|vel|0.000000,-0.000000,0.000000,0.000000,0.000000,-0.507743|eff|0.000000,225.585938,-354.492188,0.000000,0.000000,-28.198242
cobot_dynamixel_driver/goal|-:J1,J2,J3,J4,J5,J6:0.000000,0.000000,0.000000,0.000000,0.000000,-0.310100:vel_
cobot_dynamixel_driver/joint_states|name|J1,J2,J3,J4,J5,J6|pos|0.000038,0.001452,0.001890,0.000013,-0.000041,-0.418196|vel|0.000000,-0.000000,0.000000,0.000000,0.000000,-0.326431|eff|0.000000,306.152344,-354.492188,0.000000,0.000000,-20.141602
cobot_dynamixel_driver/goal|-:J1,J2,J3,J4,J5,J6:0.000000,0.000000,0.000000,0.000000,0.000000,-0.122369:vel_
cobot_dynamixel_driver/joint_states|name|J1,J2,J3,J4,J5,J6|pos|0.000038,0.001452,0.001890,0.000013,-0.000041,-0.441074|vel|0.000000,-0.000000,0.000000,0.000000,0.000000,-0.136846|eff|0.000000,241.699219,-386.718750,0.000000,0.000000,-12.084961
cobot_dynamixel_driver/goal|-:J1,J2,J3,J4,J5,J6:0.000000,0.000000,0.000000,0.000000,0.000000,0.069124:vel_
cobot_dynamixel_driver/joint_states|name|J1,J2,J3,J4,J5,J6|pos|0.000038,0.001452,0.001890,0.000013,-0.000041,-0.445894|vel|0.000000,-0.000000,0.000000,0.000000,0.000000,0.038606|eff|0.000000,225.585938,-354.492188,0.000000,0.000000,80.566406
cobot_dynamixel_driver/goal|-:J1,J2,J3,J4,J5,J6:0.000000,0.000000,0.000000,0.000000,0.000000,0.261415:vel_
cobot_dynamixel_driver/joint_states|name|J1,J2,J3,J4,J5,J6|pos|0.000038,0.001452,0.001890,0.000013,-0.000041,-0.432304|vel|0.000000,-0.000000,0.000000,0.000000,0.000000,0.244392|eff|0.000000,225.585938,-354.492188,0.000000,0.000000,100.708008
cobot_dynamixel_driver/goal|-:J1,J2,J3,J4,J5,J6:0.000000,0.000000,0.000000,0.000000,0.000000,0.446362:vel_
cobot_dynamixel_driver/joint_states|name|J1,J2,J3,J4,J5,J6|pos|0.000050,0.001452,0.001890,0.000013,-0.000041,-0.399662|vel|0.000000,-0.000000,0.000000,0.000000,0.000000,0.437079|eff|0.000000,225.585938,-418.945312,0.000000,0.000000,96.679688
cobot_dynamixel_driver/goal|-:J1,J2,J3,J4,J5,J6:0.000000,0.000000,0.000000,0.000000,0.000000,0.626142:vel_
cobot_dynamixel_driver/joint_states|name|J1,J2,J3,J4,J5,J6|pos|0.000050,0.001452,0.001890,0.000013,-0.000041,-0.348776|vel|0.000000,-0.000000,0.000000,0.000000,0.000000,0.584266|eff|0.000000,257.812500,-354.492188,0.000000,0.000000,96.679688
cobot_dynamixel_driver/goal|-:J1,J2,J3,J4,J5,J6:0.000000,0.000000,0.000000,0.000000,0.000000,0.794835:vel_
cobot_dynamixel_driver/joint_states|name|J1,J2,J3,J4,J5,J6|pos|0.000050,0.001452,0.001890,0.000013,-0.000041,-0.280018|vel|0.000000,-0.000000,0.000000,0.000000,0.000000,0.782468|eff|0.000000,290.039062,-354.492188,0.000000,0.000000,120.849609
cobot_dynamixel_driver/goal|-:J1,J2,J3,J4,J5,J6:0.000000,0.000000,0.000000,0.000000,0.000000,0.952745:vel_
cobot_dynamixel_driver/joint_states|name|J1,J2,J3,J4,J5,J6|pos|0.000050,0.001465,0.001890,0.000013,-0.000041,-0.195291|vel|0.000000,-0.000000,0.000000,0.000000,0.000000,1.004455|eff|0.000000,225.585938,-386.718750,0.000000,0.000000,116.821289
cobot_dynamixel_driver/goal|-:J1,J2,J3,J4,J5,J6:0.000000,0.000000,0.000000,0.000000,0.000000,1.095832:vel_
cobot_dynamixel_driver/joint_states|name|J1,J2,J3,J4,J5,J6|pos|0.000050,0.001465,0.001890,0.000013,-0.000041,-0.095194|vel|0.000000,-0.000000,0.000000,0.000000,0.000000,1.176805|eff|0.000000,273.925781,-338.378906,0.000000,0.000000,-88.623047
cobot_dynamixel_driver/goal|-:J1,J2,J3,J4,J5,J6:0.000000,0.000000,0.000000,0.000000,0.000000,1.221730:vel_
cobot_dynamixel_driver/joint_states|name|J1,J2,J3,J4,J5,J6|pos|0.000050,0.001465,0.001890,0.000013,-0.000041,0.018410|vel|0.000000,-0.000000,0.000000,0.000000,0.000000,1.328817|eff|0.000000,225.585938,-354.492188,0.000000,0.000000,120.849609
cobot_dynamixel_driver/goal|-:J1,J2,J3,J4,J5,J6:0.000000,0.000000,0.000000,0.000000,0.000000,1.329362:vel_
cobot_dynamixel_driver/joint_states|name|J1,J2,J3,J4,J5,J6|pos|0.000050,0.001465,0.001890,0.000013,-0.000041,0.144032|vel|0.000000,-0.000000,0.000000,0.000000,0.000000,1.241953|eff|0.000000,225.585938,-354.492188,0.000000,0.000000,124.877930
cobot_dynamixel_driver/goal|-:J1,J2,J3,J4,J5,J6:0.000000,0.000000,0.000000,0.000000,0.000000,1.413653:vel_
cobot_dynamixel_driver/joint_states|name|J1,J2,J3,J4,J5,J6|pos|0.000050,0.001465,0.001890,0.000013,-0.000041,0.278839|vel|0.000000,-0.000000,0.000000,0.000000,0.000000,1.270908|eff|0.000000,225.585938,-354.492188,0.000000,0.000000,68.481445
cobot_dynamixel_driver/goal|-:J1,J2,J3,J4,J5,J6:0.000000,0.000000,0.000000,0.000000,0.000000,1.477101:vel_
cobot_dynamixel_driver/joint_states|name|J1,J2,J3,J4,J5,J6|pos|0.000050,0.001465,0.001890,0.000013,-0.000041,0.420989|vel|0.000000,-0.000000,0.000000,0.000000,0.000000,1.507027|eff|0.000000,322.265625,-354.492188,0.000000,0.000000,140.991211
cobot_dynamixel_driver/goal|-:J1,J2,J3,J4,J5,J6:0.000000,0.000000,0.000000,0.000000,0.000000,1.517310:vel_
cobot_dynamixel_driver/joint_states|name|J1,J2,J3,J4,J5,J6|pos|0.000050,0.001465,0.001890,0.000013,-0.000041,0.568103|vel|0.000000,-0.000000,0.000000,0.000000,0.000000,1.584929|eff|0.000000,370.605469,-386.718750,0.000000,0.000000,149.047852
cobot_dynamixel_driver/goal|-:J1,J2,J3,J4,J5,J6:0.000000,0.000000,0.000000,0.000000,0.000000,1.533462:vel_
cobot_dynamixel_driver/joint_states|name|J1,J2,J3,J4,J5,J6|pos|0.000050,0.001465,0.001890,0.000013,-0.000041,0.717555|vel|0.000000,-0.000000,0.000000,0.000000,0.000000,1.493239|eff|0.000000,225.585938,-354.492188,0.000000,0.000000,120.849609
cobot_dynamixel_driver/goal|-:J1,J2,J3,J4,J5,J6:0.000000,0.000000,0.000000,0.000000,0.000000,1.525185:vel_
cobot_dynamixel_driver/joint_states|name|J1,J2,J3,J4,J5,J6|pos|0.000050,0.001465,0.001890,0.000013,-0.000041,0.866242|vel|0.000000,-0.000000,0.000000,0.000000,0.000000,1.545978|eff|0.000000,241.699219,-354.492188,0.000000,0.000000,92.651367
cobot_dynamixel_driver/goal|-:J1,J2,J3,J4,J5,J6:0.000000,0.000000,0.000000,0.000000,0.000000,1.493028:vel_
cobot_dynamixel_driver/joint_states|name|J1,J2,J3,J4,J5,J6|pos|0.000050,0.001465,0.001890,0.000013,-0.000041,1.012384|vel|0.000000,-0.000000,0.000000,0.000000,0.000000,1.614573|eff|0.000000,290.039062,-354.492188,0.000000,0.000000,48.339844
cobot_dynamixel_driver/goal|-:J1,J2,J3,J4,J5,J6:0.000000,0.000000,0.000000,0.000000,0.000000,1.436835:vel_
cobot_dynamixel_driver/joint_states|name|J1,J2,J3,J4,J5,J6|pos|0.000050,0.001465,0.001890,0.000013,-0.000041,1.154100|vel|0.000000,-0.000000,0.000000,0.000000,0.000000,1.427746|eff|0.000000,225.585938,-354.492188,0.000000,0.000000,104.736328
cobot_dynamixel_driver/goal|-:J1,J2,J3,J4,J5,J6:0.000000,0.000000,0.000000,0.000000,0.000000,1.357698:vel_
cobot_dynamixel_driver/joint_states|name|J1,J2,J3,J4,J5,J6|pos|0.000050,0.001465,0.001890,0.000013,-0.000041,1.289217|vel|0.000000,-0.000000,0.000000,0.000000,0.000000,1.298484|eff|0.000000,225.585938,-338.378906,0.000000,0.000000,-36.254883
cobot_dynamixel_driver/goal|-:J1,J2,J3,J4,J5,J6:0.000000,0.000000,0.000000,0.000000,0.000000,1.256763:vel_
cobot_dynamixel_driver/joint_states|name|J1,J2,J3,J4,J5,J6|pos|0.000050,0.001465,0.001890,0.000013,-0.000041,1.415542|vel|0.000000,-0.000000,0.000000,0.000000,0.000000,1.231957|eff|0.000000,225.585938,-354.492188,0.000000,0.000000,84.594727
cobot_dynamixel_driver/goal|-:J1,J2,J3,J4,J5,J6:0.000000,0.000000,0.000000,0.000000,0.000000,1.136883:vel_
cobot_dynamixel_driver/joint_states|name|J1,J2,J3,J4,J5,J6|pos|0.000050,0.001465,0.001890,0.000013,-0.000041,1.531360|vel|0.000000,-0.000000,0.000000,0.000000,0.000000,1.146126|eff|0.000000,225.585938,-354.492188,0.000000,0.000000,44.311523
cobot_dynamixel_driver/goal|-:J1,J2,J3,J4,J5,J6:0.000000,0.000000,0.000000,0.000000,0.000000,0.997537:vel_
cobot_dynamixel_driver/joint_states|name|J1,J2,J3,J4,J5,J6|pos|0.000050,0.001465,0.001890,0.000013,-0.000041,1.635655|vel|0.000000,-0.000000,0.000000,0.000000,0.000000,1.066501|eff|0.000000,257.812500,-386.718750,0.000000,0.000000,161.132812
cobot_dynamixel_driver/goal|-:J1,J2,J3,J4,J5,J6:0.000000,0.000000,0.000000,0.000000,0.000000,0.840457:vel_
cobot_dynamixel_driver/joint_states|name|J1,J2,J3,J4,J5,J6|pos|0.000050,0.001465,0.001890,0.000013,-0.000041,1.725306|vel|0.000000,-0.000000,0.000000,0.000000,0.000000,0.837275|eff|0.000000,370.605469,-354.492188,0.000000,0.000000,84.594727
cobot_dynamixel_driver/goal|-:J1,J2,J3,J4,J5,J6:0.000000,0.000000,0.000000,0.000000,0.000000,0.672643:vel_
cobot_dynamixel_driver/joint_states|name|J1,J2,J3,J4,J5,J6|pos|0.000050,0.001477,0.001890,0.000013,-0.000041,1.800001|vel|0.000000,-0.000000,0.000000,0.000000,0.000000,0.568065|eff|0.000000,290.039062,-386.718750,0.000000,0.000000,60.424805
cobot_dynamixel_driver/goal|-:J1,J2,J3,J4,J5,J6:0.000000,0.000000,0.000000,0.000000,0.000000,0.492191:vel_
cobot_dynamixel_driver/joint_states|name|J1,J2,J3,J4,J5,J6|pos|0.000050,0.001477,0.001890,0.000013,-0.000041,1.857940|vel|0.000000,-0.000000,0.000000,0.000000,0.000000,0.498780|eff|0.000000,225.585938,-354.492188,0.000000,0.000000,24.169922
cobot_dynamixel_driver/goal|-:J1,J2,J3,J4,J5,J6:0.000000,0.000000,0.000000,0.000000,0.000000,0.305116:vel_
cobot_dynamixel_driver/joint_states|name|J1,J2,J3,J4,J5,J6|pos|0.000050,0.001477,0.001890,0.000013,-0.000041,1.898174|vel|0.000000,-0.000000,0.000000,0.000000,0.000000,0.310574|eff|0.000000,225.585938,-354.492188,0.000000,0.000000,12.084961
cobot_dynamixel_driver/goal|-:J1,J2,J3,J4,J5,J6:0.000000,0.000000,0.000000,0.000000,0.000000,0.111142:vel_
cobot_dynamixel_driver/joint_states|name|J1,J2,J3,J4,J5,J6|pos|0.000063,0.001477,0.001890,0.000013,-0.000041,1.920266|vel|0.000000,-0.000000,0.000000,0.000000,0.000000,0.124781|eff|0.000000,273.925781,-354.492188,0.000000,0.000000,8.056641
cobot_dynamixel_driver/goal|-:J1,J2,J3,J4,J5,J6:0.000000,0.000000,0.000000,0.000000,0.000000,-0.084776:vel_
cobot_dynamixel_driver/joint_states|name|J1,J2,J3,J4,J5,J6|pos|0.000063,0.001477,0.001890,0.000013,-0.000041,1.924051|vel|0.000000,-0.000000,0.000000,0.000000,0.000000,-0.059978|eff|0.000000,225.585938,-354.492188,0.000000,0.000000,-56.396484
cobot_dynamixel_driver/goal|-:J1,J2,J3,J4,J5,J6:0.000000,0.000000,0.000000,0.000000,0.000000,-0.282320:vel_
cobot_dynamixel_driver/joint_states|name|J1,J2,J3,J4,J5,J6|pos|0.000063,0.001477,0.001890,0.000013,-0.000041,1.909199|vel|0.000000,-0.000000,0.000000,0.000000,0.000000,-0.274726|eff|0.000000,225.585938,-338.378906,0.000000,0.000000,-108.764648
cobot_dynamixel_driver/goal|-:J1,J2,J3,J4,J5,J6:0.000000,0.000000,0.000000,0.000000,0.000000,-0.472521:vel_
cobot_dynamixel_driver/joint_states|name|J1,J2,J3,J4,J5,J6|pos|0.000063,0.001477,0.001890,0.000013,-0.000041,1.874592|vel|0.000000,-0.000000,0.000000,0.000000,0.000000,-0.464655|eff|0.000000,241.699219,-354.492188,0.000000,0.000000,-112.792969
cobot_dynamixel_driver/goal|-:J1,J2,J3,J4,J5,J6:0.000000,0.000000,0.000000,0.000000,0.000000,-0.658083:vel_
cobot_dynamixel_driver/joint_states|name|J1,J2,J3,J4,J5,J6|pos|0.000063,0.001477,0.001890,0.000013,-0.000041,1.820748|vel|0.000000,-0.000000,0.000000,0.000000,0.000000,-0.637350|eff|0.000000,225.585938,-402.832031,0.000000,0.000000,-120.849609
cobot_dynamixel_driver/goal|-:J1,J2,J3,J4,J5,J6:0.000000,0.000000,0.000000,0.000000,0.000000,-0.831471:vel_
cobot_dynamixel_driver/joint_states|name|J1,J2,J3,J4,J5,J6|pos|0.000063,0.001477,0.001890,0.000013,-0.000041,1.748949|vel|0.000000,-0.000000,0.000000,0.000000,0.000000,-0.822109|eff|0.000000,370.605469,-354.492188,0.000000,0.000000,-104.736328
cobot_dynamixel_driver/goal|-:J1,J2,J3,J4,J5,J6:0.000000,0.000000,0.000000,0.000000,0.000000,-0.993693:vel_
cobot_dynamixel_driver/joint_states|name|J1,J2,J3,J4,J5,J6|pos|0.000063,0.001477,0.001890,0.000013,-0.000041,1.659981|vel|0.000000,-0.000000,0.000000,0.000000,0.000000,-0.976879|eff|0.000000,241.699219,-338.378906,0.000000,0.000000,-76.538086
cobot_dynamixel_driver/goal|-:J1,J2,J3,J4,J5,J6:0.000000,0.000000,0.000000,0.000000,0.000000,-1.139522:vel_
cobot_dynamixel_driver/joint_states|name|J1,J2,J3,J4,J5,J6|pos|0.000063,0.001477,0.001890,0.000013,-0.000041,1.555913|vel|0.000000,-0.000000,0.000000,0.000000,0.000000,-1.206104|eff|0.000000,322.265625,-354.492188,0.000000,0.000000,52.368164
cobot_dynamixel_driver/goal|-:J1,J2,J3,J4,J5,J6:0.000000,0.000000,0.000000,0.000000,0.000000,-1.270361:vel_
cobot_dynamixel_driver/joint_states|name|J1,J2,J3,J4,J5,J6|pos|0.000063,0.001477,0.001890,0.000013,-0.000041,1.438089|vel|0.000000,-0.000000,0.000000,0.000000,0.000000,-1.281249|eff|0.000000,225.585938,-354.492188,0.000000,0.000000,-165.161133
cobot_dynamixel_driver/goal|-:J1,J2,J3,J4,J5,J6:0.000000,0.000000,0.000000,0.000000,0.000000,-1.380204:vel_
cobot_dynamixel_driver/joint_states|name|J1,J2,J3,J4,J5,J6|pos|0.000063,0.001477,0.001890,0.000013,-0.000041,1.307668|vel|0.000000,-0.000000,0.000000,0.000000,0.000000,-1.344329|eff|0.000000,225.585938,-338.378906,0.000000,0.000000,-40.283203
cobot_dynamixel_driver/goal|-:J1,J2,J3,J4,J5,J6:0.000000,0.000000,0.000000,0.000000,0.000000,-1.468543:vel_
cobot_dynamixel_driver/joint_states|name|J1,J2,J3,J4,J5,J6|pos|0.000063,0.001477,0.001890,0.000025,-0.000041,1.167876|vel|0.000000,-0.000000,0.000000,0.000000,0.000000,-1.459458|eff|0.000000,273.925781,-354.492188,0.000000,0.000000,-120.849609
cobot_dynamixel_driver/goal|-:J1,J2,J3,J4,J5,J6:0.000000,0.000000,0.000000,0.000000,0.000000,-1.533453:vel_
cobot_dynamixel_driver/joint_states|name|J1,J2,J3,J4,J5,J6|pos|0.000063,0.001477,0.001890,0.000025,-0.000041,1.020141|vel|0.000000,-0.000000,0.000000,0.000000,0.000000,-1.441189|eff|0.000000,241.699219,-354.492188,0.000000,0.000000,8.056641
cobot_dynamixel_driver/goal|-:J1,J2,J3,J4,J5,J6:0.000000,0.000000,0.000000,0.000000,0.000000,-1.574830:vel_
cobot_dynamixel_driver/joint_states|name|J1,J2,J3,J4,J5,J6|pos|0.000063,0.001477,0.001890,0.000025,-0.000041,0.867566|vel|0.000000,-0.000000,0.000000,0.000000,0.000000,-1.621122|eff|0.000000,225.585938,-354.492188,0.000000,0.000000,-64.453125
cobot_dynamixel_driver/goal|-:J1,J2,J3,J4,J5,J6:0.000000,0.000000,0.000000,0.000000,0.000000,-1.591901:vel_
cobot_dynamixel_driver/joint_states|name|J1,J2,J3,J4,J5,J6|pos|0.000063,0.001477,0.001890,0.000025,-0.000041,0.712611|vel|0.000000,-0.000000,0.000000,0.000000,0.000000,-1.620433|eff|0.000000,241.699219,-402.832031,0.000000,0.000000,-104.736328
cobot_dynamixel_driver/goal|-:J1,J2,J3,J4,J5,J6:0.000000,0.000000,0.000000,0.000000,0.000000,-1.583941:vel_
cobot_dynamixel_driver/joint_states|name|J1,J2,J3,J4,J5,J6|pos|0.000063,0.001477,0.001890,0.000025,-0.000041,0.558423|vel|0.000000,-0.000000,0.000000,0.000000,0.000000,-1.480140|eff|0.000000,225.585938,-354.492188,0.000000,0.000000,-68.481445
cobot_dynamixel_driver/goal|-:J1,J2,J3,J4,J5,J6:0.000000,0.000000,0.000000,0.000000,0.000000,-5.294809:vel_
cobot_dynamixel_driver/joint_states|name|J1,J2,J3,J4,J5,J6|pos|0.000063,0.001477,0.001890,0.000025,-0.000041,0.404296|vel|0.000000,-0.000000,0.000000,0.000000,0.000000,-1.495652|eff|0.000000,257.812500,-354.492188,0.000000,0.000000,-16.113281
cobot_dynamixel_driver/goal|-:J1,J2,J3,J4,J5,J6:0.000000,0.000000,0.000000,0.000000,0.000000,-1.470768:vel_
cobot_dynamixel_driver/joint_states|name|J1,J2,J3,J4,J5,J6|pos|0.000063,0.001477,0.001890,0.000025,-0.000041,0.256209|vel|0.000000,-0.000000,0.000000,0.000000,0.000000,-1.289521|eff|0.000000,225.585938,-354.492188,0.000000,0.000000,-52.368164
cobot_dynamixel_driver/goal|-:J1,J2,J3,J4,J5,J6:0.000000,0.000000,0.000000,0.000000,0.000000,-1.414639:vel_
cobot_dynamixel_driver/joint_states|name|J1,J2,J3,J4,J5,J6|pos|0.000063,0.001477,0.001890,0.000025,-0.000041,0.117369|vel|0.000000,-0.000000,0.000000,0.000000,0.000000,-1.313306|eff|0.000000,225.585938,-354.492188,0.000000,0.000000,-72.509766
cobot_dynamixel_driver/goal|-:J1,J2,J3,J4,J5,J6:0.000000,0.000000,0.000000,0.000000,0.000000,-1.333494:vel_
cobot_dynamixel_driver/joint_states|name|J1,J2,J3,J4,J5,J6|pos|0.000063,0.001477,0.001890,0.000025,-0.000041,-0.015038|vel|0.000000,-0.000000,0.000000,0.000000,0.000000,-1.359151|eff|0.000000,225.585938,-354.492188,0.000000,0.000000,-92.651367
cobot_dynamixel_driver/goal|-:J1,J2,J3,J4,J5,J6:0.000000,0.000000,0.000000,0.000000,0.000000,-1.231547:vel_
cobot_dynamixel_driver/joint_states|name|J1,J2,J3,J4,J5,J6|pos|0.000063,0.001477,0.001890,0.000025,-0.000041,-0.138902|vel|0.000000,-0.000000,0.000000,0.000000,0.000000,-1.262635|eff|0.000000,322.265625,-354.492188,0.000000,0.000000,-80.566406
cobot_dynamixel_driver/goal|-:J1,J2,J3,J4,J5,J6:0.000000,0.000000,0.000000,0.000000,0.000000,-1.110627:vel_
cobot_dynamixel_driver/joint_states|name|J1,J2,J3,J4,J5,J6|pos|0.000063,0.001477,0.001890,0.000025,-0.000041,-0.252010|vel|0.000000,-0.000000,0.000000,0.000000,0.000000,-1.085459|eff|0.000000,290.039062,-354.492188,0.000000,0.000000,-76.538086
cobot_dynamixel_driver/goal|-:J1,J2,J3,J4,J5,J6:0.000000,0.000000,0.000000,0.000000,0.000000,-0.971951:vel_
cobot_dynamixel_driver/joint_states|name|J1,J2,J3,J4,J5,J6|pos|0.000063,0.001477,0.001890,0.000025,-0.000041,-0.353389|vel|0.000000,-0.000000,0.000000,0.000000,0.000000,-0.996527|eff|0.000000,225.585938,-354.492188,0.000000,0.000000,-60.424805
cobot_dynamixel_driver/goal|-:J1,J2,J3,J4,J5,J6:0.000000,0.000000,0.000000,0.000000,0.000000,-0.817656:vel_
cobot_dynamixel_driver/joint_states|name|J1,J2,J3,J4,J5,J6|pos|0.000063,0.001477,0.001890,0.000025,-0.000041,-0.440371|vel|0.000000,-0.000000,0.000000,0.000000,0.000000,-0.831071|eff|0.000000,257.812500,-354.492188,0.000000,0.000000,-84.594727
cobot_dynamixel_driver/goal|-:J1,J2,J3,J4,J5,J6:0.000000,0.000000,0.000000,0.000000,0.000000,-0.651845:vel_
cobot_dynamixel_driver/joint_states|name|J1,J2,J3,J4,J5,J6|pos|0.000063,0.001477,0.001890,0.000025,-0.000041,-0.513039|vel|0.000000,-0.000000,0.000000,0.000000,0.000000,-0.624596|eff|0.000000,241.699219,-354.492188,0.000000,0.000000,-88.623047
cobot_dynamixel_driver/goal|-:J1,J2,J3,J4,J5,J6:0.000000,0.000000,0.000000,0.000000,0.000000,-0.473901:vel_
cobot_dynamixel_driver/joint_states|name|J1,J2,J3,J4,J5,J6|pos|0.000063,0.001477,0.001890,0.000025,-0.000041,-0.569179|vel|0.000000,-0.000000,0.000000,0.000000,0.000000,-0.492921|eff|0.000000,225.585938,-354.492188,0.000000,0.000000,-12.084961
cobot_dynamixel_driver/goal|-:J1,J2,J3,J4,J5,J6:0.000000,0.000000,0.000000,0.000000,0.000000,-0.289266:vel_
cobot_dynamixel_driver/joint_states|name|J1,J2,J3,J4,J5,J6|pos|0.000063,0.001477,0.001890,0.000025,-0.000041,-0.607757|vel|0.000000,-0.000000,0.000000,0.000000,0.000000,-0.317813|eff|0.000000,225.585938,-354.492188,0.000000,0.000000,-12.084961
cobot_dynamixel_driver/goal|-:J1,J2,J3,J4,J5,J6:0.000000,0.000000,0.000000,0.000000,0.000000,-0.099686:vel_
cobot_dynamixel_driver/joint_states|name|J1,J2,J3,J4,J5,J6|pos|0.000063,0.001477,0.001890,0.000025,-0.000041,-0.628691|vel|0.000000,-0.000000,0.000000,0.000000,0.000000,-0.109270|eff|0.000000,225.585938,-354.492188,0.000000,0.000000,-8.056641
cobot_dynamixel_driver/goal|-:J1,J2,J3,J4,J5,J6:0.000000,0.000000,0.000000,0.000000,0.000000,0.092377:vel_
cobot_dynamixel_driver/joint_states|name|J1,J2,J3,J4,J5,J6|pos|0.000063,0.001477,0.001890,0.000025,-0.000041,-0.631214|vel|0.000000,-0.000000,0.000000,0.000000,0.000000,0.068595|eff|0.000000,225.585938,-354.492188,0.000000,0.000000,72.509766
cobot_dynamixel_driver/goal|-:J1,J2,J3,J4,J5,J6:0.000000,0.000000,0.000000,0.000000,0.000000,0.280871:vel_
cobot_dynamixel_driver/joint_states|name|J1,J2,J3,J4,J5,J6|pos|0.000063,0.001477,0.001890,0.000025,-0.000041,-0.615473|vel|0.000000,-0.000000,0.000000,0.000000,0.000000,0.271279|eff|0.000000,290.039062,-354.492188,0.000000,0.000000,124.877930
cobot_dynamixel_driver/goal|-:J1,J2,J3,J4,J5,J6:0.000000,0.000000,0.000000,0.000000,0.000000,0.466979:vel_
cobot_dynamixel_driver/joint_states|name|J1,J2,J3,J4,J5,J6|pos|0.000063,0.001477,0.001890,0.000025,-0.000041,-0.580659|vel|0.000000,-0.000000,0.000000,0.000000,0.000000,0.459829|eff|0.000000,257.812500,-354.492188,0.000000,0.000000,96.679688
cobot_dynamixel_driver/goal|-:J1,J2,J3,J4,J5,J6:0.000000,0.000000,0.000000,0.000000,0.000000,0.645979:vel_
cobot_dynamixel_driver/joint_states|name|J1,J2,J3,J4,J5,J6|pos|0.000063,0.001477,0.001890,0.000025,-0.000041,-0.527829|vel|0.000000,-0.000000,0.000000,0.000000,0.000000,0.669751|eff|0.000000,225.585938,-354.492188,0.000000,0.000000,136.962891
cobot_dynamixel_driver/goal|-:J1,J2,J3,J4,J5,J6:0.000000,0.000000,0.000000,0.000000,0.000000,0.813536:vel_
cobot_dynamixel_driver/joint_states|name|J1,J2,J3,J4,J5,J6|pos|0.000063,0.001477,0.001890,0.000025,-0.000041,-0.457106|vel|0.000000,-0.000000,0.000000,0.000000,0.000000,0.822109|eff|0.000000,225.585938,-354.492188,0.000000,0.000000,145.019531
cobot_dynamixel_driver/goal|-:J1,J2,J3,J4,J5,J6:0.000000,0.000000,0.000000,0.000000,0.000000,0.969998:vel_
cobot_dynamixel_driver/joint_states|name|J1,J2,J3,J4,J5,J6|pos|0.000063,0.001477,0.001890,0.000025,-0.000041,-0.375316|vel|0.000000,-0.000000,0.000000,0.000000,0.000000,1.003765|eff|0.000000,225.585938,-338.378906,0.000000,0.000000,88.623047
cobot_dynamixel_driver/goal|-:J1,J2,J3,J4,J5,J6:0.000000,0.000000,0.000000,0.000000,0.000000,1.158423:vel_
