surachairobotic/cobot/cobot_dynamixel_driver/log/2018-12-19T11:02:17.664406_driver_log.txt
cobot_dynamixel_driver/joint_states|name|J1,J2,J3,J4,J5,J6|pos|-0.012017,-1.268785,1.259221,-0.214475,-1.270289,-0.000083|vel|0.000000,-0.000000,0.000000,0.000000,0.000000,0.000000|eff|0.000000,0.000000,-96.679688,0.000000,0.000000,0.000000
cobot_dynamixel_driver/joint_states|name|J1,J2,J3,J4,J5,J6|pos|-0.012017,-1.268785,1.259221,-0.214475,-1.270289,-0.000083|vel|0.000000,-0.000000,0.000000,0.000000,0.000000,0.000000|eff|0.000000,0.000000,-96.679688,0.000000,0.000000,0.000000
cobot_dynamixel_driver/joint_states|name|J1,J2,J3,J4,J5,J6|pos|-0.012017,-1.268785,1.259221,-0.214475,-1.270289,-0.000083|vel|0.000000,-0.000000,0.000000,0.000000,0.000000,0.000000|eff|0.000000,0.000000,0.000000,0.000000,0.000000,0.000000
cobot_dynamixel_driver/joint_states|name|J1,J2,J3,J4,J5,J6|pos|-0.012017,-1.268785,1.259221,-0.214475,-1.270289,-0.000083|vel|0.000000,-0.000000,0.000000,0.000000,0.000000,0.000000|eff|0.000000,0.000000,-96.679688,0.000000,0.000000,0.000000
cobot_dynamixel_driver/joint_states|name|J1,J2,J3,J4,J5,J6|pos|-0.012017,-1.268785,1.259221,-0.214475,-1.270289,-0.000083|vel|0.000000,-0.000000,0.000000,0.000000,0.000000,0.000000|eff|0.000000,0.000000,-48.339844,0.000000,0.000000,0.000000
cobot_dynamixel_driver/joint_states|name|J1,J2,J3,J4,J5,J6|pos|-0.012017,-1.268785,1.259221,-0.214475,-1.270289,-0.000083|vel|0.000000,-0.000000,0.000000,0.000000,0.000000,0.000000|eff|0.000000,0.000000,-48.339844,0.000000,0.000000,0.000000
cobot_dynamixel_driver/joint_states|name|J1,J2,J3,J4,J5,J6|pos|-0.012017,-1.268785,1.259221,-0.214475,-1.270289,-0.000083|vel|0.000000,-0.000000,0.000000,0.000000,0.000000,0.000000|eff|0.000000,0.000000,-96.679688,0.000000,0.000000,0.000000
cobot_dynamixel_driver/joint_states|name|J1,J2,J3,J4,J5,J6|pos|-0.012017,-1.268785,1.259221,-0.214475,-1.270289,-0.000083|vel|0.000000,-0.000000,0.000000,0.000000,0.000000,0.000000|eff|0.000000,0.000000,-48.339844,0.000000,0.000000,0.000000
cobot_dynamixel_driver/joint_states|name|J1,J2,J3,J4,J5,J6|pos|-0.012017,-1.268785,1.259221,-0.214475,-1.270289,-0.000083|vel|0.000000,-0.000000,0.000000,0.000000,0.000000,0.000000|eff|0.000000,0.000000,-48.339844,0.000000,0.000000,0.000000
cobot_dynamixel_driver/joint_states|name|J1,J2,J3,J4,J5,J6|pos|-0.012017,-1.268785,1.259221,-0.214475,-1.270289,-0.000083|vel|0.000000,-0.000000,0.000000,0.000000,0.000000,0.000000|eff|0.000000,0.000000,0.000000,0.000000,0.000000,0.000000
cobot_dynamixel_driver/joint_states|name|J1,J2,J3,J4,J5,J6|pos|-0.012017,-1.268785,1.259221,-0.214475,-1.270289,-0.000083|vel|0.000000,-0.000000,0.000000,0.000000,0.000000,0.000000|eff|0.000000,0.000000,-96.679688,0.000000,0.000000,0.000000
cobot_dynamixel_driver/joint_states|name|J1,J2,J3,J4,J5,J6|pos|-0.012017,-1.268785,1.259221,-0.214475,-1.270289,-0.000083|vel|0.000000,-0.000000,0.000000,0.000000,0.000000,0.000000|eff|0.000000,0.000000,-96.679688,0.000000,0.000000,0.000000
cobot_dynamixel_driver/joint_states|name|J1,J2,J3,J4,J5,J6|pos|-0.012017,-1.268785,1.259221,-0.214475,-1.270289,-0.000083|vel|0.000000,-0.000000,0.000000,0.000000,0.000000,0.000000|eff|0.000000,0.000000,-96.679688,0.000000,0.000000,0.000000
cobot_dynamixel_driver/joint_states|name|J1,J2,J3,J4,J5,J6|pos|-0.012017,-1.268785,1.259221,-0.214475,-1.270289,-0.000083|vel|0.000000,-0.000000,0.000000,0.000000,0.000000,0.000000|eff|0.000000,0.000000,-80.566406,0.000000,0.000000,0.000000
cobot_dynamixel_driver/joint_states|name|J1,J2,J3,J4,J5,J6|pos|-0.012017,-1.268785,1.259221,-0.214475,-1.270289,-0.000083|vel|0.000000,-0.000000,0.000000,0.000000,0.000000,0.000000|eff|0.000000,0.000000,-48.339844,0.000000,0.000000,0.000000
cobot_dynamixel_driver/joint_states|name|J1,J2,J3,J4,J5,J6|pos|-0.012017,-1.268785,1.259221,-0.214475,-1.270289,-0.000083|vel|0.000000,-0.000000,0.000000,0.000000,0.000000,0.000000|eff|0.000000,0.000000,-96.679688,0.000000,0.000000,0.000000
cobot_dynamixel_driver/joint_states|name|J1,J2,J3,J4,J5,J6|pos|-0.012017,-1.268785,1.259221,-0.214475,-1.270289,-0.000083|vel|0.000000,-0.000000,0.000000,0.000000,0.000000,0.000000|eff|0.000000,0.000000,-96.679688,0.000000,0.000000,0.000000
cobot_dynamixel_driver/joint_states|name|J1,J2,J3,J4,J5,J6|pos|-0.012017,-1.268785,1.259221,-0.214475,-1.270289,-0.000083|vel|0.000000,-0.000000,0.000000,0.000000,0.000000,0.000000|eff|0.000000,0.000000,-96.679688,0.000000,0.000000,0.000000
cobot_dynamixel_driver/joint_states|name|J1,J2,J3,J4,J5,J6|pos|-0.012017,-1.268785,1.259221,-0.214475,-1.270289,-0.000083|vel|0.000000,-0.000000,0.000000,0.000000,0.000000,0.000000|eff|0.000000,0.000000,-48.339844,0.000000,0.000000,0.000000
cobot_dynamixel_driver/joint_states|name|J1,J2,J3,J4,J5,J6|pos|-0.012017,-1.268785,1.259221,-0.214475,-1.270289,-0.000083|vel|0.000000,-0.000000,0.000000,0.000000,0.000000,0.000000|eff|0.000000,0.000000,0.000000,0.000000,0.000000,0.000000
cobot_dynamixel_driver/joint_states|name|J1,J2,J3,J4,J5,J6|pos|-0.012017,-1.268785,1.259221,-0.214475,-1.270289,-0.000083|vel|0.000000,-0.000000,0.000000,0.000000,0.000000,0.000000|eff|0.000000,0.000000,-96.679688,0.000000,0.000000,0.000000
cobot_dynamixel_driver/joint_states|name|J1,J2,J3,J4,J5,J6|pos|-0.012017,-1.268785,1.259221,-0.214475,-1.270289,-0.000083|vel|0.000000,-0.000000,0.000000,0.000000,0.000000,0.000000|eff|0.000000,0.000000,-96.679688,0.000000,0.000000,0.000000
cobot_dynamixel_driver/joint_states|name|J1,J2,J3,J4,J5,J6|pos|-0.012017,-1.268785,1.259221,-0.214475,-1.270289,-0.000083|vel|0.000000,-0.000000,0.000000,0.000000,0.000000,0.000000|eff|0.000000,0.000000,-48.339844,0.000000,0.000000,0.000000
cobot_dynamixel_driver/joint_states|name|J1,J2,J3,J4,J5,J6|pos|-0.012017,-1.268785,1.259221,-0.214475,-1.270289,-0.000083|vel|0.000000,-0.000000,0.000000,0.000000,0.000000,0.000000|eff|0.000000,0.000000,-80.566406,0.000000,0.000000,0.000000
cobot_dynamixel_driver/joint_states|name|J1,J2,J3,J4,J5,J6|pos|-0.012017,-1.268785,1.259221,-0.214475,-1.270289,-0.000083|vel|0.000000,-0.000000,0.000000,0.000000,0.000000,0.000000|eff|0.000000,0.000000,0.000000,0.000000,0.000000,0.000000
cobot_dynamixel_driver/joint_states|name|J1,J2,J3,J4,J5,J6|pos|-0.012017,-1.268785,1.259221,-0.214475,-1.270289,-0.000083|vel|0.000000,-0.000000,0.000000,0.000000,0.000000,0.000000|eff|0.000000,0.000000,0.000000,0.000000,0.000000,0.000000
cobot_dynamixel_driver/joint_states|name|J1,J2,J3,J4,J5,J6|pos|-0.012017,-1.268785,1.259221,-0.214475,-1.270289,-0.000083|vel|0.000000,-0.000000,0.000000,0.000000,0.000000,0.000000|eff|0.000000,0.000000,-96.679688,0.000000,0.000000,0.000000
cobot_dynamixel_driver/joint_states|name|J1,J2,J3,J4,J5,J6|pos|-0.012017,-1.268785,1.259221,-0.214475,-1.270289,-0.000083|vel|0.000000,-0.000000,0.000000,0.000000,0.000000,0.000000|eff|0.000000,0.000000,-48.339844,0.000000,0.000000,0.000000
cobot_dynamixel_driver/joint_states|name|J1,J2,J3,J4,J5,J6|pos|-0.012017,-1.268785,1.259221,-0.214475,-1.270289,-0.000083|vel|0.000000,-0.000000,0.000000,0.000000,0.000000,0.000000|eff|0.000000,0.000000,-48.339844,0.000000,0.000000,0.000000
cobot_dynamixel_driver/joint_states|name|J1,J2,J3,J4,J5,J6|pos|-0.012017,-1.268785,1.259221,-0.214475,-1.270289,-0.000083|vel|0.000000,-0.000000,0.000000,0.000000,0.000000,0.000000|eff|0.000000,0.000000,-96.679688,0.000000,0.000000,0.000000
cobot_dynamixel_driver/joint_states|name|J1,J2,J3,J4,J5,J6|pos|-0.012017,-1.268785,1.259221,-0.214475,-1.270289,-0.000083|vel|0.000000,-0.000000,0.000000,0.000000,0.000000,0.000000|eff|0.000000,0.000000,-48.339844,0.000000,0.000000,0.000000
cobot_dynamixel_driver/joint_states|name|J1,J2,J3,J4,J5,J6|pos|-0.012017,-1.268785,1.259221,-0.214475,-1.270289,-0.000083|vel|0.000000,-0.000000,0.000000,0.000000,0.000000,0.000000|eff|0.000000,0.000000,-32.226562,0.000000,0.000000,0.000000
cobot_dynamixel_driver/joint_states|name|J1,J2,J3,J4,J5,J6|pos|-0.012017,-1.268785,1.259221,-0.214475,-1.270289,-0.000083|vel|0.000000,-0.000000,0.000000,0.000000,0.000000,0.000000|eff|0.000000,0.000000,-96.679688,0.000000,0.000000,0.000000
cobot_dynamixel_driver/joint_states|name|J1,J2,J3,J4,J5,J6|pos|-0.012017,-1.268785,1.259221,-0.214475,-1.270289,-0.000083|vel|0.000000,-0.000000,0.000000,0.000000,0.000000,0.000000|eff|0.000000,0.000000,-32.226562,0.000000,0.000000,0.000000
cobot_dynamixel_driver/joint_states|name|J1,J2,J3,J4,J5,J6|pos|-0.012017,-1.268785,1.259221,-0.214475,-1.270289,-0.000083|vel|0.000000,-0.000000,0.000000,0.000000,0.000000,0.000000|eff|0.000000,0.000000,-48.339844,0.000000,0.000000,0.000000
cobot_dynamixel_driver/joint_states|name|J1,J2,J3,J4,J5,J6|pos|-0.012017,-1.268785,1.259221,-0.214475,-1.270289,-0.000083|vel|0.000000,-0.000000,0.000000,0.000000,0.000000,0.000000|eff|0.000000,0.000000,-32.226562,0.000000,0.000000,0.000000
cobot_dynamixel_driver/joint_states|name|J1,J2,J3,J4,J5,J6|pos|-0.012017,-1.268785,1.259221,-0.214475,-1.270289,-0.000083|vel|0.000000,-0.000000,0.000000,0.000000,0.000000,0.000000|eff|0.000000,0.000000,-32.226562,0.000000,0.000000,0.000000
cobot_dynamixel_driver/joint_states|name|J1,J2,J3,J4,J5,J6|pos|-0.012017,-1.268785,1.259221,-0.214475,-1.270289,-0.000083|vel|0.000000,-0.000000,0.000000,0.000000,0.000000,0.000000|eff|0.000000,0.000000,-96.679688,0.000000,0.000000,0.000000
cobot_dynamixel_driver/joint_states|name|J1,J2,J3,J4,J5,J6|pos|-0.012017,-1.268785,1.259221,-0.214475,-1.270289,-0.000083|vel|0.000000,-0.000000,0.000000,0.000000,0.000000,0.000000|eff|0.000000,0.000000,-96.679688,0.000000,0.000000,0.000000
cobot_dynamixel_driver/joint_states|name|J1,J2,J3,J4,J5,J6|pos|-0.012017,-1.268785,1.259221,-0.214475,-1.270289,-0.000083|vel|0.000000,-0.000000,0.000000,0.000000,0.000000,0.000000|eff|0.000000,0.000000,0.000000,0.000000,0.000000,0.000000
cobot_dynamixel_driver/joint_states|name|J1,J2,J3,J4,J5,J6|pos|-0.012017,-1.268785,1.259221,-0.214475,-1.270289,-0.000083|vel|0.000000,-0.000000,0.000000,0.000000,0.000000,0.000000|eff|0.000000,0.000000,-96.679688,0.000000,0.000000,0.000000
cobot_dynamixel_driver/joint_states|name|J1,J2,J3,J4,J5,J6|pos|-0.012017,-1.268785,1.259221,-0.214475,-1.270289,-0.000083|vel|0.000000,-0.000000,0.000000,0.000000,0.000000,0.000000|eff|0.000000,0.000000,-32.226562,0.000000,0.000000,0.000000
cobot_dynamixel_driver/joint_states|name|J1,J2,J3,J4,J5,J6|pos|-0.012017,-1.268785,1.259221,-0.214475,-1.270289,-0.000083|vel|0.000000,-0.000000,0.000000,0.000000,0.000000,0.000000|eff|0.000000,0.000000,-96.679688,0.000000,0.000000,0.000000
cobot_dynamixel_driver/joint_states|name|J1,J2,J3,J4,J5,J6|pos|-0.012017,-1.268785,1.259221,-0.214475,-1.270289,-0.000083|vel|0.000000,-0.000000,0.000000,0.000000,0.000000,0.000000|eff|0.000000,0.000000,-80.566406,0.000000,0.000000,0.000000
cobot_dynamixel_driver/joint_states|name|J1,J2,J3,J4,J5,J6|pos|-0.012017,-1.268785,1.259221,-0.214475,-1.270289,-0.000083|vel|0.000000,-0.000000,0.000000,0.000000,0.000000,0.000000|eff|0.000000,0.000000,-48.339844,0.000000,0.000000,0.000000
cobot_dynamixel_driver/joint_states|name|J1,J2,J3,J4,J5,J6|pos|-0.012017,-1.268785,1.259221,-0.214475,-1.270289,-0.000083|vel|0.000000,-0.000000,0.000000,0.000000,0.000000,0.000000|eff|0.000000,0.000000,0.000000,0.000000,0.000000,0.000000
cobot_dynamixel_driver/joint_states|name|J1,J2,J3,J4,J5,J6|pos|-0.012017,-1.268785,1.259221,-0.214475,-1.270289,-0.000083|vel|0.000000,-0.000000,0.000000,0.000000,0.000000,0.000000|eff|0.000000,0.000000,0.000000,0.000000,0.000000,0.000000
cobot_dynamixel_driver/joint_states|name|J1,J2,J3,J4,J5,J6|pos|-0.012017,-1.268785,1.259221,-0.214475,-1.270289,-0.000083|vel|0.000000,-0.000000,0.000000,0.000000,0.000000,0.000000|eff|0.000000,0.000000,-96.679688,0.000000,0.000000,0.000000
cobot_dynamixel_driver/joint_states|name|J1,J2,J3,J4,J5,J6|pos|-0.012017,-1.268785,1.259221,-0.214475,-1.270289,-0.000083|vel|0.000000,-0.000000,0.000000,0.000000,0.000000,0.000000|eff|0.000000,0.000000,0.000000,0.000000,0.000000,0.000000
cobot_dynamixel_driver/joint_states|name|J1,J2,J3,J4,J5,J6|pos|-0.012017,-1.268785,1.259221,-0.214475,-1.270289,-0.000083|vel|0.000000,-0.000000,0.000000,0.000000,0.000000,0.000000|eff|0.000000,0.000000,-96.679688,0.000000,0.000000,0.000000
cobot_dynamixel_driver/joint_states|name|J1,J2,J3,J4,J5,J6|pos|-0.012017,-1.268785,1.259221,-0.214475,-1.270289,-0.000083|vel|0.000000,-0.000000,0.000000,0.000000,0.000000,0.000000|eff|0.000000,0.000000,0.000000,0.000000,0.000000,0.000000
cobot_dynamixel_driver/joint_states|name|J1,J2,J3,J4,J5,J6|pos|-0.012017,-1.268785,1.259221,-0.214475,-1.270289,-0.000083|vel|0.000000,-0.000000,0.000000,0.000000,0.000000,0.000000|eff|0.000000,0.000000,-32.226562,0.000000,0.000000,0.000000
cobot_dynamixel_driver/joint_states|name|J1,J2,J3,J4,J5,J6|pos|-0.012017,-1.268785,1.259221,-0.214475,-1.270289,-0.000083|vel|0.000000,-0.000000,0.000000,0.000000,0.000000,0.000000|eff|0.000000,0.000000,-48.339844,0.000000,0.000000,0.000000
cobot_dynamixel_driver/joint_states|name|J1,J2,J3,J4,J5,J6|pos|-0.012017,-1.268785,1.259221,-0.214475,-1.270289,-0.000083|vel|0.000000,-0.000000,0.000000,0.000000,0.000000,0.000000|eff|0.000000,0.000000,-80.566406,0.000000,0.000000,0.000000
cobot_dynamixel_driver/joint_states|name|J1,J2,J3,J4,J5,J6|pos|-0.012017,-1.268785,1.259221,-0.214475,-1.270289,-0.000083|vel|0.000000,-0.000000,0.000000,0.000000,0.000000,0.000000|eff|0.000000,0.000000,-96.679688,0.000000,0.000000,0.000000
cobot_dynamixel_driver/joint_states|name|J1,J2,J3,J4,J5,J6|pos|-0.012017,-1.268785,1.259221,-0.214475,-1.270289,-0.000083|vel|0.000000,-0.000000,0.000000,0.000000,0.000000,0.000000|eff|0.000000,0.000000,-96.679688,0.000000,0.000000,0.000000
cobot_dynamixel_driver/joint_states|name|J1,J2,J3,J4,J5,J6|pos|-0.012017,-1.268785,1.259221,-0.214475,-1.270289,-0.000083|vel|0.000000,-0.000000,0.000000,0.000000,0.000000,0.000000|eff|0.000000,0.000000,0.000000,0.000000,0.000000,0.000000
cobot_dynamixel_driver/joint_states|name|J1,J2,J3,J4,J5,J6|pos|-0.012017,-1.268785,1.259221,-0.214475,-1.270289,-0.000083|vel|0.000000,-0.000000,0.000000,0.000000,0.000000,0.000000|eff|0.000000,0.000000,-80.566406,0.000000,0.000000,0.000000
cobot_dynamixel_driver/joint_states|name|J1,J2,J3,J4,J5,J6|pos|-0.012017,-1.268785,1.259221,-0.214475,-1.270289,-0.000083|vel|0.000000,-0.000000,0.000000,0.000000,0.000000,0.000000|eff|0.000000,0.000000,-80.566406,0.000000,0.000000,0.000000
cobot_dynamixel_driver/joint_states|name|J1,J2,J3,J4,J5,J6|pos|-0.012017,-1.268785,1.259221,-0.214475,-1.270289,-0.000083|vel|0.000000,-0.000000,0.000000,0.000000,0.000000,0.000000|eff|0.000000,0.000000,-32.226562,0.000000,0.000000,0.000000
cobot_dynamixel_driver/joint_states|name|J1,J2,J3,J4,J5,J6|pos|-0.012017,-1.268785,1.259221,-0.214475,-1.270289,-0.000083|vel|0.000000,-0.000000,0.000000,0.000000,0.000000,0.000000|eff|0.000000,0.000000,-32.226562,0.000000,0.000000,0.000000
cobot_dynamixel_driver/joint_states|name|J1,J2,J3,J4,J5,J6|pos|-0.012017,-1.268785,1.259221,-0.214475,-1.270289,-0.000083|vel|0.000000,-0.000000,0.000000,0.000000,0.000000,0.000000|eff|0.000000,0.000000,-80.566406,0.000000,0.000000,0.000000
cobot_dynamixel_driver/joint_states|name|J1,J2,J3,J4,J5,J6|pos|-0.012017,-1.268785,1.259221,-0.214475,-1.270289,-0.000083|vel|0.000000,-0.000000,0.000000,0.000000,0.000000,0.000000|eff|0.000000,0.000000,-96.679688,0.000000,0.000000,0.000000
cobot_dynamixel_driver/joint_states|name|J1,J2,J3,J4,J5,J6|pos|-0.012017,-1.268785,1.259221,-0.214475,-1.270289,-0.000083|vel|0.000000,-0.000000,0.000000,0.000000,0.000000,0.000000|eff|0.000000,0.000000,-96.679688,0.000000,0.000000,0.000000
cobot_dynamixel_driver/joint_states|name|J1,J2,J3,J4,J5,J6|pos|-0.012017,-1.268785,1.259221,-0.214475,-1.270289,-0.000083|vel|0.000000,-0.000000,0.000000,0.000000,0.000000,0.000000|eff|0.000000,0.000000,0.000000,0.000000,0.000000,0.000000
cobot_dynamixel_driver/joint_states|name|J1,J2,J3,J4,J5,J6|pos|-0.012017,-1.268785,1.259221,-0.214475,-1.270289,-0.000083|vel|0.000000,-0.000000,0.000000,0.000000,0.000000,0.000000|eff|0.000000,0.000000,-32.226562,0.000000,0.000000,0.000000
cobot_dynamixel_driver/joint_states|name|J1,J2,J3,J4,J5,J6|pos|-0.012017,-1.268785,1.259221,-0.214475,-1.270289,-0.000083|vel|0.000000,-0.000000,0.000000,0.000000,0.000000,0.000000|eff|0.000000,0.000000,-96.679688,0.000000,0.000000,0.000000
cobot_dynamixel_driver/joint_states|name|J1,J2,J3,J4,J5,J6|pos|-0.012017,-1.268785,1.259221,-0.214475,-1.270289,-0.000083|vel|0.000000,-0.000000,0.000000,0.000000,0.000000,0.000000|eff|0.000000,0.000000,-80.566406,0.000000,0.000000,0.000000
cobot_dynamixel_driver/joint_states|name|J1,J2,J3,J4,J5,J6|pos|-0.012017,-1.268785,1.259221,-0.214475,-1.270289,-0.000083|vel|0.000000,-0.000000,0.000000,0.000000,0.000000,0.000000|eff|0.000000,0.000000,0.000000,0.000000,0.000000,0.000000
cobot_dynamixel_driver/joint_states|name|J1,J2,J3,J4,J5,J6|pos|-0.012017,-1.268785,1.259221,-0.214475,-1.270289,-0.000083|vel|0.000000,-0.000000,0.000000,0.000000,0.000000,0.000000|eff|0.000000,0.000000,0.000000,0.000000,0.000000,0.000000
cobot_dynamixel_driver/joint_states|name|J1,J2,J3,J4,J5,J6|pos|-0.012017,-1.268785,1.259221,-0.214475,-1.270289,-0.000083|vel|0.000000,-0.000000,0.000000,0.000000,0.000000,0.000000|eff|0.000000,0.000000,-32.226562,0.000000,0.000000,0.000000
cobot_dynamixel_driver/joint_states|name|J1,J2,J3,J4,J5,J6|pos|-0.012017,-1.268785,1.259221,-0.214475,-1.270289,-0.000083|vel|0.000000,-0.000000,0.000000,0.000000,0.000000,0.000000|eff|0.000000,0.000000,-80.566406,0.000000,0.000000,0.000000
cobot_dynamixel_driver/joint_states|name|J1,J2,J3,J4,J5,J6|pos|-0.012017,-1.268785,1.259221,-0.214475,-1.270289,-0.000083|vel|0.000000,-0.000000,0.000000,0.000000,0.000000,0.000000|eff|0.000000,0.000000,-48.339844,0.000000,0.000000,0.000000
cobot_dynamixel_driver/joint_states|name|J1,J2,J3,J4,J5,J6|pos|-0.012017,-1.268785,1.259221,-0.214475,-1.270289,-0.000083|vel|0.000000,-0.000000,0.000000,0.000000,0.000000,0.000000|eff|0.000000,0.000000,0.000000,0.000000,0.000000,0.000000
cobot_dynamixel_driver/joint_states|name|J1,J2,J3,J4,J5,J6|pos|-0.012017,-1.268785,1.259221,-0.214475,-1.270289,-0.000083|vel|0.000000,-0.000000,0.000000,0.000000,0.000000,0.000000|eff|0.000000,0.000000,0.000000,0.000000,0.000000,0.000000
cobot_dynamixel_driver/joint_states|name|J1,J2,J3,J4,J5,J6|pos|-0.012017,-1.268785,1.259221,-0.214475,-1.270289,-0.000083|vel|0.000000,-0.000000,0.000000,0.000000,0.000000,0.000000|eff|0.000000,0.000000,-32.226562,0.000000,0.000000,0.000000
cobot_dynamixel_driver/joint_states|name|J1,J2,J3,J4,J5,J6|pos|-0.012017,-1.268785,1.259221,-0.214475,-1.270289,-0.000083|vel|0.000000,-0.000000,0.000000,0.000000,0.000000,0.000000|eff|0.000000,0.000000,-80.566406,0.000000,0.000000,0.000000
cobot_dynamixel_driver/joint_states|name|J1,J2,J3,J4,J5,J6|pos|-0.012017,-1.268785,1.259221,-0.214475,-1.270289,-0.000083|vel|0.000000,-0.000000,0.000000,0.000000,0.000000,0.000000|eff|0.000000,0.000000,0.000000,0.000000,0.000000,0.000000
cobot_dynamixel_driver/joint_states|name|J1,J2,J3,J4,J5,J6|pos|-0.012017,-1.268785,1.259221,-0.214475,-1.270289,-0.000083|vel|0.000000,-0.000000,0.000000,0.000000,0.000000,0.000000|eff|0.000000,0.000000,-48.339844,0.000000,0.000000,0.000000
cobot_dynamixel_driver/joint_states|name|J1,J2,J3,J4,J5,J6|pos|-0.012017,-1.268785,1.259221,-0.214475,-1.270289,-0.000083|vel|0.000000,-0.000000,0.000000,0.000000,0.000000,0.000000|eff|0.000000,0.000000,-96.679688,0.000000,0.000000,0.000000
cobot_dynamixel_driver/joint_states|name|J1,J2,J3,J4,J5,J6|pos|-0.012017,-1.268785,1.259221,-0.214475,-1.270289,-0.000083|vel|0.000000,-0.000000,0.000000,0.000000,0.000000,0.000000|eff|0.000000,0.000000,-96.679688,0.000000,0.000000,0.000000
cobot_dynamixel_driver/joint_states|name|J1,J2,J3,J4,J5,J6|pos|-0.012017,-1.268785,1.259221,-0.214475,-1.270289,-0.000083|vel|0.000000,-0.000000,0.000000,0.000000,0.000000,0.000000|eff|0.000000,0.000000,-32.226562,0.000000,0.000000,0.000000
cobot_dynamixel_driver/joint_states|name|J1,J2,J3,J4,J5,J6|pos|-0.012017,-1.268785,1.259221,-0.214475,-1.270289,-0.000083|vel|0.000000,-0.000000,0.000000,0.000000,0.000000,0.000000|eff|0.000000,0.000000,-48.339844,0.000000,0.000000,0.000000
cobot_dynamixel_driver/joint_states|name|J1,J2,J3,J4,J5,J6|pos|-0.012017,-1.268785,1.259221,-0.214475,-1.270289,-0.000083|vel|0.000000,-0.000000,0.000000,0.000000,0.000000,0.000000|eff|0.000000,0.000000,0.000000,0.000000,0.000000,0.000000
cobot_dynamixel_driver/joint_states|name|J1,J2,J3,J4,J5,J6|pos|-0.012017,-1.268785,1.259221,-0.214475,-1.270289,-0.000083|vel|0.000000,-0.000000,0.000000,0.000000,0.000000,0.000000|eff|0.000000,0.000000,-96.679688,0.000000,0.000000,0.000000
cobot_dynamixel_driver/joint_states|name|J1,J2,J3,J4,J5,J6|pos|-0.012017,-1.268785,1.259221,-0.214475,-1.270289,-0.000083|vel|0.000000,-0.000000,0.000000,0.000000,0.000000,0.000000|eff|0.000000,0.000000,-80.566406,0.000000,0.000000,0.000000
cobot_dynamixel_driver/joint_states|name|J1,J2,J3,J4,J5,J6|pos|-0.012017,-1.268785,1.259221,-0.214475,-1.270289,-0.000083|vel|0.000000,-0.000000,0.000000,0.000000,0.000000,0.000000|eff|0.000000,0.000000,-80.566406,0.000000,0.000000,0.000000
cobot_dynamixel_driver/joint_states|name|J1,J2,J3,J4,J5,J6|pos|-0.012017,-1.268785,1.259221,-0.214475,-1.270289,-0.000083|vel|0.000000,-0.000000,0.000000,0.000000,0.000000,0.000000|eff|0.000000,0.000000,-48.339844,0.000000,0.000000,0.000000
cobot_dynamixel_driver/joint_states|name|J1,J2,J3,J4,J5,J6|pos|-0.012017,-1.268785,1.259221,-0.214475,-1.270289,-0.000083|vel|0.000000,-0.000000,0.000000,0.000000,0.000000,0.000000|eff|0.000000,0.000000,-48.339844,0.000000,0.000000,0.000000
cobot_dynamixel_driver/joint_states|name|J1,J2,J3,J4,J5,J6|pos|-0.012017,-1.268785,1.259221,-0.214475,-1.270289,-0.000083|vel|0.000000,-0.000000,0.000000,0.000000,0.000000,0.000000|eff|0.000000,0.000000,-80.566406,0.000000,0.000000,0.000000
cobot_dynamixel_driver/joint_states|name|J1,J2,J3,J4,J5,J6|pos|-0.012017,-1.268785,1.259221,-0.214475,-1.270289,-0.000083|vel|0.000000,-0.000000,0.000000,0.000000,0.000000,0.000000|eff|0.000000,0.000000,-96.679688,0.000000,0.000000,0.000000
cobot_dynamixel_driver/joint_states|name|J1,J2,J3,J4,J5,J6|pos|-0.012017,-1.268785,1.259221,-0.214475,-1.270289,-0.000083|vel|0.000000,-0.000000,0.000000,0.000000,0.000000,0.000000|eff|0.000000,0.000000,-80.566406,0.000000,0.000000,0.000000
cobot_dynamixel_driver/joint_states|name|J1,J2,J3,J4,J5,J6|pos|-0.012017,-1.268785,1.259221,-0.214475,-1.270289,-0.000083|vel|0.000000,-0.000000,0.000000,0.000000,0.000000,0.000000|eff|0.000000,0.000000,-48.339844,0.000000,0.000000,0.000000
cobot_dynamixel_driver/joint_states|name|J1,J2,J3,J4,J5,J6|pos|-0.012017,-1.268785,1.259221,-0.214475,-1.270289,-0.000083|vel|0.000000,-0.000000,0.000000,0.000000,0.000000,0.000000|eff|0.000000,0.000000,-80.566406,0.000000,0.000000,0.000000
cobot_dynamixel_driver/joint_states|name|J1,J2,J3,J4,J5,J6|pos|-0.012017,-1.268785,1.259221,-0.214475,-1.270289,-0.000083|vel|0.000000,-0.000000,0.000000,0.000000,0.000000,0.000000|eff|0.000000,0.000000,-48.339844,0.000000,0.000000,0.000000
cobot_dynamixel_driver/joint_states|name|J1,J2,J3,J4,J5,J6|pos|-0.012017,-1.268785,1.259221,-0.214475,-1.270289,-0.000083|vel|0.000000,-0.000000,0.000000,0.000000,0.000000,0.000000|eff|0.000000,0.000000,0.000000,0.000000,0.000000,0.000000
cobot_dynamixel_driver/joint_states|name|J1,J2,J3,J4,J5,J6|pos|-0.012017,-1.268785,1.259221,-0.214475,-1.270289,-0.000083|vel|0.000000,-0.000000,0.000000,0.000000,0.000000,0.000000|eff|0.000000,0.000000,-96.679688,0.000000,0.000000,0.000000
cobot_dynamixel_driver/joint_states|name|J1,J2,J3,J4,J5,J6|pos|-0.012017,-1.268785,1.259221,-0.214475,-1.270289,-0.000083|vel|0.000000,-0.000000,0.000000,0.000000,0.000000,0.000000|eff|0.000000,0.000000,-80.566406,0.000000,0.000000,0.000000
cobot_dynamixel_driver/joint_states|name|J1,J2,J3,J4,J5,J6|pos|-0.012017,-1.268785,1.259221,-0.214475,-1.270289,-0.000083|vel|0.000000,-0.000000,0.000000,0.000000,0.000000,0.000000|eff|0.000000,0.000000,-48.339844,0.000000,0.000000,0.000000
cobot_dynamixel_driver/joint_states|name|J1,J2,J3,J4,J5,J6|pos|-0.012017,-1.268785,1.259221,-0.214475,-1.270289,-0.000083|vel|0.000000,-0.000000,0.000000,0.000000,0.000000,0.000000|eff|0.000000,0.000000,-48.339844,0.000000,0.000000,0.000000
cobot_dynamixel_driver/joint_states|name|J1,J2,J3,J4,J5,J6|pos|-0.012017,-1.268785,1.259221,-0.214475,-1.270289,-0.000083|vel|0.000000,-0.000000,0.000000,0.000000,0.000000,0.000000|eff|0.000000,0.000000,-96.679688,0.000000,0.000000,0.000000
cobot_dynamixel_driver/joint_states|name|J1,J2,J3,J4,J5,J6|pos|-0.012017,-1.268785,1.259221,-0.214475,-1.270289,-0.000083|vel|0.000000,-0.000000,0.000000,0.000000,0.000000,0.000000|eff|0.000000,0.000000,-96.679688,0.000000,0.000000,0.000000
cobot_dynamixel_driver/joint_states|name|J1,J2,J3,J4,J5,J6|pos|-0.012017,-1.268785,1.259221,-0.214475,-1.270289,-0.000083|vel|0.000000,-0.000000,0.000000,0.000000,0.000000,0.000000|eff|0.000000,0.000000,-32.226562,0.000000,0.000000,0.000000
cobot_dynamixel_driver/joint_states|name|J1,J2,J3,J4,J5,J6|pos|-0.012017,-1.268785,1.259221,-0.214475,-1.270289,-0.000083|vel|0.000000,-0.000000,0.000000,0.000000,0.000000,0.000000|eff|0.000000,0.000000,-96.679688,0.000000,0.000000,0.000000
cobot_dynamixel_driver/joint_states|name|J1,J2,J3,J4,J5,J6|pos|-0.012017,-1.268785,1.259221,-0.214475,-1.270289,-0.000083|vel|0.000000,-0.000000,0.000000,0.000000,0.000000,0.000000|eff|0.000000,0.000000,-32.226562,0.000000,0.000000,0.000000
cobot_dynamixel_driver/joint_states|name|J1,J2,J3,J4,J5,J6|pos|-0.012017,-1.268785,1.259221,-0.214475,-1.270289,-0.000083|vel|0.000000,-0.000000,0.000000,0.000000,0.000000,0.000000|eff|0.000000,0.000000,-96.679688,0.000000,0.000000,0.000000
cobot_dynamixel_driver/joint_states|name|J1,J2,J3,J4,J5,J6|pos|-0.012017,-1.268785,1.259221,-0.214475,-1.270289,-0.000083|vel|0.000000,-0.000000,0.000000,0.000000,0.000000,0.000000|eff|0.000000,0.000000,0.000000,0.000000,0.000000,0.000000
cobot_dynamixel_driver/joint_states|name|J1,J2,J3,J4,J5,J6|pos|-0.012017,-1.268785,1.259221,-0.214475,-1.270289,-0.000083|vel|0.000000,-0.000000,0.000000,0.000000,0.000000,0.000000|eff|0.000000,0.000000,-32.226562,0.000000,0.000000,0.000000
cobot_dynamixel_driver/joint_states|name|J1,J2,J3,J4,J5,J6|pos|-0.012017,-1.268785,1.259221,-0.214475,-1.270289,-0.000083|vel|0.000000,-0.000000,0.000000,0.000000,0.000000,0.000000|eff|0.000000,0.000000,-96.679688,0.000000,0.000000,0.000000
cobot_dynamixel_driver/joint_states|name|J1,J2,J3,J4,J5,J6|pos|-0.012017,-1.268785,1.259221,-0.214475,-1.270289,-0.000083|vel|0.000000,-0.000000,0.000000,0.000000,0.000000,0.000000|eff|0.000000,0.000000,-80.566406,0.000000,0.000000,0.000000
cobot_dynamixel_driver/joint_states|name|J1,J2,J3,J4,J5,J6|pos|-0.012017,-1.268785,1.259221,-0.214475,-1.270289,-0.000083|vel|0.000000,-0.000000,0.000000,0.000000,0.000000,0.000000|eff|0.000000,0.000000,-96.679688,0.000000,0.000000,0.000000
cobot_dynamixel_driver/goal|-:J1,J2,J3,J4,J5,J6:0.000000,0.000000,0.000000,0.000000,0.000000,0.000000:0.700000,0.700000,0.700000,0.700000,0.700000,0.700000:pos_vel_
cobot_dynamixel_driver/joint_states|name|J1,J2,J3,J4,J5,J6|pos|-0.012017,-1.268785,1.260335,-0.214475,-1.270289,-0.000083|vel|0.000000,-0.000000,0.000000,0.000000,0.000000,0.000000|eff|0.000000,0.000000,0.000000,0.000000,0.000000,0.000000
cobot_dynamixel_driver/joint_states|name|J1,J2,J3,J4,J5,J6|pos|-0.012005,-1.268785,1.260322,-0.214462,-1.270207,-0.000083|vel|0.000000,-0.000000,0.000000,0.000000,0.015167,0.000000|eff|290.039062,-209.472656,-273.925781,161.132812,96.679688,0.000000
cobot_dynamixel_driver/joint_states|name|J1,J2,J3,J4,J5,J6|pos|-0.011579,-1.268359,1.260009,-0.214049,-1.269048,-0.000083|vel|0.040269,0.041938,-0.039226,0.046737,0.093069,0.000000|eff|563.964844,-708.984375,-628.417969,531.738281,124.877930,0.000000
cobot_dynamixel_driver/joint_states|name|J1,J2,J3,J4,J5,J6|pos|-0.010453,-1.266982,1.258670,-0.212397,-1.266090,-0.000083|vel|0.069897,0.107662,-0.118094,0.123310,0.199926,0.000000|eff|402.832031,-1095.703125,-999.023438,773.437500,116.821289,0.000000
cobot_dynamixel_driver/joint_states|name|J1,J2,J3,J4,J5,J6|pos|-0.009213,-1.264378,1.255866,-0.209129,-1.261581,-0.000083|vel|0.060925,0.165457,-0.179645,0.209273,0.228191,0.000000|eff|386.718750,-1740.234375,-1337.402344,870.117188,92.651367,0.000000
cobot_dynamixel_driver/joint_states|name|J1,J2,J3,J4,J5,J6|pos|-0.008087,-1.260423,1.251560,-0.204335,-1.255934,-0.000083|vel|0.057378,0.232850,-0.239735,0.285220,0.290237,0.000000|eff|290.039062,-1836.914062,-1611.328125,757.324219,80.566406,0.000000
cobot_dynamixel_driver/joint_states|name|J1,J2,J3,J4,J5,J6|pos|-0.007073,-1.254927,1.245701,-0.198226,-1.249335,-0.000083|vel|0.051744,0.296278,-0.331748,0.348023,0.328843,0.000000|eff|241.699219,-2046.386719,-1353.515625,886.230469,64.453125,0.000000
cobot_dynamixel_driver/joint_states|name|J1,J2,J3,J4,J5,J6|pos|-0.006146,-1.248242,1.238678,-0.191066,-1.241888,-0.000083|vel|0.051744,0.356786,-0.396429,0.401853,0.360211,0.000000|eff|209.472656,-1675.781250,-1272.949219,1047.363281,88.623047,0.000000
cobot_dynamixel_driver/joint_states|name|J1,J2,J3,J4,J5,J6|pos|-0.005333,-1.240343,1.230654,-0.183117,-1.233656,-0.000083|vel|0.041938,0.431481,-0.397889,0.430229,0.367105,0.000000|eff|225.585938,-2191.406250,-1401.855469,725.097656,52.368164,0.000000
cobot_dynamixel_driver/joint_states|name|J1,J2,J3,J4,J5,J6|pos|-0.004594,-1.231693,1.221754,-0.174416,-1.224823,-0.000083|vel|0.035887,0.450051,-0.467994,0.491154,0.506708,0.000000|eff|128.906250,-2384.765625,-1160.156250,1111.816406,80.566406,0.000000
cobot_dynamixel_driver/joint_states|name|J1,J2,J3,J4,J5,J6|pos|-0.003968,-1.222342,1.212265,-0.165128,-1.215349,-0.000083|vel|0.028376,0.495327,-0.513479,0.476132,0.494644,0.000000|eff|209.472656,-2610.351562,-1289.062500,1127.929688,44.311523,0.000000
cobot_dynamixel_driver/joint_states|name|J1,J2,J3,J4,J5,J6|pos|-0.003468,-1.212353,1.202363,-0.155314,-1.205420,-0.000083|vel|0.024203,0.530797,-0.535805,0.529128,0.467413,0.000000|eff|225.585938,-1434.082031,-1482.421875,563.964844,48.339844,0.000000
cobot_dynamixel_driver/joint_states|name|J1,J2,J3,J4,J5,J6|pos|-0.003017,-1.201775,1.192023,-0.145074,-1.195077,-0.000083|vel|0.022742,0.528085,-0.510350,0.565432,0.593918,0.000000|eff|193.359375,-2110.839844,-1740.234375,628.417969,88.623047,0.000000
cobot_dynamixel_driver/joint_states|name|J1,J2,J3,J4,J5,J6|pos|-0.002579,-1.190896,1.181270,-0.134283,-1.184321,-0.000083|vel|0.021282,0.618011,-0.566476,0.578577,0.630800,0.000000|eff|112.792969,-1998.046875,-854.003906,306.152344,68.481445,0.000000
cobot_dynamixel_driver/joint_states|name|J1,J2,J3,J4,J5,J6|pos|-0.002216,-1.179567,1.170154,-0.123204,-1.173275,-0.000083|vel|0.017944,0.617803,-0.592765,0.585671,0.492576,0.000000|eff|145.019531,-3142.089844,-1337.402344,1595.214844,64.453125,0.000000
cobot_dynamixel_driver/joint_states|name|J1,J2,J3,J4,J5,J6|pos|-0.001903,-1.167950,1.158712,-0.111838,-1.161877,-0.000083|vel|0.013562,0.605284,-0.590470,0.605701,0.589781,0.000000|eff|128.906250,-2255.859375,-1869.140625,1289.062500,64.453125,20.141602
cobot_dynamixel_driver/joint_states|name|J1,J2,J3,J4,J5,J6|pos|-0.001640,-1.156158,1.146907,-0.100158,-1.150211,-0.000083|vel|0.013353,0.635120,-0.612169,0.592348,0.638039,0.000000|eff|128.906250,-757.324219,-660.644531,1272.949219,28.198242,28.198242
cobot_dynamixel_driver/joint_states|name|J1,J2,J3,J4,J5,J6|pos|-0.001415,-1.144178,1.134990,-0.088341,-1.138358,-0.000083|vel|0.010850,0.585254,-0.557504,0.620515,0.651482,0.000000|eff|161.132812,-2787.597656,-1514.648438,225.585938,64.453125,0.000000
cobot_dynamixel_driver/joint_states|name|J1,J2,J3,J4,J5,J6|pos|-0.001227,-1.131885,1.122760,-0.076899,-1.126340,-0.000083|vel|0.008763,0.638250,-0.649517,0.582541,0.618736,0.000000|eff|112.792969,-1466.308594,-805.664062,-80.566406,68.481445,0.000000
cobot_dynamixel_driver/joint_states|name|J1,J2,J3,J4,J5,J6|pos|-0.001039,-1.120068,1.110479,-0.067148,-1.114094,-0.000083|vel|0.008555,0.573987,-0.581290,0.455684,0.659410,0.000000|eff|112.792969,-1127.929688,-1305.175781,547.851562,44.311523,0.000000
cobot_dynamixel_driver/joint_states|name|J1,J2,J3,J4,J5,J6|pos|-0.000926,-1.107525,1.097873,-0.057972,-1.101704,-0.000083|vel|0.004799,0.566476,-0.661619,0.401645,0.635281,0.000000|eff|241.699219,-1224.609375,-644.531250,80.566406,60.424805,0.000000
cobot_dynamixel_driver/joint_states|name|J1,J2,J3,J4,J5,J6|pos|-0.000839,-1.094806,1.085243,-0.050837,-1.089168,-0.000083|vel|0.004590,0.655776,-0.670382,0.340303,0.743862,0.000000|eff|96.679688,-1885.253906,-692.871094,273.925781,52.368164,0.000000
cobot_dynamixel_driver/joint_states|name|J1,J2,J3,J4,J5,J6|pos|-0.000751,-1.081950,1.072524,-0.044315,-1.076571,-0.000083|vel|0.003964,0.642214,-0.685822,0.307128,0.690433,0.000000|eff|128.906250,-2739.257812,-934.570312,435.058594,36.254883,0.000000
cobot_dynamixel_driver/joint_states|name|J1,J2,J3,J4,J5,J6|pos|-0.000676,-1.068994,1.059730,-0.038669,-1.063849,-0.000083|vel|0.005842,0.587549,-0.679979,0.246412,0.686297,0.000000|eff|177.246094,-870.117188,-1804.687500,112.792969,24.169922,0.000000
cobot_dynamixel_driver/joint_states|name|J1,J2,J3,J4,J5,J6|pos|-0.000576,-1.056012,1.046912,-0.033724,-1.051045,-0.000083|vel|0.004173,0.693333,-0.702513,0.227842,0.649759,0.000000|eff|112.792969,-3029.296875,-1901.367188,354.492188,32.226562,36.254883
cobot_dynamixel_driver/joint_states|name|J1,J2,J3,J4,J5,J6|pos|-0.000488,-1.040915,1.032704,-0.028792,-1.036855,-0.000083|vel|0.003964,0.676641,-0.667878,0.205100,0.582887,0.000000|eff|64.453125,-2175.292969,-2271.972656,241.699219,24.169922,24.169922
cobot_dynamixel_driver/joint_states|name|J1,J2,J3,J4,J5,J6|pos|-0.000413,-1.029837,1.020936,-0.025637,-1.025209,-0.000083|vel|0.004590,0.688325,-0.693124,0.181523,0.659755,0.000000|eff|225.585938,-3367.675781,-2126.953125,241.699219,56.396484,8.056641
cobot_dynamixel_driver/joint_states|name|J1,J2,J3,J4,J5,J6|pos|-0.000338,-1.016743,1.007855,-0.022395,-1.012715,-0.000083|vel|0.003547,0.687073,-0.677893,0.155024,0.744896,0.000000|eff|96.679688,-870.117188,-918.457031,225.585938,-36.254883,0.000000
cobot_dynamixel_driver/joint_states|name|J1,J2,J3,J4,J5,J6|pos|-0.000300,-1.003323,0.994410,-0.019553,-0.999187,-0.000083|vel|0.001669,0.711694,-0.709399,0.123310,0.701464,0.000000|eff|128.906250,-483.398438,-660.644531,225.585938,40.283203,20.141602
cobot_dynamixel_driver/joint_states|name|J1,J2,J3,J4,J5,J6|pos|-0.000225,-0.990041,0.981066,-0.017062,-0.986672,-0.000083|vel|0.004173,0.726925,-0.713780,0.118094,0.582198,0.000000|eff|128.906250,-2690.917969,-1562.988281,225.585938,84.594727,36.254883
cobot_dynamixel_driver/joint_states|name|J1,J2,J3,J4,J5,J6|pos|-0.000188,-0.975307,0.966420,-0.014759,-0.971903,-0.000083|vel|0.002921,0.700427,-0.552914,0.102028,0.685608,0.000000|eff|161.132812,-1933.593750,-1788.574219,241.699219,20.141602,24.169922
cobot_dynamixel_driver/joint_states|name|J1,J2,J3,J4,J5,J6|pos|-0.000175,-0.963428,0.954352,-0.013044,-0.959802,-0.000083|vel|0.002921,0.700010,-0.726508,0.092430,0.809010,0.000000|eff|80.566406,-870.117188,-1289.062500,193.359375,20.141602,40.283203
cobot_dynamixel_driver/joint_states|name|J1,J2,J3,J4,J5,J6|pos|-0.000175,-0.950108,0.941020,-0.011429,-0.946832,-0.000083|vel|0.002921,0.716493,-0.613213,0.080955,0.685608,0.000000|eff|128.906250,-596.191406,-918.457031,225.585938,76.538086,0.000000
cobot_dynamixel_driver/joint_states|name|J1,J2,J3,J4,J5,J6|pos|-0.000175,-0.936764,0.927651,-0.010002,-0.933635,-0.000083|vel|0.000209,0.676850,-0.689369,0.070105,0.743517,0.000000|eff|112.792969,-1820.800781,-563.964844,241.699219,-36.254883,24.169922
cobot_dynamixel_driver/joint_states|name|J1,J2,J3,J4,J5,J6|pos|-0.000175,-0.923307,0.914281,-0.008725,-0.920127,-0.000083|vel|0.000209,0.689994,-0.707104,0.068853,0.704911,0.000000|eff|193.359375,-3142.089844,-1595.214844,225.585938,56.396484,20.141602
cobot_dynamixel_driver/joint_states|name|J1,J2,J3,J4,J5,J6|pos|-0.000163,-0.909850,0.900962,-0.007586,-0.906992,-0.000083|vel|0.000209,0.665583,-0.587758,0.056126,0.660789,0.000000|eff|177.246094,-2868.164062,-1901.367188,193.359375,52.368164,20.141602
cobot_dynamixel_driver/joint_states|name|J1,J2,J3,J4,J5,J6|pos|-0.000150,-0.896568,0.887755,-0.006585,-0.893733,-0.000083|vel|0.000209,0.651395,-0.680814,0.046320,0.748343,0.000000|eff|32.226562,-966.796875,-692.871094,177.246094,0.000000,40.283203
cobot_dynamixel_driver/joint_states|name|J1,J2,J3,J4,J5,J6|pos|-0.000150,-0.882986,0.874298,-0.005758,-0.880246,-0.000083|vel|0.000209,0.720666,-0.640337,0.038808,0.695949,0.000000|eff|48.339844,-1063.476562,-628.417969,193.359375,100.708008,8.056641
cobot_dynamixel_driver/joint_states|name|J1,J2,J3,J4,J5,J6|pos|-0.000138,-0.869579,0.860866,-0.005045,-0.866697,-0.000083|vel|0.000209,0.687908,-0.738818,0.034427,0.725937,0.000000|eff|112.792969,-596.191406,-934.570312,193.359375,56.396484,36.254883
cobot_dynamixel_driver/joint_states|name|J1,J2,J3,J4,J5,J6|pos|-0.000088,-0.856096,0.847171,-0.004394,-0.853500,-0.000083|vel|0.002086,0.697923,-0.698758,0.033175,0.588402,0.000000|eff|80.566406,-273.925781,-692.871094,225.585938,64.453125,12.084961
cobot_dynamixel_driver/joint_states|name|J1,J2,J3,J4,J5,J6|pos|-0.000088,-0.842602,0.833877,-0.003818,-0.840385,-0.000083|vel|0.002086,0.678519,-0.672885,0.027750,0.683195,0.000000|eff|161.132812,-596.191406,-2449.218750,209.472656,112.792969,0.000000
cobot_dynamixel_driver/joint_states|name|J1,J2,J3,J4,J5,J6|pos|-0.000075,-0.828957,0.820382,-0.003330,-0.826795,-0.000083|vel|0.002086,0.671425,-0.712737,0.021491,0.587024,0.000000|eff|161.132812,-483.398438,-2271.972656,177.246094,108.764648,44.311523
cobot_dynamixel_driver/joint_states|name|J1,J2,J3,J4,J5,J6|pos|-0.000075,-0.815375,0.806737,-0.002942,-0.813308,-0.000083|vel|0.002086,0.694585,-0.713363,0.016900,0.708702,0.000000|eff|96.679688,-306.152344,-1482.421875,241.699219,28.198242,12.084961
cobot_dynamixel_driver/joint_states|name|J1,J2,J3,J4,J5,J6|pos|-0.000075,-0.801867,0.793405,-0.002541,-0.799800,-0.000083|vel|0.002086,0.695002,-0.725673,0.020865,0.699740,0.000000|eff|0.000000,-273.925781,-1788.574219,128.906250,28.198242,32.226562
cobot_dynamixel_driver/joint_states|name|J1,J2,J3,J4,J5,J6|pos|-0.000075,-0.788423,0.780136,-0.002178,-0.786624,-0.000083|vel|0.002086,0.734019,-0.642006,0.017944,0.696293,0.000000|eff|128.906250,-1820.800781,-1111.816406,128.906250,72.509766,36.254883
cobot_dynamixel_driver/joint_states|name|J1,J2,J3,J4,J5,J6|pos|-0.000075,-0.774916,0.767342,-0.001903,-0.773468,-0.000083|vel|0.000000,0.698758,-0.683318,0.011476,0.813146,0.000000|eff|128.906250,-2884.277344,-660.644531,161.132812,72.509766,36.254883
cobot_dynamixel_driver/joint_states|name|J1,J2,J3,J4,J5,J6|pos|-0.000075,-0.761321,0.752984,-0.001640,-0.759836,-0.000083|vel|0.000000,0.686447,-0.647639,0.013145,0.595986,0.000000|eff|0.000000,-2400.878906,-950.683594,177.246094,-12.084961,32.226562
cobot_dynamixel_driver/joint_states|name|J1,J2,J3,J4,J5,J6|pos|-0.000075,-0.747751,0.740140,-0.001415,-0.746329,-0.000083|vel|0.000000,0.700844,-0.734436,0.009806,0.623906,0.000000|eff|177.246094,-2255.859375,-644.531250,177.246094,88.623047,44.311523
cobot_dynamixel_driver/joint_states|name|J1,J2,J3,J4,J5,J6|pos|-0.000075,-0.734231,0.726470,-0.001252,-0.732987,-0.000083|vel|0.000000,0.697714,-0.667878,0.006885,0.662513,0.000000|eff|112.792969,-2433.105469,-870.117188,193.359375,96.679688,40.283203
cobot_dynamixel_driver/joint_states|name|J1,J2,J3,J4,J5,J6|pos|-0.000075,-0.720687,0.712875,-0.001139,-0.719396,-0.000083|vel|0.000000,0.710025,-0.735688,0.005842,0.686642,0.000000|eff|80.566406,-2964.843750,-1063.476562,145.019531,116.821289,44.311523
cobot_dynamixel_driver/joint_states|name|J1,J2,J3,J4,J5,J6|pos|-0.000075,-0.707092,0.699193,-0.001026,-0.706158,-0.000083|vel|0.000000,0.688117,-0.693541,0.004382,0.662513,0.000000|eff|0.000000,-3512.695312,-1305.175781,145.019531,108.764648,40.283203
cobot_dynamixel_driver/joint_states|name|J1,J2,J3,J4,J5,J6|pos|-0.000063,-0.693510,0.685611,-0.000926,-0.692650,-0.000083|vel|0.000000,0.681023,-0.718996,0.005425,0.608395,0.000000|eff|32.226562,-2239.746094,-1353.515625,193.359375,28.198242,40.283203
cobot_dynamixel_driver/joint_states|name|J1,J2,J3,J4,J5,J6|pos|-0.000063,-0.679940,0.672041,-0.000814,-0.679143,-0.000083|vel|0.000000,0.670590,-0.707312,0.005633,0.712839,0.000000|eff|0.000000,-3142.089844,-1256.835938,209.472656,28.198242,20.141602
cobot_dynamixel_driver/joint_states|name|J1,J2,J3,J4,J5,J6|pos|-0.000063,-0.666408,0.658484,-0.000676,-0.665697,-0.000083|vel|0.000000,0.642840,-0.612378,0.006885,0.731797,0.000000|eff|0.000000,-2900.390625,-1144.042969,161.132812,32.226562,32.226562
cobot_dynamixel_driver/joint_states|name|J1,J2,J3,J4,J5,J6|pos|-0.000063,-0.652876,0.645089,-0.000563,-0.652582,-0.000041|vel|0.000000,0.685404,-0.703974,0.005633,0.690089,0.000000|eff|161.132812,-3641.601562,-1015.136719,193.359375,128.906250,32.226562
cobot_dynamixel_driver/joint_states|name|J1,J2,J3,J4,J5,J6|pos|-0.000063,-0.639218,0.631670,-0.000488,-0.638992,-0.000021|vel|0.000000,0.679771,-0.716493,0.003547,0.676990,0.000000|eff|48.339844,-2916.503906,-612.304688,177.246094,0.000000,40.283203
cobot_dynamixel_driver/joint_states|name|J1,J2,J3,J4,J5,J6|pos|-0.000063,-0.625573,0.618350,-0.000438,-0.625567,0.000000|vel|0.000000,0.811427,-0.713572,0.002504,0.593228,0.001034|eff|177.246094,-1756.347656,-2126.953125,161.132812,100.708008,44.311523
cobot_dynamixel_driver/joint_states|name|J1,J2,J3,J4,J5,J6|pos|-0.000063,-0.612041,0.604543,-0.000376,-0.611956,0.000000|vel|0.000000,0.716284,-0.739652,0.002504,0.684229,0.001034|eff|0.000000,-708.984375,-596.191406,161.132812,76.538086,0.000000
cobot_dynamixel_driver/joint_states|name|J1,J2,J3,J4,J5,J6|pos|-0.000050,-0.598496,0.590885,-0.000351,-0.598470,0.000000|vel|0.000000,0.699384,-0.725673,0.001878,0.709392,0.001034|eff|145.019531,-1095.703125,-692.871094,128.906250,24.169922,40.283203
cobot_dynamixel_driver/joint_states|name|J1,J2,J3,J4,J5,J6|pos|-0.000038,-0.584964,0.577153,-0.000325,-0.584983,0.000000|vel|0.000000,0.716493,-0.655985,0.001043,0.633558,0.001034|eff|0.000000,-3109.863281,-1015.136719,193.359375,48.339844,12.084961
cobot_dynamixel_driver/joint_states|name|J1,J2,J3,J4,J5,J6|pos|-0.000025,-0.571369,0.563420,-0.000313,-0.571454,0.000000|vel|0.000000,0.712737,-0.709190,0.001043,0.647001,0.001034|eff|145.019531,-2997.070312,-1160.156250,145.019531,92.651367,28.198242
cobot_dynamixel_driver/joint_states|name|J1,J2,J3,J4,J5,J6|pos|-0.000025,-0.557775,0.549851,-0.000275,-0.557926,0.000000|vel|0.000000,0.707729,-0.724421,0.001669,0.688021,0.001034|eff|96.679688,-2610.351562,-1353.515625,177.246094,-12.084961,24.169922
cobot_dynamixel_driver/joint_states|name|J1,J2,J3,J4,J5,J6|pos|-0.000013,-0.544242,0.536381,-0.000225,-0.544667,0.000000|vel|0.000209,0.659115,-0.693541,0.002086,0.657687,0.000000|eff|128.906250,-3045.410156,-902.343750,177.246094,64.453125,44.311523
cobot_dynamixel_driver/joint_states|name|J1,J2,J3,J4,J5,J6|pos|-0.000013,-0.530760,0.522836,-0.000188,-0.531387,0.000000|vel|0.000209,0.689369,-0.759474,0.002086,0.695259,0.000000|eff|0.000000,-2384.765625,-870.117188,177.246094,104.736328,0.000000
cobot_dynamixel_driver/joint_states|name|J1,J2,J3,J4,J5,J6|pos|0.000000,-0.517866,0.509342,-0.000163,-0.517900,0.000000|vel|0.000209,0.700844,-0.699175,0.001878,0.599777,0.000000|eff|193.359375,-2271.972656,-708.984375,145.019531,52.368164,16.113281
cobot_dynamixel_driver/joint_states|name|J1,J2,J3,J4,J5,J6|pos|0.000000,-0.504184,0.495985,-0.000150,-0.504351,0.000000|vel|0.000209,0.647013,-0.681857,0.001878,0.714218,0.000000|eff|96.679688,-2626.464844,-628.417969,112.792969,12.084961,36.254883
cobot_dynamixel_driver/joint_states|name|J1,J2,J3,J4,J5,J6|pos|0.000013,-0.490664,0.482578,-0.000150,-0.490926,0.000000|vel|0.000209,0.679562,-0.622810,0.000417,0.691812,0.000000|eff|0.000000,-2916.503906,-1756.347656,145.019531,76.538086,16.113281
cobot_dynamixel_driver/joint_states|name|J1,J2,J3,J4,J5,J6|pos|0.000013,-0.477082,0.468995,-0.000150,-0.477419,0.000000|vel|0.000209,0.677893,-0.645761,0.000417,0.729384,0.000000|eff|80.566406,-2416.992188,-1708.007812,209.472656,100.708008,32.226562
cobot_dynamixel_driver/joint_states|name|J1,J2,J3,J4,J5,J6|pos|0.000013,-0.463500,0.455200,-0.000150,-0.464614,0.000000|vel|0.000209,0.681231,-0.714406,0.000417,0.621149,0.000000|eff|0.000000,-2320.312500,-644.531250,145.019531,40.283203,0.000000
cobot_dynamixel_driver/joint_states|name|J1,J2,J3,J4,J5,J6|pos|0.000025,-0.449943,0.441505,-0.000138,-0.450466,0.000000|vel|0.000209,0.661619,-0.591096,0.000417,0.781434,0.000000|eff|128.906250,-2449.218750,-676.757812,161.132812,88.623047,28.198242
cobot_dynamixel_driver/joint_states|name|J1,J2,J3,J4,J5,J6|pos|0.000025,-0.435622,0.427197,-0.000138,-0.436317,0.000000|vel|0.000209,0.701261,-0.701261,0.000417,0.715252,0.000000|eff|128.906250,-628.417969,-1160.156250,209.472656,32.226562,32.226562
cobot_dynamixel_driver/joint_states|name|J1,J2,J3,J4,J5,J6|pos|0.000025,-0.422740,0.414266,-0.000125,-0.424381,0.000000|vel|0.000000,0.711485,-0.649517,0.000417,0.680782,0.000000|eff|0.000000,-2545.898438,-789.550781,209.472656,108.764648,0.000000
cobot_dynamixel_driver/joint_states|name|J1,J2,J3,J4,J5,J6|pos|0.000025,-0.409246,0.400646,-0.000113,-0.410770,0.000000|vel|0.000000,0.705643,-0.669338,0.000209,0.629077,0.000000|eff|96.679688,-2320.312500,-870.117188,161.132812,40.283203,36.254883
cobot_dynamixel_driver/joint_states|name|J1,J2,J3,J4,J5,J6|pos|0.000025,-0.395789,0.387038,-0.000113,-0.397201,0.000000|vel|0.000000,0.683735,-0.732350,0.000209,0.728006,0.000000|eff|177.246094,-1305.175781,-1063.476562,225.585938,112.792969,16.113281
cobot_dynamixel_driver/joint_states|name|J1,J2,J3,J4,J5,J6|pos|0.000025,-0.382094,0.373556,-0.000100,-0.383735,0.000000|vel|0.000000,0.678936,-0.713363,0.000417,0.755582,0.000000|eff|193.359375,-2320.312500,-966.796875,193.359375,56.396484,24.169922
cobot_dynamixel_driver/joint_states|name|J1,J2,J3,J4,J5,J6|pos|0.000025,-0.368512,0.359849,-0.000088,-0.370289,0.000000|vel|0.000000,0.717119,-0.746746,0.000417,0.597020,0.000000|eff|0.000000,-2110.839844,-1047.363281,145.019531,32.226562,12.084961
cobot_dynamixel_driver/joint_states|name|J1,J2,J3,J4,J5,J6|pos|0.000038,-0.354967,0.346229,-0.000088,-0.356844,0.000000|vel|0.000000,0.632825,-0.745912,0.000417,0.625285,0.000000|eff|32.226562,-2223.632812,-1111.816406,193.359375,80.566406,40.283203
cobot_dynamixel_driver/joint_states|name|J1,J2,J3,J4,J5,J6|pos|0.000038,-0.341397,0.332684,-0.000075,-0.343315,0.000000|vel|0.000000,0.686656,-0.626983,0.000417,0.706979,0.000000|eff|161.132812,-1869.140625,-982.910156,193.359375,28.198242,0.000000
cobot_dynamixel_driver/joint_states|name|J1,J2,J3,J4,J5,J6|pos|0.000038,-0.327752,0.319190,-0.000063,-0.329890,0.000000|vel|0.000000,0.683318,-0.725464,0.000417,0.697327,0.000000|eff|96.679688,-2803.710938,-1192.382812,209.472656,44.311523,8.056641
cobot_dynamixel_driver/joint_states|name|J1,J2,J3,J4,J5,J6|pos|0.000038,-0.314195,0.305670,-0.000063,-0.316383,0.000000|vel|0.000000,0.677893,-0.682066,0.000417,0.733866,0.000000|eff|0.000000,-2143.066406,-725.097656,209.472656,20.141602,8.056641
cobot_dynamixel_driver/joint_states|name|J1,J2,J3,J4,J5,J6|pos|0.000038,-0.299937,0.292025,-0.000063,-0.302234,0.000000|vel|0.000000,0.701470,-0.732558,0.000417,0.681816,0.000000|eff|0.000000,-805.664062,-1853.027344,128.906250,64.453125,0.000000
cobot_dynamixel_driver/joint_states|name|J1,J2,J3,J4,J5,J6|pos|0.000038,-0.287055,0.278493,-0.000050,-0.289368,0.000000|vel|0.000000,0.664748,-0.712111,0.000417,0.771438,0.000000|eff|177.246094,-2046.386719,-757.324219,177.246094,12.084961,8.056641
cobot_dynamixel_driver/joint_states|name|J1,J2,J3,J4,J5,J6|pos|0.000050,-0.273473,0.264948,-0.000050,-0.276046,0.000000|vel|0.000000,0.698758,-0.748624,0.000417,0.658376,0.000000|eff|177.246094,-2191.406250,-741.210938,193.359375,44.311523,0.000000
cobot_dynamixel_driver/joint_states|name|J1,J2,J3,J4,J5,J6|pos|0.000050,-0.259928,0.251416,-0.000050,-0.262994,0.000000|vel|0.000000,0.704182,-0.728594,0.000209,0.758339,0.000000|eff|0.000000,-1981.933594,-628.417969,177.246094,44.311523,24.169922
cobot_dynamixel_driver/joint_states|name|J1,J2,J3,J4,J5,J6|pos|0.000063,-0.246384,0.237934,-0.000050,-0.249611,0.000000|vel|0.000000,0.670799,-0.692916,0.000209,0.695259,0.000000|eff|0.000000,-1933.593750,-660.644531,128.906250,72.509766,40.283203
cobot_dynamixel_driver/joint_states|name|J1,J2,J3,J4,J5,J6|pos|0.000063,-0.232814,0.224377,-0.000038,-0.236000,0.000000|vel|0.000000,0.701470,-0.652855,0.000209,0.580819,0.000000|eff|80.566406,-1546.875000,-547.851562,161.132812,96.679688,16.113281
cobot_dynamixel_driver/joint_states|name|J1,J2,J3,J4,J5,J6|pos|0.000075,-0.219244,0.210719,-0.000038,-0.222823,0.000000|vel|0.000000,0.693124,-0.694167,0.000209,0.669751,0.000000|eff|48.339844,-2819.824219,-918.457031,161.132812,120.849609,36.254883
cobot_dynamixel_driver/joint_states|name|J1,J2,J3,J4,J5,J6|pos|0.000075,-0.205662,0.197049,-0.000038,-0.209212,0.000000|vel|0.000209,0.654316,-0.780547,0.000209,0.720767,0.000000|eff|80.566406,-1611.328125,-837.890625,161.132812,92.651367,32.226562
cobot_dynamixel_driver/joint_states|name|J1,J2,J3,J4,J5,J6|pos|0.000075,-0.192167,0.183517,-0.000038,-0.195725,0.000000|vel|0.000209,0.699384,-0.737566,0.000209,0.707668,0.000000|eff|0.000000,-1176.269531,-676.757812,128.906250,80.566406,16.113281
cobot_dynamixel_driver/joint_states|name|J1,J2,J3,J4,J5,J6|pos|0.000088,-0.178572,0.170210,-0.000038,-0.182611,0.000000|vel|0.000209,0.697714,-0.697088,0.000000,0.678024,0.000000|eff|128.906250,-837.890625,-934.570312,161.132812,169.189453,36.254883
cobot_dynamixel_driver/joint_states|name|J1,J2,J3,J4,J5,J6|pos|0.000088,-0.165065,0.156853,-0.000038,-0.168979,0.000000|vel|0.000209,0.693124,-0.684361,0.000000,0.623217,0.000000|eff|0.000000,-612.304688,-1949.707031,225.585938,84.594727,24.169922
cobot_dynamixel_driver/joint_states|name|J1,J2,J3,J4,J5,J6|pos|0.000100,-0.151508,0.144160,-0.000038,-0.155471,0.000000|vel|0.000209,0.702096,-0.697506,0.000000,0.673543,0.000000|eff|161.132812,-306.152344,-1627.441406,193.359375,68.481445,24.169922
cobot_dynamixel_driver/joint_states|name|J1,J2,J3,J4,J5,J6|pos|0.000100,-0.137988,0.130027,-0.000038,-0.142026,0.000000|vel|0.000209,0.695837,-0.707104,0.000000,0.693191,0.000000|eff|0.000000,-209.472656,-1514.648438,209.472656,145.019531,40.283203
cobot_dynamixel_driver/joint_states|name|J1,J2,J3,J4,J5,J6|pos|0.000100,-0.124444,0.117058,-0.000038,-0.128373,0.000000|vel|0.000000,0.735062,-0.746955,0.000000,0.679748,0.000000|eff|128.906250,-112.792969,-1482.421875,161.132812,32.226562,36.254883
cobot_dynamixel_driver/joint_states|name|J1,J2,J3,J4,J5,J6|pos|0.000100,-0.110786,0.102725,-0.000038,-0.114990,0.000000|vel|0.000000,0.652855,-0.700635,0.000000,0.662513,0.000000|eff|80.566406,-580.078125,-1611.328125,209.472656,84.594727,36.254883
cobot_dynamixel_driver/joint_states|name|J1,J2,J3,J4,J5,J6|pos|0.000100,-0.097417,0.090432,-0.000038,-0.101482,0.000000|vel|0.000000,0.679145,-0.662453,0.000000,0.713873,0.000000|eff|128.906250,563.964844,-708.984375,209.472656,140.991211,36.254883
cobot_dynamixel_driver/joint_states|name|J1,J2,J3,J4,J5,J6|pos|0.000100,-0.084811,0.078527,-0.000038,-0.088513,0.000000|vel|0.000000,0.602363,-0.519947,0.000000,0.660789,0.000000|eff|145.019531,757.324219,-531.738281,225.585938,16.113281,0.000000
cobot_dynamixel_driver/joint_states|name|J1,J2,J3,J4,J5,J6|pos|0.000100,-0.073444,0.068262,-0.000038,-0.077177,0.000000|vel|0.000000,0.533092,-0.500126,0.000000,0.502572,0.000000|eff|0.000000,1063.476562,-338.378906,161.132812,-24.169922,16.113281
cobot_dynamixel_driver/joint_states|name|J1,J2,J3,J4,J5,J6|pos|0.000100,-0.063593,0.059599,-0.000038,-0.067496,0.000000|vel|0.000000,0.482600,-0.399350,0.000000,0.527046,0.000000|eff|0.000000,-193.359375,-837.890625,193.359375,0.000000,24.169922
cobot_dynamixel_driver/joint_states|name|J1,J2,J3,J4,J5,J6|pos|0.000100,-0.055080,0.052076,-0.000025,-0.059077,0.000000|vel|0.000000,0.406861,-0.358246,0.000000,0.399507,0.000000|eff|0.000000,-370.605469,-918.457031,128.906250,28.198242,16.113281
cobot_dynamixel_driver/joint_states|name|J1,J2,J3,J4,J5,J6|pos|0.000100,-0.047820,0.045466,-0.000025,-0.051651,0.000000|vel|0.000000,0.343850,-0.307754,0.000000,0.362624,0.000000|eff|128.906250,-209.472656,-870.117188,177.246094,16.113281,40.283203
cobot_dynamixel_driver/joint_states|name|J1,J2,J3,J4,J5,J6|pos|0.000100,-0.041661,0.039658,-0.000025,-0.045239,0.000000|vel|0.000000,0.312553,-0.254132,0.000000,0.283343,0.000000|eff|0.000000,32.226562,-773.437500,225.585938,44.311523,0.000000
cobot_dynamixel_driver/joint_states|name|J1,J2,J3,J4,J5,J6|pos|0.000100,-0.036303,0.034713,-0.000025,-0.039654,0.000000|vel|0.000000,0.263312,-0.250167,0.000000,0.234051,0.000000|eff|161.132812,32.226562,-789.550781,161.132812,32.226562,0.000000
cobot_dynamixel_driver/joint_states|name|J1,J2,J3,J4,J5,J6|pos|0.000100,-0.031583,0.030394,-0.000025,-0.034731,0.000000|vel|0.000000,0.217827,-0.214280,0.000000,0.208199,0.000000|eff|0.000000,386.718750,-741.210938,177.246094,28.198242,36.254883
cobot_dynamixel_driver/joint_states|name|J1,J2,J3,J4,J5,J6|pos|0.000100,-0.027528,0.026526,-0.000025,-0.030428,0.000000|vel|0.000000,0.194250,-0.190077,0.000000,0.201649,0.000000|eff|0.000000,386.718750,-757.324219,225.585938,48.339844,36.254883
cobot_dynamixel_driver/joint_states|name|J1,J2,J3,J4,J5,J6|pos|0.000100,-0.024048,0.023171,-0.000013,-0.026643,0.000000|vel|0.000000,0.164414,-0.167335,0.000000,0.200615,0.000000|eff|96.679688,273.925781,-741.210938,225.585938,44.311523,8.056641
cobot_dynamixel_driver/joint_states|name|J1,J2,J3,J4,J5,J6|pos|0.000100,-0.021056,0.020292,-0.000013,-0.023333,0.000000|vel|0.000000,0.135412,-0.135203,0.000000,0.168903,0.000000|eff|0.000000,322.265625,-789.550781,209.472656,48.339844,36.254883
cobot_dynamixel_driver/joint_states|name|J1,J2,J3,J4,J5,J6|pos|0.000100,-0.018452,0.017763,-0.000013,-0.020479,0.000000|vel|0.000000,0.122058,-0.125188,0.000000,0.148566,0.000000|eff|0.000000,145.019531,-757.324219,193.359375,64.453125,36.254883
cobot_dynamixel_driver/joint_states|name|J1,J2,J3,J4,J5,J6|pos|0.000100,-0.016149,0.015535,-0.000013,-0.017955,0.000000|vel|0.000000,0.113712,-0.105784,0.000000,0.113406,0.000000|eff|0.000000,322.265625,-805.664062,161.132812,68.481445,40.283203
cobot_dynamixel_driver/joint_states|name|J1,J2,J3,J4,J5,J6|pos|0.000100,-0.014096,0.013682,-0.000013,-0.015700,0.000000|vel|0.000000,0.098273,-0.086797,0.000000,0.106167,0.000000|eff|128.906250,322.265625,-886.230469,145.019531,56.396484,36.254883
cobot_dynamixel_driver/joint_states|name|J1,J2,J3,J4,J5,J6|pos|0.000100,-0.012343,0.012017,-0.000013,-0.013735,0.000000|vel|0.000000,0.081372,-0.086588,0.000000,0.095482,0.000000|eff|48.339844,209.472656,-886.230469,145.019531,64.453125,16.113281
cobot_dynamixel_driver/joint_states|name|J1,J2,J3,J4,J5,J6|pos|0.000100,-0.010916,0.010490,-0.000013,-0.012018,0.000000|vel|0.000000,0.074696,-0.070105,0.000000,0.082383,0.000000|eff|0.000000,257.812500,-821.777344,193.359375,64.453125,24.169922
cobot_dynamixel_driver/joint_states|name|J1,J2,J3,J4,J5,J6|pos|0.000100,-0.009589,0.009188,-0.000013,-0.010508,0.000000|vel|0.000000,0.060925,-0.064263,0.000000,0.072387,0.000000|eff|0.000000,257.812500,-821.777344,193.359375,64.453125,40.283203
cobot_dynamixel_driver/joint_states|name|J1,J2,J3,J4,J5,J6|pos|0.000100,-0.008375,0.008149,-0.000013,-0.009184,0.000000|vel|0.000000,0.055291,-0.048823,0.000000,0.064804,0.000000|eff|0.000000,241.699219,-870.117188,145.019531,64.453125,16.113281
cobot_dynamixel_driver/joint_states|name|J1,J2,J3,J4,J5,J6|pos|0.000100,-0.007323,0.007236,-0.000013,-0.008088,0.000000|vel|0.000000,0.047363,-0.046945,0.000000,0.054463,0.000000|eff|0.000000,257.812500,-950.683594,225.585938,76.538086,24.169922
cobot_dynamixel_driver/joint_states|name|J1,J2,J3,J4,J5,J6|pos|0.000088,-0.006409,0.006322,0.000000,-0.007116,0.000000|vel|0.000000,0.045068,-0.042564,0.000000,0.044466,0.000000|eff|0.000000,273.925781,-918.457031,225.585938,88.623047,0.000000
cobot_dynamixel_driver/joint_states|name|J1,J2,J3,J4,J5,J6|pos|0.000088,-0.005596,0.005483,0.000000,-0.006268,0.000000|vel|0.000000,0.038182,-0.037556,0.000000,0.043087,0.000000|eff|0.000000,241.699219,-870.117188,161.132812,84.594727,36.254883
cobot_dynamixel_driver/joint_states|name|J1,J2,J3,J4,J5,J6|pos|0.000088,-0.004945,0.004707,0.000000,-0.005544,0.000000|vel|0.000000,0.028376,-0.038600,0.000000,0.033091,0.000000|eff|0.000000,193.359375,-805.664062,225.585938,88.623047,40.283203
cobot_dynamixel_driver/joint_states|name|J1,J2,J3,J4,J5,J6|pos|0.000088,-0.004331,0.004131,0.000000,-0.004861,0.000000|vel|0.000000,0.027750,-0.029002,0.000000,0.027231,0.000000|eff|0.000000,257.812500,-837.890625,193.359375,84.594727,16.113281
cobot_dynamixel_driver/joint_states|name|J1,J2,J3,J4,J5,J6|pos|0.000088,-0.003818,0.003555,0.000000,-0.004261,0.000000|vel|0.000000,0.025872,-0.028585,0.000000,0.028955,0.000000|eff|0.000000,257.812500,-918.457031,193.359375,84.594727,0.000000
cobot_dynamixel_driver/joint_states|name|J1,J2,J3,J4,J5,J6|pos|0.000088,-0.003317,0.003180,0.000000,-0.003765,0.000000|vel|0.000000,0.022742,-0.017735,0.000000,0.027576,0.000000|eff|0.000000,225.585938,-854.003906,145.019531,92.651367,24.169922
cobot_dynamixel_driver/joint_states|name|J1,J2,J3,J4,J5,J6|pos|0.000088,-0.002917,0.002729,0.000000,-0.003248,0.000000|vel|0.000000,0.019821,-0.022534,0.000000,0.018958,0.000000|eff|0.000000,177.246094,-805.664062,225.585938,72.509766,36.254883
cobot_dynamixel_driver/joint_states|name|J1,J2,J3,J4,J5,J6|pos|0.000088,-0.002504,0.002429,0.000000,-0.002875,0.000000|vel|0.000000,0.020030,-0.009806,0.000000,0.019993,0.000000|eff|0.000000,257.812500,-886.230469,193.359375,92.651367,20.141602
cobot_dynamixel_driver/joint_states|name|J1,J2,J3,J4,J5,J6|pos|0.000088,-0.002166,0.002228,0.000000,-0.002482,0.000000|vel|0.000000,0.015231,-0.010641,0.000000,0.018269,0.000000|eff|0.000000,225.585938,-934.570312,209.472656,72.509766,40.283203
cobot_dynamixel_driver/joint_states|name|J1,J2,J3,J4,J5,J6|pos|0.000088,-0.001890,0.001940,0.000000,-0.002193,0.000000|vel|0.000000,0.013353,-0.017318,0.000000,0.014133,0.000000|eff|0.000000,209.472656,-902.343750,145.019531,84.594727,36.254883
cobot_dynamixel_driver/joint_states|name|J1,J2,J3,J4,J5,J6|pos|0.000088,-0.001640,0.001615,0.000000,-0.001903,0.000000|vel|0.000000,0.012310,-0.013145,0.000000,0.013099,0.000000|eff|0.000000,483.398438,-854.003906,193.359375,72.509766,40.283203
cobot_dynamixel_driver/joint_states|name|J1,J2,J3,J4,J5,J6|pos|0.000088,-0.001452,0.001490,0.000013,-0.001676,0.000000|vel|0.000000,0.007303,-0.005008,0.000000,0.009307,0.000000|eff|0.000000,370.605469,-918.457031,225.585938,84.594727,36.254883
cobot_dynamixel_driver/joint_states|name|J1,J2,J3,J4,J5,J6|pos|0.000088,-0.001314,0.001427,0.000013,-0.001510,0.000000|vel|0.000000,0.006468,-0.002295,0.000000,0.009307,0.000000|eff|0.000000,322.265625,-982.910156,177.246094,92.651367,40.283203
cobot_dynamixel_driver/joint_states|name|J1,J2,J3,J4,J5,J6|pos|0.000088,-0.001177,0.001289,0.000013,-0.001303,0.000000|vel|0.000000,0.008137,-0.008555,0.000000,0.011375,0.000000|eff|0.000000,145.019531,-902.343750,161.132812,84.594727,16.113281
cobot_dynamixel_driver/joint_states|name|J1,J2,J3,J4,J5,J6|pos|0.000088,-0.001039,0.001077,0.000013,-0.001117,0.000000|vel|0.000000,0.006468,-0.013771,0.000000,0.007583,0.000000|eff|0.000000,241.699219,-902.343750,128.906250,88.623047,24.169922
cobot_dynamixel_driver/joint_states|name|J1,J2,J3,J4,J5,J6|pos|0.000088,-0.000939,0.000764,0.000013,-0.000993,0.000000|vel|0.000000,0.005216,-0.017318,0.000000,0.005515,0.000000|eff|0.000000,96.679688,-821.777344,161.132812,84.594727,40.283203
cobot_dynamixel_driver/joint_states|name|J1,J2,J3,J4,J5,J6|pos|0.000088,-0.000814,0.000538,0.000013,-0.000910,0.000000|vel|0.000000,0.006051,-0.007720,0.000000,0.003792,0.000000|eff|0.000000,306.152344,-805.664062,128.906250,92.651367,16.113281
cobot_dynamixel_driver/joint_states|name|J1,J2,J3,J4,J5,J6|pos|0.000088,-0.000676,0.000476,0.000013,-0.000786,0.000000|vel|0.000000,0.007094,-0.002504,0.000000,0.007239,0.000000|eff|0.000000,225.585938,-789.550781,241.699219,88.623047,16.113281
cobot_dynamixel_driver/joint_states|name|J1,J2,J3,J4,J5,J6|pos|0.000088,-0.000576,0.000476,0.000013,-0.000641,0.000000|vel|0.000000,0.004590,-0.002504,0.000000,0.007583,0.000000|eff|0.000000,241.699219,-789.550781,177.246094,80.566406,24.169922
cobot_dynamixel_driver/joint_states|name|J1,J2,J3,J4,J5,J6|pos|0.000088,-0.000488,0.000463,0.000013,-0.000579,0.000000|vel|0.000000,0.004173,-0.002504,0.000000,0.005170,0.000000|eff|0.000000,225.585938,-870.117188,225.585938,84.594727,20.141602
cobot_dynamixel_driver/joint_states|name|J1,J2,J3,J4,J5,J6|pos|0.000088,-0.000413,0.000463,0.000013,-0.000559,0.000000|vel|0.000000,0.004590,-0.002504,0.000000,0.002413,0.000000|eff|0.000000,209.472656,-821.777344,225.585938,80.566406,12.084961
cobot_dynamixel_driver/joint_states|name|J1,J2,J3,J4,J5,J6|pos|0.000088,-0.000325,0.000463,0.000013,-0.000496,0.000000|vel|0.000000,0.003756,-0.002504,0.000000,0.003792,0.000000|eff|0.000000,257.812500,-854.003906,177.246094,84.594727,36.254883
cobot_dynamixel_driver/joint_states|name|J1,J2,J3,J4,J5,J6|pos|0.000088,-0.000325,0.000463,0.000013,-0.000352,0.000000|vel|0.000000,0.003756,-0.002504,0.000000,0.007928,0.000000|eff|0.000000,257.812500,-854.003906,161.132812,68.481445,8.056641
cobot_dynamixel_driver/joint_states|name|J1,J2,J3,J4,J5,J6|pos|0.000075,-0.000325,0.000463,0.000013,-0.000331,0.000000|vel|0.000000,0.003756,-0.002504,0.000000,0.004826,0.000000|eff|0.000000,306.152344,-886.230469,128.906250,72.509766,32.226562
cobot_dynamixel_driver/joint_states|name|J1,J2,J3,J4,J5,J6|pos|0.000063,-0.000325,0.000451,0.000025,-0.000331,0.000000|vel|0.000000,0.003756,0.000000,0.000000,0.004826,0.000000|eff|-64.453125,257.812500,-886.230469,225.585938,64.453125,20.141602
cobot_dynamixel_driver/joint_states|name|J1,J2,J3,J4,J5,J6|pos|0.000050,-0.000325,0.000438,0.000025,-0.000331,0.000000|vel|-0.000209,0.003756,0.000000,0.000000,0.004826,0.000000|eff|-112.792969,225.585938,-934.570312,193.359375,56.396484,28.198242
cobot_dynamixel_driver/joint_states|name|J1,J2,J3,J4,J5,J6|pos|0.000038,-0.000325,0.000438,0.000025,-0.000331,0.000000|vel|-0.000209,0.003756,0.000000,0.000000,0.004826,0.000000|eff|0.000000,306.152344,-902.343750,225.585938,52.368164,36.254883
cobot_dynamixel_driver/joint_states|name|J1,J2,J3,J4,J5,J6|pos|0.000038,-0.000325,0.000413,0.000025,-0.000331,0.000000|vel|-0.000417,-0.000000,-0.000417,0.000000,0.004826,0.000000|eff|0.000000,322.265625,-918.457031,225.585938,36.254883,36.254883
cobot_dynamixel_driver/joint_states|name|J1,J2,J3,J4,J5,J6|pos|0.000025,-0.000325,0.000351,0.000025,-0.000331,0.000000|vel|-0.000417,-0.000000,-0.003964,0.000000,0.004826,0.000000|eff|-64.453125,273.925781,-918.457031,177.246094,48.339844,40.283203
cobot_dynamixel_driver/joint_states|name|J1,J2,J3,J4,J5,J6|pos|0.000025,-0.000325,0.000238,0.000025,-0.000331,0.000000|vel|-0.000417,-0.000000,-0.005425,0.000000,0.000000,0.000000|eff|0.000000,225.585938,-854.003906,241.699219,36.254883,20.141602
cobot_dynamixel_driver/joint_states|name|J1,J2,J3,J4,J5,J6|pos|0.000025,-0.000325,0.000138,0.000025,-0.000331,0.000000|vel|-0.000417,-0.000000,-0.005216,0.000000,0.000000,0.000000|eff|-96.679688,225.585938,-837.890625,209.472656,56.396484,36.254883
cobot_dynamixel_driver/joint_states|name|J1,J2,J3,J4,J5,J6|pos|0.000025,-0.000325,0.000013,0.000025,-0.000331,0.000000|vel|-0.000417,-0.000000,-0.005425,0.000000,0.000000,0.000000|eff|-64.453125,225.585938,-805.664062,225.585938,56.396484,20.141602
cobot_dynamixel_driver/joint_states|name|J1,J2,J3,J4,J5,J6|pos|0.000025,-0.000325,-0.000113,0.000025,-0.000331,0.000000|vel|-0.000417,-0.000000,-0.005425,0.000000,0.000000,0.000000|eff|0.000000,225.585938,-757.324219,161.132812,56.396484,28.198242
cobot_dynamixel_driver/joint_states|name|J1,J2,J3,J4,J5,J6|pos|0.000013,-0.000313,-0.000163,0.000025,-0.000331,0.000000|vel|0.000000,-0.000000,-0.002504,0.000000,0.000000,0.000000|eff|0.000000,225.585938,-789.550781,225.585938,68.481445,40.283203
cobot_dynamixel_driver/joint_states|name|J1,J2,J3,J4,J5,J6|pos|0.000013,-0.000313,-0.000163,0.000025,-0.000331,0.000000|vel|0.000000,-0.000000,-0.002504,0.000000,0.000000,0.000000|eff|-96.679688,128.906250,-708.984375,209.472656,68.481445,0.000000
cobot_dynamixel_driver/joint_states|name|J1,J2,J3,J4,J5,J6|pos|0.000000,-0.000313,-0.000163,0.000025,-0.000310,0.000000|vel|0.000000,-0.000000,-0.002504,0.000000,0.000000,0.000000|eff|-96.679688,145.019531,-725.097656,209.472656,68.481445,40.283203
cobot_dynamixel_driver/joint_states|name|J1,J2,J3,J4,J5,J6|pos|-0.000025,-0.000300,-0.000163,0.000025,-0.000290,0.000000|vel|-0.000626,-0.000000,-0.000417,0.000000,0.000000,0.000000|eff|0.000000,32.226562,-757.324219,161.132812,76.538086,40.283203
cobot_dynamixel_driver/joint_states|name|J1,J2,J3,J4,J5,J6|pos|-0.000050,-0.000288,-0.000163,0.000038,-0.000207,0.000000|vel|-0.001461,0.000417,-0.000417,0.000000,0.002758,0.000000|eff|0.000000,177.246094,-757.324219,161.132812,72.509766,28.198242
cobot_dynamixel_driver/joint_states|name|J1,J2,J3,J4,J5,J6|pos|-0.000050,-0.000250,-0.000163,0.000038,-0.000186,0.000000|vel|-0.001461,0.001669,0.000417,0.000000,0.003792,0.000000|eff|0.000000,225.585938,-692.871094,193.359375,68.481445,0.000000
cobot_dynamixel_driver/joint_states|name|J1,J2,J3,J4,J5,J6|pos|-0.000050,-0.000213,-0.000163,0.000038,-0.000186,0.000000|vel|-0.001461,0.001669,0.000417,0.000000,0.003792,0.000000|eff|0.000000,64.453125,-692.871094,209.472656,64.453125,20.141602
cobot_dynamixel_driver/joint_states|name|J1,J2,J3,J4,J5,J6|pos|-0.000050,-0.000175,-0.000163,0.000038,-0.000186,0.000000|vel|-0.001461,0.001878,0.000417,0.000000,0.003792,0.000000|eff|0.000000,161.132812,-757.324219,241.699219,56.396484,12.084961
cobot_dynamixel_driver/joint_states|name|J1,J2,J3,J4,J5,J6|pos|-0.000050,-0.000113,-0.000163,0.000038,-0.000186,0.000000|vel|-0.001461,0.002921,0.000417,0.000000,0.003792,0.000000|eff|0.000000,290.039062,-676.757812,225.585938,52.368164,8.056641
cobot_dynamixel_driver/joint_states|name|J1,J2,J3,J4,J5,J6|pos|-0.000050,-0.000100,-0.000163,0.000038,-0.000186,0.000000|vel|-0.001461,0.002295,0.000000,0.000000,0.003792,0.000000|eff|0.000000,225.585938,-757.324219,161.132812,48.339844,40.283203
cobot_dynamixel_driver/joint_states|name|J1,J2,J3,J4,J5,J6|pos|-0.000050,-0.000100,-0.000163,0.000038,-0.000186,0.000000|vel|0.000000,0.002295,0.000000,0.000000,0.003792,0.000000|eff|0.000000,225.585938,-676.757812,161.132812,48.339844,40.283203
cobot_dynamixel_driver/joint_states|name|J1,J2,J3,J4,J5,J6|pos|-0.000050,-0.000100,-0.000163,0.000038,-0.000186,0.000000|vel|0.000000,0.002295,0.000000,0.000000,0.000000,0.000000|eff|0.000000,257.812500,-725.097656,112.792969,48.339844,44.311523
cobot_dynamixel_driver/joint_states|name|J1,J2,J3,J4,J5,J6|pos|-0.000038,-0.000100,-0.000163,0.000038,-0.000186,0.000000|vel|0.000000,0.002295,0.000000,0.000000,0.000000,0.000000|eff|0.000000,225.585938,-692.871094,209.472656,48.339844,0.000000
cobot_dynamixel_driver/joint_states|name|J1,J2,J3,J4,J5,J6|pos|-0.000038,-0.000100,-0.000163,0.000038,-0.000186,0.000000|vel|0.000000,0.002295,0.000000,0.000000,0.000000,0.000000|eff|0.000000,209.472656,-692.871094,209.472656,40.283203,36.254883
cobot_dynamixel_driver/joint_states|name|J1,J2,J3,J4,J5,J6|pos|-0.000038,-0.000100,-0.000163,0.000038,-0.000186,0.000000|vel|0.000000,0.002295,0.000000,0.000000,0.000000,0.000000|eff|0.000000,418.945312,-708.984375,225.585938,40.283203,28.198242
cobot_dynamixel_driver/joint_states|name|J1,J2,J3,J4,J5,J6|pos|-0.000038,-0.000100,-0.000163,0.000038,-0.000186,0.000000|vel|0.000000,-0.000000,0.000000,0.000000,0.000000,0.000000|eff|0.000000,370.605469,-725.097656,161.132812,52.368164,40.283203
cobot_dynamixel_driver/joint_states|name|J1,J2,J3,J4,J5,J6|pos|-0.000038,-0.000100,-0.000163,0.000038,-0.000186,0.000000|vel|0.000000,-0.000000,0.000000,0.000000,0.000000,0.000000|eff|0.000000,209.472656,-692.871094,193.359375,52.368164,24.169922
cobot_dynamixel_driver/joint_states|name|J1,J2,J3,J4,J5,J6|pos|-0.000038,-0.000100,-0.000163,0.000038,-0.000186,0.000000|vel|0.000000,-0.000000,0.000000,0.000000,0.000000,0.000000|eff|0.000000,225.585938,-676.757812,177.246094,60.424805,28.198242
cobot_dynamixel_driver/joint_states|name|J1,J2,J3,J4,J5,J6|pos|-0.000038,-0.000100,-0.000163,0.000038,-0.000186,0.000000|vel|0.000000,-0.000000,0.000000,0.000000,0.000000,0.000000|eff|0.000000,225.585938,-660.644531,177.246094,56.396484,28.198242
cobot_dynamixel_driver/joint_states|name|J1,J2,J3,J4,J5,J6|pos|-0.000038,-0.000088,-0.000163,0.000038,-0.000186,0.000000|vel|0.000000,-0.000000,0.000000,0.000000,0.000000,0.000000|eff|0.000000,225.585938,-660.644531,209.472656,60.424805,40.283203
cobot_dynamixel_driver/joint_states|name|J1,J2,J3,J4,J5,J6|pos|-0.000038,-0.000088,-0.000163,0.000038,-0.000186,0.000000|vel|0.000000,-0.000000,0.000000,0.000000,0.000000,0.000000|eff|0.000000,225.585938,-660.644531,209.472656,60.424805,8.056641
cobot_dynamixel_driver/joint_states|name|J1,J2,J3,J4,J5,J6|pos|-0.000038,-0.000088,-0.000163,0.000038,-0.000186,0.000000|vel|0.000000,-0.000000,0.000000,0.000000,0.000000,0.000000|eff|0.000000,225.585938,-660.644531,161.132812,68.481445,36.254883
cobot_dynamixel_driver/joint_states|name|J1,J2,J3,J4,J5,J6|pos|-0.000038,-0.000088,-0.000163,0.000038,-0.000186,0.000000|vel|0.000000,-0.000000,0.000000,0.000000,0.000000,0.000000|eff|0.000000,225.585938,-644.531250,193.359375,64.453125,24.169922
cobot_dynamixel_driver/joint_states|name|J1,J2,J3,J4,J5,J6|pos|-0.000038,-0.000088,-0.000163,0.000038,-0.000186,0.000000|vel|0.000000,-0.000000,0.000000,0.000000,0.000000,0.000000|eff|0.000000,209.472656,-660.644531,128.906250,72.509766,20.141602
cobot_dynamixel_driver/joint_states|name|J1,J2,J3,J4,J5,J6|pos|-0.000038,-0.000088,-0.000150,0.000038,-0.000186,0.000000|vel|0.000000,-0.000000,0.000000,0.000000,0.000000,0.000000|eff|0.000000,225.585938,-628.417969,128.906250,64.453125,8.056641
cobot_dynamixel_driver/joint_states|name|J1,J2,J3,J4,J5,J6|pos|-0.000038,-0.000088,-0.000150,0.000038,-0.000186,0.000000|vel|0.000000,-0.000000,0.000000,0.000000,0.000000,0.000000|eff|0.000000,225.585938,-580.078125,225.585938,68.481445,40.283203
cobot_dynamixel_driver/joint_states|name|J1,J2,J3,J4,J5,J6|pos|-0.000038,-0.000088,-0.000150,0.000038,-0.000165,0.000000|vel|0.000000,-0.000000,0.000000,0.000000,0.000000,0.000000|eff|0.000000,225.585938,-644.531250,161.132812,76.538086,40.283203
cobot_dynamixel_driver/joint_states|name|J1,J2,J3,J4,J5,J6|pos|-0.000038,-0.000075,-0.000150,0.000038,-0.000145,0.000000|vel|0.000000,-0.000000,0.000000,0.000000,0.000000,0.000000|eff|0.000000,241.699219,-628.417969,209.472656,72.509766,8.056641
cobot_dynamixel_driver/joint_states|name|J1,J2,J3,J4,J5,J6|pos|-0.000038,-0.000063,-0.000150,0.000038,-0.000124,0.000000|vel|0.000000,-0.000000,0.000000,0.000000,0.000000,0.000000|eff|0.000000,241.699219,-596.191406,209.472656,76.538086,28.198242
cobot_dynamixel_driver/joint_states|name|J1,J2,J3,J4,J5,J6|pos|-0.000038,-0.000063,-0.000150,0.000038,-0.000103,0.000000|vel|0.000000,-0.000000,0.000000,0.000000,0.000689,0.000000|eff|0.000000,209.472656,-580.078125,225.585938,76.538086,36.254883
cobot_dynamixel_driver/joint_states|name|J1,J2,J3,J4,J5,J6|pos|-0.000038,-0.000050,-0.000138,0.000038,-0.000083,0.000000|vel|0.000000,-0.000000,0.000000,0.000000,0.000689,0.000000|eff|0.000000,225.585938,-580.078125,112.792969,72.509766,36.254883
cobot_dynamixel_driver/joint_states|name|J1,J2,J3,J4,J5,J6|pos|-0.000038,-0.000050,-0.000138,0.000038,-0.000083,0.000000|vel|0.000000,-0.000000,0.000000,0.000000,0.000689,0.000000|eff|0.000000,225.585938,-628.417969,112.792969,76.538086,20.141602
cobot_dynamixel_driver/joint_states|name|J1,J2,J3,J4,J5,J6|pos|-0.000038,-0.000050,-0.000138,0.000038,-0.000062,0.000000|vel|0.000000,-0.000000,0.000000,0.000000,0.000689,0.000000|eff|0.000000,225.585938,-612.304688,193.359375,72.509766,8.056641
cobot_dynamixel_driver/joint_states|name|J1,J2,J3,J4,J5,J6|pos|-0.000038,-0.000050,-0.000138,0.000038,-0.000062,0.000000|vel|0.000000,-0.000000,0.000000,0.000000,0.000689,0.000000|eff|0.000000,225.585938,-563.964844,128.906250,76.538086,0.000000
cobot_dynamixel_driver/joint_states|name|J1,J2,J3,J4,J5,J6|pos|-0.000038,-0.000038,-0.000125,0.000038,-0.000062,0.000000|vel|0.000000,-0.000000,0.000000,0.000000,0.000689,0.000000|eff|0.000000,225.585938,-596.191406,193.359375,68.481445,36.254883
cobot_dynamixel_driver/joint_states|name|J1,J2,J3,J4,J5,J6|pos|-0.000038,-0.000038,-0.000125,0.000038,-0.000062,0.000000|vel|0.000000,0.000209,0.000000,0.000000,0.000689,0.000000|eff|0.000000,225.585938,-563.964844,128.906250,72.509766,20.141602
cobot_dynamixel_driver/joint_states|name|J1,J2,J3,J4,J5,J6|pos|-0.000038,-0.000025,-0.000125,0.000038,-0.000062,0.000000|vel|0.000000,0.000209,0.000000,0.000000,0.000689,0.000000|eff|0.000000,225.585938,-563.964844,209.472656,76.538086,8.056641
cobot_dynamixel_driver/joint_states|name|J1,J2,J3,J4,J5,J6|pos|-0.000038,-0.000025,-0.000113,0.000038,-0.000062,0.000000|vel|0.000000,0.000209,0.000000,0.000000,0.000000,0.000000|eff|0.000000,177.246094,-563.964844,177.246094,68.481445,16.113281
cobot_dynamixel_driver/joint_states|name|J1,J2,J3,J4,J5,J6|pos|-0.000038,-0.000025,-0.000113,0.000038,-0.000062,0.000000|vel|0.000000,0.000209,0.000000,0.000000,0.000000,0.000000|eff|0.000000,209.472656,-563.964844,161.132812,72.509766,40.283203
cobot_dynamixel_driver/joint_states|name|J1,J2,J3,J4,J5,J6|pos|-0.000038,-0.000025,-0.000113,0.000038,-0.000062,0.000000|vel|0.000000,0.000209,0.000000,0.000000,0.000000,0.000000|eff|0.000000,225.585938,-563.964844,112.792969,76.538086,20.141602
cobot_dynamixel_driver/joint_states|name|J1,J2,J3,J4,J5,J6|pos|-0.000038,-0.000013,-0.000113,0.000038,-0.000062,0.000000|vel|0.000000,0.000209,0.000000,0.000000,0.000000,0.000000|eff|0.000000,225.585938,-547.851562,128.906250,76.538086,40.283203
cobot_dynamixel_driver/joint_states|name|J1,J2,J3,J4,J5,J6|pos|-0.000038,-0.000013,-0.000113,0.000038,-0.000062,0.000000|vel|0.000000,-0.000000,0.000000,0.000000,0.000000,0.000000|eff|0.000000,225.585938,-563.964844,209.472656,80.566406,24.169922
cobot_dynamixel_driver/joint_states|name|J1,J2,J3,J4,J5,J6|pos|-0.000038,-0.000013,-0.000113,0.000038,-0.000041,0.000000|vel|0.000000,-0.000000,0.000000,0.000000,0.000000,0.000000|eff|0.000000,225.585938,-563.964844,193.359375,80.566406,0.000000
cobot_dynamixel_driver/goal|-:J1,J2,J3,J4,J5,J6:0.000000,0.000000,0.000000,0.000000,0.000000,0.000000:0.250000,0.250000,0.250000,0.250000,0.250000,0.250000:pos_vel_
cobot_dynamixel_driver/goal|-:J1,J2,J3,J4,J5,J6:0.000000,0.000000,0.000000,0.000000,0.000000,0.000000:0.250000,0.250000,0.250000,0.250000,0.250000,0.250000:pos_vel_
cobot_dynamixel_driver/joint_states|name|J1,J2,J3,J4,J5,J6|pos|-0.000038,-0.000000,-0.000100,0.000038,-0.000041,0.000000|vel|0.000000,-0.000000,0.000000,0.000000,0.000000,0.000000|eff|0.000000,225.585938,-563.964844,209.472656,76.538086,24.169922
cobot_dynamixel_driver/joint_states|name|J1,J2,J3,J4,J5,J6|pos|-0.000038,-0.000000,-0.000100,0.000038,-0.000041,0.000000|vel|0.000000,-0.000000,0.000000,0.000000,0.000000,0.000000|eff|0.000000,225.585938,-547.851562,193.359375,80.566406,0.000000
cobot_dynamixel_driver/joint_states|name|J1,J2,J3,J4,J5,J6|pos|-0.000038,0.000013,-0.000100,0.000038,-0.000041,0.000000|vel|0.000000,-0.000000,0.000000,0.000000,0.000000,0.000000|eff|0.000000,225.585938,-563.964844,128.906250,76.538086,40.283203
cobot_dynamixel_driver/joint_states|name|J1,J2,J3,J4,J5,J6|pos|-0.000038,0.000013,-0.000100,0.000038,-0.000041,0.000000|vel|0.000000,0.000209,0.000000,0.000000,0.000000,0.000000|eff|0.000000,225.585938,-563.964844,128.906250,76.538086,20.141602
cobot_dynamixel_driver/joint_states|name|J1,J2,J3,J4,J5,J6|pos|-0.000038,0.000025,-0.000100,0.000038,-0.000021,0.000000|vel|0.000000,0.000209,0.000000,0.000000,0.000000,0.000000|eff|0.000000,225.585938,-547.851562,128.906250,76.538086,24.169922
cobot_dynamixel_driver/joint_states|name|J1,J2,J3,J4,J5,J6|pos|-0.000038,0.000025,-0.000100,0.000038,-0.000021,0.000000|vel|0.000000,0.000209,0.000000,0.000000,0.000000,0.000000|eff|0.000000,225.585938,-547.851562,112.792969,80.566406,36.254883
cobot_dynamixel_driver/joint_states|name|J1,J2,J3,J4,J5,J6|pos|-0.000038,0.000025,-0.000100,0.000038,-0.000021,0.000000|vel|0.000000,0.000209,0.000000,0.000000,0.000000,0.000000|eff|0.000000,225.585938,-547.851562,177.246094,76.538086,36.254883
cobot_dynamixel_driver/joint_states|name|J1,J2,J3,J4,J5,J6|pos|-0.000038,0.000038,-0.000100,0.000038,-0.000021,0.000000|vel|0.000000,0.000209,0.000000,0.000000,0.000000,0.000000|eff|0.000000,225.585938,-499.511719,161.132812,76.538086,0.000000
cobot_dynamixel_driver/joint_states|name|J1,J2,J3,J4,J5,J6|pos|-0.000038,0.000038,-0.000100,0.000038,-0.000021,0.000000|vel|0.000000,0.000209,0.000000,0.000000,0.000000,0.000000|eff|0.000000,225.585938,-515.625000,161.132812,80.566406,32.226562
cobot_dynamixel_driver/joint_states|name|J1,J2,J3,J4,J5,J6|pos|-0.000038,0.000050,-0.000088,0.000038,-0.000021,0.000000|vel|0.000000,0.000209,0.000000,0.000000,0.000000,0.000000|eff|0.000000,225.585938,-515.625000,112.792969,76.538086,24.169922
cobot_dynamixel_driver/joint_states|name|J1,J2,J3,J4,J5,J6|pos|-0.000038,0.000050,-0.000088,0.000038,-0.000021,0.000000|vel|0.000000,0.000209,0.000000,0.000000,0.000000,0.000000|eff|0.000000,225.585938,-531.738281,112.792969,76.538086,0.000000
cobot_dynamixel_driver/joint_states|name|J1,J2,J3,J4,J5,J6|pos|-0.000038,0.000050,-0.000088,0.000038,-0.000021,0.000000|vel|0.000000,0.000209,0.000000,0.000000,0.000000,0.000000|eff|0.000000,161.132812,-547.851562,128.906250,76.538086,36.254883
cobot_dynamixel_driver/joint_states|name|J1,J2,J3,J4,J5,J6|pos|-0.000038,0.000063,-0.000088,0.000038,0.000000,0.000000|vel|0.000000,0.000209,0.000000,0.000000,0.000000,0.000000|eff|0.000000,128.906250,-531.738281,161.132812,76.538086,28.198242
cobot_dynamixel_driver/joint_states|name|J1,J2,J3,J4,J5,J6|pos|-0.000038,0.000063,-0.000088,0.000038,0.000000,0.000000|vel|0.000000,0.000209,0.000000,0.000000,0.000000,0.000000|eff|0.000000,225.585938,-483.398438,128.906250,72.509766,16.113281
cobot_dynamixel_driver/joint_states|name|J1,J2,J3,J4,J5,J6|pos|-0.000038,0.000063,-0.000088,0.000038,0.000000,0.000000|vel|0.000000,0.000209,0.000000,0.000000,0.000000,0.000000|eff|128.906250,225.585938,-515.625000,161.132812,76.538086,28.198242
cobot_dynamixel_driver/joint_states|name|J1,J2,J3,J4,J5,J6|pos|-0.000038,0.000075,-0.000088,0.000038,0.000000,0.000000|vel|0.000000,0.000209,0.000000,0.000000,0.000000,0.000000|eff|0.000000,225.585938,-547.851562,145.019531,76.538086,8.056641
cobot_dynamixel_driver/joint_states|name|J1,J2,J3,J4,J5,J6|pos|-0.000038,0.000075,-0.000075,0.000038,0.000000,0.000000|vel|0.000000,0.000209,0.000000,0.000000,0.000000,0.000000|eff|0.000000,370.605469,-515.625000,145.019531,76.538086,0.000000
cobot_dynamixel_driver/joint_states|name|J1,J2,J3,J4,J5,J6|pos|-0.000038,0.000075,-0.000075,0.000038,0.000000,0.000000|vel|0.000000,0.000209,0.000000,0.000000,0.000000,0.000000|eff|128.906250,225.585938,-531.738281,112.792969,72.509766,40.283203
cobot_dynamixel_driver/joint_states|name|J1,J2,J3,J4,J5,J6|pos|-0.000038,0.000075,-0.000075,0.000038,0.000000,0.000000|vel|0.000000,0.000209,0.000000,0.000000,0.000000,0.000000|eff|0.000000,225.585938,-467.285156,128.906250,72.509766,40.283203
cobot_dynamixel_driver/joint_states|name|J1,J2,J3,J4,J5,J6|pos|-0.000025,0.000075,-0.000075,0.000038,0.000000,0.000000|vel|0.000000,-0.000000,0.000000,0.000000,0.000000,0.000000|eff|96.679688,225.585938,-515.625000,161.132812,76.538086,36.254883
cobot_dynamixel_driver/joint_states|name|J1,J2,J3,J4,J5,J6|pos|-0.000025,0.000075,-0.000075,0.000038,0.000000,0.000000|vel|0.000000,-0.000000,0.000000,0.000000,0.000000,0.000000|eff|128.906250,209.472656,-451.171875,112.792969,80.566406,16.113281
cobot_dynamixel_driver/joint_states|name|J1,J2,J3,J4,J5,J6|pos|-0.000025,0.000075,-0.000075,0.000038,0.000000,0.000000|vel|0.000000,-0.000000,0.000000,0.000000,0.000000,0.000000|eff|161.132812,225.585938,-499.511719,112.792969,76.538086,24.169922
cobot_dynamixel_driver/joint_states|name|J1,J2,J3,J4,J5,J6|pos|-0.000025,0.000075,-0.000075,0.000038,0.000000,0.000000|vel|0.000000,-0.000000,0.000000,0.000000,0.000000,0.000000|eff|0.000000,209.472656,-483.398438,112.792969,72.509766,24.169922
cobot_dynamixel_driver/joint_states|name|J1,J2,J3,J4,J5,J6|pos|-0.000025,0.000075,-0.000075,0.000038,0.000000,0.000000|vel|0.000000,-0.000000,0.000000,0.000000,0.000000,0.000000|eff|0.000000,209.472656,-499.511719,112.792969,76.538086,40.283203
cobot_dynamixel_driver/joint_states|name|J1,J2,J3,J4,J5,J6|pos|-0.000025,0.000075,-0.000075,0.000038,0.000000,0.000000|vel|0.000000,-0.000000,0.000000,0.000000,0.000000,0.000000|eff|64.453125,209.472656,-531.738281,112.792969,76.538086,28.198242
cobot_dynamixel_driver/joint_states|name|J1,J2,J3,J4,J5,J6|pos|-0.000025,0.000075,-0.000063,0.000038,0.000000,0.000000|vel|0.000000,-0.000000,0.000000,0.000000,0.000000,0.000000|eff|96.679688,225.585938,-531.738281,112.792969,72.509766,8.056641
cobot_dynamixel_driver/joint_states|name|J1,J2,J3,J4,J5,J6|pos|-0.000025,0.000075,-0.000063,0.000038,0.000000,0.000000|vel|0.000000,-0.000000,0.000000,0.000000,0.000000,0.000000|eff|128.906250,209.472656,-467.285156,112.792969,76.538086,0.000000
cobot_dynamixel_driver/joint_states|name|J1,J2,J3,J4,J5,J6|pos|-0.000013,0.000075,-0.000063,0.000038,0.000000,0.000000|vel|0.000000,-0.000000,0.000000,0.000000,0.000000,0.000000|eff|48.339844,225.585938,-531.738281,112.792969,76.538086,0.000000
cobot_dynamixel_driver/joint_states|name|J1,J2,J3,J4,J5,J6|pos|-0.000013,0.000075,-0.000063,0.000038,0.000000,0.000000|vel|0.000000,-0.000000,0.000000,0.000000,0.000000,0.000000|eff|161.132812,273.925781,-451.171875,112.792969,72.509766,24.169922
cobot_dynamixel_driver/joint_states|name|J1,J2,J3,J4,J5,J6|pos|-0.000013,0.000075,-0.000063,0.000038,0.000000,0.000000|vel|0.000000,-0.000000,0.000000,0.000000,0.000000,0.000000|eff|0.000000,225.585938,-451.171875,112.792969,76.538086,0.000000
cobot_dynamixel_driver/joint_states|name|J1,J2,J3,J4,J5,J6|pos|-0.000013,0.000075,-0.000063,0.000038,0.000000,0.000000|vel|0.000000,-0.000000,0.000000,0.000000,0.000000,0.000000|eff|48.339844,225.585938,-451.171875,112.792969,76.538086,28.198242
cobot_dynamixel_driver/joint_states|name|J1,J2,J3,J4,J5,J6|pos|-0.000013,0.000075,-0.000063,0.000038,0.000021,0.000000|vel|0.000000,-0.000000,0.000000,0.000000,0.000000,0.000000|eff|128.906250,225.585938,-499.511719,112.792969,72.509766,36.254883
cobot_dynamixel_driver/joint_states|name|J1,J2,J3,J4,J5,J6|pos|-0.000013,0.000075,-0.000063,0.000038,0.000021,0.000000|vel|0.000000,-0.000000,0.000000,0.000000,0.000000,0.000000|eff|0.000000,209.472656,-515.625000,112.792969,72.509766,28.198242
cobot_dynamixel_driver/joint_states|name|J1,J2,J3,J4,J5,J6|pos|-0.000013,0.000075,-0.000063,0.000038,0.000021,0.000000|vel|0.000000,-0.000000,0.000000,0.000000,0.000000,0.000000|eff|48.339844,225.585938,-451.171875,112.792969,76.538086,20.141602
cobot_dynamixel_driver/joint_states|name|J1,J2,J3,J4,J5,J6|pos|-0.000013,0.000075,-0.000050,0.000038,0.000021,0.000000|vel|0.000000,-0.000000,0.000000,0.000000,0.000000,0.000000|eff|80.566406,241.699219,-451.171875,112.792969,76.538086,40.283203
cobot_dynamixel_driver/joint_states|name|J1,J2,J3,J4,J5,J6|pos|-0.000013,0.000075,-0.000050,0.000038,0.000021,0.000000|vel|0.000000,-0.000000,0.000000,0.000000,0.000000,0.000000|eff|0.000000,225.585938,-483.398438,112.792969,80.566406,40.283203
cobot_dynamixel_driver/joint_states|name|J1,J2,J3,J4,J5,J6|pos|-0.000013,0.000075,-0.000050,0.000038,0.000021,0.000000|vel|0.000000,-0.000000,0.000000,0.000000,0.000000,0.000000|eff|128.906250,241.699219,-451.171875,112.792969,80.566406,0.000000
cobot_dynamixel_driver/joint_states|name|J1,J2,J3,J4,J5,J6|pos|-0.000013,0.000075,-0.000050,0.000038,0.000021,0.000000|vel|0.000000,-0.000000,0.000000,0.000000,0.000000,0.000000|eff|80.566406,209.472656,-515.625000,112.792969,76.538086,8.056641
cobot_dynamixel_driver/joint_states|name|J1,J2,J3,J4,J5,J6|pos|-0.000013,0.000075,-0.000050,0.000038,0.000021,0.000000|vel|0.000000,-0.000000,0.000000,0.000000,0.000000,0.000000|eff|0.000000,273.925781,-467.285156,112.792969,76.538086,36.254883
cobot_dynamixel_driver/joint_states|name|J1,J2,J3,J4,J5,J6|pos|-0.000013,0.000075,-0.000050,0.000038,0.000021,0.000000|vel|0.000000,-0.000000,0.000000,0.000000,0.000000,0.000000|eff|0.000000,225.585938,-451.171875,112.792969,76.538086,32.226562
cobot_dynamixel_driver/joint_states|name|J1,J2,J3,J4,J5,J6|pos|-0.000013,0.000075,-0.000050,0.000038,0.000021,0.000000|vel|0.000000,-0.000000,0.000000,0.000000,0.000000,0.000000|eff|128.906250,370.605469,-483.398438,32.226562,80.566406,36.254883
cobot_dynamixel_driver/joint_states|name|J1,J2,J3,J4,J5,J6|pos|-0.000013,0.000075,-0.000050,0.000038,0.000021,0.000000|vel|0.000000,-0.000000,0.000000,0.000000,0.000000,0.000000|eff|64.453125,306.152344,-451.171875,112.792969,76.538086,8.056641
cobot_dynamixel_driver/joint_states|name|J1,J2,J3,J4,J5,J6|pos|-0.000013,0.000075,-0.000050,0.000038,0.000021,0.000000|vel|0.000000,-0.000000,0.000000,0.000000,0.000000,0.000000|eff|0.000000,241.699219,-435.058594,112.792969,76.538086,0.000000
cobot_dynamixel_driver/joint_states|name|J1,J2,J3,J4,J5,J6|pos|-0.000013,0.000075,-0.000050,0.000038,0.000021,0.000000|vel|0.000000,-0.000000,0.000000,0.000000,0.000000,0.000000|eff|0.000000,306.152344,-451.171875,112.792969,76.538086,24.169922
cobot_dynamixel_driver/joint_states|name|J1,J2,J3,J4,J5,J6|pos|-0.000013,0.000075,-0.000050,0.000038,0.000021,0.000000|vel|0.000000,-0.000000,0.000000,0.000000,0.000000,0.000000|eff|96.679688,306.152344,-451.171875,112.792969,76.538086,40.283203
cobot_dynamixel_driver/joint_states|name|J1,J2,J3,J4,J5,J6|pos|-0.000013,0.000075,-0.000050,0.000038,0.000021,0.000000|vel|0.000000,-0.000000,0.000000,0.000000,0.000000,0.000000|eff|0.000000,290.039062,-451.171875,112.792969,76.538086,36.254883
cobot_dynamixel_driver/joint_states|name|J1,J2,J3,J4,J5,J6|pos|-0.000013,0.000075,-0.000050,0.000038,0.000021,0.000000|vel|0.000000,-0.000000,0.000000,0.000000,0.000000,0.000000|eff|0.000000,225.585938,-451.171875,112.792969,76.538086,16.113281
cobot_dynamixel_driver/joint_states|name|J1,J2,J3,J4,J5,J6|pos|-0.000013,0.000075,-0.000050,0.000038,0.000021,0.000000|vel|0.000000,-0.000000,0.000000,0.000000,0.000000,0.000000|eff|0.000000,241.699219,-435.058594,80.566406,76.538086,36.254883
cobot_dynamixel_driver/joint_states|name|J1,J2,J3,J4,J5,J6|pos|-0.000013,0.000075,-0.000050,0.000038,0.000021,0.000000|vel|0.000000,-0.000000,0.000000,0.000000,0.000000,0.000000|eff|80.566406,370.605469,-451.171875,64.453125,76.538086,16.113281
cobot_dynamixel_driver/joint_states|name|J1,J2,J3,J4,J5,J6|pos|-0.000013,0.000075,-0.000050,0.000038,0.000021,0.000000|vel|0.000000,-0.000000,0.000000,0.000000,0.000000,0.000000|eff|0.000000,257.812500,-451.171875,112.792969,76.538086,16.113281
cobot_dynamixel_driver/joint_states|name|J1,J2,J3,J4,J5,J6|pos|-0.000013,0.000075,-0.000050,0.000038,0.000021,0.000000|vel|0.000000,-0.000000,0.000000,0.000000,0.000000,0.000000|eff|128.906250,306.152344,-483.398438,96.679688,76.538086,24.169922
cobot_dynamixel_driver/joint_states|name|J1,J2,J3,J4,J5,J6|pos|-0.000013,0.000075,-0.000050,0.000038,0.000021,0.000000|vel|0.000000,-0.000000,0.000000,0.000000,0.000000,0.000000|eff|0.000000,402.832031,-435.058594,64.453125,76.538086,40.283203
cobot_dynamixel_driver/joint_states|name|J1,J2,J3,J4,J5,J6|pos|-0.000013,0.000075,-0.000050,0.000038,0.000021,0.000000|vel|0.000000,-0.000000,0.000000,0.000000,0.000000,0.000000|eff|0.000000,370.605469,-451.171875,64.453125,76.538086,36.254883
cobot_dynamixel_driver/joint_states|name|J1,J2,J3,J4,J5,J6|pos|-0.000013,0.000075,-0.000050,0.000038,0.000021,0.000000|vel|0.000000,-0.000000,0.000000,0.000000,0.000000,0.000000|eff|0.000000,241.699219,-435.058594,80.566406,72.509766,0.000000
cobot_dynamixel_driver/joint_states|name|J1,J2,J3,J4,J5,J6|pos|-0.000013,0.000075,-0.000050,0.000038,0.000021,0.000000|vel|0.000000,-0.000000,0.000000,0.000000,0.000000,0.000000|eff|0.000000,241.699219,-435.058594,112.792969,80.566406,32.226562
cobot_dynamixel_driver/joint_states|name|J1,J2,J3,J4,J5,J6|pos|-0.000013,0.000075,-0.000038,0.000038,0.000021,0.000000|vel|0.000000,-0.000000,0.000000,0.000000,0.000000,0.000000|eff|128.906250,241.699219,-451.171875,0.000000,80.566406,8.056641
cobot_dynamixel_driver/joint_states|name|J1,J2,J3,J4,J5,J6|pos|-0.000013,0.000075,-0.000038,0.000038,0.000021,0.000000|vel|0.000000,-0.000000,0.000000,0.000000,0.000000,0.000000|eff|80.566406,435.058594,-435.058594,32.226562,76.538086,40.283203
cobot_dynamixel_driver/joint_states|name|J1,J2,J3,J4,J5,J6|pos|-0.000013,0.000075,-0.000038,0.000038,0.000021,0.000000|vel|0.000000,-0.000000,0.000000,0.000000,0.000000,0.000000|eff|0.000000,225.585938,-435.058594,112.792969,76.538086,36.254883
cobot_dynamixel_driver/joint_states|name|J1,J2,J3,J4,J5,J6|pos|-0.000013,0.000075,-0.000038,0.000038,0.000021,0.000000|vel|0.000000,-0.000000,0.000000,0.000000,0.000000,0.000000|eff|0.000000,225.585938,-451.171875,112.792969,80.566406,0.000000
cobot_dynamixel_driver/joint_states|name|J1,J2,J3,J4,J5,J6|pos|-0.000013,0.000075,-0.000038,0.000038,0.000021,0.000000|vel|0.000000,-0.000000,0.000000,0.000000,0.000000,0.000000|eff|0.000000,370.605469,-435.058594,112.792969,72.509766,40.283203
cobot_dynamixel_driver/joint_states|name|J1,J2,J3,J4,J5,J6|pos|-0.000013,0.000075,-0.000038,0.000038,0.000021,0.000000|vel|0.000000,-0.000000,0.000000,0.000000,0.000000,0.000000|eff|0.000000,225.585938,-451.171875,96.679688,76.538086,28.198242
cobot_dynamixel_driver/joint_states|name|J1,J2,J3,J4,J5,J6|pos|-0.000013,0.000075,-0.000038,0.000038,0.000041,0.000000|vel|0.000000,-0.000000,0.000000,0.000000,0.000000,0.000000|eff|0.000000,418.945312,-435.058594,0.000000,72.509766,16.113281
cobot_dynamixel_driver/joint_states|name|J1,J2,J3,J4,J5,J6|pos|-0.000013,0.000075,-0.000038,0.000038,0.000041,0.000000|vel|0.000000,-0.000000,0.000000,0.000000,0.000000,0.000000|eff|0.000000,306.152344,-435.058594,112.792969,76.538086,8.056641
cobot_dynamixel_driver/joint_states|name|J1,J2,J3,J4,J5,J6|pos|-0.000013,0.000075,-0.000038,0.000038,0.000041,0.000000|vel|0.000000,-0.000000,0.000000,0.000000,0.000000,0.000000|eff|0.000000,241.699219,-435.058594,64.453125,76.538086,40.283203
cobot_dynamixel_driver/joint_states|name|J1,J2,J3,J4,J5,J6|pos|-0.000013,0.000075,-0.000038,0.000038,0.000041,0.000000|vel|0.000000,-0.000000,0.000000,0.000000,0.000000,0.000000|eff|0.000000,370.605469,-435.058594,112.792969,76.538086,24.169922
cobot_dynamixel_driver/joint_states|name|J1,J2,J3,J4,J5,J6|pos|-0.000013,0.000075,-0.000038,0.000038,0.000041,0.000000|vel|0.000000,-0.000000,0.000000,0.000000,0.000000,0.000000|eff|0.000000,241.699219,-435.058594,112.792969,76.538086,36.254883
cobot_dynamixel_driver/joint_states|name|J1,J2,J3,J4,J5,J6|pos|-0.000013,0.000075,-0.000038,0.000038,0.000041,0.000000|vel|0.000000,-0.000000,0.000000,0.000000,0.000000,0.000000|eff|32.226562,225.585938,-451.171875,112.792969,80.566406,0.000000
cobot_dynamixel_driver/joint_states|name|J1,J2,J3,J4,J5,J6|pos|-0.000013,0.000075,-0.000038,0.000038,0.000041,0.000000|vel|0.000000,-0.000000,0.000000,0.000000,0.000000,0.000000|eff|161.132812,290.039062,-435.058594,64.453125,80.566406,16.113281
cobot_dynamixel_driver/joint_states|name|J1,J2,J3,J4,J5,J6|pos|-0.000013,0.000075,-0.000038,0.000038,0.000041,0.000000|vel|0.000000,-0.000000,0.000000,0.000000,0.000000,0.000000|eff|80.566406,435.058594,-435.058594,112.792969,76.538086,28.198242
cobot_dynamixel_driver/joint_states|name|J1,J2,J3,J4,J5,J6|pos|-0.000013,0.000075,-0.000038,0.000038,0.000041,0.000000|vel|0.000000,-0.000000,0.000000,0.000000,0.000000,0.000000|eff|0.000000,257.812500,-435.058594,112.792969,76.538086,28.198242
cobot_dynamixel_driver/joint_states|name|J1,J2,J3,J4,J5,J6|pos|-0.000013,0.000075,-0.000025,0.000038,0.000041,0.000000|vel|0.000000,-0.000000,0.000000,0.000000,0.000000,0.000000|eff|0.000000,241.699219,-435.058594,32.226562,76.538086,36.254883
cobot_dynamixel_driver/joint_states|name|J1,J2,J3,J4,J5,J6|pos|-0.000013,0.000075,-0.000025,0.000038,0.000041,0.000000|vel|0.000000,-0.000000,0.000000,0.000000,0.000000,0.000000|eff|161.132812,225.585938,-435.058594,96.679688,76.538086,0.000000
cobot_dynamixel_driver/joint_states|name|J1,J2,J3,J4,J5,J6|pos|-0.000013,0.000075,-0.000025,0.000038,0.000041,0.000000|vel|0.000000,-0.000000,0.000000,0.000000,0.000000,0.000000|eff|0.000000,241.699219,-354.492188,0.000000,76.538086,36.254883
cobot_dynamixel_driver/joint_states|name|J1,J2,J3,J4,J5,J6|pos|-0.000013,0.000075,-0.000025,0.000038,0.000041,0.000000|vel|0.000000,-0.000000,0.000000,0.000000,0.000000,0.000000|eff|80.566406,257.812500,-402.832031,64.453125,76.538086,20.141602
cobot_dynamixel_driver/joint_states|name|J1,J2,J3,J4,J5,J6|pos|-0.000013,0.000075,-0.000025,0.000038,0.000041,0.000000|vel|0.000000,-0.000000,0.000000,0.000000,0.000000,0.000000|eff|128.906250,338.378906,-418.945312,96.679688,76.538086,8.056641
cobot_dynamixel_driver/joint_states|name|J1,J2,J3,J4,J5,J6|pos|-0.000013,0.000075,-0.000025,0.000038,0.000041,0.000000|vel|0.000000,-0.000000,0.000000,0.000000,0.000000,0.000000|eff|128.906250,451.171875,-435.058594,64.453125,76.538086,40.283203
cobot_dynamixel_driver/joint_states|name|J1,J2,J3,J4,J5,J6|pos|-0.000013,0.000075,-0.000025,0.000038,0.000041,0.000000|vel|0.000000,-0.000000,0.000000,0.000000,0.000000,0.000000|eff|96.679688,225.585938,-435.058594,64.453125,76.538086,40.283203
cobot_dynamixel_driver/joint_states|name|J1,J2,J3,J4,J5,J6|pos|-0.000013,0.000075,-0.000025,0.000038,0.000041,0.000000|vel|0.000000,-0.000000,0.000000,0.000000,0.000000,0.000000|eff|0.000000,273.925781,-435.058594,96.679688,76.538086,36.254883
cobot_dynamixel_driver/joint_states|name|J1,J2,J3,J4,J5,J6|pos|-0.000013,0.000075,-0.000025,0.000038,0.000041,0.000000|vel|0.000000,-0.000000,0.000000,0.000000,0.000000,0.000000|eff|0.000000,322.265625,-435.058594,112.792969,76.538086,36.254883
cobot_dynamixel_driver/joint_states|name|J1,J2,J3,J4,J5,J6|pos|-0.000013,0.000075,-0.000025,0.000038,0.000041,0.000000|vel|0.000000,-0.000000,0.000000,0.000000,0.000000,0.000000|eff|0.000000,273.925781,-402.832031,96.679688,80.566406,16.113281
cobot_dynamixel_driver/joint_states|name|J1,J2,J3,J4,J5,J6|pos|-0.000013,0.000075,-0.000025,0.000038,0.000041,0.000000|vel|0.000000,-0.000000,0.000000,0.000000,0.000000,0.000000|eff|0.000000,386.718750,-402.832031,32.226562,76.538086,36.254883
cobot_dynamixel_driver/joint_states|name|J1,J2,J3,J4,J5,J6|pos|-0.000013,0.000075,-0.000025,0.000038,0.000041,0.000000|vel|0.000000,-0.000000,0.000000,0.000000,0.000000,0.000000|eff|0.000000,273.925781,-435.058594,32.226562,76.538086,32.226562
cobot_dynamixel_driver/joint_states|name|J1,J2,J3,J4,J5,J6|pos|-0.000013,0.000075,-0.000025,0.000025,0.000041,0.000000|vel|0.000000,-0.000000,0.000000,0.000000,0.000000,0.000000|eff|128.906250,290.039062,-402.832031,0.000000,80.566406,36.254883
cobot_dynamixel_driver/joint_states|name|J1,J2,J3,J4,J5,J6|pos|-0.000013,0.000063,-0.000013,0.000025,0.000041,0.000000|vel|0.000000,-0.000000,0.000000,0.000000,0.000000,0.000000|eff|0.000000,386.718750,-435.058594,80.566406,80.566406,36.254883
cobot_dynamixel_driver/joint_states|name|J1,J2,J3,J4,J5,J6|pos|-0.000013,0.000063,-0.000013,0.000025,0.000041,0.000000|vel|0.000000,-0.000000,0.000000,0.000000,0.000000,0.000000|eff|0.000000,338.378906,-435.058594,32.226562,80.566406,0.000000
cobot_dynamixel_driver/joint_states|name|J1,J2,J3,J4,J5,J6|pos|-0.000013,0.000063,-0.000013,0.000025,0.000041,0.000000|vel|0.000000,-0.000000,0.000000,0.000000,0.000000,0.000000|eff|0.000000,257.812500,-435.058594,0.000000,76.538086,40.283203
cobot_dynamixel_driver/joint_states|name|J1,J2,J3,J4,J5,J6|pos|-0.000013,0.000063,-0.000013,0.000025,0.000041,0.000000|vel|0.000000,-0.000000,0.000000,0.000000,0.000000,0.000000|eff|128.906250,386.718750,-435.058594,80.566406,72.509766,0.000000
cobot_dynamixel_driver/joint_states|name|J1,J2,J3,J4,J5,J6|pos|-0.000013,0.000063,-0.000013,0.000025,0.000041,0.000000|vel|0.000000,-0.000000,0.000000,0.000000,0.000000,0.000000|eff|0.000000,418.945312,-435.058594,64.453125,80.566406,40.283203
cobot_dynamixel_driver/joint_states|name|J1,J2,J3,J4,J5,J6|pos|-0.000013,0.000063,-0.000013,0.000025,0.000041,0.000000|vel|0.000000,-0.000000,0.000000,0.000000,0.000000,0.000000|eff|0.000000,370.605469,-435.058594,96.679688,72.509766,0.000000
cobot_dynamixel_driver/joint_states|name|J1,J2,J3,J4,J5,J6|pos|-0.000013,0.000063,-0.000013,0.000025,0.000041,0.000000|vel|0.000000,-0.000000,0.000000,0.000000,0.000000,0.000000|eff|0.000000,338.378906,-435.058594,64.453125,76.538086,40.283203
cobot_dynamixel_driver/joint_states|name|J1,J2,J3,J4,J5,J6|pos|-0.000013,0.000063,-0.000013,0.000025,0.000041,0.000000|vel|0.000000,-0.000000,0.000000,0.000000,0.000000,0.000000|eff|64.453125,467.285156,-435.058594,64.453125,72.509766,32.226562
cobot_dynamixel_driver/joint_states|name|J1,J2,J3,J4,J5,J6|pos|-0.000013,0.000063,-0.000013,0.000025,0.000041,0.000000|vel|0.000000,-0.000000,0.000000,0.000000,0.000000,0.000000|eff|0.000000,257.812500,-435.058594,32.226562,80.566406,28.198242
cobot_dynamixel_driver/joint_states|name|J1,J2,J3,J4,J5,J6|pos|-0.000013,0.000063,-0.000013,0.000025,0.000041,0.000000|vel|0.000000,-0.000000,0.000000,0.000000,0.000000,0.000000|eff|80.566406,257.812500,-435.058594,96.679688,72.509766,40.283203
cobot_dynamixel_driver/joint_states|name|J1,J2,J3,J4,J5,J6|pos|-0.000013,0.000063,-0.000013,0.000025,0.000041,0.000000|vel|0.000000,-0.000000,0.000000,0.000000,0.000000,0.000000|eff|0.000000,467.285156,-418.945312,80.566406,72.509766,40.283203
cobot_dynamixel_driver/joint_states|name|J1,J2,J3,J4,J5,J6|pos|-0.000013,0.000063,-0.000013,0.000025,0.000041,0.000000|vel|0.000000,-0.000000,0.000000,0.000000,0.000000,0.000000|eff|0.000000,257.812500,-435.058594,0.000000,80.566406,28.198242
cobot_dynamixel_driver/joint_states|name|J1,J2,J3,J4,J5,J6|pos|-0.000013,0.000063,-0.000013,0.000025,0.000041,0.000000|vel|0.000000,-0.000000,0.000000,0.000000,0.000000,0.000000|eff|0.000000,370.605469,-435.058594,0.000000,76.538086,24.169922
cobot_dynamixel_driver/joint_states|name|J1,J2,J3,J4,J5,J6|pos|-0.000013,0.000063,-0.000013,0.000025,0.000041,0.000000|vel|0.000000,-0.000000,0.000000,0.000000,0.000000,0.000000|eff|0.000000,467.285156,-435.058594,96.679688,72.509766,0.000000
cobot_dynamixel_driver/joint_states|name|J1,J2,J3,J4,J5,J6|pos|-0.000013,0.000063,-0.000013,0.000025,0.000041,0.000000|vel|0.000000,-0.000000,0.000000,0.000000,0.000000,0.000000|eff|128.906250,418.945312,-402.832031,96.679688,76.538086,28.198242
cobot_dynamixel_driver/joint_states|name|J1,J2,J3,J4,J5,J6|pos|-0.000013,0.000063,-0.000013,0.000025,0.000041,0.000000|vel|0.000000,-0.000000,0.000000,0.000000,0.000000,0.000000|eff|0.000000,467.285156,-370.605469,64.453125,80.566406,24.169922
cobot_dynamixel_driver/joint_states|name|J1,J2,J3,J4,J5,J6|pos|-0.000013,0.000063,-0.000013,0.000025,0.000041,0.000000|vel|0.000000,-0.000000,0.000000,0.000000,0.000000,0.000000|eff|48.339844,338.378906,-418.945312,0.000000,76.538086,0.000000
cobot_dynamixel_driver/joint_states|name|J1,J2,J3,J4,J5,J6|pos|-0.000013,0.000063,-0.000013,0.000025,0.000041,0.000000|vel|0.000000,-0.000000,0.000000,0.000000,0.000000,0.000000|eff|0.000000,483.398438,-418.945312,0.000000,80.566406,28.198242
cobot_dynamixel_driver/joint_states|name|J1,J2,J3,J4,J5,J6|pos|-0.000013,0.000063,-0.000013,0.000025,0.000041,0.000000|vel|0.000000,-0.000000,0.000000,0.000000,0.000000,0.000000|eff|0.000000,402.832031,-435.058594,32.226562,80.566406,8.056641
cobot_dynamixel_driver/joint_states|name|J1,J2,J3,J4,J5,J6|pos|-0.000013,0.000063,-0.000013,0.000025,0.000041,0.000000|vel|0.000000,-0.000000,0.000000,0.000000,0.000000,0.000000|eff|0.000000,354.492188,-354.492188,96.679688,80.566406,36.254883
