surachairobotic/cobot/cobot_dynamixel_driver/log/2018-12-19T09:48:44.950998_driver_log.txt
cobot_dynamixel_driver/joint_states|name|J1,J2,J3,J4,J5,J6|pos|-0.000075,-1.268785,1.296275,-0.263534,-1.446963,-0.000083|vel|0.000000,-0.000000,0.000000,0.000000,0.000000,0.000000|eff|0.000000,0.000000,0.000000,0.000000,0.000000,0.000000
cobot_dynamixel_driver/joint_states|name|J1,J2,J3,J4,J5,J6|pos|-0.000075,-1.268785,1.296275,-0.263534,-1.446963,-0.000083|vel|0.000000,-0.000000,0.000000,0.000000,0.000000,0.000000|eff|0.000000,0.000000,0.000000,0.000000,0.000000,0.000000
cobot_dynamixel_driver/joint_states|name|J1,J2,J3,J4,J5,J6|pos|-0.000075,-1.268785,1.296275,-0.263534,-1.446963,-0.000083|vel|0.000000,-0.000000,0.000000,0.000000,0.000000,0.000000|eff|0.000000,0.000000,0.000000,0.000000,0.000000,0.000000
cobot_dynamixel_driver/joint_states|name|J1,J2,J3,J4,J5,J6|pos|-0.000075,-1.268785,1.296275,-0.263534,-1.446963,-0.000083|vel|0.000000,-0.000000,0.000000,0.000000,0.000000,0.000000|eff|0.000000,0.000000,0.000000,0.000000,0.000000,0.000000
cobot_dynamixel_driver/joint_states|name|J1,J2,J3,J4,J5,J6|pos|-0.000075,-1.268785,1.296275,-0.263534,-1.446963,-0.000083|vel|0.000000,-0.000000,0.000000,0.000000,0.000000,0.000000|eff|0.000000,0.000000,0.000000,0.000000,0.000000,0.000000
cobot_dynamixel_driver/joint_states|name|J1,J2,J3,J4,J5,J6|pos|-0.000075,-1.268785,1.296275,-0.263534,-1.446963,-0.000083|vel|0.000000,-0.000000,0.000000,0.000000,0.000000,0.000000|eff|0.000000,0.000000,0.000000,0.000000,0.000000,0.000000
cobot_dynamixel_driver/joint_states|name|J1,J2,J3,J4,J5,J6|pos|-0.000075,-1.268785,1.296275,-0.263534,-1.446963,-0.000083|vel|0.000000,-0.000000,0.000000,0.000000,0.000000,0.000000|eff|0.000000,0.000000,0.000000,0.000000,0.000000,0.000000
cobot_dynamixel_driver/joint_states|name|J1,J2,J3,J4,J5,J6|pos|-0.000075,-1.268785,1.296275,-0.263534,-1.446963,-0.000083|vel|0.000000,-0.000000,0.000000,0.000000,0.000000,0.000000|eff|0.000000,0.000000,0.000000,0.000000,0.000000,0.000000
cobot_dynamixel_driver/joint_states|name|J1,J2,J3,J4,J5,J6|pos|-0.000075,-1.268785,1.296275,-0.263534,-1.446963,-0.000083|vel|0.000000,-0.000000,0.000000,0.000000,0.000000,0.000000|eff|0.000000,0.000000,0.000000,0.000000,0.000000,0.000000
cobot_dynamixel_driver/joint_states|name|J1,J2,J3,J4,J5,J6|pos|-0.000075,-1.268785,1.296275,-0.263534,-1.446963,-0.000083|vel|0.000000,-0.000000,0.000000,0.000000,0.000000,0.000000|eff|0.000000,0.000000,0.000000,0.000000,0.000000,0.000000
cobot_dynamixel_driver/joint_states|name|J1,J2,J3,J4,J5,J6|pos|-0.000075,-1.268785,1.296275,-0.263534,-1.446963,-0.000083|vel|0.000000,-0.000000,0.000000,0.000000,0.000000,0.000000|eff|0.000000,0.000000,0.000000,0.000000,0.000000,0.000000
cobot_dynamixel_driver/joint_states|name|J1,J2,J3,J4,J5,J6|pos|-0.000075,-1.268785,1.296275,-0.263534,-1.446963,-0.000083|vel|0.000000,-0.000000,0.000000,0.000000,0.000000,0.000000|eff|0.000000,0.000000,0.000000,0.000000,0.000000,0.000000
cobot_dynamixel_driver/joint_states|name|J1,J2,J3,J4,J5,J6|pos|-0.000075,-1.268785,1.296275,-0.263534,-1.446963,-0.000083|vel|0.000000,-0.000000,0.000000,0.000000,0.000000,0.000000|eff|0.000000,0.000000,0.000000,0.000000,0.000000,0.000000
cobot_dynamixel_driver/joint_states|name|J1,J2,J3,J4,J5,J6|pos|-0.000075,-1.268785,1.296275,-0.263534,-1.446963,-0.000083|vel|0.000000,-0.000000,0.000000,0.000000,0.000000,0.000000|eff|0.000000,0.000000,0.000000,0.000000,0.000000,0.000000
cobot_dynamixel_driver/joint_states|name|J1,J2,J3,J4,J5,J6|pos|-0.000075,-1.268785,1.296275,-0.263534,-1.446963,-0.000083|vel|0.000000,-0.000000,0.000000,0.000000,0.000000,0.000000|eff|0.000000,0.000000,0.000000,0.000000,0.000000,0.000000
cobot_dynamixel_driver/joint_states|name|J1,J2,J3,J4,J5,J6|pos|-0.000075,-1.268785,1.296275,-0.263534,-1.446963,-0.000083|vel|0.000000,-0.000000,0.000000,0.000000,0.000000,0.000000|eff|0.000000,0.000000,0.000000,0.000000,0.000000,0.000000
cobot_dynamixel_driver/joint_states|name|J1,J2,J3,J4,J5,J6|pos|-0.000075,-1.268785,1.296275,-0.263534,-1.446963,-0.000083|vel|0.000000,-0.000000,0.000000,0.000000,0.000000,0.000000|eff|0.000000,0.000000,0.000000,0.000000,0.000000,0.000000
cobot_dynamixel_driver/joint_states|name|J1,J2,J3,J4,J5,J6|pos|-0.000075,-1.268785,1.296275,-0.263534,-1.446963,-0.000083|vel|0.000000,-0.000000,0.000000,0.000000,0.000000,0.000000|eff|0.000000,0.000000,0.000000,0.000000,0.000000,0.000000
cobot_dynamixel_driver/joint_states|name|J1,J2,J3,J4,J5,J6|pos|-0.000075,-1.268785,1.296275,-0.263534,-1.446963,-0.000083|vel|0.000000,-0.000000,0.000000,0.000000,0.000000,0.000000|eff|0.000000,0.000000,0.000000,0.000000,0.000000,0.000000
cobot_dynamixel_driver/joint_states|name|J1,J2,J3,J4,J5,J6|pos|-0.000075,-1.268785,1.296275,-0.263534,-1.446963,-0.000083|vel|0.000000,-0.000000,0.000000,0.000000,0.000000,0.000000|eff|0.000000,0.000000,0.000000,0.000000,0.000000,0.000000
cobot_dynamixel_driver/joint_states|name|J1,J2,J3,J4,J5,J6|pos|-0.000075,-1.268785,1.296275,-0.263534,-1.446963,-0.000083|vel|0.000000,-0.000000,0.000000,0.000000,0.000000,0.000000|eff|0.000000,0.000000,0.000000,0.000000,0.000000,0.000000
cobot_dynamixel_driver/joint_states|name|J1,J2,J3,J4,J5,J6|pos|-0.000075,-1.268785,1.296275,-0.263534,-1.446963,-0.000083|vel|0.000000,-0.000000,0.000000,0.000000,0.000000,0.000000|eff|0.000000,0.000000,0.000000,0.000000,0.000000,0.000000
cobot_dynamixel_driver/joint_states|name|J1,J2,J3,J4,J5,J6|pos|-0.000075,-1.268785,1.296275,-0.263534,-1.446963,-0.000083|vel|0.000000,-0.000000,0.000000,0.000000,0.000000,0.000000|eff|0.000000,0.000000,0.000000,0.000000,0.000000,0.000000
cobot_dynamixel_driver/joint_states|name|J1,J2,J3,J4,J5,J6|pos|-0.000075,-1.268785,1.296275,-0.263534,-1.446963,-0.000083|vel|0.000000,-0.000000,0.000000,0.000000,0.000000,0.000000|eff|0.000000,0.000000,0.000000,0.000000,0.000000,0.000000
cobot_dynamixel_driver/joint_states|name|J1,J2,J3,J4,J5,J6|pos|-0.000075,-1.268785,1.296275,-0.263534,-1.446963,-0.000083|vel|0.000000,-0.000000,0.000000,0.000000,0.000000,0.000000|eff|0.000000,0.000000,0.000000,0.000000,0.000000,0.000000
cobot_dynamixel_driver/joint_states|name|J1,J2,J3,J4,J5,J6|pos|-0.000075,-1.268785,1.296275,-0.263534,-1.446963,-0.000083|vel|0.000000,-0.000000,0.000000,0.000000,0.000000,0.000000|eff|0.000000,0.000000,0.000000,0.000000,0.000000,0.000000
cobot_dynamixel_driver/joint_states|name|J1,J2,J3,J4,J5,J6|pos|-0.000075,-1.268785,1.296275,-0.263534,-1.446963,-0.000083|vel|0.000000,-0.000000,0.000000,0.000000,0.000000,0.000000|eff|0.000000,0.000000,0.000000,0.000000,0.000000,0.000000
cobot_dynamixel_driver/joint_states|name|J1,J2,J3,J4,J5,J6|pos|-0.000075,-1.268785,1.296275,-0.263534,-1.446963,-0.000083|vel|0.000000,-0.000000,0.000000,0.000000,0.000000,0.000000|eff|0.000000,0.000000,0.000000,0.000000,0.000000,0.000000
cobot_dynamixel_driver/joint_states|name|J1,J2,J3,J4,J5,J6|pos|-0.000075,-1.268785,1.296275,-0.263534,-1.446963,-0.000083|vel|0.000000,-0.000000,0.000000,0.000000,0.000000,0.000000|eff|0.000000,0.000000,0.000000,0.000000,0.000000,0.000000
cobot_dynamixel_driver/joint_states|name|J1,J2,J3,J4,J5,J6|pos|-0.000075,-1.268785,1.296275,-0.263534,-1.446963,-0.000083|vel|0.000000,-0.000000,0.000000,0.000000,0.000000,0.000000|eff|0.000000,0.000000,0.000000,0.000000,0.000000,0.000000
cobot_dynamixel_driver/joint_states|name|J1,J2,J3,J4,J5,J6|pos|-0.000075,-1.268785,1.296275,-0.263534,-1.446963,-0.000083|vel|0.000000,-0.000000,0.000000,0.000000,0.000000,0.000000|eff|0.000000,0.000000,0.000000,0.000000,0.000000,0.000000
cobot_dynamixel_driver/joint_states|name|J1,J2,J3,J4,J5,J6|pos|-0.000075,-1.268785,1.296275,-0.263534,-1.446963,-0.000083|vel|0.000000,-0.000000,0.000000,0.000000,0.000000,0.000000|eff|0.000000,0.000000,0.000000,0.000000,0.000000,0.000000
cobot_dynamixel_driver/joint_states|name|J1,J2,J3,J4,J5,J6|pos|-0.000075,-1.268785,1.296275,-0.263534,-1.446963,-0.000083|vel|0.000000,-0.000000,0.000000,0.000000,0.000000,0.000000|eff|0.000000,0.000000,0.000000,0.000000,0.000000,0.000000
cobot_dynamixel_driver/joint_states|name|J1,J2,J3,J4,J5,J6|pos|-0.000075,-1.268785,1.296275,-0.263534,-1.446963,-0.000083|vel|0.000000,-0.000000,0.000000,0.000000,0.000000,0.000000|eff|0.000000,0.000000,0.000000,0.000000,0.000000,0.000000
cobot_dynamixel_driver/joint_states|name|J1,J2,J3,J4,J5,J6|pos|-0.000075,-1.268785,1.296275,-0.263534,-1.446963,-0.000083|vel|0.000000,-0.000000,0.000000,0.000000,0.000000,0.000000|eff|0.000000,0.000000,0.000000,0.000000,0.000000,0.000000
cobot_dynamixel_driver/joint_states|name|J1,J2,J3,J4,J5,J6|pos|-0.000075,-1.268785,1.296275,-0.263534,-1.446963,-0.000083|vel|0.000000,-0.000000,0.000000,0.000000,0.000000,0.000000|eff|0.000000,0.000000,0.000000,0.000000,0.000000,0.000000
cobot_dynamixel_driver/joint_states|name|J1,J2,J3,J4,J5,J6|pos|-0.000075,-1.268785,1.296275,-0.263534,-1.446963,-0.000083|vel|0.000000,-0.000000,0.000000,0.000000,0.000000,0.000000|eff|0.000000,0.000000,0.000000,0.000000,0.000000,0.000000
cobot_dynamixel_driver/joint_states|name|J1,J2,J3,J4,J5,J6|pos|-0.000075,-1.268785,1.296275,-0.263534,-1.446963,-0.000083|vel|0.000000,-0.000000,0.000000,0.000000,0.000000,0.000000|eff|0.000000,0.000000,0.000000,0.000000,0.000000,0.000000
cobot_dynamixel_driver/joint_states|name|J1,J2,J3,J4,J5,J6|pos|-0.000075,-1.268785,1.296275,-0.263534,-1.446963,-0.000083|vel|0.000000,-0.000000,0.000000,0.000000,0.000000,0.000000|eff|0.000000,0.000000,0.000000,0.000000,0.000000,0.000000
cobot_dynamixel_driver/joint_states|name|J1,J2,J3,J4,J5,J6|pos|-0.000075,-1.268785,1.296275,-0.263534,-1.446963,-0.000083|vel|0.000000,-0.000000,0.000000,0.000000,0.000000,0.000000|eff|0.000000,0.000000,0.000000,0.000000,0.000000,0.000000
cobot_dynamixel_driver/joint_states|name|J1,J2,J3,J4,J5,J6|pos|-0.000075,-1.268785,1.296275,-0.263534,-1.446963,-0.000083|vel|0.000000,-0.000000,0.000000,0.000000,0.000000,0.000000|eff|0.000000,0.000000,0.000000,0.000000,0.000000,0.000000
cobot_dynamixel_driver/joint_states|name|J1,J2,J3,J4,J5,J6|pos|-0.000075,-1.268785,1.296275,-0.263534,-1.446963,-0.000083|vel|0.000000,-0.000000,0.000000,0.000000,0.000000,0.000000|eff|0.000000,0.000000,0.000000,0.000000,0.000000,0.000000
cobot_dynamixel_driver/joint_states|name|J1,J2,J3,J4,J5,J6|pos|-0.000075,-1.268785,1.296275,-0.263534,-1.446963,-0.000083|vel|0.000000,-0.000000,0.000000,0.000000,0.000000,0.000000|eff|0.000000,0.000000,0.000000,0.000000,0.000000,0.000000
cobot_dynamixel_driver/joint_states|name|J1,J2,J3,J4,J5,J6|pos|-0.000075,-1.268785,1.296275,-0.263534,-1.446963,-0.000083|vel|0.000000,-0.000000,0.000000,0.000000,0.000000,0.000000|eff|0.000000,0.000000,0.000000,0.000000,0.000000,0.000000
cobot_dynamixel_driver/joint_states|name|J1,J2,J3,J4,J5,J6|pos|-0.000075,-1.268785,1.296275,-0.263534,-1.446963,-0.000083|vel|0.000000,-0.000000,0.000000,0.000000,0.000000,0.000000|eff|0.000000,0.000000,0.000000,0.000000,0.000000,0.000000
cobot_dynamixel_driver/joint_states|name|J1,J2,J3,J4,J5,J6|pos|-0.000075,-1.268785,1.296275,-0.263534,-1.446963,-0.000083|vel|0.000000,-0.000000,0.000000,0.000000,0.000000,0.000000|eff|0.000000,0.000000,0.000000,0.000000,0.000000,0.000000
cobot_dynamixel_driver/joint_states|name|J1,J2,J3,J4,J5,J6|pos|-0.000075,-1.268785,1.296275,-0.263534,-1.446963,-0.000083|vel|0.000000,-0.000000,0.000000,0.000000,0.000000,0.000000|eff|0.000000,0.000000,0.000000,0.000000,0.000000,0.000000
cobot_dynamixel_driver/joint_states|name|J1,J2,J3,J4,J5,J6|pos|-0.000075,-1.268785,1.296275,-0.263534,-1.446963,-0.000083|vel|0.000000,-0.000000,0.000000,0.000000,0.000000,0.000000|eff|0.000000,0.000000,0.000000,0.000000,0.000000,0.000000
cobot_dynamixel_driver/joint_states|name|J1,J2,J3,J4,J5,J6|pos|-0.000075,-1.268785,1.296275,-0.263534,-1.446963,-0.000083|vel|0.000000,-0.000000,0.000000,0.000000,0.000000,0.000000|eff|0.000000,0.000000,0.000000,0.000000,0.000000,0.000000
cobot_dynamixel_driver/joint_states|name|J1,J2,J3,J4,J5,J6|pos|-0.000075,-1.268785,1.296275,-0.263534,-1.446963,-0.000083|vel|0.000000,-0.000000,0.000000,0.000000,0.000000,0.000000|eff|0.000000,0.000000,0.000000,0.000000,0.000000,0.000000
cobot_dynamixel_driver/joint_states|name|J1,J2,J3,J4,J5,J6|pos|-0.000075,-1.268785,1.296275,-0.263534,-1.446963,-0.000083|vel|0.000000,-0.000000,0.000000,0.000000,0.000000,0.000000|eff|0.000000,0.000000,0.000000,0.000000,0.000000,0.000000
cobot_dynamixel_driver/joint_states|name|J1,J2,J3,J4,J5,J6|pos|-0.000075,-1.268785,1.296275,-0.263534,-1.446963,-0.000083|vel|0.000000,-0.000000,0.000000,0.000000,0.000000,0.000000|eff|0.000000,0.000000,0.000000,0.000000,0.000000,0.000000
cobot_dynamixel_driver/joint_states|name|J1,J2,J3,J4,J5,J6|pos|-0.000075,-1.268785,1.296275,-0.263534,-1.446963,-0.000083|vel|0.000000,-0.000000,0.000000,0.000000,0.000000,0.000000|eff|0.000000,0.000000,0.000000,0.000000,0.000000,0.000000
cobot_dynamixel_driver/joint_states|name|J1,J2,J3,J4,J5,J6|pos|-0.000075,-1.268785,1.296275,-0.263534,-1.446963,-0.000083|vel|0.000000,-0.000000,0.000000,0.000000,0.000000,0.000000|eff|0.000000,0.000000,0.000000,0.000000,0.000000,0.000000
cobot_dynamixel_driver/joint_states|name|J1,J2,J3,J4,J5,J6|pos|-0.000075,-1.268785,1.296275,-0.263534,-1.446963,-0.000083|vel|0.000000,-0.000000,0.000000,0.000000,0.000000,0.000000|eff|0.000000,0.000000,0.000000,0.000000,0.000000,0.000000
cobot_dynamixel_driver/joint_states|name|J1,J2,J3,J4,J5,J6|pos|-0.000075,-1.268785,1.296275,-0.263534,-1.446963,-0.000083|vel|0.000000,-0.000000,0.000000,0.000000,0.000000,0.000000|eff|0.000000,0.000000,0.000000,0.000000,0.000000,0.000000
cobot_dynamixel_driver/joint_states|name|J1,J2,J3,J4,J5,J6|pos|-0.000075,-1.268785,1.296275,-0.263534,-1.446963,-0.000083|vel|0.000000,-0.000000,0.000000,0.000000,0.000000,0.000000|eff|0.000000,0.000000,0.000000,0.000000,0.000000,0.000000
cobot_dynamixel_driver/joint_states|name|J1,J2,J3,J4,J5,J6|pos|-0.000075,-1.268785,1.296275,-0.263534,-1.446963,-0.000083|vel|0.000000,-0.000000,0.000000,0.000000,0.000000,0.000000|eff|0.000000,0.000000,0.000000,0.000000,0.000000,0.000000
cobot_dynamixel_driver/joint_states|name|J1,J2,J3,J4,J5,J6|pos|-0.000075,-1.268785,1.296275,-0.263534,-1.446963,-0.000083|vel|0.000000,-0.000000,0.000000,0.000000,0.000000,0.000000|eff|0.000000,0.000000,0.000000,0.000000,0.000000,0.000000
cobot_dynamixel_driver/joint_states|name|J1,J2,J3,J4,J5,J6|pos|-0.000075,-1.268785,1.296275,-0.263534,-1.446963,-0.000083|vel|0.000000,-0.000000,0.000000,0.000000,0.000000,0.000000|eff|0.000000,0.000000,0.000000,0.000000,0.000000,0.000000
cobot_dynamixel_driver/joint_states|name|J1,J2,J3,J4,J5,J6|pos|-0.000075,-1.268785,1.296275,-0.263534,-1.446963,-0.000083|vel|0.000000,-0.000000,0.000000,0.000000,0.000000,0.000000|eff|0.000000,0.000000,0.000000,0.000000,0.000000,0.000000
cobot_dynamixel_driver/joint_states|name|J1,J2,J3,J4,J5,J6|pos|-0.000075,-1.268785,1.296275,-0.263534,-1.446963,-0.000083|vel|0.000000,-0.000000,0.000000,0.000000,0.000000,0.000000|eff|0.000000,0.000000,0.000000,0.000000,0.000000,0.000000
cobot_dynamixel_driver/joint_states|name|J1,J2,J3,J4,J5,J6|pos|-0.000075,-1.268785,1.296275,-0.263534,-1.446963,-0.000083|vel|0.000000,-0.000000,0.000000,0.000000,0.000000,0.000000|eff|0.000000,0.000000,0.000000,0.000000,0.000000,0.000000
cobot_dynamixel_driver/joint_states|name|J1,J2,J3,J4,J5,J6|pos|-0.000075,-1.268785,1.296275,-0.263534,-1.446963,-0.000083|vel|0.000000,-0.000000,0.000000,0.000000,0.000000,0.000000|eff|0.000000,0.000000,0.000000,0.000000,0.000000,0.000000
cobot_dynamixel_driver/joint_states|name|J1,J2,J3,J4,J5,J6|pos|-0.000075,-1.268785,1.296275,-0.263534,-1.446963,-0.000083|vel|0.000000,-0.000000,0.000000,0.000000,0.000000,0.000000|eff|0.000000,0.000000,0.000000,0.000000,0.000000,0.000000
cobot_dynamixel_driver/joint_states|name|J1,J2,J3,J4,J5,J6|pos|-0.000075,-1.268785,1.296275,-0.263534,-1.446963,-0.000083|vel|0.000000,-0.000000,0.000000,0.000000,0.000000,0.000000|eff|0.000000,0.000000,0.000000,0.000000,0.000000,0.000000
cobot_dynamixel_driver/joint_states|name|J1,J2,J3,J4,J5,J6|pos|-0.000075,-1.268785,1.296275,-0.263534,-1.446963,-0.000083|vel|0.000000,-0.000000,0.000000,0.000000,0.000000,0.000000|eff|0.000000,0.000000,0.000000,0.000000,0.000000,0.000000
cobot_dynamixel_driver/joint_states|name|J1,J2,J3,J4,J5,J6|pos|-0.000075,-1.268785,1.296275,-0.263534,-1.446963,-0.000083|vel|0.000000,-0.000000,0.000000,0.000000,0.000000,0.000000|eff|0.000000,0.000000,0.000000,0.000000,0.000000,0.000000
cobot_dynamixel_driver/joint_states|name|J1,J2,J3,J4,J5,J6|pos|-0.000075,-1.268785,1.296275,-0.263534,-1.446963,-0.000083|vel|0.000000,-0.000000,0.000000,0.000000,0.000000,0.000000|eff|0.000000,0.000000,0.000000,0.000000,0.000000,0.000000
cobot_dynamixel_driver/joint_states|name|J1,J2,J3,J4,J5,J6|pos|-0.000075,-1.268785,1.296275,-0.263534,-1.446963,-0.000083|vel|0.000000,-0.000000,0.000000,0.000000,0.000000,0.000000|eff|0.000000,0.000000,0.000000,0.000000,0.000000,0.000000
cobot_dynamixel_driver/joint_states|name|J1,J2,J3,J4,J5,J6|pos|-0.000075,-1.268785,1.296275,-0.263534,-1.446963,-0.000083|vel|0.000000,-0.000000,0.000000,0.000000,0.000000,0.000000|eff|0.000000,0.000000,0.000000,0.000000,0.000000,0.000000
cobot_dynamixel_driver/joint_states|name|J1,J2,J3,J4,J5,J6|pos|-0.000075,-1.268785,1.296275,-0.263534,-1.446963,-0.000083|vel|0.000000,-0.000000,0.000000,0.000000,0.000000,0.000000|eff|0.000000,0.000000,0.000000,0.000000,0.000000,0.000000
cobot_dynamixel_driver/joint_states|name|J1,J2,J3,J4,J5,J6|pos|-0.000075,-1.268785,1.296275,-0.263534,-1.446963,-0.000083|vel|0.000000,-0.000000,0.000000,0.000000,0.000000,0.000000|eff|0.000000,0.000000,0.000000,0.000000,0.000000,0.000000
cobot_dynamixel_driver/joint_states|name|J1,J2,J3,J4,J5,J6|pos|-0.000075,-1.268785,1.296275,-0.263534,-1.446963,-0.000083|vel|0.000000,-0.000000,0.000000,0.000000,0.000000,0.000000|eff|0.000000,0.000000,0.000000,0.000000,0.000000,0.000000
cobot_dynamixel_driver/joint_states|name|J1,J2,J3,J4,J5,J6|pos|-0.000075,-1.268785,1.296275,-0.263534,-1.446963,-0.000083|vel|0.000000,-0.000000,0.000000,0.000000,0.000000,0.000000|eff|0.000000,0.000000,0.000000,0.000000,0.000000,0.000000
cobot_dynamixel_driver/joint_states|name|J1,J2,J3,J4,J5,J6|pos|-0.000075,-1.268785,1.296275,-0.263534,-1.446963,-0.000083|vel|0.000000,-0.000000,0.000000,0.000000,0.000000,0.000000|eff|0.000000,0.000000,0.000000,0.000000,0.000000,0.000000
cobot_dynamixel_driver/joint_states|name|J1,J2,J3,J4,J5,J6|pos|-0.000075,-1.268785,1.296275,-0.263534,-1.446963,-0.000083|vel|0.000000,-0.000000,0.000000,0.000000,0.000000,0.000000|eff|0.000000,0.000000,0.000000,0.000000,0.000000,0.000000
cobot_dynamixel_driver/joint_states|name|J1,J2,J3,J4,J5,J6|pos|-0.000075,-1.268785,1.296275,-0.263534,-1.446963,-0.000083|vel|0.000000,-0.000000,0.000000,0.000000,0.000000,0.000000|eff|0.000000,0.000000,0.000000,0.000000,0.000000,0.000000
cobot_dynamixel_driver/joint_states|name|J1,J2,J3,J4,J5,J6|pos|-0.000075,-1.268785,1.296275,-0.263534,-1.446963,-0.000083|vel|0.000000,-0.000000,0.000000,0.000000,0.000000,0.000000|eff|0.000000,0.000000,0.000000,0.000000,0.000000,0.000000
cobot_dynamixel_driver/joint_states|name|J1,J2,J3,J4,J5,J6|pos|-0.000075,-1.268785,1.296275,-0.263534,-1.446963,-0.000083|vel|0.000000,-0.000000,0.000000,0.000000,0.000000,0.000000|eff|0.000000,0.000000,0.000000,0.000000,0.000000,0.000000
cobot_dynamixel_driver/joint_states|name|J1,J2,J3,J4,J5,J6|pos|-0.000075,-1.268785,1.296275,-0.263534,-1.446963,-0.000083|vel|0.000000,-0.000000,0.000000,0.000000,0.000000,0.000000|eff|0.000000,0.000000,0.000000,0.000000,0.000000,0.000000
cobot_dynamixel_driver/joint_states|name|J1,J2,J3,J4,J5,J6|pos|-0.000075,-1.268785,1.296275,-0.263534,-1.446963,-0.000083|vel|0.000000,-0.000000,0.000000,0.000000,0.000000,0.000000|eff|0.000000,0.000000,0.000000,0.000000,0.000000,0.000000
cobot_dynamixel_driver/joint_states|name|J1,J2,J3,J4,J5,J6|pos|-0.000075,-1.268785,1.296275,-0.263534,-1.446963,-0.000083|vel|0.000000,-0.000000,0.000000,0.000000,0.000000,0.000000|eff|0.000000,0.000000,0.000000,0.000000,0.000000,0.000000
cobot_dynamixel_driver/joint_states|name|J1,J2,J3,J4,J5,J6|pos|-0.000075,-1.268785,1.296275,-0.263534,-1.446963,-0.000083|vel|0.000000,-0.000000,0.000000,0.000000,0.000000,0.000000|eff|0.000000,0.000000,0.000000,0.000000,0.000000,0.000000
cobot_dynamixel_driver/joint_states|name|J1,J2,J3,J4,J5,J6|pos|-0.000075,-1.268785,1.296275,-0.263534,-1.446963,-0.000083|vel|0.000000,-0.000000,0.000000,0.000000,0.000000,0.000000|eff|0.000000,0.000000,0.000000,0.000000,0.000000,0.000000
cobot_dynamixel_driver/joint_states|name|J1,J2,J3,J4,J5,J6|pos|-0.000075,-1.268785,1.296275,-0.263534,-1.446963,-0.000083|vel|0.000000,-0.000000,0.000000,0.000000,0.000000,0.000000|eff|0.000000,0.000000,0.000000,0.000000,0.000000,0.000000
cobot_dynamixel_driver/goal|-:J1,J2,J3,J4,J5,J6:0.000000,0.000000,0.000000,0.000000,0.261799,0.000000:0.500000,0.500000,0.500000,0.500000,0.500000,0.500000:pos_vel_
cobot_dynamixel_driver/joint_states|name|J1,J2,J3,J4,J5,J6|pos|-0.000075,-1.268785,1.294497,-0.263534,-1.446963,-0.000083|vel|0.000000,-0.000000,0.000000,0.000000,0.000000,0.000000|eff|0.000000,0.000000,0.000000,0.000000,0.000000,0.000000
cobot_dynamixel_driver/goal|-:J1,J2,J3,J4,J5,J6:0.000000,0.000000,0.000000,0.000000,0.261799,0.000000:0.500000,0.500000,0.500000,0.500000,0.500000,0.500000:pos_vel_
cobot_dynamixel_driver/goal|-:J1,J2,J3,J4,J5,J6:0.000000,0.000000,0.000000,0.000000,0.261799,0.000000:0.500000,0.500000,0.500000,0.500000,0.500000,0.500000:pos_vel_
cobot_dynamixel_driver/goal|-:J1,J2,J3,J4,J5,J6:0.000000,0.000000,0.000000,0.000000,0.261799,0.000000:0.500000,0.500000,0.500000,0.500000,0.500000,0.500000:pos_vel_
cobot_dynamixel_driver/goal|-:J1,J2,J3,J4,J5,J6:0.000000,0.000000,0.000000,0.000000,0.261799,0.000000:0.500000,0.500000,0.500000,0.500000,0.500000,0.500000:pos_vel_
cobot_dynamixel_driver/goal|-:J1,J2,J3,J4,J5,J6:0.000000,0.000000,0.000000,0.000000,0.261799,0.000000:0.500000,0.500000,0.500000,0.500000,0.500000,0.500000:pos_vel_
cobot_dynamixel_driver/goal|-:J1,J2,J3,J4,J5,J6:0.000000,0.000000,0.000000,0.000000,0.261799,0.000000:0.500000,0.500000,0.500000,0.500000,0.500000,0.500000:pos_vel_
cobot_dynamixel_driver/goal|-:J1,J2,J3,J4,J5,J6:0.000000,0.000000,0.000000,0.000000,0.261799,0.000000:0.500000,0.500000,0.500000,0.500000,0.500000,0.500000:pos_vel_
cobot_dynamixel_driver/goal|-:J1,J2,J3,J4,J5,J6:0.000000,0.000000,0.000000,0.000000,0.261799,0.000000:0.500000,0.500000,0.500000,0.500000,0.500000,0.500000:pos_vel_
cobot_dynamixel_driver/goal|-:J1,J2,J3,J4,J5,J6:0.000000,0.000000,0.000000,0.000000,0.261799,0.000000:0.500000,0.500000,0.500000,0.500000,0.500000,0.500000:pos_vel_
cobot_dynamixel_driver/goal|-:J1,J2,J3,J4,J5,J6:0.000000,0.000000,0.000000,0.000000,0.261799,0.000000:0.500000,0.500000,0.500000,0.500000,0.500000,0.500000:pos_vel_
cobot_dynamixel_driver/goal|-:J1,J2,J3,J4,J5,J6:0.000000,0.000000,0.000000,0.000000,0.261799,0.000000:0.500000,0.500000,0.500000,0.500000,0.500000,0.500000:pos_vel_
cobot_dynamixel_driver/goal|-:J1,J2,J3,J4,J5,J6:0.000000,0.000000,0.000000,0.000000,0.261799,0.000000:0.500000,0.500000,0.500000,0.500000,0.500000,0.500000:pos_vel_
cobot_dynamixel_driver/goal|-:J1,J2,J3,J4,J5,J6:0.000000,0.000000,0.000000,0.000000,0.261799,0.000000:0.500000,0.500000,0.500000,0.500000,0.500000,0.500000:pos_vel_
cobot_dynamixel_driver/goal|-:J1,J2,J3,J4,J5,J6:0.000000,0.000000,0.000000,0.000000,0.261799,0.000000:0.500000,0.500000,0.500000,0.500000,0.500000,0.500000:pos_vel_
cobot_dynamixel_driver/goal|-:J1,J2,J3,J4,J5,J6:0.000000,0.000000,0.000000,0.000000,0.261799,0.000000:0.500000,0.500000,0.500000,0.500000,0.500000,0.500000:pos_vel_
cobot_dynamixel_driver/goal|-:J1,J2,J3,J4,J5,J6:0.000000,0.000000,0.000000,0.000000,0.261799,0.000000:0.500000,0.500000,0.500000,0.500000,0.500000,0.500000:pos_vel_
cobot_dynamixel_driver/goal|-:J1,J2,J3,J4,J5,J6:0.000000,0.000000,0.000000,0.000000,0.261799,0.000000:0.500000,0.500000,0.500000,0.500000,0.500000,0.500000:pos_vel_
cobot_dynamixel_driver/goal|-:J1,J2,J3,J4,J5,J6:0.000000,0.000000,0.000000,0.000000,0.261799,0.000000:0.500000,0.500000,0.500000,0.500000,0.500000,0.500000:pos_vel_
cobot_dynamixel_driver/goal|-:J1,J2,J3,J4,J5,J6:0.000000,0.000000,0.000000,0.000000,0.261799,0.000000:0.500000,0.500000,0.500000,0.500000,0.500000,0.500000:pos_vel_
cobot_dynamixel_driver/goal|-:J1,J2,J3,J4,J5,J6:0.000000,0.000000,0.000000,0.000000,0.261799,0.000000:0.500000,0.500000,0.500000,0.500000,0.500000,0.500000:pos_vel_
cobot_dynamixel_driver/goal|-:J1,J2,J3,J4,J5,J6:0.000000,0.000000,0.000000,0.000000,0.261799,0.000000:0.500000,0.500000,0.500000,0.500000,0.500000,0.500000:pos_vel_
cobot_dynamixel_driver/goal|-:J1,J2,J3,J4,J5,J6:0.000000,0.000000,0.000000,0.000000,0.261799,0.000000:0.500000,0.500000,0.500000,0.500000,0.500000,0.500000:pos_vel_
cobot_dynamixel_driver/goal|-:J1,J2,J3,J4,J5,J6:0.000000,0.000000,0.000000,0.000000,0.261799,0.000000:0.500000,0.500000,0.500000,0.500000,0.500000,0.500000:pos_vel_
cobot_dynamixel_driver/goal|-:J1,J2,J3,J4,J5,J6:0.000000,0.000000,0.000000,0.000000,0.261799,0.000000:0.500000,0.500000,0.500000,0.500000,0.500000,0.500000:pos_vel_
cobot_dynamixel_driver/goal|-:J1,J2,J3,J4,J5,J6:0.000000,0.000000,0.000000,0.000000,0.261799,0.000000:0.500000,0.500000,0.500000,0.500000,0.500000,0.500000:pos_vel_
cobot_dynamixel_driver/goal|-:J1,J2,J3,J4,J5,J6:0.000000,0.000000,0.000000,0.000000,0.261799,0.000000:0.500000,0.500000,0.500000,0.500000,0.500000,0.500000:pos_vel_
cobot_dynamixel_driver/goal|-:J1,J2,J3,J4,J5,J6:0.000000,0.000000,0.000000,0.000000,0.261799,0.000000:0.500000,0.500000,0.500000,0.500000,0.500000,0.500000:pos_vel_
cobot_dynamixel_driver/goal|-:J1,J2,J3,J4,J5,J6:0.000000,0.000000,0.000000,0.000000,0.261799,0.000000:0.500000,0.500000,0.500000,0.500000,0.500000,0.500000:pos_vel_
cobot_dynamixel_driver/joint_states|name|J1,J2,J3,J4,J5,J6|pos|-0.000075,-1.268722,1.294422,-0.263471,-1.446736,-0.000083|vel|0.000000,0.011684,-0.009180,0.006051,0.035159,0.000000|eff|0.000000,-563.964844,-290.039062,338.378906,84.594727,0.000000
cobot_dynamixel_driver/joint_states|name|J1,J2,J3,J4,J5,J6|pos|-0.000075,-1.268196,1.293846,-0.263008,-1.445536,-0.000083|vel|0.000000,0.054457,-0.060508,0.061342,0.116164,0.000000|eff|0.000000,-725.097656,-499.511719,596.191406,116.821289,0.000000
cobot_dynamixel_driver/joint_states|name|J1,J2,J3,J4,J5,J6|pos|-0.000075,-1.266970,1.292532,-0.261543,-1.443405,-0.000083|vel|0.000000,0.097647,-0.093056,0.117259,0.137190,0.000000|eff|0.000000,-999.023438,-725.097656,580.078125,88.623047,0.000000
cobot_dynamixel_driver/joint_states|name|J1,J2,J3,J4,J5,J6|pos|-0.000075,-1.264478,1.290291,-0.258439,-1.439558,-0.000083|vel|0.000000,0.139793,-0.125397,0.169212,0.222676,0.000000|eff|0.000000,-1385.742188,-1337.402344,644.531250,56.396484,0.000000
cobot_dynamixel_driver/joint_states|name|J1,J2,J3,J4,J5,J6|pos|-0.000075,-1.261111,1.286886,-0.254345,-1.435048,-0.000083|vel|0.000000,0.196754,-0.196128,0.227216,0.235430,0.000000|eff|0.000000,-1546.875000,-1353.515625,676.757812,52.368164,0.000000
cobot_dynamixel_driver/joint_states|name|J1,J2,J3,J4,J5,J6|pos|-0.000075,-1.257506,1.282930,-0.250027,-1.430622,-0.000083|vel|0.000000,0.223043,-0.267485,0.235771,0.311264,0.000000|eff|0.000000,-1869.140625,-1208.496094,547.851562,68.481445,0.000000
cobot_dynamixel_driver/joint_states|name|J1,J2,J3,J4,J5,J6|pos|-0.000075,-1.252536,1.277685,-0.244894,-1.425409,-0.000083|vel|0.000000,0.280838,-0.298573,0.276665,0.325741,0.000000|eff|0.000000,-1611.328125,-1127.929688,467.285156,52.368164,0.000000
cobot_dynamixel_driver/joint_states|name|J1,J2,J3,J4,J5,J6|pos|-0.000075,-1.246690,1.271238,-0.238935,-1.419390,-0.000083|vel|0.000000,0.312761,-0.317143,0.323820,0.337806,0.000000|eff|0.000000,-1385.742188,-1015.136719,789.550781,44.311523,20.141602
cobot_dynamixel_driver/joint_states|name|J1,J2,J3,J4,J5,J6|pos|-0.000075,-1.240256,1.265017,-0.232501,-1.412998,-0.000083|vel|0.000000,0.348023,-0.300451,0.293983,0.330567,0.000000|eff|0.000000,-1353.515625,-1127.929688,805.664062,52.368164,0.000000
cobot_dynamixel_driver/joint_states|name|J1,J2,J3,J4,J5,J6|pos|-0.000075,-1.232920,1.257343,-0.225328,-1.405861,-0.000083|vel|0.000000,0.334043,-0.331540,0.369722,0.354696,0.000000|eff|0.000000,-1208.496094,-1240.722656,886.230469,40.283203,0.000000
cobot_dynamixel_driver/joint_states|name|J1,J2,J3,J4,J5,J6|pos|-0.000075,-1.225947,1.250383,-0.218581,-1.398663,-0.000083|vel|0.000000,0.368887,-0.327784,0.372226,0.317468,0.000000|eff|0.000000,-1256.835938,-1063.476562,563.964844,40.283203,0.000000
cobot_dynamixel_driver/joint_states|name|J1,J2,J3,J4,J5,J6|pos|-0.000075,-1.218336,1.243135,-0.211120,-1.391526,-0.000083|vel|0.000000,0.413955,-0.421884,0.397681,0.417431,0.000000|eff|0.000000,-854.003906,-1144.042969,531.738281,16.113281,0.000000
cobot_dynamixel_driver/joint_states|name|J1,J2,J3,J4,J5,J6|pos|-0.000075,-1.209098,1.234134,-0.202119,-1.382549,-0.000083|vel|0.000000,0.420840,-0.433776,0.414998,0.427083,0.000000|eff|0.000000,-999.023438,-870.117188,338.378906,36.254883,16.113281
cobot_dynamixel_driver/joint_states|name|J1,J2,J3,J4,J5,J6|pos|-0.000075,-1.202125,1.226886,-0.195297,-1.375785,-0.000083|vel|0.000000,0.497622,-0.357203,0.427517,0.371586,0.000000|eff|0.000000,-1836.914062,-821.777344,918.457031,24.169922,0.000000
cobot_dynamixel_driver/joint_states|name|J1,J2,J3,J4,J5,J6|pos|-0.000075,-1.193638,1.218599,-0.187097,-1.367593,-0.000083|vel|0.000000,0.417502,-0.456728,0.431899,0.418121,0.000000|eff|0.000000,-2255.859375,-1401.855469,644.531250,32.226562,0.000000
cobot_dynamixel_driver/joint_states|name|J1,J2,J3,J4,J5,J6|pos|-0.000075,-1.181583,1.206945,-0.175280,-1.355865,-0.000083|vel|0.000000,0.468829,-0.450885,0.473628,0.456382,0.000000|eff|0.000000,-1289.062500,-805.664062,918.457031,32.226562,0.000000
cobot_dynamixel_driver/joint_states|name|J1,J2,J3,J4,J5,J6|pos|-0.000075,-1.172808,1.197819,-0.166630,-1.347301,-0.000083|vel|0.000000,0.448799,-0.443165,0.459649,0.446386,0.000000|eff|64.453125,-1724.121094,-1176.269531,306.152344,40.283203,20.141602
cobot_dynamixel_driver/joint_states|name|J1,J2,J3,J4,J5,J6|pos|-0.000063,-1.165284,1.190371,-0.159194,-1.339958,-0.000083|vel|0.000000,0.472167,-0.481974,0.440244,0.450867,0.000000|eff|0.000000,-918.457031,-1079.589844,451.171875,24.169922,0.000000
cobot_dynamixel_driver/joint_states|name|J1,J2,J3,J4,J5,J6|pos|-0.000063,-1.157247,1.182434,-0.150757,-1.331560,-0.000083|vel|0.000000,0.466534,-0.398306,0.448590,0.469136,0.000000|eff|0.000000,-854.003906,-1305.175781,225.585938,16.113281,20.141602
cobot_dynamixel_driver/joint_states|name|J1,J2,J3,J4,J5,J6|pos|-0.000063,-1.147759,1.173033,-0.141794,-1.322603,-0.000083|vel|0.000000,0.477175,-0.452346,0.459023,0.470515,0.000000|eff|0.000000,-1111.816406,-1127.929688,306.152344,28.198242,20.141602
cobot_dynamixel_driver/joint_states|name|J1,J2,J3,J4,J5,J6|pos|-0.000063,-1.139459,1.164909,-0.133657,-1.314515,-0.000083|vel|0.000000,0.480722,-0.494075,0.469664,0.485337,0.000000|eff|128.906250,-1482.421875,-854.003906,1015.136719,28.198242,16.113281
cobot_dynamixel_driver/joint_states|name|J1,J2,J3,J4,J5,J6|pos|-0.000063,-1.129294,1.154769,-0.123630,-1.304586,-0.000083|vel|0.000000,0.464447,-0.480931,0.477592,0.410193,0.000000|eff|64.453125,-2014.160156,-1498.535156,467.285156,32.226562,20.141602
cobot_dynamixel_driver/joint_states|name|J1,J2,J3,J4,J5,J6|pos|-0.000063,-1.120018,1.145993,-0.114429,-1.295443,-0.000083|vel|0.000000,0.456310,-0.408321,0.430647,0.491197,0.000000|eff|0.000000,-1272.949219,-1321.289062,193.359375,16.113281,0.000000
cobot_dynamixel_driver/joint_states|name|J1,J2,J3,J4,J5,J6|pos|-0.000063,-1.108739,1.134414,-0.103325,-1.283983,-0.000083|vel|0.000000,0.471541,-0.510767,0.494701,0.464655,0.000000|eff|0.000000,-1450.195312,-1240.722656,483.398438,40.283203,24.169922
cobot_dynamixel_driver/joint_states|name|J1,J2,J3,J4,J5,J6|pos|-0.000063,-1.100365,1.126478,-0.094988,-1.276143,-0.000083|vel|0.000000,0.456310,-0.416876,0.480096,0.447765,0.000000|eff|128.906250,-886.230469,-821.777344,902.343750,24.169922,20.141602
cobot_dynamixel_driver/joint_states|name|J1,J2,J3,J4,J5,J6|pos|-0.000063,-1.092390,1.118078,-0.087064,-1.268242,-0.000083|vel|0.000000,0.489485,-0.444209,0.495953,0.465689,0.000000|eff|64.453125,-1450.195312,-1272.949219,483.398438,44.311523,24.169922
cobot_dynamixel_driver/joint_states|name|J1,J2,J3,J4,J5,J6|pos|-0.000063,-1.083778,1.109678,-0.078577,-1.259823,-0.000083|vel|0.000000,0.513062,-0.498248,0.505551,0.431219,0.000000|eff|0.000000,-773.437500,-1192.382812,628.417969,24.169922,16.113281
cobot_dynamixel_driver/joint_states|name|J1,J2,J3,J4,J5,J6|pos|-0.000063,-1.072436,1.098174,-0.067260,-1.248673,-0.000083|vel|0.000000,0.478218,-0.487607,0.462152,0.474651,0.000000|eff|64.453125,-596.191406,-821.777344,306.152344,20.141602,0.000000
cobot_dynamixel_driver/joint_states|name|J1,J2,J3,J4,J5,J6|pos|-0.000063,-1.063861,1.090137,-0.059224,-1.240254,-0.000083|vel|0.000000,0.504090,-0.479053,0.431899,0.529114,0.000000|eff|128.906250,-773.437500,-725.097656,161.132812,28.198242,32.226562
cobot_dynamixel_driver/joint_states|name|J1,J2,J3,J4,J5,J6|pos|-0.000063,-1.055286,1.081024,-0.052088,-1.231815,-0.000083|vel|0.000000,0.490528,-0.487816,0.390795,0.481890,0.000000|eff|64.453125,-1498.535156,-1127.929688,322.265625,36.254883,28.198242
cobot_dynamixel_driver/joint_states|name|J1,J2,J3,J4,J5,J6|pos|-0.000063,-1.045773,1.071498,-0.045303,-1.222279,-0.000083|vel|0.000000,0.494910,-0.503047,0.293983,0.549107,0.000000|eff|128.906250,-2062.500000,-1353.515625,193.359375,28.198242,0.000000
cobot_dynamixel_driver/joint_states|name|J1,J2,J3,J4,J5,J6|pos|-0.000063,-1.036697,1.062459,-0.039745,-1.213343,-0.000083|vel|0.000000,0.498457,-0.504508,0.274579,0.479822,0.000000|eff|96.679688,-1562.988281,-1111.816406,354.492188,8.056641,32.226562
cobot_dynamixel_driver/joint_states|name|J1,J2,J3,J4,J5,J6|pos|-0.000063,-1.027183,1.052908,-0.034463,-1.203496,-0.000083|vel|0.000000,0.504716,-0.508681,0.229720,0.515326,0.000000|eff|96.679688,-2449.218750,-1482.421875,290.039062,20.141602,0.000000
cobot_dynamixel_driver/joint_states|name|J1,J2,J3,J4,J5,J6|pos|-0.000050,-1.016192,1.042493,-0.029681,-1.193112,-0.000083|vel|0.000000,0.521617,-0.492615,0.206977,0.529459,0.000000|eff|0.000000,-1417.968750,-1675.781250,161.132812,12.084961,20.141602
cobot_dynamixel_driver/joint_states|name|J1,J2,J3,J4,J5,J6|pos|-0.000038,-1.007529,1.033868,-0.026238,-1.184652,-0.000083|vel|0.000000,0.491989,-0.450259,0.185696,0.476720,0.000000|eff|0.000000,-757.324219,-1015.136719,193.359375,32.226562,32.226562
cobot_dynamixel_driver/joint_states|name|J1,J2,J3,J4,J5,J6|pos|-0.000013,-0.998441,1.024241,-0.023084,-1.175550,-0.000062|vel|0.001043,0.499500,-0.495744,0.158989,0.443973,0.000000|eff|80.566406,-612.304688,-918.457031,225.585938,24.169922,16.113281
cobot_dynamixel_driver/joint_states|name|J1,J2,J3,J4,J5,J6|pos|0.000025,-0.986787,1.012749,-0.019616,-1.164029,-0.000021|vel|0.002086,0.509932,-0.517235,0.135203,0.415363,0.002068|eff|0.000000,-708.984375,-1031.250000,193.359375,8.056641,32.226562
cobot_dynamixel_driver/joint_states|name|J1,J2,J3,J4,J5,J6|pos|0.000025,-0.978625,1.004500,-0.017500,-1.156003,0.000000|vel|0.002086,0.501169,-0.499291,0.122893,0.519807,0.002068|eff|80.566406,-628.417969,-1127.929688,177.246094,36.254883,32.226562
cobot_dynamixel_driver/joint_states|name|J1,J2,J3,J4,J5,J6|pos|0.000025,-0.967559,0.993421,-0.015022,-1.145039,0.000000|vel|0.002086,0.479887,-0.463822,0.103071,0.435011,0.002068|eff|0.000000,-2046.386719,-1240.722656,177.246094,52.368164,0.000000
cobot_dynamixel_driver/joint_states|name|J1,J2,J3,J4,J5,J6|pos|0.000025,-0.958771,0.984871,-0.013332,-1.136352,0.000000|vel|0.002086,0.502838,-0.513897,0.089718,0.554277,0.002068|eff|0.000000,-483.398438,-1627.441406,177.246094,8.056641,16.113281
cobot_dynamixel_driver/joint_states|name|J1,J2,J3,J4,J5,J6|pos|0.000025,-0.950096,0.976096,-0.011792,-1.127726,0.000000|vel|0.002086,0.505759,-0.511810,0.083250,0.484648,-0.000345|eff|0.000000,-1514.648438,-708.984375,177.246094,16.113281,0.000000
cobot_dynamixel_driver/joint_states|name|J1,J2,J3,J4,J5,J6|pos|0.000025,-0.940382,0.966445,-0.010315,-1.118128,0.000000|vel|0.002086,0.485938,-0.535179,0.069688,0.547383,-0.000345|eff|0.000000,-2320.312500,-982.910156,209.472656,32.226562,0.000000
cobot_dynamixel_driver/joint_states|name|J1,J2,J3,J4,J5,J6|pos|0.000025,-0.930680,0.956668,-0.009038,-1.108509,0.000000|vel|0.000000,0.522034,-0.508263,0.059673,0.525667,-0.000345|eff|0.000000,-451.171875,-1063.476562,209.472656,32.226562,32.226562
cobot_dynamixel_driver/joint_states|name|J1,J2,J3,J4,J5,J6|pos|0.000025,-0.921028,0.946991,-0.007912,-1.098890,0.000000|vel|0.000000,0.471959,-0.525164,0.052996,0.510155,-0.000345|eff|0.000000,-773.437500,-741.210938,209.472656,20.141602,0.000000
cobot_dynamixel_driver/joint_states|name|J1,J2,J3,J4,J5,J6|pos|0.000025,-0.911339,0.937302,-0.006910,-1.089458,0.000000|vel|0.000000,0.484895,-0.513897,0.048615,0.509121,-0.000345|eff|0.000000,-1965.820312,-982.910156,177.246094,32.226562,24.169922
cobot_dynamixel_driver/joint_states|name|J1,J2,J3,J4,J5,J6|pos|0.000025,-0.901725,0.927613,-0.005996,-1.079963,0.000000|vel|0.000000,0.512019,-0.499291,0.044233,0.496368,-0.000345|eff|48.339844,-1981.933594,-1482.421875,177.246094,32.226562,24.169922
cobot_dynamixel_driver/joint_states|name|J1,J2,J3,J4,J5,J6|pos|0.000025,-0.892061,0.918062,-0.005220,-1.070282,0.000000|vel|0.000000,0.488442,-0.496579,0.034009,0.507398,0.000000|eff|0.000000,-499.511719,-2255.859375,209.472656,32.226562,16.113281
cobot_dynamixel_driver/joint_states|name|J1,J2,J3,J4,J5,J6|pos|0.000025,-0.882385,0.908398,-0.004582,-1.060664,0.000000|vel|0.000000,0.516609,-0.459857,0.029628,0.436734,0.000000|eff|0.000000,-1079.589844,-660.644531,209.472656,32.226562,0.000000
cobot_dynamixel_driver/joint_states|name|J1,J2,J3,J4,J5,J6|pos|0.000025,-0.872758,0.898658,-0.004006,-1.051066,0.000000|vel|0.000000,0.477801,-0.502212,0.027959,0.519807,0.000000|eff|0.000000,-1901.367188,-1031.250000,193.359375,28.198242,0.000000
cobot_dynamixel_driver/joint_states|name|J1,J2,J3,J4,J5,J6|pos|0.000025,-0.863032,0.889069,-0.003493,-1.041406,0.000000|vel|0.000000,0.521408,-0.502004,0.024620,0.436734,0.000000|eff|0.000000,-789.550781,-1498.535156,177.246094,40.283203,0.000000
cobot_dynamixel_driver/joint_states|name|J1,J2,J3,J4,J5,J6|pos|0.000025,-0.853355,0.879355,-0.003042,-1.031828,0.000000|vel|0.000000,0.472376,-0.456102,0.021908,0.482580,0.000000|eff|0.000000,-708.984375,-1160.156250,177.246094,16.113281,28.198242
cobot_dynamixel_driver/joint_states|name|J1,J2,J3,J4,J5,J6|pos|0.000025,-0.842201,0.868777,-0.002591,-1.020720,0.000000|vel|0.000000,0.503047,-0.503047,0.018570,0.483958,0.000000|eff|0.000000,-1724.121094,-934.570312,145.019531,28.198242,16.113281
cobot_dynamixel_driver/joint_states|name|J1,J2,J3,J4,J5,J6|pos|0.000025,-0.833927,0.860190,-0.002303,-1.012115,0.000000|vel|0.000000,0.523286,-0.520573,0.016274,0.474651,0.000000|eff|48.339844,-1176.269531,-1015.136719,112.792969,40.283203,0.000000
cobot_dynamixel_driver/joint_states|name|J1,J2,J3,J4,J5,J6|pos|0.000025,-0.824225,0.850388,-0.002028,-1.003076,0.000000|vel|0.000000,0.488650,-0.525790,0.012310,0.505674,0.000000|eff|0.000000,-370.605469,-1546.875000,177.246094,44.311523,0.000000
cobot_dynamixel_driver/joint_states|name|J1,J2,J3,J4,J5,J6|pos|0.000025,-0.814060,0.840674,-0.001790,-0.992940,0.000000|vel|0.000000,0.487816,-0.499291,0.010641,0.560826,0.000000|eff|0.000000,-1724.121094,-725.097656,225.585938,52.368164,0.000000
cobot_dynamixel_driver/joint_states|name|J1,J2,J3,J4,J5,J6|pos|0.000025,-0.804859,0.830922,-0.001590,-0.983259,0.000000|vel|0.000000,0.491154,-0.470290,0.011267,0.445697,0.000000|eff|0.000000,-2320.312500,-1063.476562,209.472656,0.000000,16.113281
cobot_dynamixel_driver/joint_states|name|J1,J2,J3,J4,J5,J6|pos|0.000025,-0.794707,0.821133,-0.001327,-0.973702,0.000000|vel|0.000000,0.499083,-0.516192,0.012519,0.526701,0.000000|eff|64.453125,-515.625000,-805.664062,177.246094,32.226562,32.226562
cobot_dynamixel_driver/joint_states|name|J1,J2,J3,J4,J5,J6|pos|0.000025,-0.785043,0.811444,-0.001127,-0.964146,0.000000|vel|0.000000,0.484686,-0.504925,0.009180,0.558069,0.000000|eff|0.000000,-1417.968750,-950.683594,145.019531,40.283203,8.056641
cobot_dynamixel_driver/joint_states|name|J1,J2,J3,J4,J5,J6|pos|0.000025,-0.774891,0.800803,-0.000951,-0.953513,0.000000|vel|0.000000,0.483643,-0.490528,0.006885,0.419155,0.000000|eff|0.000000,-1675.781250,-999.023438,112.792969,8.056641,0.000000
cobot_dynamixel_driver/joint_states|name|J1,J2,J3,J4,J5,J6|pos|0.000025,-0.766090,0.792166,-0.000851,-0.944867,0.000000|vel|0.000000,0.508889,-0.494910,0.004799,0.480167,0.000000|eff|96.679688,-628.417969,-1498.535156,161.132812,28.198242,24.169922
cobot_dynamixel_driver/joint_states|name|J1,J2,J3,J4,J5,J6|pos|0.000025,-0.756501,0.782452,-0.000801,-0.935310,0.000000|vel|0.000000,0.467994,-0.517444,0.002921,0.421912,0.000000|eff|64.453125,-499.511719,-999.023438,177.246094,16.113281,0.000000
cobot_dynamixel_driver/joint_states|name|J1,J2,J3,J4,J5,J6|pos|0.000025,-0.746362,0.772750,-0.000701,-0.925671,0.000000|vel|0.000000,0.494910,-0.469455,0.005008,0.490852,0.000000|eff|0.000000,-1208.496094,-902.343750,145.019531,52.368164,16.113281
cobot_dynamixel_driver/joint_states|name|J1,J2,J3,J4,J5,J6|pos|0.000025,-0.736597,0.763073,-0.000613,-0.916094,0.000000|vel|0.000000,0.493658,-0.496996,0.005216,0.528769,0.000000|eff|0.000000,-870.117188,-1385.742188,177.246094,88.623047,0.000000
cobot_dynamixel_driver/joint_states|name|J1,J2,J3,J4,J5,J6|pos|0.000025,-0.727447,0.753409,-0.000513,-0.906434,0.000000|vel|0.000000,0.478844,-0.511184,0.005425,0.480167,0.000000|eff|0.000000,-306.152344,-1289.062500,128.906250,16.113281,32.226562
cobot_dynamixel_driver/joint_states|name|J1,J2,J3,J4,J5,J6|pos|0.000025,-0.717720,0.743808,-0.000413,-0.896835,0.000000|vel|0.000000,0.483852,-0.420214,0.005008,0.568410,0.000000|eff|48.339844,-821.777344,-950.683594,96.679688,40.283203,0.000000
cobot_dynamixel_driver/joint_states|name|J1,J2,J3,J4,J5,J6|pos|0.000025,-0.707468,0.733681,-0.000363,-0.887217,0.000000|vel|0.000000,0.490320,-0.538308,0.002086,0.508777,0.000000|eff|0.000000,-902.343750,-1127.929688,112.792969,56.396484,0.000000
cobot_dynamixel_driver/joint_states|name|J1,J2,J3,J4,J5,J6|pos|0.000025,-0.696789,0.722953,-0.000325,-0.876605,0.000000|vel|0.000000,0.480931,-0.519947,0.001669,0.518773,0.000000|eff|0.000000,-531.738281,-1579.101562,177.246094,32.226562,0.000000
cobot_dynamixel_driver/joint_states|name|J1,J2,J3,J4,J5,J6|pos|0.000025,-0.688027,0.714165,-0.000288,-0.868000,0.000000|vel|0.000000,0.445878,-0.530380,0.001669,0.489129,0.000000|eff|0.000000,-1595.214844,-725.097656,112.792969,68.481445,8.056641
cobot_dynamixel_driver/joint_states|name|J1,J2,J3,J4,J5,J6|pos|0.000025,-0.678363,0.704438,-0.000263,-0.858299,0.000000|vel|0.000000,0.506385,-0.525164,0.001461,0.539800,0.000000|eff|0.000000,-870.117188,-1321.289062,112.792969,36.254883,0.000000
cobot_dynamixel_driver/joint_states|name|J1,J2,J3,J4,J5,J6|pos|0.000025,-0.668223,0.694248,-0.000250,-0.848328,0.000000|vel|0.000000,0.536013,-0.523703,0.001043,0.503261,0.000000|eff|0.000000,-1353.515625,-741.210938,128.906250,24.169922,0.000000
cobot_dynamixel_driver/joint_states|name|J1,J2,J3,J4,J5,J6|pos|0.000025,-0.655680,0.682193,-0.000213,-0.836020,0.000000|vel|0.000000,0.497622,-0.431690,0.001878,0.484303,0.000000|eff|48.339844,-950.683594,-628.417969,112.792969,28.198242,0.000000
cobot_dynamixel_driver/joint_states|name|J1,J2,J3,J4,J5,J6|pos|0.000025,-0.647405,0.674044,-0.000163,-0.827808,0.000000|vel|0.000000,0.522869,-0.486773,0.002086,0.438803,0.000000|eff|0.000000,-918.457031,-1015.136719,112.792969,52.368164,8.056641
cobot_dynamixel_driver/joint_states|name|J1,J2,J3,J4,J5,J6|pos|0.000025,-0.638605,0.665331,-0.000138,-0.819121,0.000000|vel|0.000000,0.518696,-0.444000,0.002086,0.525667,0.000000|eff|48.339844,-1385.742188,-999.023438,161.132812,16.113281,24.169922
cobot_dynamixel_driver/joint_states|name|J1,J2,J3,J4,J5,J6|pos|0.000025,-0.629967,0.656068,-0.000125,-0.810433,0.000000|vel|0.000000,0.473837,-0.450051,0.002086,0.501193,0.000000|eff|96.679688,-692.871094,-934.570312,128.906250,44.311523,0.000000
cobot_dynamixel_driver/joint_states|name|J1,J2,J3,J4,J5,J6|pos|0.000025,-0.620316,0.646854,-0.000125,-0.800793,0.000000|vel|0.000000,0.488859,-0.527250,0.002086,0.532216,0.000000|eff|0.000000,-773.437500,-676.757812,128.906250,32.226562,0.000000
cobot_dynamixel_driver/joint_states|name|J1,J2,J3,J4,J5,J6|pos|0.000025,-0.610601,0.637103,-0.000125,-0.791154,0.000000|vel|0.000000,0.500126,-0.516609,0.002086,0.494299,0.000000|eff|0.000000,-1772.460938,-870.117188,128.906250,56.396484,0.000000
cobot_dynamixel_driver/joint_states|name|J1,J2,J3,J4,J5,J6|pos|0.000025,-0.600950,0.627413,-0.000125,-0.781577,0.000000|vel|0.000000,0.529337,-0.505759,0.002086,0.520152,0.000000|eff|64.453125,-918.457031,-1562.988281,128.906250,64.453125,0.000000
cobot_dynamixel_driver/joint_states|name|J1,J2,J3,J4,J5,J6|pos|0.000025,-0.591211,0.617386,-0.000125,-0.771937,0.000000|vel|0.000000,0.512436,-0.495953,0.002086,0.525667,0.000000|eff|0.000000,-1047.363281,-918.457031,128.906250,24.169922,16.113281
cobot_dynamixel_driver/joint_states|name|J1,J2,J3,J4,J5,J6|pos|0.000025,-0.581472,0.607672,-0.000125,-0.762381,0.000000|vel|0.000000,0.468829,-0.523286,0.002086,0.556345,0.000000|eff|0.000000,-1901.367188,-870.117188,128.906250,44.311523,24.169922
cobot_dynamixel_driver/joint_states|name|J1,J2,J3,J4,J5,J6|pos|0.000025,-0.571770,0.597983,-0.000125,-0.752720,0.000000|vel|0.000000,0.493449,-0.507637,0.000000,0.427083,0.000000|eff|64.453125,-145.019531,-1256.835938,128.906250,56.396484,0.000000
cobot_dynamixel_driver/joint_states|name|J1,J2,J3,J4,J5,J6|pos|0.000025,-0.562093,0.588219,-0.000125,-0.743102,0.000000|vel|0.000000,0.494910,-0.540603,0.000000,0.484992,0.000000|eff|0.000000,-837.890625,-676.757812,112.792969,8.056641,28.198242
cobot_dynamixel_driver/joint_states|name|J1,J2,J3,J4,J5,J6|pos|0.000025,-0.547134,0.573147,-0.000125,-0.727712,0.000000|vel|0.000000,0.505759,-0.496579,0.000000,0.485682,0.000000|eff|0.000000,-1675.781250,-1127.929688,128.906250,36.254883,0.000000
cobot_dynamixel_driver/joint_states|name|J1,J2,J3,J4,J5,J6|pos|0.000025,-0.537470,0.563921,-0.000125,-0.718590,0.000000|vel|0.000000,0.486147,-0.541438,0.000000,0.458795,0.000000|eff|0.000000,-2529.785156,-1272.949219,128.906250,32.226562,0.000000
cobot_dynamixel_driver/joint_states|name|J1,J2,J3,J4,J5,J6|pos|0.000025,-0.529258,0.555246,-0.000125,-0.710357,0.000000|vel|0.000000,0.514940,-0.492406,0.000000,0.486716,0.000000|eff|0.000000,-1337.402344,-1272.949219,128.906250,40.283203,16.113281
cobot_dynamixel_driver/joint_states|name|J1,J2,J3,J4,J5,J6|pos|0.000025,-0.519982,0.546095,-0.000113,-0.700738,0.000000|vel|0.000000,0.521825,-0.510558,0.000000,0.487061,0.000000|eff|0.000000,-418.945312,-1240.722656,128.906250,52.368164,0.000000
cobot_dynamixel_driver/joint_states|name|J1,J2,J3,J4,J5,J6|pos|0.000025,-0.511282,0.537332,-0.000113,-0.692588,0.000000|vel|0.000000,0.472376,-0.516818,0.000000,0.476030,0.000000|eff|0.000000,-96.679688,-1450.195312,128.906250,48.339844,0.000000
cobot_dynamixel_driver/joint_states|name|J1,J2,J3,J4,J5,J6|pos|0.000025,-0.502644,0.528557,-0.000113,-0.683486,0.000000|vel|0.000000,0.497414,-0.512228,0.000000,0.493265,0.000000|eff|0.000000,-982.910156,-805.664062,128.906250,64.453125,0.000000
cobot_dynamixel_driver/joint_states|name|J1,J2,J3,J4,J5,J6|pos|0.000025,-0.493919,0.520358,-0.000113,-0.675316,0.000000|vel|0.000000,0.525790,-0.533092,0.000000,0.517049,0.000000|eff|0.000000,-1466.308594,-982.910156,128.906250,32.226562,16.113281
cobot_dynamixel_driver/joint_states|name|J1,J2,J3,J4,J5,J6|pos|0.000025,-0.483729,0.509705,-0.000113,-0.665304,0.000000|vel|0.000000,0.492406,-0.457771,0.000000,0.606327,0.000000|eff|0.000000,-870.117188,-757.324219,145.019531,52.368164,0.000000
cobot_dynamixel_driver/joint_states|name|J1,J2,J3,J4,J5,J6|pos|0.000025,-0.474478,0.500504,-0.000113,-0.656161,0.000000|vel|0.000000,0.490111,-0.518070,0.000000,0.496023,0.000000|eff|48.339844,-306.152344,-805.664062,209.472656,52.368164,16.113281
cobot_dynamixel_driver/joint_states|name|J1,J2,J3,J4,J5,J6|pos|0.000025,-0.465215,0.491428,-0.000100,-0.646956,0.000000|vel|0.000000,0.452555,-0.494075,0.000000,0.489129,0.000000|eff|48.339844,128.906250,-1482.421875,112.792969,24.169922,0.000000
cobot_dynamixel_driver/joint_states|name|J1,J2,J3,J4,J5,J6|pos|0.000025,-0.455463,0.481626,-0.000088,-0.637482,0.000000|vel|0.000000,0.521617,-0.502421,0.000000,0.482235,0.000000|eff|0.000000,-1305.175781,-708.984375,193.359375,64.453125,0.000000
cobot_dynamixel_driver/joint_states|name|J1,J2,J3,J4,J5,J6|pos|0.000025,-0.445761,0.471950,-0.000075,-0.627946,0.000000|vel|0.000000,0.486147,-0.516818,0.000209,0.481201,0.000000|eff|0.000000,-563.964844,-1160.156250,128.906250,56.396484,0.000000
cobot_dynamixel_driver/joint_states|name|J1,J2,J3,J4,J5,J6|pos|0.000025,-0.434695,0.460758,-0.000050,-0.616362,0.000000|vel|0.000000,0.503256,-0.507637,0.000626,0.564963,0.000000|eff|0.000000,-1595.214844,-805.664062,145.019531,48.339844,32.226562
cobot_dynamixel_driver/joint_states|name|J1,J2,J3,J4,J5,J6|pos|0.000025,-0.425507,0.451470,-0.000038,-0.607281,0.000000|vel|0.000000,0.575865,-0.486147,0.000626,0.564618,0.000000|eff|0.000000,-499.511719,-547.851562,193.359375,48.339844,0.000000
cobot_dynamixel_driver/joint_states|name|J1,J2,J3,J4,J5,J6|pos|0.000025,-0.416331,0.442269,-0.000025,-0.598738,0.000000|vel|0.000000,0.499083,-0.446921,0.000835,0.473962,0.000000|eff|0.000000,48.339844,-1272.949219,128.906250,72.509766,24.169922
cobot_dynamixel_driver/joint_states|name|J1,J2,J3,J4,J5,J6|pos|0.000025,-0.405678,0.431666,-0.000025,-0.587651,0.000000|vel|0.000000,0.530797,-0.491780,0.000835,0.477409,0.000000|eff|0.000000,-402.832031,-676.757812,128.906250,32.226562,0.000000
cobot_dynamixel_driver/joint_states|name|J1,J2,J3,J4,J5,J6|pos|0.000025,-0.395901,0.422039,-0.000025,-0.578487,0.000000|vel|0.000000,0.507220,-0.503882,0.000835,0.608740,0.000000|eff|0.000000,-1337.402344,-741.210938,128.906250,36.254883,0.000000
cobot_dynamixel_driver/joint_states|name|J1,J2,J3,J4,J5,J6|pos|0.000025,-0.385687,0.412363,-0.000025,-0.568331,0.000000|vel|0.000000,0.491363,-0.482808,0.000835,0.493265,0.000000|eff|0.000000,-161.132812,-644.531250,128.906250,64.453125,0.000000
cobot_dynamixel_driver/joint_states|name|J1,J2,J3,J4,J5,J6|pos|0.000025,-0.376999,0.403112,-0.000013,-0.559664,0.000000|vel|0.000000,0.512228,-0.525164,0.000835,0.504640,0.000000|eff|0.000000,-1595.214844,-999.023438,128.906250,28.198242,32.226562
cobot_dynamixel_driver/joint_states|name|J1,J2,J3,J4,J5,J6|pos|0.000025,-0.368336,0.394374,-0.000013,-0.550562,0.000000|vel|0.000000,0.441914,-0.499500,0.000835,0.408469,0.000000|eff|48.339844,-96.679688,-1256.835938,128.906250,40.283203,0.000000
cobot_dynamixel_driver/joint_states|name|J1,J2,J3,J4,J5,J6|pos|0.000025,-0.357208,0.383721,-0.000013,-0.539971,0.000000|vel|0.000000,0.504090,-0.515566,0.000000,0.436390,0.000000|eff|0.000000,-1353.515625,-854.003906,128.906250,20.141602,16.113281
cobot_dynamixel_driver/joint_states|name|J1,J2,J3,J4,J5,J6|pos|0.000025,-0.348470,0.374558,-0.000013,-0.531325,0.000000|vel|0.000000,0.518904,-0.436072,0.000000,0.513602,0.000000|eff|0.000000,225.585938,-1466.308594,128.906250,52.368164,8.056641
cobot_dynamixel_driver/joint_states|name|J1,J2,J3,J4,J5,J6|pos|0.000025,-0.336302,0.362453,-0.000013,-0.519307,0.000000|vel|0.000000,0.493241,-0.505968,0.000000,0.434666,0.000000|eff|0.000000,-1708.007812,-805.664062,128.906250,20.141602,16.113281
cobot_dynamixel_driver/joint_states|name|J1,J2,J3,J4,J5,J6|pos|0.000025,-0.325036,0.351274,-0.000013,-0.507785,0.000000|vel|0.000000,0.507429,-0.438158,0.000000,0.548072,0.000000|eff|0.000000,-2030.273438,-837.890625,128.906250,52.368164,0.000000
cobot_dynamixel_driver/joint_states|name|J1,J2,J3,J4,J5,J6|pos|0.000025,-0.315785,0.342561,-0.000013,-0.499097,0.000000|vel|0.000000,0.516192,-0.488442,0.000000,0.494989,0.000000|eff|0.000000,-64.453125,-1595.214844,128.906250,72.509766,24.169922
cobot_dynamixel_driver/joint_states|name|J1,J2,J3,J4,J5,J6|pos|0.000025,-0.307610,0.333798,-0.000013,-0.490926,0.000000|vel|0.000000,0.483643,-0.491989,0.000000,0.544281,0.000000|eff|0.000000,-257.812500,-1337.402344,128.906250,52.368164,0.000000
cobot_dynamixel_driver/joint_states|name|J1,J2,J3,J4,J5,J6|pos|0.000025,-0.295067,0.321155,-0.000013,-0.478494,0.000000|vel|0.000000,0.482808,-0.488233,0.000000,0.543591,0.000000|eff|64.453125,-145.019531,-1015.136719,128.906250,100.708008,0.000000
cobot_dynamixel_driver/joint_states|name|J1,J2,J3,J4,J5,J6|pos|0.000025,-0.285929,0.311954,-0.000013,-0.469372,0.000000|vel|0.000000,0.481974,-0.421466,0.000000,0.512224,0.000000|eff|0.000000,338.378906,-1482.421875,128.906250,36.254883,8.056641
cobot_dynamixel_driver/joint_states|name|J1,J2,J3,J4,J5,J6|pos|0.000025,-0.276753,0.302803,-0.000013,-0.460188,0.000000|vel|0.000000,0.503256,-0.520782,0.000000,0.556001,0.000000|eff|0.000000,-1337.402344,-1224.609375,128.906250,44.311523,32.226562
cobot_dynamixel_driver/joint_states|name|J1,J2,J3,J4,J5,J6|pos|0.000025,-0.267990,0.294078,-0.000013,-0.451603,0.000000|vel|0.000000,0.500126,-0.511393,0.000000,0.404677,0.000000|eff|64.453125,145.019531,-1417.968750,128.906250,48.339844,32.226562
cobot_dynamixel_driver/joint_states|name|J1,J2,J3,J4,J5,J6|pos|0.000025,-0.259240,0.285340,-0.000013,-0.442998,0.000000|vel|0.000000,0.501795,-0.503256,0.000000,0.509811,0.000000|eff|0.000000,-1256.835938,-757.324219,128.906250,68.481445,0.000000
cobot_dynamixel_driver/joint_states|name|J1,J2,J3,J4,J5,J6|pos|0.000025,-0.250502,0.276665,-0.000013,-0.434290,0.000000|vel|0.000000,0.470290,-0.518487,0.000000,0.523599,0.000000|eff|48.339844,96.679688,-1369.628906,128.906250,60.424805,0.000000
cobot_dynamixel_driver/joint_states|name|J1,J2,J3,J4,J5,J6|pos|0.000025,-0.240350,0.266926,-0.000013,-0.424174,0.000000|vel|0.000000,0.475714,-0.487399,0.000000,0.487061,0.000000|eff|0.000000,-1079.589844,-708.984375,128.906250,40.283203,0.000000
cobot_dynamixel_driver/joint_states|name|J1,J2,J3,J4,J5,J6|pos|0.000025,-0.232100,0.258251,-0.000013,-0.416004,0.000000|vel|0.000000,0.502212,-0.467577,0.000000,0.479477,0.000000|eff|112.792969,-1321.289062,-821.777344,128.906250,48.339844,24.169922
cobot_dynamixel_driver/joint_states|name|J1,J2,J3,J4,J5,J6|pos|0.000025,-0.222411,0.249100,-0.000013,-0.406323,0.000000|vel|0.000000,0.523286,-0.466117,0.000000,0.572891,0.000000|eff|0.000000,-821.777344,-999.023438,128.906250,28.198242,32.226562
cobot_dynamixel_driver/joint_states|name|J1,J2,J3,J4,J5,J6|pos|0.000025,-0.207339,0.233565,-0.000013,-0.390892,0.000000|vel|0.000000,0.481348,-0.430647,0.000000,0.437769,0.000000|eff|0.000000,-1079.589844,-660.644531,128.906250,52.368164,0.000000
cobot_dynamixel_driver/joint_states|name|J1,J2,J3,J4,J5,J6|pos|0.000025,-0.198602,0.225303,-0.000013,-0.382700,0.000000|vel|0.000000,0.479053,-0.495744,0.000000,0.436045,0.000000|eff|0.000000,-1353.515625,-676.757812,128.906250,32.226562,0.000000
cobot_dynamixel_driver/joint_states|name|J1,J2,J3,J4,J5,J6|pos|0.000025,-0.189914,0.216540,-0.000013,-0.374116,0.000000|vel|0.000000,0.535596,-0.504299,0.000000,0.519118,0.000000|eff|0.000000,-112.792969,-1321.289062,128.906250,60.424805,0.000000
cobot_dynamixel_driver/joint_states|name|J1,J2,J3,J4,J5,J6|pos|0.000025,-0.181251,0.207752,-0.000013,-0.365469,0.000000|vel|0.000000,0.520991,-0.504716,0.000000,0.415363,0.000000|eff|0.000000,80.566406,-837.890625,128.906250,56.396484,24.169922
cobot_dynamixel_driver/joint_states|name|J1,J2,J3,J4,J5,J6|pos|0.000025,-0.171562,0.197550,-0.000013,-0.355851,0.000000|vel|0.000000,0.482182,-0.485103,0.000000,0.513602,0.000000|eff|0.000000,-1385.742188,-982.910156,128.906250,48.339844,32.226562
cobot_dynamixel_driver/joint_states|name|J1,J2,J3,J4,J5,J6|pos|0.000025,-0.162825,0.189301,-0.000013,-0.347225,0.000000|vel|0.000000,0.526833,-0.507220,0.000000,0.480167,0.000000|eff|0.000000,-789.550781,-1289.062500,128.906250,60.424805,0.000000
cobot_dynamixel_driver/joint_states|name|J1,J2,J3,J4,J5,J6|pos|0.000025,-0.154613,0.180688,-0.000013,-0.338578,0.000000|vel|0.000000,0.503673,-0.511602,0.000000,0.462242,0.000000|eff|0.000000,547.851562,-1466.308594,128.906250,48.339844,0.000000
cobot_dynamixel_driver/joint_states|name|J1,J2,J3,J4,J5,J6|pos|0.000025,-0.142019,0.168620,-0.000013,-0.326519,0.000000|vel|0.000000,0.469038,-0.447130,0.000000,0.477754,0.000000|eff|0.000000,-1353.515625,-1095.703125,128.906250,68.481445,0.000000
cobot_dynamixel_driver/goal|-:J1,J2,J3,J4,J5,J6:0.000000,0.000000,0.000000,0.000000,0.261799,0.000000:0.500000,0.500000,0.500000,0.500000,0.500000,0.500000:pos_vel_
cobot_dynamixel_driver/joint_states|name|J1,J2,J3,J4,J5,J6|pos|0.000025,-0.130878,0.157467,-0.000013,-0.315493,0.000000|vel|0.000000,0.491363,-0.471541,0.000000,0.512568,0.000000|eff|0.000000,-966.796875,-837.890625,128.906250,64.453125,0.000000
cobot_dynamixel_driver/joint_states|name|J1,J2,J3,J4,J5,J6|pos|0.000025,-0.122654,0.148742,-0.000013,-0.307302,0.000000|vel|0.000000,0.498040,-0.504925,0.000000,0.513947,0.000000|eff|0.000000,-1063.476562,-821.777344,128.906250,56.396484,24.169922
cobot_dynamixel_driver/joint_states|name|J1,J2,J3,J4,J5,J6|pos|0.000025,-0.114392,0.140467,-0.000013,-0.298635,0.000000|vel|0.000000,0.518070,-0.496996,0.000000,0.541523,0.000000|eff|0.000000,-966.796875,-902.343750,128.906250,68.481445,0.000000
cobot_dynamixel_driver/joint_states|name|J1,J2,J3,J4,J5,J6|pos|0.000025,-0.105641,0.131717,-0.000013,-0.290485,0.000000|vel|0.000000,0.482391,-0.526833,0.000000,0.488784,0.000000|eff|0.000000,-789.550781,-1208.496094,128.906250,60.424805,16.113281
cobot_dynamixel_driver/joint_states|name|J1,J2,J3,J4,J5,J6|pos|0.000025,-0.096453,0.123092,-0.000013,-0.281321,0.000000|vel|0.000000,0.473419,-0.515566,0.000000,0.511190,0.000000|eff|0.000000,-773.437500,-725.097656,128.906250,48.339844,0.000000
cobot_dynamixel_driver/joint_states|name|J1,J2,J3,J4,J5,J6|pos|0.000025,-0.085750,0.111875,-0.000013,-0.270875,0.000000|vel|0.000000,0.475506,-0.490946,0.000000,0.550141,0.000000|eff|48.339844,580.078125,-1369.628906,128.906250,72.509766,0.000000
cobot_dynamixel_driver/joint_states|name|J1,J2,J3,J4,J5,J6|pos|0.000025,-0.077025,0.103651,-0.000013,-0.262332,0.000000|vel|0.000000,0.471541,-0.504925,0.000000,0.491542,0.000000|eff|0.000000,370.605469,-1627.441406,128.906250,88.623047,24.169922
cobot_dynamixel_driver/joint_states|name|J1,J2,J3,J4,J5,J6|pos|0.000025,-0.066522,0.092948,-0.000013,-0.251700,0.000000|vel|0.000000,0.461526,-0.459649,0.000000,0.489474,0.000000|eff|64.453125,467.285156,-692.871094,128.906250,96.679688,0.000000
cobot_dynamixel_driver/joint_states|name|J1,J2,J3,J4,J5,J6|pos|0.000025,-0.058435,0.083684,-0.000013,-0.243033,0.000000|vel|0.000000,0.440870,-0.508889,0.000000,0.452935,0.000000|eff|0.000000,1031.250000,-1208.496094,128.906250,64.453125,24.169922
cobot_dynamixel_driver/joint_states|name|J1,J2,J3,J4,J5,J6|pos|0.000025,-0.050499,0.074534,-0.000013,-0.233435,0.000000|vel|0.000000,0.361793,-0.509515,0.000000,0.586679,0.000000|eff|0.000000,0.000000,-1321.289062,128.906250,80.566406,0.000000
cobot_dynamixel_driver/joint_states|name|J1,J2,J3,J4,J5,J6|pos|0.000025,-0.043639,0.065107,-0.000013,-0.223795,0.000000|vel|0.000000,0.343224,-0.455893,0.000000,0.442250,0.000000|eff|64.453125,854.003906,-1256.835938,128.906250,68.481445,16.113281
cobot_dynamixel_driver/joint_states|name|J1,J2,J3,J4,J5,J6|pos|0.000025,-0.037855,0.056107,-0.000013,-0.214176,0.000000|vel|0.000000,0.315265,-0.412494,0.000000,0.435700,0.000000|eff|0.000000,354.492188,-273.925781,128.906250,68.481445,16.113281
cobot_dynamixel_driver/joint_states|name|J1,J2,J3,J4,J5,J6|pos|0.000025,-0.032986,0.049172,-0.000013,-0.204641,0.000000|vel|0.000000,0.215115,-0.358872,0.000000,0.446041,0.000000|eff|64.453125,290.039062,-854.003906,128.906250,104.736328,32.226562
cobot_dynamixel_driver/joint_states|name|J1,J2,J3,J4,J5,J6|pos|0.000025,-0.027815,0.041185,-0.000013,-0.192147,0.000000|vel|0.000000,0.193624,-0.303164,0.000000,0.466034,0.000000|eff|0.000000,225.585938,-773.437500,128.906250,88.623047,0.000000
cobot_dynamixel_driver/joint_states|name|J1,J2,J3,J4,J5,J6|pos|0.000025,-0.024586,0.036728,-0.000013,-0.183934,0.000000|vel|0.000000,0.176515,-0.221374,0.000000,0.484992,0.000000|eff|0.000000,257.812500,-821.777344,128.906250,96.679688,0.000000
cobot_dynamixel_driver/joint_states|name|J1,J2,J3,J4,J5,J6|pos|0.000025,-0.021919,0.032848,-0.000013,-0.175722,0.000000|vel|0.000000,0.151269,-0.228468,0.000000,0.482924,0.000000|eff|0.000000,354.492188,-805.664062,128.906250,60.424805,16.113281
cobot_dynamixel_driver/joint_states|name|J1,J2,J3,J4,J5,J6|pos|0.000025,-0.019153,0.028717,-0.000013,-0.166145,0.000000|vel|0.000000,0.133534,-0.211568,0.000000,0.484303,0.000000|eff|0.000000,225.585938,-773.437500,128.906250,56.396484,0.000000
cobot_dynamixel_driver/joint_states|name|J1,J2,J3,J4,J5,J6|pos|0.000025,-0.016762,0.024886,-0.000013,-0.156071,0.000000|vel|0.000000,0.118720,-0.175055,0.000000,0.529803,0.000000|eff|64.453125,338.378906,-741.210938,128.906250,68.481445,16.113281
cobot_dynamixel_driver/joint_states|name|J1,J2,J3,J4,J5,J6|pos|0.000025,-0.014671,0.021782,-0.000013,-0.146970,0.000000|vel|0.000000,0.102028,-0.156902,0.000000,0.443973,0.000000|eff|0.000000,290.039062,-725.097656,128.906250,56.396484,24.169922
cobot_dynamixel_driver/joint_states|name|J1,J2,J3,J4,J5,J6|pos|0.000025,-0.012794,0.019078,-0.000013,-0.136834,0.000000|vel|0.000000,0.087840,-0.110165,0.000000,0.480511,0.000000|eff|0.000000,177.246094,-870.117188,128.906250,64.453125,0.000000
cobot_dynamixel_driver/joint_states|name|J1,J2,J3,J4,J5,J6|pos|0.000025,-0.011229,0.016737,-0.000013,-0.127174,0.000000|vel|0.000000,0.076782,-0.112669,0.000000,0.513258,0.000000|eff|0.000000,257.812500,-854.003906,128.906250,72.509766,8.056641
cobot_dynamixel_driver/joint_states|name|J1,J2,J3,J4,J5,J6|pos|0.000025,-0.009614,0.014371,-0.000013,-0.116086,0.000000|vel|0.000000,0.071357,-0.100359,0.000000,0.415363,0.000000|eff|64.453125,209.472656,-805.664062,128.906250,92.651367,32.226562
cobot_dynamixel_driver/joint_states|name|J1,J2,J3,J4,J5,J6|pos|0.000025,-0.008638,0.012894,-0.000013,-0.107957,0.000000|vel|0.000000,0.060716,-0.084711,0.000000,0.479822,0.000000|eff|0.000000,273.925781,-870.117188,128.906250,68.481445,0.000000
cobot_dynamixel_driver/joint_states|name|J1,J2,J3,J4,J5,J6|pos|0.000025,-0.007010,0.010453,-0.000013,-0.093105,0.000000|vel|0.000000,0.048615,-0.077199,0.000000,0.486371,0.000000|eff|0.000000,241.699219,-886.230469,128.906250,64.453125,20.141602
cobot_dynamixel_driver/joint_states|name|J1,J2,J3,J4,J5,J6|pos|0.000025,-0.006184,0.009226,-0.000013,-0.084458,0.000000|vel|0.000000,0.050492,-0.062385,0.000000,0.484992,0.000000|eff|0.000000,257.812500,-821.777344,128.906250,76.538086,0.000000
cobot_dynamixel_driver/joint_states|name|J1,J2,J3,J4,J5,J6|pos|0.000025,-0.005521,0.008237,-0.000013,-0.075771,0.000000|vel|0.000000,0.037974,-0.055291,0.000000,0.518773,0.000000|eff|0.000000,193.359375,-789.550781,128.906250,80.566406,0.000000
cobot_dynamixel_driver/joint_states|name|J1,J2,J3,J4,J5,J6|pos|0.000025,-0.004907,0.007386,-0.000013,-0.067641,0.000000|vel|0.000000,0.029836,-0.048615,0.000000,0.438803,0.000000|eff|64.453125,225.585938,-870.117188,128.906250,80.566406,8.056641
cobot_dynamixel_driver/joint_states|name|J1,J2,J3,J4,J5,J6|pos|0.000025,-0.004381,0.006672,-0.000013,-0.058995,0.000000|vel|0.000000,0.028793,-0.038600,0.000000,0.515671,0.000000|eff|0.000000,257.812500,-982.910156,128.906250,112.792969,8.056641
cobot_dynamixel_driver/joint_states|name|J1,J2,J3,J4,J5,J6|pos|0.000025,-0.003906,0.005996,-0.000013,-0.050783,0.000000|vel|0.000000,0.027541,-0.030462,0.000000,0.546004,0.000000|eff|0.000000,273.925781,-950.683594,128.906250,72.509766,24.169922
cobot_dynamixel_driver/joint_states|name|J1,J2,J3,J4,J5,J6|pos|0.000025,-0.003330,0.005095,-0.000013,-0.039799,0.000000|vel|0.000000,0.024203,-0.034635,0.000000,0.540144,0.000000|eff|0.000000,290.039062,-854.003906,128.906250,68.481445,0.000000
cobot_dynamixel_driver/joint_states|name|J1,J2,J3,J4,J5,J6|pos|0.000025,-0.002942,0.004532,-0.000013,-0.031669,0.000000|vel|0.000000,0.020239,-0.032966,0.000000,0.510845,0.000000|eff|0.000000,257.812500,-886.230469,128.906250,88.623047,0.000000
cobot_dynamixel_driver/joint_states|name|J1,J2,J3,J4,J5,J6|pos|0.000025,-0.002491,0.003831,-0.000013,-0.020168,0.000000|vel|0.000000,0.017318,-0.027333,0.000000,0.554622,0.000000|eff|0.000000,225.585938,-870.117188,128.906250,80.566406,8.056641
cobot_dynamixel_driver/joint_states|name|J1,J2,J3,J4,J5,J6|pos|0.000025,-0.002203,0.003330,-0.000013,-0.011480,0.000000|vel|0.000000,0.017109,-0.030045,0.000000,0.496712,0.000000|eff|0.000000,225.585938,-837.890625,128.906250,56.396484,24.169922
cobot_dynamixel_driver/joint_states|name|J1,J2,J3,J4,J5,J6|pos|0.000025,-0.001940,0.002904,-0.000013,-0.002793,0.000000|vel|0.000000,0.011058,-0.017526,0.000000,0.494644,0.000000|eff|0.000000,273.925781,-870.117188,128.906250,64.453125,0.000000
cobot_dynamixel_driver/joint_states|name|J1,J2,J3,J4,J5,J6|pos|0.000025,-0.001690,0.002504,-0.000013,0.009205,0.000000|vel|0.000000,0.010432,-0.018361,0.000000,0.552209,0.000000|eff|0.000000,177.246094,-870.117188,128.906250,116.821289,0.000000
cobot_dynamixel_driver/joint_states|name|J1,J2,J3,J4,J5,J6|pos|0.000025,-0.001527,0.002153,-0.000013,0.017376,0.000000|vel|0.000000,0.008346,-0.018361,0.000000,0.533595,0.000000|eff|0.000000,338.378906,-805.664062,128.906250,100.708008,0.000000
cobot_dynamixel_driver/joint_states|name|J1,J2,J3,J4,J5,J6|pos|0.000025,-0.001390,0.001953,-0.000013,0.026002,0.000000|vel|0.000000,0.007511,-0.006677,0.000000,0.537042,0.000000|eff|0.000000,128.906250,-902.343750,128.906250,80.566406,0.000000
cobot_dynamixel_driver/joint_states|name|J1,J2,J3,J4,J5,J6|pos|0.000025,-0.001127,0.001803,-0.000013,0.040543,0.000000|vel|0.000000,0.008972,-0.008763,0.000000,0.524288,0.000000|eff|96.679688,370.605469,-886.230469,128.906250,44.311523,0.000000
cobot_dynamixel_driver/joint_states|name|J1,J2,J3,J4,J5,J6|pos|0.000025,-0.000976,0.001602,-0.000013,0.049211,0.000000|vel|0.000000,0.008346,-0.014188,0.000000,0.413640,0.000000|eff|0.000000,354.492188,-870.117188,128.906250,76.538086,0.000000
cobot_dynamixel_driver/joint_states|name|J1,J2,J3,J4,J5,J6|pos|0.000025,-0.000864,0.001302,-0.000013,0.057340,0.000000|vel|0.000000,0.006468,-0.019195,0.000000,0.516705,0.000000|eff|0.000000,306.152344,-805.664062,128.906250,80.566406,24.169922
cobot_dynamixel_driver/joint_states|name|J1,J2,J3,J4,J5,J6|pos|0.000025,-0.000776,0.001039,-0.000013,0.067827,0.000000|vel|0.000000,0.003338,-0.008972,0.000000,0.491197,0.000000|eff|0.000000,177.246094,-837.890625,128.906250,92.651367,0.000000
cobot_dynamixel_driver/joint_states|name|J1,J2,J3,J4,J5,J6|pos|0.000025,-0.000701,0.001014,-0.000013,0.076474,0.000000|vel|0.000000,0.004799,-0.005842,0.000000,0.527390,0.000000|eff|0.000000,177.246094,-837.890625,128.906250,92.651367,0.000000
cobot_dynamixel_driver/joint_states|name|J1,J2,J3,J4,J5,J6|pos|0.000025,-0.000626,0.001014,-0.000013,0.086113,0.000000|vel|0.000000,0.002504,-0.005842,0.000000,0.556001,0.000000|eff|0.000000,290.039062,-886.230469,128.906250,80.566406,0.000000
cobot_dynamixel_driver/joint_states|name|J1,J2,J3,J4,J5,J6|pos|0.000025,-0.000576,0.001014,-0.000013,0.094284,0.000000|vel|0.000000,0.002295,-0.005842,0.000000,0.488784,0.000000|eff|0.000000,145.019531,-854.003906,128.906250,108.764648,16.113281
cobot_dynamixel_driver/joint_states|name|J1,J2,J3,J4,J5,J6|pos|0.000025,-0.000488,0.001014,-0.000013,0.105723,0.000000|vel|0.000000,0.003756,-0.005842,0.000000,0.438803,0.000000|eff|0.000000,257.812500,-886.230469,128.906250,84.594727,0.000000
cobot_dynamixel_driver/joint_states|name|J1,J2,J3,J4,J5,J6|pos|0.000025,-0.000438,0.001014,-0.000013,0.114825,0.000000|vel|0.000000,0.002712,-0.005842,0.000000,0.489474,0.000000|eff|0.000000,257.812500,-870.117188,128.906250,84.594727,0.000000
cobot_dynamixel_driver/joint_states|name|J1,J2,J3,J4,J5,J6|pos|0.000025,-0.000401,0.001014,-0.000013,0.123078,0.000000|vel|0.000000,0.002086,-0.005842,0.000000,0.501538,0.000000|eff|0.000000,290.039062,-870.117188,128.906250,88.623047,16.113281
cobot_dynamixel_driver/joint_states|name|J1,J2,J3,J4,J5,J6|pos|0.000025,-0.000338,0.001001,-0.000013,0.134145,0.000000|vel|0.000000,0.002921,0.000000,0.000000,0.543936,0.000000|eff|0.000000,241.699219,-999.023438,128.906250,116.821289,8.056641
cobot_dynamixel_driver/joint_states|name|J1,J2,J3,J4,J5,J6|pos|0.000025,-0.000263,0.000889,-0.000013,0.143743,0.000000|vel|0.000000,0.003756,-0.005842,0.000000,0.523943,0.000000|eff|64.453125,193.359375,-918.457031,128.906250,104.736328,0.000000
cobot_dynamixel_driver/joint_states|name|J1,J2,J3,J4,J5,J6|pos|0.000025,-0.000200,0.000739,-0.000013,0.153299,0.000000|vel|0.000000,0.003547,-0.008555,0.000000,0.491542,0.000000|eff|0.000000,177.246094,-950.683594,128.906250,104.736328,0.000000
cobot_dynamixel_driver/joint_states|name|J1,J2,J3,J4,J5,J6|pos|0.000025,-0.000125,0.000613,-0.000013,0.161511,0.000000|vel|0.000000,0.004173,-0.009180,0.000000,0.488439,0.000000|eff|0.000000,225.585938,-886.230469,128.906250,80.566406,32.226562
cobot_dynamixel_driver/joint_states|name|J1,J2,J3,J4,J5,J6|pos|0.000025,-0.000100,0.000438,-0.000013,0.170696,0.000000|vel|0.000000,0.002712,-0.010432,0.000000,0.548762,0.000000|eff|0.000000,306.152344,-854.003906,128.906250,100.708008,0.000000
cobot_dynamixel_driver/joint_states|name|J1,J2,J3,J4,J5,J6|pos|0.000025,-0.000100,0.000275,-0.000013,0.180335,0.000000|vel|0.000000,0.000626,-0.006051,0.000000,0.489474,0.000000|eff|112.792969,338.378906,-789.550781,128.906250,88.623047,32.226562
cobot_dynamixel_driver/joint_states|name|J1,J2,J3,J4,J5,J6|pos|0.000025,-0.000088,0.000213,-0.000013,0.189913,0.000000|vel|0.000000,0.000626,-0.003964,0.000000,0.476720,0.000000|eff|96.679688,386.718750,-821.777344,128.906250,80.566406,28.198242
cobot_dynamixel_driver/joint_states|name|J1,J2,J3,J4,J5,J6|pos|0.000025,-0.000063,0.000213,-0.000013,0.199221,0.000000|vel|0.000000,0.000835,0.003964,0.000000,0.448110,0.000000|eff|0.000000,161.132812,-821.777344,128.906250,-8.056641,32.226562
cobot_dynamixel_driver/joint_states|name|J1,J2,J3,J4,J5,J6|pos|0.000025,-0.000063,0.000200,-0.000013,0.207330,0.000000|vel|0.000000,0.000835,-0.003964,0.000000,0.331946,0.000000|eff|0.000000,161.132812,-789.550781,128.906250,16.113281,0.000000
cobot_dynamixel_driver/joint_states|name|J1,J2,J3,J4,J5,J6|pos|0.000025,-0.000050,0.000200,-0.000013,0.214156,0.000000|vel|0.000000,0.000835,-0.003964,0.000000,0.290582,0.000000|eff|0.000000,370.605469,-821.777344,128.906250,44.311523,32.226562
cobot_dynamixel_driver/joint_states|name|J1,J2,J3,J4,J5,J6|pos|0.000025,-0.000050,0.000200,-0.000013,0.220051,0.000000|vel|0.000000,0.000835,-0.003964,0.000000,0.323673,0.000000|eff|112.792969,370.605469,-757.324219,128.906250,40.283203,24.169922
cobot_dynamixel_driver/joint_states|name|J1,J2,J3,J4,J5,J6|pos|0.000025,-0.000050,0.000200,-0.000013,0.225409,0.000000|vel|0.000000,0.000835,-0.003964,0.000000,0.257146,0.000000|eff|0.000000,225.585938,-725.097656,128.906250,60.424805,8.056641
cobot_dynamixel_driver/joint_states|name|J1,J2,J3,J4,J5,J6|pos|0.000025,-0.000050,0.000200,-0.000013,0.229649,0.000000|vel|0.000000,0.000209,0.000000,0.000000,0.212680,0.000000|eff|0.000000,273.925781,-773.437500,128.906250,64.453125,0.000000
cobot_dynamixel_driver/joint_states|name|J1,J2,J3,J4,J5,J6|pos|0.000025,-0.000050,0.000200,-0.000013,0.233662,0.000000|vel|0.000000,0.000209,0.000000,0.000000,0.205096,0.000000|eff|0.000000,193.359375,-741.210938,128.906250,68.481445,32.226562
cobot_dynamixel_driver/joint_states|name|J1,J2,J3,J4,J5,J6|pos|0.000025,-0.000050,0.000200,-0.000013,0.237158,0.000000|vel|0.000000,0.000209,0.000000,0.000000,0.176486,0.000000|eff|0.000000,225.585938,-757.324219,128.906250,72.509766,24.169922
cobot_dynamixel_driver/joint_states|name|J1,J2,J3,J4,J5,J6|pos|0.000025,-0.000050,0.000200,-0.000013,0.240219,0.000000|vel|0.000000,0.000209,0.000000,0.000000,0.149255,0.000000|eff|0.000000,193.359375,-757.324219,128.906250,68.481445,0.000000
cobot_dynamixel_driver/joint_states|name|J1,J2,J3,J4,J5,J6|pos|0.000025,-0.000038,0.000200,-0.000013,0.242929,0.000000|vel|0.000000,0.000209,0.000000,0.000000,0.117887,0.000000|eff|0.000000,290.039062,-741.210938,128.906250,72.509766,0.000000
cobot_dynamixel_driver/joint_states|name|J1,J2,J3,J4,J5,J6|pos|0.000025,-0.000038,0.000200,-0.000013,0.245308,0.000000|vel|0.000000,0.000209,0.000000,0.000000,0.102720,0.000000|eff|0.000000,273.925781,-789.550781,128.906250,64.453125,32.226562
cobot_dynamixel_driver/joint_states|name|J1,J2,J3,J4,J5,J6|pos|0.000025,-0.000038,0.000200,-0.000013,0.247480,0.000000|vel|0.000000,-0.000000,0.000000,0.000000,0.110649,0.000000|eff|48.339844,322.265625,-805.664062,128.906250,84.594727,0.000000
cobot_dynamixel_driver/joint_states|name|J1,J2,J3,J4,J5,J6|pos|0.000025,-0.000038,0.000200,-0.000013,0.249631,0.000000|vel|0.000000,-0.000000,0.000000,0.000000,0.088588,0.000000|eff|64.453125,290.039062,-821.777344,128.906250,72.509766,24.169922
cobot_dynamixel_driver/joint_states|name|J1,J2,J3,J4,J5,J6|pos|0.000025,-0.000025,0.000188,-0.000013,0.251059,0.000000|vel|0.000000,-0.000000,0.000000,0.000000,0.069285,0.000000|eff|0.000000,145.019531,-821.777344,128.906250,84.594727,16.113281
cobot_dynamixel_driver/joint_states|name|J1,J2,J3,J4,J5,J6|pos|0.000025,-0.000025,0.000188,-0.000013,0.252217,0.000000|vel|0.000000,-0.000000,0.000000,0.000000,0.065148,0.000000|eff|0.000000,209.472656,-821.777344,128.906250,92.651367,0.000000
cobot_dynamixel_driver/joint_states|name|J1,J2,J3,J4,J5,J6|pos|0.000025,-0.000025,0.000175,-0.000013,0.253541,0.000000|vel|0.000000,-0.000000,0.000000,0.000000,0.058599,0.000000|eff|0.000000,354.492188,-821.777344,128.906250,80.566406,32.226562
cobot_dynamixel_driver/joint_states|name|J1,J2,J3,J4,J5,J6|pos|0.000025,-0.000025,0.000175,-0.000013,0.254472,0.000000|vel|0.000000,-0.000000,-0.000209,0.000000,0.042398,0.000000|eff|0.000000,370.605469,-821.777344,128.906250,84.594727,24.169922
cobot_dynamixel_driver/joint_states|name|J1,J2,J3,J4,J5,J6|pos|0.000025,-0.000025,0.000163,-0.000013,0.255278,0.000000|vel|0.000000,-0.000000,-0.000209,0.000000,0.038262,0.000000|eff|48.339844,370.605469,-821.777344,128.906250,84.594727,32.226562
cobot_dynamixel_driver/joint_states|name|J1,J2,J3,J4,J5,J6|pos|0.000025,-0.000025,0.000150,-0.000013,0.256106,0.000000|vel|0.000000,-0.000000,-0.000209,0.000000,0.035159,0.000000|eff|0.000000,370.605469,-821.777344,128.906250,84.594727,0.000000
cobot_dynamixel_driver/joint_states|name|J1,J2,J3,J4,J5,J6|pos|0.000025,-0.000025,0.000138,-0.000013,0.257016,0.000000|vel|0.000000,-0.000000,-0.000209,0.000000,0.028265,0.000000|eff|0.000000,306.152344,-837.890625,128.906250,84.594727,0.000000
cobot_dynamixel_driver/joint_states|name|J1,J2,J3,J4,J5,J6|pos|0.000025,-0.000025,0.000138,-0.000013,0.257533,0.000000|vel|0.000000,-0.000000,-0.000209,0.000000,0.026197,0.000000|eff|48.339844,225.585938,-837.890625,128.906250,88.623047,0.000000
cobot_dynamixel_driver/joint_states|name|J1,J2,J3,J4,J5,J6|pos|0.000025,-0.000025,0.000125,-0.000013,0.257967,0.000000|vel|0.000000,-0.000000,-0.000417,0.000000,0.023095,0.000000|eff|0.000000,161.132812,-902.343750,128.906250,96.679688,0.000000
cobot_dynamixel_driver/joint_states|name|J1,J2,J3,J4,J5,J6|pos|0.000025,-0.000013,0.000113,-0.000013,0.258443,0.000000|vel|0.000000,-0.000000,-0.000417,0.000000,0.024474,0.000000|eff|0.000000,322.265625,-837.890625,128.906250,80.566406,16.113281
cobot_dynamixel_driver/joint_states|name|J1,J2,J3,J4,J5,J6|pos|0.000025,-0.000013,0.000100,-0.000013,0.258960,0.000000|vel|0.000000,-0.000000,-0.000417,0.000000,0.019648,0.000000|eff|0.000000,145.019531,-902.343750,128.906250,92.651367,16.113281
cobot_dynamixel_driver/joint_states|name|J1,J2,J3,J4,J5,J6|pos|0.000025,-0.000013,0.000100,-0.000013,0.259291,0.000000|vel|0.000000,-0.000000,-0.000417,0.000000,0.014822,0.000000|eff|96.679688,370.605469,-918.457031,128.906250,92.651367,8.056641
cobot_dynamixel_driver/joint_states|name|J1,J2,J3,J4,J5,J6|pos|0.000025,-0.000013,0.000100,-0.000013,0.259560,0.000000|vel|0.000000,-0.000000,-0.000209,0.000000,0.017924,0.000000|eff|0.000000,225.585938,-870.117188,128.906250,96.679688,8.056641
cobot_dynamixel_driver/joint_states|name|J1,J2,J3,J4,J5,J6|pos|0.000025,-0.000013,0.000100,-0.000013,0.259870,0.000000|vel|0.000000,-0.000000,-0.000209,0.000000,0.018269,0.000000|eff|112.792969,290.039062,-870.117188,128.906250,80.566406,16.113281
cobot_dynamixel_driver/joint_states|name|J1,J2,J3,J4,J5,J6|pos|0.000025,-0.000013,0.000088,-0.000013,0.260119,0.000000|vel|0.000000,-0.000000,-0.000209,0.000000,0.011720,0.000000|eff|48.339844,225.585938,-837.890625,128.906250,88.623047,0.000000
cobot_dynamixel_driver/joint_states|name|J1,J2,J3,J4,J5,J6|pos|0.000025,-0.000013,0.000075,-0.000013,0.260305,0.000000|vel|0.000000,-0.000000,-0.000209,0.000000,0.008617,0.000000|eff|96.679688,354.492188,-902.343750,128.906250,88.623047,16.113281
cobot_dynamixel_driver/joint_states|name|J1,J2,J3,J4,J5,J6|pos|0.000025,-0.000013,0.000075,-0.000013,0.260491,0.000000|vel|0.000000,-0.000000,-0.000209,0.000000,0.008273,0.000000|eff|0.000000,128.906250,-886.230469,128.906250,96.679688,0.000000
cobot_dynamixel_driver/joint_states|name|J1,J2,J3,J4,J5,J6|pos|0.000025,-0.000013,0.000075,-0.000013,0.260677,0.000000|vel|0.000000,-0.000000,-0.000209,0.000000,0.010686,0.000000|eff|0.000000,290.039062,-886.230469,128.906250,88.623047,0.000000
cobot_dynamixel_driver/joint_states|name|J1,J2,J3,J4,J5,J6|pos|0.000025,-0.000013,0.000075,-0.000013,0.260801,0.000000|vel|0.000000,-0.000000,-0.000209,0.000000,0.005170,0.000000|eff|48.339844,370.605469,-870.117188,128.906250,88.623047,8.056641
cobot_dynamixel_driver/joint_states|name|J1,J2,J3,J4,J5,J6|pos|0.000025,-0.000013,0.000063,-0.000013,0.260863,0.000000|vel|0.000000,-0.000000,-0.000209,0.000000,0.003447,0.000000|eff|0.000000,322.265625,-918.457031,128.906250,100.708008,0.000000
cobot_dynamixel_driver/joint_states|name|J1,J2,J3,J4,J5,J6|pos|0.000025,-0.000000,0.000063,-0.000013,0.260987,0.000000|vel|0.000000,-0.000000,-0.000209,0.000000,0.005515,0.000000|eff|0.000000,322.265625,-854.003906,128.906250,96.679688,0.000000
cobot_dynamixel_driver/joint_states|name|J1,J2,J3,J4,J5,J6|pos|0.000025,-0.000000,0.000063,-0.000013,0.261091,0.000000|vel|0.000000,-0.000000,-0.000209,0.000000,0.006205,0.000000|eff|0.000000,177.246094,-902.343750,128.906250,92.651367,16.113281
cobot_dynamixel_driver/joint_states|name|J1,J2,J3,J4,J5,J6|pos|0.000025,-0.000000,0.000050,-0.000013,0.261215,0.000000|vel|0.000000,-0.000000,-0.000209,0.000000,0.005860,0.000000|eff|0.000000,273.925781,-854.003906,128.906250,88.623047,24.169922
cobot_dynamixel_driver/joint_states|name|J1,J2,J3,J4,J5,J6|pos|0.000025,-0.000000,0.000038,-0.000013,0.261236,0.000000|vel|0.000000,-0.000000,-0.000209,0.000000,0.002758,0.000000|eff|0.000000,193.359375,-918.457031,128.906250,92.651367,0.000000
cobot_dynamixel_driver/joint_states|name|J1,J2,J3,J4,J5,J6|pos|0.000025,-0.000000,0.000038,-0.000013,0.261236,0.000000|vel|0.000000,-0.000000,-0.000209,0.000000,0.002758,0.000000|eff|48.339844,370.605469,-854.003906,128.906250,92.651367,16.113281
cobot_dynamixel_driver/joint_states|name|J1,J2,J3,J4,J5,J6|pos|0.000025,-0.000000,0.000038,-0.000013,0.261277,0.000000|vel|0.000000,-0.000000,-0.000209,0.000000,0.000689,0.000000|eff|0.000000,273.925781,-918.457031,128.906250,96.679688,24.169922
cobot_dynamixel_driver/joint_states|name|J1,J2,J3,J4,J5,J6|pos|0.000025,-0.000000,0.000038,-0.000013,0.261401,0.000000|vel|0.000000,-0.000000,-0.000209,0.000000,0.005860,0.000000|eff|0.000000,273.925781,-918.457031,128.906250,88.623047,0.000000
cobot_dynamixel_driver/joint_states|name|J1,J2,J3,J4,J5,J6|pos|0.000025,-0.000000,0.000038,-0.000013,0.261505,0.000000|vel|0.000000,-0.000000,-0.000209,0.000000,0.005170,0.000000|eff|0.000000,193.359375,-902.343750,128.906250,72.509766,0.000000
cobot_dynamixel_driver/joint_states|name|J1,J2,J3,J4,J5,J6|pos|0.000025,-0.000000,0.000038,-0.000013,0.261505,0.000000|vel|0.000000,-0.000000,0.000000,0.000000,0.005170,0.000000|eff|0.000000,225.585938,-854.003906,128.906250,72.509766,0.000000
cobot_dynamixel_driver/joint_states|name|J1,J2,J3,J4,J5,J6|pos|0.000025,-0.000000,0.000038,-0.000013,0.261505,0.000000|vel|0.000000,-0.000000,0.000000,0.000000,0.005170,0.000000|eff|96.679688,161.132812,-918.457031,128.906250,64.453125,16.113281
cobot_dynamixel_driver/joint_states|name|J1,J2,J3,J4,J5,J6|pos|0.000025,-0.000000,0.000038,-0.000013,0.261505,0.000000|vel|0.000000,-0.000000,0.000000,0.000000,0.005170,0.000000|eff|0.000000,273.925781,-902.343750,128.906250,60.424805,32.226562
cobot_dynamixel_driver/joint_states|name|J1,J2,J3,J4,J5,J6|pos|0.000025,-0.000000,0.000038,-0.000013,0.261505,0.000000|vel|0.000000,-0.000000,0.000000,0.000000,0.005170,0.000000|eff|48.339844,338.378906,-918.457031,128.906250,52.368164,16.113281
cobot_dynamixel_driver/joint_states|name|J1,J2,J3,J4,J5,J6|pos|0.000025,-0.000000,0.000025,-0.000013,0.261505,0.000000|vel|0.000000,-0.000000,0.000000,0.000000,0.005170,0.000000|eff|0.000000,161.132812,-854.003906,128.906250,36.254883,24.169922
cobot_dynamixel_driver/joint_states|name|J1,J2,J3,J4,J5,J6|pos|0.000025,-0.000000,0.000025,-0.000013,0.261505,0.000000|vel|0.000000,-0.000000,0.000000,0.000000,0.005170,0.000000|eff|0.000000,145.019531,-918.457031,128.906250,36.254883,16.113281
cobot_dynamixel_driver/joint_states|name|J1,J2,J3,J4,J5,J6|pos|0.000025,-0.000000,0.000025,-0.000013,0.261505,0.000000|vel|0.000000,-0.000000,0.000000,0.000000,0.000000,0.000000|eff|0.000000,322.265625,-918.457031,128.906250,48.339844,0.000000
cobot_dynamixel_driver/joint_states|name|J1,J2,J3,J4,J5,J6|pos|0.000025,-0.000000,0.000025,-0.000013,0.261505,0.000000|vel|0.000000,-0.000000,0.000000,0.000000,0.000000,0.000000|eff|0.000000,193.359375,-918.457031,128.906250,48.339844,0.000000
cobot_dynamixel_driver/joint_states|name|J1,J2,J3,J4,J5,J6|pos|0.000025,-0.000000,0.000025,-0.000013,0.261505,0.000000|vel|0.000000,-0.000000,0.000000,0.000000,0.000000,0.000000|eff|0.000000,273.925781,-934.570312,128.906250,60.424805,16.113281
cobot_dynamixel_driver/joint_states|name|J1,J2,J3,J4,J5,J6|pos|0.000025,0.000013,0.000025,-0.000013,0.261505,0.000000|vel|0.000000,-0.000000,0.000000,0.000000,0.000000,0.000000|eff|48.339844,209.472656,-934.570312,128.906250,60.424805,32.226562
cobot_dynamixel_driver/joint_states|name|J1,J2,J3,J4,J5,J6|pos|0.000025,0.000013,0.000025,-0.000013,0.261505,0.000000|vel|0.000000,-0.000000,0.000000,0.000000,0.000000,0.000000|eff|0.000000,322.265625,-918.457031,128.906250,64.453125,0.000000
cobot_dynamixel_driver/joint_states|name|J1,J2,J3,J4,J5,J6|pos|0.000025,0.000013,0.000025,-0.000013,0.261505,0.000000|vel|0.000000,-0.000000,0.000000,0.000000,0.000000,0.000000|eff|0.000000,354.492188,-870.117188,128.906250,64.453125,8.056641
cobot_dynamixel_driver/joint_states|name|J1,J2,J3,J4,J5,J6|pos|0.000025,0.000013,0.000025,-0.000013,0.261505,0.000000|vel|0.000000,-0.000000,0.000000,0.000000,0.000000,0.000000|eff|0.000000,145.019531,-918.457031,128.906250,72.509766,32.226562
cobot_dynamixel_driver/joint_states|name|J1,J2,J3,J4,J5,J6|pos|0.000025,0.000013,0.000025,-0.000013,0.261505,0.000000|vel|0.000000,-0.000000,0.000000,0.000000,0.000000,0.000000|eff|0.000000,225.585938,-934.570312,128.906250,80.566406,0.000000
cobot_dynamixel_driver/joint_states|name|J1,J2,J3,J4,J5,J6|pos|0.000025,0.000013,0.000025,-0.000013,0.261505,0.000000|vel|0.000000,-0.000000,0.000000,0.000000,0.000000,0.000000|eff|0.000000,354.492188,-918.457031,128.906250,80.566406,0.000000
cobot_dynamixel_driver/joint_states|name|J1,J2,J3,J4,J5,J6|pos|0.000025,0.000013,0.000025,-0.000013,0.261505,0.000000|vel|0.000000,-0.000000,0.000000,0.000000,0.000000,0.000000|eff|0.000000,386.718750,-934.570312,128.906250,88.623047,0.000000
cobot_dynamixel_driver/joint_states|name|J1,J2,J3,J4,J5,J6|pos|0.000025,0.000013,0.000025,-0.000013,0.261525,0.000000|vel|0.000000,-0.000000,0.000000,0.000000,0.000000,0.000000|eff|0.000000,128.906250,-902.343750,128.906250,84.594727,0.000000
cobot_dynamixel_driver/joint_states|name|J1,J2,J3,J4,J5,J6|pos|0.000025,0.000013,0.000025,-0.000013,0.261567,0.000000|vel|0.000000,-0.000000,0.000000,0.000000,0.000000,0.000000|eff|80.566406,145.019531,-902.343750,128.906250,84.594727,0.000000
cobot_dynamixel_driver/joint_states|name|J1,J2,J3,J4,J5,J6|pos|0.000025,0.000013,0.000025,-0.000013,0.261608,0.000000|vel|0.000000,-0.000000,0.000000,0.000000,0.002413,0.000000|eff|0.000000,177.246094,-918.457031,128.906250,84.594727,0.000000
cobot_dynamixel_driver/joint_states|name|J1,J2,J3,J4,J5,J6|pos|0.000025,0.000013,0.000025,-0.000013,0.261649,0.000000|vel|0.000000,-0.000000,0.000000,0.000000,0.002413,0.000000|eff|0.000000,225.585938,-870.117188,128.906250,80.566406,0.000000
cobot_dynamixel_driver/joint_states|name|J1,J2,J3,J4,J5,J6|pos|0.000025,0.000013,0.000025,-0.000013,0.261649,0.000000|vel|0.000000,-0.000000,0.000000,0.000000,0.002413,0.000000|eff|0.000000,370.605469,-918.457031,128.906250,72.509766,0.000000
cobot_dynamixel_driver/joint_states|name|J1,J2,J3,J4,J5,J6|pos|0.000025,0.000013,0.000025,-0.000013,0.261649,0.000000|vel|0.000000,-0.000000,0.000000,0.000000,0.002413,0.000000|eff|0.000000,193.359375,-918.457031,128.906250,68.481445,0.000000
cobot_dynamixel_driver/joint_states|name|J1,J2,J3,J4,J5,J6|pos|0.000025,0.000013,0.000025,-0.000013,0.261649,0.000000|vel|0.000000,-0.000000,0.000000,0.000000,0.002413,0.000000|eff|48.339844,225.585938,-870.117188,128.906250,68.481445,0.000000
cobot_dynamixel_driver/joint_states|name|J1,J2,J3,J4,J5,J6|pos|0.000025,0.000013,0.000025,-0.000013,0.261649,0.000000|vel|0.000000,-0.000000,0.000000,0.000000,0.002413,0.000000|eff|0.000000,370.605469,-902.343750,128.906250,68.481445,24.169922
cobot_dynamixel_driver/joint_states|name|J1,J2,J3,J4,J5,J6|pos|0.000025,0.000013,0.000025,-0.000013,0.261649,0.000000|vel|0.000000,-0.000000,0.000000,0.000000,0.000000,0.000000|eff|0.000000,161.132812,-870.117188,128.906250,68.481445,0.000000
cobot_dynamixel_driver/joint_states|name|J1,J2,J3,J4,J5,J6|pos|0.000025,0.000013,0.000025,-0.000013,0.261649,0.000000|vel|0.000000,-0.000000,0.000000,0.000000,0.000000,0.000000|eff|48.339844,273.925781,-918.457031,128.906250,68.481445,0.000000
cobot_dynamixel_driver/joint_states|name|J1,J2,J3,J4,J5,J6|pos|0.000025,0.000013,0.000025,-0.000013,0.261649,0.000000|vel|0.000000,-0.000000,0.000000,0.000000,0.000000,0.000000|eff|112.792969,338.378906,-886.230469,128.906250,64.453125,0.000000
cobot_dynamixel_driver/joint_states|name|J1,J2,J3,J4,J5,J6|pos|0.000025,0.000013,0.000025,-0.000013,0.261649,0.000000|vel|0.000000,-0.000000,0.000000,0.000000,0.000000,0.000000|eff|0.000000,209.472656,-886.230469,128.906250,68.481445,0.000000
cobot_dynamixel_driver/joint_states|name|J1,J2,J3,J4,J5,J6|pos|0.000025,0.000013,0.000025,-0.000013,0.261649,0.000000|vel|0.000000,-0.000000,0.000000,0.000000,0.000000,0.000000|eff|64.453125,225.585938,-934.570312,128.906250,72.509766,24.169922
cobot_dynamixel_driver/joint_states|name|J1,J2,J3,J4,J5,J6|pos|0.000025,0.000013,0.000025,-0.000013,0.261649,0.000000|vel|0.000000,-0.000000,0.000000,0.000000,0.000000,0.000000|eff|0.000000,128.906250,-918.457031,128.906250,72.509766,0.000000
cobot_dynamixel_driver/joint_states|name|J1,J2,J3,J4,J5,J6|pos|0.000025,0.000013,0.000025,-0.000013,0.261649,0.000000|vel|0.000000,-0.000000,0.000000,0.000000,0.000000,0.000000|eff|0.000000,273.925781,-934.570312,128.906250,72.509766,0.000000
cobot_dynamixel_driver/goal|-:J1,J2,J3,J4,J5,J6:0.000000,0.000000,0.000000,0.000000,0.261799,0.000000:0.500000,0.500000,0.500000,0.500000,0.500000,0.500000:pos_vel_
cobot_dynamixel_driver/joint_states|name|J1,J2,J3,J4,J5,J6|pos|0.000025,0.000013,0.000025,-0.000013,0.261649,0.000000|vel|0.000000,-0.000000,0.000000,0.000000,0.000000,0.000000|eff|0.000000,209.472656,-902.343750,128.906250,72.509766,0.000000
cobot_dynamixel_driver/joint_states|name|J1,J2,J3,J4,J5,J6|pos|0.000025,0.000013,0.000025,-0.000013,0.261649,0.000000|vel|0.000000,-0.000000,0.000000,0.000000,0.000000,0.000000|eff|48.339844,128.906250,-870.117188,128.906250,76.538086,0.000000
cobot_dynamixel_driver/joint_states|name|J1,J2,J3,J4,J5,J6|pos|0.000025,0.000013,0.000025,-0.000013,0.261649,0.000000|vel|0.000000,-0.000000,0.000000,0.000000,0.000000,0.000000|eff|0.000000,322.265625,-934.570312,128.906250,72.509766,0.000000
cobot_dynamixel_driver/joint_states|name|J1,J2,J3,J4,J5,J6|pos|0.000025,0.000013,0.000025,-0.000013,0.261649,0.000000|vel|0.000000,-0.000000,0.000000,0.000000,0.000000,0.000000|eff|0.000000,306.152344,-870.117188,128.906250,72.509766,0.000000
cobot_dynamixel_driver/joint_states|name|J1,J2,J3,J4,J5,J6|pos|0.000025,0.000013,0.000025,-0.000013,0.261649,0.000000|vel|0.000000,-0.000000,0.000000,0.000000,0.000000,0.000000|eff|0.000000,193.359375,-870.117188,128.906250,84.594727,16.113281
cobot_dynamixel_driver/joint_states|name|J1,J2,J3,J4,J5,J6|pos|0.000025,0.000013,0.000025,-0.000013,0.261649,0.000000|vel|0.000000,-0.000000,0.000000,0.000000,0.000000,0.000000|eff|0.000000,306.152344,-918.457031,128.906250,72.509766,0.000000
cobot_dynamixel_driver/joint_states|name|J1,J2,J3,J4,J5,J6|pos|0.000025,0.000013,0.000025,-0.000013,0.261649,0.000000|vel|0.000000,-0.000000,0.000000,0.000000,0.000000,0.000000|eff|0.000000,273.925781,-934.570312,128.906250,84.594727,0.000000
cobot_dynamixel_driver/joint_states|name|J1,J2,J3,J4,J5,J6|pos|0.000025,0.000013,0.000025,-0.000013,0.261649,0.000000|vel|0.000000,-0.000000,0.000000,0.000000,0.000000,0.000000|eff|0.000000,290.039062,-902.343750,128.906250,84.594727,28.198242
cobot_dynamixel_driver/joint_states|name|J1,J2,J3,J4,J5,J6|pos|0.000025,0.000013,0.000025,-0.000013,0.261670,0.000000|vel|0.000000,-0.000000,0.000000,0.000000,0.000000,0.000000|eff|0.000000,193.359375,-870.117188,128.906250,84.594727,16.113281
cobot_dynamixel_driver/joint_states|name|J1,J2,J3,J4,J5,J6|pos|0.000025,0.000013,0.000025,-0.000013,0.261711,0.000000|vel|0.000000,-0.000000,0.000000,0.000000,0.002068,0.000000|eff|48.339844,273.925781,-918.457031,128.906250,84.594727,0.000000
cobot_dynamixel_driver/joint_states|name|J1,J2,J3,J4,J5,J6|pos|0.000025,0.000013,0.000025,-0.000013,0.261711,0.000000|vel|0.000000,-0.000000,0.000000,0.000000,0.002068,0.000000|eff|0.000000,225.585938,-934.570312,128.906250,76.538086,24.169922
cobot_dynamixel_driver/joint_states|name|J1,J2,J3,J4,J5,J6|pos|0.000025,0.000013,0.000025,-0.000013,0.261711,0.000000|vel|0.000000,-0.000000,0.000000,0.000000,0.002068,0.000000|eff|0.000000,161.132812,-886.230469,128.906250,68.481445,0.000000
cobot_dynamixel_driver/joint_states|name|J1,J2,J3,J4,J5,J6|pos|0.000025,0.000013,0.000025,-0.000013,0.261711,0.000000|vel|0.000000,-0.000000,0.000000,0.000000,0.002068,0.000000|eff|96.679688,209.472656,-918.457031,128.906250,64.453125,16.113281
cobot_dynamixel_driver/joint_states|name|J1,J2,J3,J4,J5,J6|pos|0.000025,0.000013,0.000025,-0.000013,0.261711,0.000000|vel|0.000000,-0.000000,0.000000,0.000000,0.002068,0.000000|eff|0.000000,145.019531,-918.457031,128.906250,64.453125,16.113281
cobot_dynamixel_driver/joint_states|name|J1,J2,J3,J4,J5,J6|pos|0.000025,0.000013,0.000025,-0.000013,0.261711,0.000000|vel|0.000000,-0.000000,0.000000,0.000000,0.002068,0.000000|eff|48.339844,225.585938,-918.457031,128.906250,64.453125,0.000000
cobot_dynamixel_driver/joint_states|name|J1,J2,J3,J4,J5,J6|pos|0.000025,0.000013,0.000025,-0.000013,0.261711,0.000000|vel|0.000000,-0.000000,0.000000,0.000000,0.000000,0.000000|eff|0.000000,161.132812,-934.570312,128.906250,64.453125,0.000000
cobot_dynamixel_driver/joint_states|name|J1,J2,J3,J4,J5,J6|pos|0.000025,0.000013,0.000025,-0.000013,0.261711,0.000000|vel|0.000000,-0.000000,0.000000,0.000000,0.000000,0.000000|eff|0.000000,354.492188,-934.570312,128.906250,68.481445,0.000000
cobot_dynamixel_driver/joint_states|name|J1,J2,J3,J4,J5,J6|pos|0.000025,0.000013,0.000025,-0.000013,0.261711,0.000000|vel|0.000000,-0.000000,0.000000,0.000000,0.000000,0.000000|eff|0.000000,161.132812,-886.230469,128.906250,64.453125,24.169922
cobot_dynamixel_driver/joint_states|name|J1,J2,J3,J4,J5,J6|pos|0.000025,0.000013,0.000025,-0.000013,0.261711,0.000000|vel|0.000000,-0.000000,0.000000,0.000000,0.000000,0.000000|eff|0.000000,370.605469,-918.457031,128.906250,68.481445,0.000000
cobot_dynamixel_driver/joint_states|name|J1,J2,J3,J4,J5,J6|pos|0.000025,0.000025,0.000025,-0.000013,0.261711,0.000000|vel|0.000000,-0.000000,0.000000,0.000000,0.000000,0.000000|eff|0.000000,273.925781,-870.117188,128.906250,68.481445,0.000000
cobot_dynamixel_driver/joint_states|name|J1,J2,J3,J4,J5,J6|pos|0.000025,0.000025,0.000025,-0.000013,0.261711,0.000000|vel|0.000000,-0.000000,0.000000,0.000000,0.000000,0.000000|eff|96.679688,273.925781,-902.343750,128.906250,68.481445,0.000000
cobot_dynamixel_driver/joint_states|name|J1,J2,J3,J4,J5,J6|pos|0.000025,0.000025,0.000025,-0.000013,0.261711,0.000000|vel|0.000000,-0.000000,0.000000,0.000000,0.000000,0.000000|eff|0.000000,354.492188,-918.457031,128.906250,68.481445,0.000000
cobot_dynamixel_driver/joint_states|name|J1,J2,J3,J4,J5,J6|pos|0.000025,0.000025,0.000025,-0.000013,0.261711,0.000000|vel|0.000000,-0.000000,0.000000,0.000000,0.000000,0.000000|eff|48.339844,273.925781,-870.117188,128.906250,68.481445,24.169922
cobot_dynamixel_driver/joint_states|name|J1,J2,J3,J4,J5,J6|pos|0.000025,0.000025,0.000025,-0.000013,0.261711,0.000000|vel|0.000000,-0.000000,0.000000,0.000000,0.000000,0.000000|eff|0.000000,273.925781,-886.230469,128.906250,68.481445,0.000000
cobot_dynamixel_driver/joint_states|name|J1,J2,J3,J4,J5,J6|pos|0.000025,0.000025,0.000025,-0.000013,0.261711,0.000000|vel|0.000000,-0.000000,0.000000,0.000000,0.000000,0.000000|eff|0.000000,161.132812,-870.117188,128.906250,72.509766,0.000000
cobot_dynamixel_driver/joint_states|name|J1,J2,J3,J4,J5,J6|pos|0.000025,0.000025,0.000025,-0.000013,0.261711,0.000000|vel|0.000000,-0.000000,0.000000,0.000000,0.000000,0.000000|eff|96.679688,145.019531,-837.890625,128.906250,68.481445,24.169922
cobot_dynamixel_driver/joint_states|name|J1,J2,J3,J4,J5,J6|pos|0.000025,0.000025,0.000025,-0.000013,0.261711,0.000000|vel|0.000000,-0.000000,0.000000,0.000000,0.000000,0.000000|eff|48.339844,354.492188,-886.230469,128.906250,72.509766,0.000000
cobot_dynamixel_driver/joint_states|name|J1,J2,J3,J4,J5,J6|pos|0.000025,0.000025,0.000025,-0.000013,0.261711,0.000000|vel|0.000000,-0.000000,0.000000,0.000000,0.000000,0.000000|eff|0.000000,161.132812,-934.570312,128.906250,72.509766,16.113281
cobot_dynamixel_driver/joint_states|name|J1,J2,J3,J4,J5,J6|pos|0.000025,0.000025,0.000025,-0.000013,0.261711,0.000000|vel|0.000000,-0.000000,0.000000,0.000000,0.000000,0.000000|eff|0.000000,161.132812,-918.457031,128.906250,76.538086,0.000000
cobot_dynamixel_driver/joint_states|name|J1,J2,J3,J4,J5,J6|pos|0.000025,0.000025,0.000025,-0.000013,0.261711,0.000000|vel|0.000000,-0.000000,0.000000,0.000000,0.000000,0.000000|eff|0.000000,128.906250,-902.343750,128.906250,72.509766,0.000000
cobot_dynamixel_driver/joint_states|name|J1,J2,J3,J4,J5,J6|pos|0.000025,0.000025,0.000025,-0.000013,0.261711,0.000000|vel|0.000000,-0.000000,0.000000,0.000000,0.000000,0.000000|eff|64.453125,273.925781,-934.570312,128.906250,80.566406,32.226562
cobot_dynamixel_driver/joint_states|name|J1,J2,J3,J4,J5,J6|pos|0.000025,0.000025,0.000025,-0.000013,0.261711,0.000000|vel|0.000000,-0.000000,0.000000,0.000000,0.000000,0.000000|eff|0.000000,145.019531,-918.457031,128.906250,68.481445,32.226562
cobot_dynamixel_driver/joint_states|name|J1,J2,J3,J4,J5,J6|pos|0.000025,0.000025,0.000025,-0.000013,0.261711,0.000000|vel|0.000000,-0.000000,0.000000,0.000000,0.000000,0.000000|eff|0.000000,193.359375,-902.343750,128.906250,76.538086,24.169922
cobot_dynamixel_driver/joint_states|name|J1,J2,J3,J4,J5,J6|pos|0.000025,0.000025,0.000025,-0.000013,0.261711,0.000000|vel|0.000000,-0.000000,0.000000,0.000000,0.000000,0.000000|eff|0.000000,225.585938,-918.457031,128.906250,76.538086,0.000000
cobot_dynamixel_driver/joint_states|name|J1,J2,J3,J4,J5,J6|pos|0.000025,0.000025,0.000025,-0.000013,0.261711,0.000000|vel|0.000000,-0.000000,0.000000,0.000000,0.000000,0.000000|eff|0.000000,161.132812,-934.570312,128.906250,68.481445,16.113281
cobot_dynamixel_driver/joint_states|name|J1,J2,J3,J4,J5,J6|pos|0.000025,0.000025,0.000025,-0.000013,0.261711,0.000000|vel|0.000000,-0.000000,0.000000,0.000000,0.000000,0.000000|eff|0.000000,273.925781,-918.457031,128.906250,80.566406,0.000000
cobot_dynamixel_driver/joint_states|name|J1,J2,J3,J4,J5,J6|pos|0.000025,0.000025,0.000025,-0.000013,0.261711,0.000000|vel|0.000000,-0.000000,0.000000,0.000000,0.000000,0.000000|eff|0.000000,177.246094,-886.230469,128.906250,80.566406,0.000000
cobot_dynamixel_driver/joint_states|name|J1,J2,J3,J4,J5,J6|pos|0.000025,0.000025,0.000025,-0.000013,0.261711,0.000000|vel|0.000000,-0.000000,0.000000,0.000000,0.000000,0.000000|eff|0.000000,338.378906,-886.230469,128.906250,80.566406,0.000000
cobot_dynamixel_driver/joint_states|name|J1,J2,J3,J4,J5,J6|pos|0.000025,0.000025,0.000025,-0.000013,0.261711,0.000000|vel|0.000000,-0.000000,0.000000,0.000000,0.000000,0.000000|eff|0.000000,370.605469,-886.230469,128.906250,80.566406,0.000000
cobot_dynamixel_driver/joint_states|name|J1,J2,J3,J4,J5,J6|pos|0.000025,0.000025,0.000025,-0.000013,0.261711,0.000000|vel|0.000000,-0.000000,0.000000,0.000000,0.000000,0.000000|eff|0.000000,273.925781,-934.570312,128.906250,80.566406,0.000000
cobot_dynamixel_driver/joint_states|name|J1,J2,J3,J4,J5,J6|pos|0.000025,0.000025,0.000025,-0.000013,0.261711,0.000000|vel|0.000000,-0.000000,0.000000,0.000000,0.000000,0.000000|eff|96.679688,306.152344,-918.457031,128.906250,80.566406,0.000000
cobot_dynamixel_driver/joint_states|name|J1,J2,J3,J4,J5,J6|pos|0.000025,0.000025,0.000025,-0.000013,0.261711,0.000000|vel|0.000000,-0.000000,0.000000,0.000000,0.000000,0.000000|eff|64.453125,290.039062,-918.457031,128.906250,84.594727,0.000000
cobot_dynamixel_driver/joint_states|name|J1,J2,J3,J4,J5,J6|pos|0.000025,0.000025,0.000025,-0.000013,0.261732,0.000000|vel|0.000000,-0.000000,0.000000,0.000000,0.000000,0.000000|eff|0.000000,273.925781,-870.117188,128.906250,84.594727,16.113281
cobot_dynamixel_driver/joint_states|name|J1,J2,J3,J4,J5,J6|pos|0.000025,0.000025,0.000025,-0.000013,0.261753,0.000000|vel|0.000000,-0.000000,0.000000,0.000000,0.000000,0.000000|eff|96.679688,273.925781,-854.003906,128.906250,84.594727,24.169922
cobot_dynamixel_driver/joint_states|name|J1,J2,J3,J4,J5,J6|pos|0.000025,0.000025,0.000025,-0.000013,0.261774,0.000000|vel|0.000000,-0.000000,0.000000,0.000000,0.000000,0.000000|eff|0.000000,161.132812,-902.343750,128.906250,84.594727,0.000000
cobot_dynamixel_driver/joint_states|name|J1,J2,J3,J4,J5,J6|pos|0.000025,0.000025,0.000025,-0.000013,0.261774,0.000000|vel|0.000000,-0.000000,0.000000,0.000000,0.000000,0.000000|eff|0.000000,370.605469,-934.570312,128.906250,84.594727,16.113281
cobot_dynamixel_driver/joint_states|name|J1,J2,J3,J4,J5,J6|pos|0.000025,0.000025,0.000025,-0.000013,0.261774,0.000000|vel|0.000000,-0.000000,0.000000,0.000000,0.000345,0.000000|eff|0.000000,145.019531,-918.457031,128.906250,84.594727,16.113281
cobot_dynamixel_driver/joint_states|name|J1,J2,J3,J4,J5,J6|pos|0.000025,0.000025,0.000025,-0.000013,0.261774,0.000000|vel|0.000000,-0.000000,0.000000,0.000000,0.000345,0.000000|eff|0.000000,338.378906,-886.230469,128.906250,84.594727,0.000000
cobot_dynamixel_driver/joint_states|name|J1,J2,J3,J4,J5,J6|pos|0.000025,0.000025,0.000025,-0.000013,0.261774,0.000000|vel|0.000000,-0.000000,0.000000,0.000000,0.000345,0.000000|eff|48.339844,338.378906,-870.117188,128.906250,80.566406,0.000000
cobot_dynamixel_driver/joint_states|name|J1,J2,J3,J4,J5,J6|pos|0.000025,0.000025,0.000025,-0.000013,0.261774,0.000000|vel|0.000000,-0.000000,0.000000,0.000000,0.000345,0.000000|eff|48.339844,225.585938,-934.570312,128.906250,80.566406,0.000000
cobot_dynamixel_driver/joint_states|name|J1,J2,J3,J4,J5,J6|pos|0.000025,0.000025,0.000025,-0.000013,0.261774,0.000000|vel|0.000000,-0.000000,0.000000,0.000000,0.000345,0.000000|eff|64.453125,128.906250,-870.117188,128.906250,80.566406,0.000000
