surachairobotic/cobot/cobot_dynamixel_driver/log/2018-12-12T02:27:26.009589_driver_log.txt
cobot_dynamixel_driver/joint_states|name|J1,J2,J3,J4,J5,J6|pos|-1.526147,-1.267658,1.296275,0.001014,-1.477991,-0.000083|vel|0.000000,-0.000000,0.000000,0.000000,0.000000,0.000000|eff|0.000000,0.000000,0.000000,0.000000,0.000000,0.000000
cobot_dynamixel_driver/joint_states|name|J1,J2,J3,J4,J5,J6|pos|-1.526147,-1.267658,1.296275,0.001014,-1.477991,-0.000083|vel|0.000000,-0.000000,0.000000,0.000000,0.000000,0.000000|eff|0.000000,0.000000,0.000000,0.000000,0.000000,0.000000
cobot_dynamixel_driver/joint_states|name|J1,J2,J3,J4,J5,J6|pos|-1.526147,-1.267658,1.296275,0.001014,-1.477991,-0.000083|vel|0.000000,-0.000000,0.000000,0.000000,0.000000,0.000000|eff|0.000000,0.000000,0.000000,0.000000,0.000000,0.000000
cobot_dynamixel_driver/joint_states|name|J1,J2,J3,J4,J5,J6|pos|-1.526147,-1.267658,1.296275,0.001014,-1.477991,-0.000083|vel|0.000000,-0.000000,0.000000,0.000000,0.000000,0.000000|eff|0.000000,0.000000,0.000000,0.000000,0.000000,0.000000
cobot_dynamixel_driver/joint_states|name|J1,J2,J3,J4,J5,J6|pos|-1.526147,-1.267658,1.296275,0.001014,-1.477991,-0.000083|vel|0.000000,-0.000000,0.000000,0.000000,0.000000,0.000000|eff|0.000000,0.000000,0.000000,0.000000,0.000000,0.000000
cobot_dynamixel_driver/joint_states|name|J1,J2,J3,J4,J5,J6|pos|-1.526147,-1.267658,1.296275,0.001014,-1.477991,-0.000083|vel|0.000000,-0.000000,0.000000,0.000000,0.000000,0.000000|eff|0.000000,0.000000,0.000000,0.000000,0.000000,0.000000
cobot_dynamixel_driver/joint_states|name|J1,J2,J3,J4,J5,J6|pos|-1.526147,-1.267658,1.296275,0.001014,-1.477991,-0.000083|vel|0.000000,-0.000000,0.000000,0.000000,0.000000,0.000000|eff|0.000000,0.000000,0.000000,0.000000,0.000000,0.000000
cobot_dynamixel_driver/joint_states|name|J1,J2,J3,J4,J5,J6|pos|-1.526147,-1.267658,1.296275,0.001014,-1.477991,-0.000083|vel|0.000000,-0.000000,0.000000,0.000000,0.000000,0.000000|eff|0.000000,0.000000,0.000000,0.000000,0.000000,0.000000
cobot_dynamixel_driver/joint_states|name|J1,J2,J3,J4,J5,J6|pos|-1.526147,-1.267658,1.296275,0.001014,-1.477991,-0.000083|vel|0.000000,-0.000000,0.000000,0.000000,0.000000,0.000000|eff|0.000000,0.000000,0.000000,0.000000,0.000000,0.000000
cobot_dynamixel_driver/joint_states|name|J1,J2,J3,J4,J5,J6|pos|-1.526147,-1.267658,1.296275,0.001014,-1.477991,-0.000083|vel|0.000000,-0.000000,0.000000,0.000000,0.000000,0.000000|eff|0.000000,0.000000,0.000000,0.000000,0.000000,0.000000
cobot_dynamixel_driver/joint_states|name|J1,J2,J3,J4,J5,J6|pos|-1.526147,-1.267658,1.296275,0.001014,-1.477991,-0.000083|vel|0.000000,-0.000000,0.000000,0.000000,0.000000,0.000000|eff|0.000000,0.000000,0.000000,0.000000,0.000000,0.000000
cobot_dynamixel_driver/joint_states|name|J1,J2,J3,J4,J5,J6|pos|-1.526147,-1.267658,1.296275,0.001014,-1.477991,-0.000083|vel|0.000000,-0.000000,0.000000,0.000000,0.000000,0.000000|eff|0.000000,0.000000,0.000000,0.000000,0.000000,0.000000
cobot_dynamixel_driver/joint_states|name|J1,J2,J3,J4,J5,J6|pos|-1.526147,-1.267658,1.296275,0.001014,-1.477991,-0.000083|vel|0.000000,-0.000000,0.000000,0.000000,0.000000,0.000000|eff|0.000000,0.000000,0.000000,0.000000,0.000000,0.000000
cobot_dynamixel_driver/joint_states|name|J1,J2,J3,J4,J5,J6|pos|-1.526147,-1.267658,1.296275,0.001014,-1.477991,-0.000083|vel|0.000000,-0.000000,0.000000,0.000000,0.000000,0.000000|eff|0.000000,0.000000,0.000000,0.000000,0.000000,0.000000
cobot_dynamixel_driver/joint_states|name|J1,J2,J3,J4,J5,J6|pos|-1.526147,-1.267658,1.296275,0.001014,-1.477991,-0.000083|vel|0.000000,-0.000000,0.000000,0.000000,0.000000,0.000000|eff|0.000000,0.000000,0.000000,0.000000,0.000000,0.000000
cobot_dynamixel_driver/joint_states|name|J1,J2,J3,J4,J5,J6|pos|-1.526147,-1.267658,1.296275,0.001014,-1.477991,-0.000083|vel|0.000000,-0.000000,0.000000,0.000000,0.000000,0.000000|eff|0.000000,0.000000,0.000000,0.000000,0.000000,0.000000
cobot_dynamixel_driver/joint_states|name|J1,J2,J3,J4,J5,J6|pos|-1.526147,-1.267658,1.296275,0.001014,-1.477991,-0.000083|vel|0.000000,-0.000000,0.000000,0.000000,0.000000,0.000000|eff|0.000000,0.000000,0.000000,0.000000,0.000000,0.000000
cobot_dynamixel_driver/joint_states|name|J1,J2,J3,J4,J5,J6|pos|-1.526147,-1.267658,1.296275,0.001014,-1.477991,-0.000083|vel|0.000000,-0.000000,0.000000,0.000000,0.000000,0.000000|eff|0.000000,0.000000,0.000000,0.000000,0.000000,0.000000
cobot_dynamixel_driver/joint_states|name|J1,J2,J3,J4,J5,J6|pos|-1.526147,-1.267658,1.296275,0.001014,-1.477991,-0.000083|vel|0.000000,-0.000000,0.000000,0.000000,0.000000,0.000000|eff|0.000000,0.000000,0.000000,0.000000,0.000000,0.000000
cobot_dynamixel_driver/joint_states|name|J1,J2,J3,J4,J5,J6|pos|-1.526147,-1.267658,1.296275,0.001014,-1.477991,-0.000083|vel|0.000000,-0.000000,0.000000,0.000000,0.000000,0.000000|eff|0.000000,0.000000,0.000000,0.000000,0.000000,0.000000
cobot_dynamixel_driver/joint_states|name|J1,J2,J3,J4,J5,J6|pos|-1.526147,-1.267658,1.296275,0.001014,-1.477991,-0.000083|vel|0.000000,-0.000000,0.000000,0.000000,0.000000,0.000000|eff|0.000000,0.000000,0.000000,0.000000,0.000000,0.000000
cobot_dynamixel_driver/joint_states|name|J1,J2,J3,J4,J5,J6|pos|-1.526147,-1.267658,1.296275,0.001014,-1.477991,-0.000083|vel|0.000000,-0.000000,0.000000,0.000000,0.000000,0.000000|eff|0.000000,0.000000,0.000000,0.000000,0.000000,0.000000
cobot_dynamixel_driver/joint_states|name|J1,J2,J3,J4,J5,J6|pos|-1.526147,-1.267658,1.296275,0.001014,-1.477991,-0.000083|vel|0.000000,-0.000000,0.000000,0.000000,0.000000,0.000000|eff|0.000000,0.000000,0.000000,0.000000,0.000000,0.000000
cobot_dynamixel_driver/joint_states|name|J1,J2,J3,J4,J5,J6|pos|-1.526147,-1.267658,1.296275,0.001014,-1.477991,-0.000083|vel|0.000000,-0.000000,0.000000,0.000000,0.000000,0.000000|eff|0.000000,0.000000,0.000000,0.000000,0.000000,0.000000
cobot_dynamixel_driver/joint_states|name|J1,J2,J3,J4,J5,J6|pos|-1.526147,-1.267658,1.296275,0.001014,-1.477991,-0.000083|vel|0.000000,-0.000000,0.000000,0.000000,0.000000,0.000000|eff|0.000000,0.000000,0.000000,0.000000,0.000000,0.000000
cobot_dynamixel_driver/joint_states|name|J1,J2,J3,J4,J5,J6|pos|-1.526147,-1.267658,1.296275,0.001014,-1.477991,-0.000083|vel|0.000000,-0.000000,0.000000,0.000000,0.000000,0.000000|eff|0.000000,0.000000,0.000000,0.000000,0.000000,0.000000
cobot_dynamixel_driver/joint_states|name|J1,J2,J3,J4,J5,J6|pos|-1.526147,-1.267658,1.296275,0.001014,-1.477991,-0.000083|vel|0.000000,-0.000000,0.000000,0.000000,0.000000,0.000000|eff|0.000000,0.000000,0.000000,0.000000,0.000000,0.000000
cobot_dynamixel_driver/joint_states|name|J1,J2,J3,J4,J5,J6|pos|-1.526147,-1.267658,1.296275,0.001014,-1.477991,-0.000083|vel|0.000000,-0.000000,0.000000,0.000000,0.000000,0.000000|eff|0.000000,0.000000,0.000000,0.000000,0.000000,0.000000
cobot_dynamixel_driver/joint_states|name|J1,J2,J3,J4,J5,J6|pos|-1.526147,-1.267658,1.296275,0.001014,-1.477991,-0.000083|vel|0.000000,-0.000000,0.000000,0.000000,0.000000,0.000000|eff|0.000000,0.000000,0.000000,0.000000,0.000000,0.000000
cobot_dynamixel_driver/joint_states|name|J1,J2,J3,J4,J5,J6|pos|-1.526147,-1.267658,1.296275,0.001014,-1.477991,-0.000083|vel|0.000000,-0.000000,0.000000,0.000000,0.000000,0.000000|eff|0.000000,0.000000,0.000000,0.000000,0.000000,0.000000
cobot_dynamixel_driver/joint_states|name|J1,J2,J3,J4,J5,J6|pos|-1.526147,-1.267658,1.296275,0.001014,-1.477991,-0.000083|vel|0.000000,-0.000000,0.000000,0.000000,0.000000,0.000000|eff|0.000000,0.000000,0.000000,0.000000,0.000000,0.000000
cobot_dynamixel_driver/joint_states|name|J1,J2,J3,J4,J5,J6|pos|-1.526147,-1.267658,1.296275,0.001014,-1.477991,-0.000083|vel|0.000000,-0.000000,0.000000,0.000000,0.000000,0.000000|eff|0.000000,0.000000,0.000000,0.000000,0.000000,0.000000
cobot_dynamixel_driver/joint_states|name|J1,J2,J3,J4,J5,J6|pos|-1.526147,-1.267658,1.296275,0.001014,-1.477991,-0.000083|vel|0.000000,-0.000000,0.000000,0.000000,0.000000,0.000000|eff|0.000000,0.000000,0.000000,0.000000,0.000000,0.000000
cobot_dynamixel_driver/joint_states|name|J1,J2,J3,J4,J5,J6|pos|-1.526147,-1.267658,1.296275,0.001014,-1.477991,-0.000083|vel|0.000000,-0.000000,0.000000,0.000000,0.000000,0.000000|eff|0.000000,0.000000,0.000000,0.000000,0.000000,0.000000
cobot_dynamixel_driver/joint_states|name|J1,J2,J3,J4,J5,J6|pos|-1.526147,-1.267658,1.296275,0.001014,-1.477991,-0.000083|vel|0.000000,-0.000000,0.000000,0.000000,0.000000,0.000000|eff|0.000000,0.000000,0.000000,0.000000,0.000000,0.000000
cobot_dynamixel_driver/joint_states|name|J1,J2,J3,J4,J5,J6|pos|-1.526147,-1.267658,1.296275,0.001014,-1.477991,-0.000083|vel|0.000000,-0.000000,0.000000,0.000000,0.000000,0.000000|eff|0.000000,0.000000,0.000000,0.000000,0.000000,0.000000
cobot_dynamixel_driver/joint_states|name|J1,J2,J3,J4,J5,J6|pos|-1.526147,-1.267658,1.296275,0.001014,-1.477991,-0.000083|vel|0.000000,-0.000000,0.000000,0.000000,0.000000,0.000000|eff|0.000000,0.000000,0.000000,0.000000,0.000000,0.000000
cobot_dynamixel_driver/joint_states|name|J1,J2,J3,J4,J5,J6|pos|-1.526147,-1.267658,1.296275,0.001014,-1.477991,-0.000083|vel|0.000000,-0.000000,0.000000,0.000000,0.000000,0.000000|eff|0.000000,0.000000,0.000000,0.000000,0.000000,0.000000
cobot_dynamixel_driver/joint_states|name|J1,J2,J3,J4,J5,J6|pos|-1.526147,-1.267658,1.296275,0.001014,-1.477991,-0.000083|vel|0.000000,-0.000000,0.000000,0.000000,0.000000,0.000000|eff|0.000000,0.000000,0.000000,0.000000,0.000000,0.000000
cobot_dynamixel_driver/joint_states|name|J1,J2,J3,J4,J5,J6|pos|-1.526147,-1.267658,1.296275,0.001014,-1.477991,-0.000083|vel|0.000000,-0.000000,0.000000,0.000000,0.000000,0.000000|eff|0.000000,0.000000,0.000000,0.000000,0.000000,0.000000
cobot_dynamixel_driver/joint_states|name|J1,J2,J3,J4,J5,J6|pos|-1.526147,-1.267658,1.296275,0.001014,-1.477991,-0.000083|vel|0.000000,-0.000000,0.000000,0.000000,0.000000,0.000000|eff|0.000000,0.000000,0.000000,0.000000,0.000000,0.000000
cobot_dynamixel_driver/joint_states|name|J1,J2,J3,J4,J5,J6|pos|-1.526147,-1.267658,1.296275,0.001014,-1.477991,-0.000083|vel|0.000000,-0.000000,0.000000,0.000000,0.000000,0.000000|eff|0.000000,0.000000,0.000000,0.000000,0.000000,0.000000
cobot_dynamixel_driver/joint_states|name|J1,J2,J3,J4,J5,J6|pos|-1.526147,-1.267658,1.296275,0.001014,-1.477991,-0.000083|vel|0.000000,-0.000000,0.000000,0.000000,0.000000,0.000000|eff|0.000000,0.000000,0.000000,0.000000,0.000000,0.000000
cobot_dynamixel_driver/joint_states|name|J1,J2,J3,J4,J5,J6|pos|-1.526147,-1.267658,1.296275,0.001014,-1.477991,-0.000083|vel|0.000000,-0.000000,0.000000,0.000000,0.000000,0.000000|eff|0.000000,0.000000,0.000000,0.000000,0.000000,0.000000
cobot_dynamixel_driver/joint_states|name|J1,J2,J3,J4,J5,J6|pos|-1.526147,-1.267658,1.296275,0.001014,-1.477991,-0.000083|vel|0.000000,-0.000000,0.000000,0.000000,0.000000,0.000000|eff|0.000000,0.000000,0.000000,0.000000,0.000000,0.000000
cobot_dynamixel_driver/joint_states|name|J1,J2,J3,J4,J5,J6|pos|-1.526147,-1.267658,1.296275,0.001014,-1.477991,-0.000083|vel|0.000000,-0.000000,0.000000,0.000000,0.000000,0.000000|eff|0.000000,0.000000,0.000000,0.000000,0.000000,0.000000
cobot_dynamixel_driver/joint_states|name|J1,J2,J3,J4,J5,J6|pos|-1.526147,-1.267658,1.296275,0.001014,-1.477991,-0.000083|vel|0.000000,-0.000000,0.000000,0.000000,0.000000,0.000000|eff|0.000000,0.000000,0.000000,0.000000,0.000000,0.000000
cobot_dynamixel_driver/joint_states|name|J1,J2,J3,J4,J5,J6|pos|-1.526147,-1.267658,1.296275,0.001014,-1.477991,-0.000083|vel|0.000000,-0.000000,0.000000,0.000000,0.000000,0.000000|eff|0.000000,0.000000,0.000000,0.000000,0.000000,0.000000
cobot_dynamixel_driver/joint_states|name|J1,J2,J3,J4,J5,J6|pos|-1.526147,-1.267658,1.296275,0.001014,-1.477991,-0.000083|vel|0.000000,-0.000000,0.000000,0.000000,0.000000,0.000000|eff|0.000000,0.000000,0.000000,0.000000,0.000000,0.000000
cobot_dynamixel_driver/joint_states|name|J1,J2,J3,J4,J5,J6|pos|-1.526147,-1.267658,1.296275,0.001014,-1.477991,-0.000083|vel|0.000000,-0.000000,0.000000,0.000000,0.000000,0.000000|eff|0.000000,0.000000,0.000000,0.000000,0.000000,0.000000
cobot_dynamixel_driver/joint_states|name|J1,J2,J3,J4,J5,J6|pos|-1.526147,-1.267658,1.296275,0.001014,-1.477991,-0.000083|vel|0.000000,-0.000000,0.000000,0.000000,0.000000,0.000000|eff|0.000000,0.000000,0.000000,0.000000,0.000000,0.000000
cobot_dynamixel_driver/joint_states|name|J1,J2,J3,J4,J5,J6|pos|-1.526147,-1.267658,1.296275,0.001014,-1.477991,-0.000083|vel|0.000000,-0.000000,0.000000,0.000000,0.000000,0.000000|eff|0.000000,0.000000,0.000000,0.000000,0.000000,0.000000
cobot_dynamixel_driver/joint_states|name|J1,J2,J3,J4,J5,J6|pos|-1.526147,-1.267658,1.296275,0.001014,-1.477991,-0.000083|vel|0.000000,-0.000000,0.000000,0.000000,0.000000,0.000000|eff|0.000000,0.000000,0.000000,0.000000,0.000000,0.000000
cobot_dynamixel_driver/joint_states|name|J1,J2,J3,J4,J5,J6|pos|-1.526147,-1.267658,1.296275,0.001014,-1.477991,-0.000083|vel|0.000000,-0.000000,0.000000,0.000000,0.000000,0.000000|eff|0.000000,0.000000,0.000000,0.000000,0.000000,0.000000
cobot_dynamixel_driver/joint_states|name|J1,J2,J3,J4,J5,J6|pos|-1.526147,-1.267658,1.296275,0.001014,-1.477991,-0.000083|vel|0.000000,-0.000000,0.000000,0.000000,0.000000,0.000000|eff|0.000000,0.000000,0.000000,0.000000,0.000000,0.000000
cobot_dynamixel_driver/joint_states|name|J1,J2,J3,J4,J5,J6|pos|-1.526147,-1.267658,1.296275,0.001014,-1.477991,-0.000083|vel|0.000000,-0.000000,0.000000,0.000000,0.000000,0.000000|eff|0.000000,0.000000,0.000000,0.000000,0.000000,0.000000
cobot_dynamixel_driver/joint_states|name|J1,J2,J3,J4,J5,J6|pos|-1.526147,-1.267658,1.296275,0.001014,-1.477991,-0.000083|vel|0.000000,-0.000000,0.000000,0.000000,0.000000,0.000000|eff|0.000000,0.000000,0.000000,0.000000,0.000000,0.000000
cobot_dynamixel_driver/joint_states|name|J1,J2,J3,J4,J5,J6|pos|-1.526147,-1.267658,1.296275,0.001014,-1.477991,-0.000083|vel|0.000000,-0.000000,0.000000,0.000000,0.000000,0.000000|eff|0.000000,0.000000,0.000000,0.000000,0.000000,0.000000
cobot_dynamixel_driver/joint_states|name|J1,J2,J3,J4,J5,J6|pos|-1.526147,-1.267658,1.296275,0.001014,-1.477991,-0.000083|vel|0.000000,-0.000000,0.000000,0.000000,0.000000,0.000000|eff|0.000000,0.000000,0.000000,0.000000,0.000000,0.000000
cobot_dynamixel_driver/joint_states|name|J1,J2,J3,J4,J5,J6|pos|-1.526147,-1.267658,1.296275,0.001014,-1.477991,-0.000083|vel|0.000000,-0.000000,0.000000,0.000000,0.000000,0.000000|eff|0.000000,0.000000,0.000000,0.000000,0.000000,0.000000
cobot_dynamixel_driver/joint_states|name|J1,J2,J3,J4,J5,J6|pos|-1.526147,-1.267658,1.296275,0.001014,-1.477991,-0.000083|vel|0.000000,-0.000000,0.000000,0.000000,0.000000,0.000000|eff|0.000000,0.000000,0.000000,0.000000,0.000000,0.000000
cobot_dynamixel_driver/joint_states|name|J1,J2,J3,J4,J5,J6|pos|-1.526147,-1.267658,1.296275,0.001014,-1.477991,-0.000083|vel|0.000000,-0.000000,0.000000,0.000000,0.000000,0.000000|eff|0.000000,0.000000,0.000000,0.000000,0.000000,0.000000
cobot_dynamixel_driver/joint_states|name|J1,J2,J3,J4,J5,J6|pos|-1.526147,-1.267658,1.296275,0.001014,-1.477991,-0.000083|vel|0.000000,-0.000000,0.000000,0.000000,0.000000,0.000000|eff|0.000000,0.000000,0.000000,0.000000,0.000000,0.000000
cobot_dynamixel_driver/joint_states|name|J1,J2,J3,J4,J5,J6|pos|-1.526147,-1.267658,1.296275,0.001014,-1.477991,-0.000083|vel|0.000000,-0.000000,0.000000,0.000000,0.000000,0.000000|eff|0.000000,0.000000,0.000000,0.000000,0.000000,0.000000
cobot_dynamixel_driver/joint_states|name|J1,J2,J3,J4,J5,J6|pos|-1.526147,-1.267658,1.296275,0.001014,-1.477991,-0.000083|vel|0.000000,-0.000000,0.000000,0.000000,0.000000,0.000000|eff|0.000000,0.000000,0.000000,0.000000,0.000000,0.000000
cobot_dynamixel_driver/joint_states|name|J1,J2,J3,J4,J5,J6|pos|-1.526147,-1.267658,1.296275,0.001014,-1.477991,-0.000083|vel|0.000000,-0.000000,0.000000,0.000000,0.000000,0.000000|eff|0.000000,0.000000,0.000000,0.000000,0.000000,0.000000
cobot_dynamixel_driver/joint_states|name|J1,J2,J3,J4,J5,J6|pos|-1.526147,-1.267658,1.296275,0.001014,-1.477991,-0.000083|vel|0.000000,-0.000000,0.000000,0.000000,0.000000,0.000000|eff|0.000000,0.000000,0.000000,0.000000,0.000000,0.000000
cobot_dynamixel_driver/joint_states|name|J1,J2,J3,J4,J5,J6|pos|-1.526147,-1.267658,1.296275,0.001014,-1.477991,-0.000083|vel|0.000000,-0.000000,0.000000,0.000000,0.000000,0.000000|eff|0.000000,0.000000,0.000000,0.000000,0.000000,0.000000
cobot_dynamixel_driver/joint_states|name|J1,J2,J3,J4,J5,J6|pos|-1.526147,-1.267658,1.296275,0.001014,-1.477991,-0.000083|vel|0.000000,-0.000000,0.000000,0.000000,0.000000,0.000000|eff|0.000000,0.000000,0.000000,0.000000,0.000000,0.000000
cobot_dynamixel_driver/joint_states|name|J1,J2,J3,J4,J5,J6|pos|-1.526147,-1.267658,1.296275,0.001014,-1.477991,-0.000083|vel|0.000000,-0.000000,0.000000,0.000000,0.000000,0.000000|eff|0.000000,0.000000,0.000000,0.000000,0.000000,0.000000
cobot_dynamixel_driver/joint_states|name|J1,J2,J3,J4,J5,J6|pos|-1.526147,-1.267658,1.296275,0.001014,-1.477991,-0.000083|vel|0.000000,-0.000000,0.000000,0.000000,0.000000,0.000000|eff|0.000000,0.000000,0.000000,0.000000,0.000000,0.000000
cobot_dynamixel_driver/joint_states|name|J1,J2,J3,J4,J5,J6|pos|-1.526147,-1.267658,1.296275,0.001014,-1.477991,-0.000083|vel|0.000000,-0.000000,0.000000,0.000000,0.000000,0.000000|eff|0.000000,0.000000,0.000000,0.000000,0.000000,0.000000
cobot_dynamixel_driver/joint_states|name|J1,J2,J3,J4,J5,J6|pos|-1.526147,-1.267658,1.296275,0.001014,-1.477991,-0.000083|vel|0.000000,-0.000000,0.000000,0.000000,0.000000,0.000000|eff|0.000000,0.000000,0.000000,0.000000,0.000000,0.000000
cobot_dynamixel_driver/joint_states|name|J1,J2,J3,J4,J5,J6|pos|-1.526147,-1.267658,1.296275,0.001014,-1.477991,-0.000083|vel|0.000000,-0.000000,0.000000,0.000000,0.000000,0.000000|eff|0.000000,0.000000,0.000000,0.000000,0.000000,0.000000
cobot_dynamixel_driver/joint_states|name|J1,J2,J3,J4,J5,J6|pos|-1.526147,-1.267658,1.296275,0.001014,-1.477991,-0.000083|vel|0.000000,-0.000000,0.000000,0.000000,0.000000,0.000000|eff|0.000000,0.000000,0.000000,0.000000,0.000000,0.000000
cobot_dynamixel_driver/joint_states|name|J1,J2,J3,J4,J5,J6|pos|-1.526147,-1.267658,1.296275,0.001014,-1.477991,-0.000083|vel|0.000000,-0.000000,0.000000,0.000000,0.000000,0.000000|eff|0.000000,0.000000,0.000000,0.000000,0.000000,0.000000
cobot_dynamixel_driver/joint_states|name|J1,J2,J3,J4,J5,J6|pos|-1.526147,-1.267658,1.296275,0.001014,-1.477991,-0.000083|vel|0.000000,-0.000000,0.000000,0.000000,0.000000,0.000000|eff|0.000000,0.000000,0.000000,0.000000,0.000000,0.000000
cobot_dynamixel_driver/joint_states|name|J1,J2,J3,J4,J5,J6|pos|-1.526147,-1.267658,1.296275,0.001014,-1.477991,-0.000083|vel|0.000000,-0.000000,0.000000,0.000000,0.000000,0.000000|eff|0.000000,0.000000,0.000000,0.000000,0.000000,0.000000
cobot_dynamixel_driver/joint_states|name|J1,J2,J3,J4,J5,J6|pos|-1.526147,-1.267658,1.296275,0.001014,-1.477991,-0.000083|vel|0.000000,-0.000000,0.000000,0.000000,0.000000,0.000000|eff|0.000000,0.000000,0.000000,0.000000,0.000000,0.000000
cobot_dynamixel_driver/joint_states|name|J1,J2,J3,J4,J5,J6|pos|-1.526147,-1.267658,1.296275,0.001014,-1.477991,-0.000083|vel|0.000000,-0.000000,0.000000,0.000000,0.000000,0.000000|eff|0.000000,0.000000,0.000000,0.000000,0.000000,0.000000
cobot_dynamixel_driver/joint_states|name|J1,J2,J3,J4,J5,J6|pos|-1.526147,-1.267658,1.296275,0.001014,-1.477991,-0.000083|vel|0.000000,-0.000000,0.000000,0.000000,0.000000,0.000000|eff|0.000000,0.000000,0.000000,0.000000,0.000000,0.000000
cobot_dynamixel_driver/joint_states|name|J1,J2,J3,J4,J5,J6|pos|-1.526147,-1.267658,1.296275,0.001014,-1.477991,-0.000083|vel|0.000000,-0.000000,0.000000,0.000000,0.000000,0.000000|eff|0.000000,0.000000,0.000000,0.000000,0.000000,0.000000
cobot_dynamixel_driver/joint_states|name|J1,J2,J3,J4,J5,J6|pos|-1.526147,-1.267658,1.296275,0.001014,-1.477991,-0.000083|vel|0.000000,-0.000000,0.000000,0.000000,0.000000,0.000000|eff|0.000000,0.000000,0.000000,0.000000,0.000000,0.000000
cobot_dynamixel_driver/joint_states|name|J1,J2,J3,J4,J5,J6|pos|-1.526147,-1.267658,1.296275,0.001014,-1.477991,-0.000083|vel|0.000000,-0.000000,0.000000,0.000000,0.000000,0.000000|eff|0.000000,0.000000,0.000000,0.000000,0.000000,0.000000
cobot_dynamixel_driver/joint_states|name|J1,J2,J3,J4,J5,J6|pos|-1.526147,-1.267658,1.296275,0.001014,-1.477991,-0.000083|vel|0.000000,-0.000000,0.000000,0.000000,0.000000,0.000000|eff|0.000000,0.000000,0.000000,0.000000,0.000000,0.000000
cobot_dynamixel_driver/joint_states|name|J1,J2,J3,J4,J5,J6|pos|-1.526147,-1.267658,1.296275,0.001014,-1.477991,-0.000083|vel|0.000000,-0.000000,0.000000,0.000000,0.000000,0.000000|eff|0.000000,0.000000,0.000000,0.000000,0.000000,0.000000
cobot_dynamixel_driver/joint_states|name|J1,J2,J3,J4,J5,J6|pos|-1.526147,-1.267658,1.296275,0.001014,-1.477991,-0.000083|vel|0.000000,-0.000000,0.000000,0.000000,0.000000,0.000000|eff|0.000000,0.000000,0.000000,0.000000,0.000000,0.000000
cobot_dynamixel_driver/joint_states|name|J1,J2,J3,J4,J5,J6|pos|-1.526147,-1.267658,1.296275,0.001014,-1.477991,-0.000083|vel|0.000000,-0.000000,0.000000,0.000000,0.000000,0.000000|eff|0.000000,0.000000,0.000000,0.000000,0.000000,0.000000
cobot_dynamixel_driver/joint_states|name|J1,J2,J3,J4,J5,J6|pos|-1.526147,-1.267658,1.296275,0.001014,-1.477991,-0.000083|vel|0.000000,-0.000000,0.000000,0.000000,0.000000,0.000000|eff|0.000000,0.000000,0.000000,0.000000,0.000000,0.000000
cobot_dynamixel_driver/joint_states|name|J1,J2,J3,J4,J5,J6|pos|-1.526147,-1.267658,1.296275,0.001014,-1.477991,-0.000083|vel|0.000000,-0.000000,0.000000,0.000000,0.000000,0.000000|eff|0.000000,0.000000,0.000000,0.000000,0.000000,0.000000
cobot_dynamixel_driver/joint_states|name|J1,J2,J3,J4,J5,J6|pos|-1.526147,-1.267658,1.296275,0.001014,-1.477991,-0.000083|vel|0.000000,-0.000000,0.000000,0.000000,0.000000,0.000000|eff|0.000000,0.000000,0.000000,0.000000,0.000000,0.000000
cobot_dynamixel_driver/joint_states|name|J1,J2,J3,J4,J5,J6|pos|-1.526147,-1.267658,1.296275,0.001014,-1.477991,-0.000083|vel|0.000000,-0.000000,0.000000,0.000000,0.000000,0.000000|eff|0.000000,0.000000,0.000000,0.000000,0.000000,0.000000
cobot_dynamixel_driver/joint_states|name|J1,J2,J3,J4,J5,J6|pos|-1.526147,-1.267658,1.296275,0.001014,-1.477991,-0.000083|vel|0.000000,-0.000000,0.000000,0.000000,0.000000,0.000000|eff|0.000000,0.000000,0.000000,0.000000,0.000000,0.000000
cobot_dynamixel_driver/joint_states|name|J1,J2,J3,J4,J5,J6|pos|-1.526147,-1.267658,1.296275,0.001014,-1.477991,-0.000083|vel|0.000000,-0.000000,0.000000,0.000000,0.000000,0.000000|eff|0.000000,0.000000,0.000000,0.000000,0.000000,0.000000
cobot_dynamixel_driver/joint_states|name|J1,J2,J3,J4,J5,J6|pos|-1.526147,-1.267658,1.296275,0.001014,-1.477991,-0.000083|vel|0.000000,-0.000000,0.000000,0.000000,0.000000,0.000000|eff|0.000000,0.000000,0.000000,0.000000,0.000000,0.000000
cobot_dynamixel_driver/joint_states|name|J1,J2,J3,J4,J5,J6|pos|-1.526147,-1.267658,1.296275,0.001014,-1.477991,-0.000083|vel|0.000000,-0.000000,0.000000,0.000000,0.000000,0.000000|eff|0.000000,0.000000,0.000000,0.000000,0.000000,0.000000
cobot_dynamixel_driver/joint_states|name|J1,J2,J3,J4,J5,J6|pos|-1.526147,-1.267658,1.296275,0.001014,-1.477991,-0.000083|vel|0.000000,-0.000000,0.000000,0.000000,0.000000,0.000000|eff|0.000000,0.000000,0.000000,0.000000,0.000000,0.000000
cobot_dynamixel_driver/joint_states|name|J1,J2,J3,J4,J5,J6|pos|-1.526147,-1.267658,1.296275,0.001014,-1.477991,-0.000083|vel|0.000000,-0.000000,0.000000,0.000000,0.000000,0.000000|eff|0.000000,0.000000,0.000000,0.000000,0.000000,0.000000
cobot_dynamixel_driver/joint_states|name|J1,J2,J3,J4,J5,J6|pos|-1.526147,-1.267658,1.296275,0.001014,-1.477991,-0.000083|vel|0.000000,-0.000000,0.000000,0.000000,0.000000,0.000000|eff|0.000000,0.000000,0.000000,0.000000,0.000000,0.000000
cobot_dynamixel_driver/joint_states|name|J1,J2,J3,J4,J5,J6|pos|-1.526147,-1.267658,1.296275,0.001014,-1.477991,-0.000083|vel|0.000000,-0.000000,0.000000,0.000000,0.000000,0.000000|eff|0.000000,0.000000,0.000000,0.000000,0.000000,0.000000
cobot_dynamixel_driver/joint_states|name|J1,J2,J3,J4,J5,J6|pos|-1.526147,-1.267658,1.296275,0.001014,-1.477991,-0.000083|vel|0.000000,-0.000000,0.000000,0.000000,0.000000,0.000000|eff|0.000000,0.000000,0.000000,0.000000,0.000000,0.000000
cobot_dynamixel_driver/joint_states|name|J1,J2,J3,J4,J5,J6|pos|-1.526147,-1.267658,1.296275,0.001014,-1.477991,-0.000083|vel|0.000000,-0.000000,0.000000,0.000000,0.000000,0.000000|eff|0.000000,0.000000,0.000000,0.000000,0.000000,0.000000
cobot_dynamixel_driver/joint_states|name|J1,J2,J3,J4,J5,J6|pos|-1.526147,-1.267658,1.296275,0.001014,-1.477991,-0.000083|vel|0.000000,-0.000000,0.000000,0.000000,0.000000,0.000000|eff|0.000000,0.000000,0.000000,0.000000,0.000000,0.000000
cobot_dynamixel_driver/joint_states|name|J1,J2,J3,J4,J5,J6|pos|-1.526147,-1.267658,1.296275,0.001014,-1.477991,-0.000083|vel|0.000000,-0.000000,0.000000,0.000000,0.000000,0.000000|eff|0.000000,0.000000,0.000000,0.000000,0.000000,0.000000
cobot_dynamixel_driver/joint_states|name|J1,J2,J3,J4,J5,J6|pos|-1.526147,-1.267658,1.296275,0.001014,-1.477991,-0.000083|vel|0.000000,-0.000000,0.000000,0.000000,0.000000,0.000000|eff|0.000000,0.000000,0.000000,0.000000,0.000000,0.000000
cobot_dynamixel_driver/joint_states|name|J1,J2,J3,J4,J5,J6|pos|-1.526147,-1.267658,1.296275,0.001014,-1.477991,-0.000083|vel|0.000000,-0.000000,0.000000,0.000000,0.000000,0.000000|eff|0.000000,0.000000,0.000000,0.000000,0.000000,0.000000
cobot_dynamixel_driver/joint_states|name|J1,J2,J3,J4,J5,J6|pos|-1.526147,-1.267658,1.296275,0.001014,-1.477991,-0.000083|vel|0.000000,-0.000000,0.000000,0.000000,0.000000,0.000000|eff|0.000000,0.000000,0.000000,0.000000,0.000000,0.000000
cobot_dynamixel_driver/joint_states|name|J1,J2,J3,J4,J5,J6|pos|-1.526147,-1.267658,1.296275,0.001014,-1.477991,-0.000083|vel|0.000000,-0.000000,0.000000,0.000000,0.000000,0.000000|eff|0.000000,0.000000,0.000000,0.000000,0.000000,0.000000
cobot_dynamixel_driver/joint_states|name|J1,J2,J3,J4,J5,J6|pos|-1.526147,-1.267658,1.296275,0.001014,-1.477991,-0.000083|vel|0.000000,-0.000000,0.000000,0.000000,0.000000,0.000000|eff|0.000000,0.000000,0.000000,0.000000,0.000000,0.000000
cobot_dynamixel_driver/joint_states|name|J1,J2,J3,J4,J5,J6|pos|-1.526147,-1.267658,1.296275,0.001014,-1.477991,-0.000083|vel|0.000000,-0.000000,0.000000,0.000000,0.000000,0.000000|eff|0.000000,0.000000,0.000000,0.000000,0.000000,0.000000
cobot_dynamixel_driver/joint_states|name|J1,J2,J3,J4,J5,J6|pos|-1.526147,-1.267658,1.296275,0.001014,-1.477991,-0.000083|vel|0.000000,-0.000000,0.000000,0.000000,0.000000,0.000000|eff|0.000000,0.000000,0.000000,0.000000,0.000000,0.000000
cobot_dynamixel_driver/joint_states|name|J1,J2,J3,J4,J5,J6|pos|-1.526147,-1.267658,1.296275,0.001014,-1.477991,-0.000083|vel|0.000000,-0.000000,0.000000,0.000000,0.000000,0.000000|eff|0.000000,0.000000,0.000000,0.000000,0.000000,0.000000
cobot_dynamixel_driver/joint_states|name|J1,J2,J3,J4,J5,J6|pos|-1.526147,-1.267658,1.296275,0.001014,-1.477991,-0.000083|vel|0.000000,-0.000000,0.000000,0.000000,0.000000,0.000000|eff|0.000000,0.000000,0.000000,0.000000,0.000000,0.000000
cobot_dynamixel_driver/joint_states|name|J1,J2,J3,J4,J5,J6|pos|-1.526147,-1.267658,1.296275,0.001014,-1.477991,-0.000083|vel|0.000000,-0.000000,0.000000,0.000000,0.000000,0.000000|eff|0.000000,0.000000,0.000000,0.000000,0.000000,0.000000
cobot_dynamixel_driver/joint_states|name|J1,J2,J3,J4,J5,J6|pos|-1.526147,-1.267658,1.296275,0.001014,-1.477991,-0.000083|vel|0.000000,-0.000000,0.000000,0.000000,0.000000,0.000000|eff|0.000000,0.000000,0.000000,0.000000,0.000000,0.000000
cobot_dynamixel_driver/joint_states|name|J1,J2,J3,J4,J5,J6|pos|-1.526147,-1.267658,1.296275,0.001014,-1.477991,-0.000083|vel|0.000000,-0.000000,0.000000,0.000000,0.000000,0.000000|eff|0.000000,0.000000,0.000000,0.000000,0.000000,0.000000
cobot_dynamixel_driver/joint_states|name|J1,J2,J3,J4,J5,J6|pos|-1.526147,-1.267658,1.296275,0.001014,-1.477991,-0.000083|vel|0.000000,-0.000000,0.000000,0.000000,0.000000,0.000000|eff|0.000000,0.000000,0.000000,0.000000,0.000000,0.000000
cobot_dynamixel_driver/joint_states|name|J1,J2,J3,J4,J5,J6|pos|-1.526147,-1.267658,1.296275,0.001014,-1.477991,-0.000083|vel|0.000000,-0.000000,0.000000,0.000000,0.000000,0.000000|eff|0.000000,0.000000,0.000000,0.000000,0.000000,0.000000
cobot_dynamixel_driver/joint_states|name|J1,J2,J3,J4,J5,J6|pos|-1.526147,-1.267658,1.296275,0.001014,-1.477991,-0.000083|vel|0.000000,-0.000000,0.000000,0.000000,0.000000,0.000000|eff|0.000000,0.000000,0.000000,0.000000,0.000000,0.000000
cobot_dynamixel_driver/joint_states|name|J1,J2,J3,J4,J5,J6|pos|-1.526147,-1.267658,1.296275,0.001014,-1.477991,-0.000083|vel|0.000000,-0.000000,0.000000,0.000000,0.000000,0.000000|eff|0.000000,0.000000,0.000000,0.000000,0.000000,0.000000
cobot_dynamixel_driver/joint_states|name|J1,J2,J3,J4,J5,J6|pos|-1.526147,-1.267658,1.296275,0.001014,-1.477991,-0.000083|vel|0.000000,-0.000000,0.000000,0.000000,0.000000,0.000000|eff|0.000000,0.000000,0.000000,0.000000,0.000000,0.000000
cobot_dynamixel_driver/joint_states|name|J1,J2,J3,J4,J5,J6|pos|-1.526147,-1.267658,1.296275,0.001014,-1.477991,-0.000083|vel|0.000000,-0.000000,0.000000,0.000000,0.000000,0.000000|eff|0.000000,0.000000,0.000000,0.000000,0.000000,0.000000
cobot_dynamixel_driver/joint_states|name|J1,J2,J3,J4,J5,J6|pos|-1.526147,-1.267658,1.296275,0.001014,-1.477991,-0.000083|vel|0.000000,-0.000000,0.000000,0.000000,0.000000,0.000000|eff|0.000000,0.000000,0.000000,0.000000,0.000000,0.000000
cobot_dynamixel_driver/joint_states|name|J1,J2,J3,J4,J5,J6|pos|-1.526147,-1.267658,1.296275,0.001014,-1.477991,-0.000083|vel|0.000000,-0.000000,0.000000,0.000000,0.000000,0.000000|eff|0.000000,0.000000,0.000000,0.000000,0.000000,0.000000
cobot_dynamixel_driver/joint_states|name|J1,J2,J3,J4,J5,J6|pos|-1.526147,-1.267658,1.296275,0.001014,-1.477991,-0.000083|vel|0.000000,-0.000000,0.000000,0.000000,0.000000,0.000000|eff|0.000000,0.000000,0.000000,0.000000,0.000000,0.000000
cobot_dynamixel_driver/joint_states|name|J1,J2,J3,J4,J5,J6|pos|-1.526147,-1.267658,1.296275,0.001014,-1.477991,-0.000083|vel|0.000000,-0.000000,0.000000,0.000000,0.000000,0.000000|eff|0.000000,0.000000,0.000000,0.000000,0.000000,0.000000
cobot_dynamixel_driver/joint_states|name|J1,J2,J3,J4,J5,J6|pos|-1.526147,-1.267658,1.296275,0.001014,-1.477991,-0.000083|vel|0.000000,-0.000000,0.000000,0.000000,0.000000,0.000000|eff|0.000000,0.000000,0.000000,0.000000,0.000000,0.000000
cobot_dynamixel_driver/joint_states|name|J1,J2,J3,J4,J5,J6|pos|-1.526147,-1.267658,1.296275,0.001014,-1.477991,-0.000083|vel|0.000000,-0.000000,0.000000,0.000000,0.000000,0.000000|eff|0.000000,0.000000,0.000000,0.000000,0.000000,0.000000
cobot_dynamixel_driver/joint_states|name|J1,J2,J3,J4,J5,J6|pos|-1.526147,-1.267658,1.296275,0.001014,-1.477991,-0.000083|vel|0.000000,-0.000000,0.000000,0.000000,0.000000,0.000000|eff|0.000000,0.000000,0.000000,0.000000,0.000000,0.000000
cobot_dynamixel_driver/joint_states|name|J1,J2,J3,J4,J5,J6|pos|-1.526147,-1.267658,1.296275,0.001014,-1.477991,-0.000083|vel|0.000000,-0.000000,0.000000,0.000000,0.000000,0.000000|eff|0.000000,0.000000,0.000000,0.000000,0.000000,0.000000
cobot_dynamixel_driver/joint_states|name|J1,J2,J3,J4,J5,J6|pos|-1.526147,-1.267658,1.296275,0.001014,-1.477991,-0.000083|vel|0.000000,-0.000000,0.000000,0.000000,0.000000,0.000000|eff|0.000000,0.000000,0.000000,0.000000,0.000000,0.000000
cobot_dynamixel_driver/joint_states|name|J1,J2,J3,J4,J5,J6|pos|-1.526147,-1.267658,1.296275,0.001014,-1.477991,-0.000083|vel|0.000000,-0.000000,0.000000,0.000000,0.000000,0.000000|eff|0.000000,0.000000,0.000000,0.000000,0.000000,0.000000
cobot_dynamixel_driver/joint_states|name|J1,J2,J3,J4,J5,J6|pos|-1.526147,-1.267658,1.296275,0.001014,-1.477991,-0.000083|vel|0.000000,-0.000000,0.000000,0.000000,0.000000,0.000000|eff|0.000000,0.000000,0.000000,0.000000,0.000000,0.000000
cobot_dynamixel_driver/joint_states|name|J1,J2,J3,J4,J5,J6|pos|-1.526147,-1.267658,1.296275,0.001014,-1.477991,-0.000083|vel|0.000000,-0.000000,0.000000,0.000000,0.000000,0.000000|eff|0.000000,0.000000,0.000000,0.000000,0.000000,0.000000
cobot_dynamixel_driver/joint_states|name|J1,J2,J3,J4,J5,J6|pos|-1.526147,-1.267658,1.296275,0.001014,-1.477991,-0.000083|vel|0.000000,-0.000000,0.000000,0.000000,0.000000,0.000000|eff|0.000000,0.000000,0.000000,0.000000,0.000000,0.000000
cobot_dynamixel_driver/joint_states|name|J1,J2,J3,J4,J5,J6|pos|-1.526147,-1.267658,1.296275,0.001014,-1.477991,-0.000083|vel|0.000000,-0.000000,0.000000,0.000000,0.000000,0.000000|eff|0.000000,0.000000,0.000000,0.000000,0.000000,0.000000
cobot_dynamixel_driver/joint_states|name|J1,J2,J3,J4,J5,J6|pos|-1.526147,-1.267658,1.296275,0.001014,-1.477991,-0.000083|vel|0.000000,-0.000000,0.000000,0.000000,0.000000,0.000000|eff|0.000000,0.000000,0.000000,0.000000,0.000000,0.000000
cobot_dynamixel_driver/joint_states|name|J1,J2,J3,J4,J5,J6|pos|-1.526147,-1.267658,1.296275,0.001014,-1.477991,-0.000083|vel|0.000000,-0.000000,0.000000,0.000000,0.000000,0.000000|eff|0.000000,0.000000,0.000000,0.000000,0.000000,0.000000
cobot_dynamixel_driver/joint_states|name|J1,J2,J3,J4,J5,J6|pos|-1.526147,-1.267658,1.296275,0.001014,-1.477991,-0.000083|vel|0.000000,-0.000000,0.000000,0.000000,0.000000,0.000000|eff|0.000000,0.000000,0.000000,0.000000,0.000000,0.000000
cobot_dynamixel_driver/joint_states|name|J1,J2,J3,J4,J5,J6|pos|-1.526147,-1.267658,1.296275,0.001014,-1.477991,-0.000083|vel|0.000000,-0.000000,0.000000,0.000000,0.000000,0.000000|eff|0.000000,0.000000,0.000000,0.000000,0.000000,0.000000
cobot_dynamixel_driver/joint_states|name|J1,J2,J3,J4,J5,J6|pos|-1.526147,-1.267658,1.296275,0.001014,-1.477991,-0.000083|vel|0.000000,-0.000000,0.000000,0.000000,0.000000,0.000000|eff|0.000000,0.000000,0.000000,0.000000,0.000000,0.000000
cobot_dynamixel_driver/joint_states|name|J1,J2,J3,J4,J5,J6|pos|-1.526147,-1.267658,1.296275,0.001014,-1.477991,-0.000083|vel|0.000000,-0.000000,0.000000,0.000000,0.000000,0.000000|eff|0.000000,0.000000,0.000000,0.000000,0.000000,0.000000
cobot_dynamixel_driver/joint_states|name|J1,J2,J3,J4,J5,J6|pos|-1.526147,-1.267658,1.296275,0.001014,-1.477991,-0.000083|vel|0.000000,-0.000000,0.000000,0.000000,0.000000,0.000000|eff|0.000000,0.000000,0.000000,0.000000,0.000000,0.000000
cobot_dynamixel_driver/joint_states|name|J1,J2,J3,J4,J5,J6|pos|-1.526147,-1.267658,1.296275,0.001014,-1.477991,-0.000083|vel|0.000000,-0.000000,0.000000,0.000000,0.000000,0.000000|eff|0.000000,0.000000,0.000000,0.000000,0.000000,0.000000
cobot_dynamixel_driver/joint_states|name|J1,J2,J3,J4,J5,J6|pos|-1.526147,-1.267658,1.296275,0.001014,-1.477991,-0.000083|vel|0.000000,-0.000000,0.000000,0.000000,0.000000,0.000000|eff|0.000000,0.000000,0.000000,0.000000,0.000000,0.000000
cobot_dynamixel_driver/joint_states|name|J1,J2,J3,J4,J5,J6|pos|-1.526147,-1.267658,1.296275,0.001014,-1.477991,-0.000083|vel|0.000000,-0.000000,0.000000,0.000000,0.000000,0.000000|eff|0.000000,0.000000,0.000000,0.000000,0.000000,0.000000
cobot_dynamixel_driver/joint_states|name|J1,J2,J3,J4,J5,J6|pos|-1.526147,-1.267658,1.296275,0.001014,-1.477991,-0.000083|vel|0.000000,-0.000000,0.000000,0.000000,0.000000,0.000000|eff|0.000000,0.000000,0.000000,0.000000,0.000000,0.000000
cobot_dynamixel_driver/joint_states|name|J1,J2,J3,J4,J5,J6|pos|-1.526147,-1.267658,1.296275,0.001014,-1.477991,-0.000083|vel|0.000000,-0.000000,0.000000,0.000000,0.000000,0.000000|eff|0.000000,0.000000,0.000000,0.000000,0.000000,0.000000
cobot_dynamixel_driver/joint_states|name|J1,J2,J3,J4,J5,J6|pos|-1.526147,-1.267658,1.296275,0.001014,-1.477991,-0.000083|vel|0.000000,-0.000000,0.000000,0.000000,0.000000,0.000000|eff|0.000000,0.000000,0.000000,0.000000,0.000000,0.000000
cobot_dynamixel_driver/joint_states|name|J1,J2,J3,J4,J5,J6|pos|-1.526147,-1.267658,1.296275,0.001014,-1.477991,-0.000083|vel|0.000000,-0.000000,0.000000,0.000000,0.000000,0.000000|eff|0.000000,0.000000,0.000000,0.000000,0.000000,0.000000
cobot_dynamixel_driver/joint_states|name|J1,J2,J3,J4,J5,J6|pos|-1.526147,-1.267658,1.296275,0.001014,-1.477991,-0.000083|vel|0.000000,-0.000000,0.000000,0.000000,0.000000,0.000000|eff|0.000000,0.000000,0.000000,0.000000,0.000000,0.000000
cobot_dynamixel_driver/joint_states|name|J1,J2,J3,J4,J5,J6|pos|-1.526147,-1.267658,1.296275,0.001014,-1.477991,-0.000083|vel|0.000000,-0.000000,0.000000,0.000000,0.000000,0.000000|eff|0.000000,0.000000,0.000000,0.000000,0.000000,0.000000
cobot_dynamixel_driver/joint_states|name|J1,J2,J3,J4,J5,J6|pos|-1.526147,-1.267658,1.296275,0.001014,-1.477991,-0.000083|vel|0.000000,-0.000000,0.000000,0.000000,0.000000,0.000000|eff|0.000000,0.000000,0.000000,0.000000,0.000000,0.000000
cobot_dynamixel_driver/joint_states|name|J1,J2,J3,J4,J5,J6|pos|-1.526147,-1.267658,1.296275,0.001014,-1.477991,-0.000083|vel|0.000000,-0.000000,0.000000,0.000000,0.000000,0.000000|eff|0.000000,0.000000,0.000000,0.000000,0.000000,0.000000
cobot_dynamixel_driver/joint_states|name|J1,J2,J3,J4,J5,J6|pos|-1.526147,-1.267658,1.296275,0.001014,-1.477991,-0.000083|vel|0.000000,-0.000000,0.000000,0.000000,0.000000,0.000000|eff|0.000000,0.000000,0.000000,0.000000,0.000000,0.000000
cobot_dynamixel_driver/joint_states|name|J1,J2,J3,J4,J5,J6|pos|-1.526147,-1.267658,1.296275,0.001014,-1.477991,-0.000083|vel|0.000000,-0.000000,0.000000,0.000000,0.000000,0.000000|eff|0.000000,0.000000,0.000000,0.000000,0.000000,0.000000
cobot_dynamixel_driver/joint_states|name|J1,J2,J3,J4,J5,J6|pos|-1.526147,-1.267658,1.296275,0.001014,-1.477991,-0.000083|vel|0.000000,-0.000000,0.000000,0.000000,0.000000,0.000000|eff|0.000000,0.000000,0.000000,0.000000,0.000000,0.000000
cobot_dynamixel_driver/joint_states|name|J1,J2,J3,J4,J5,J6|pos|-1.526147,-1.267658,1.296275,0.001014,-1.477991,-0.000083|vel|0.000000,-0.000000,0.000000,0.000000,0.000000,0.000000|eff|0.000000,0.000000,0.000000,0.000000,0.000000,0.000000
cobot_dynamixel_driver/joint_states|name|J1,J2,J3,J4,J5,J6|pos|-1.526147,-1.267658,1.296275,0.001014,-1.477991,-0.000083|vel|0.000000,-0.000000,0.000000,0.000000,0.000000,0.000000|eff|0.000000,0.000000,0.000000,0.000000,0.000000,0.000000
cobot_dynamixel_driver/joint_states|name|J1,J2,J3,J4,J5,J6|pos|-1.526147,-1.267658,1.296275,0.001014,-1.477991,-0.000083|vel|0.000000,-0.000000,0.000000,0.000000,0.000000,0.000000|eff|0.000000,0.000000,0.000000,0.000000,0.000000,0.000000
cobot_dynamixel_driver/joint_states|name|J1,J2,J3,J4,J5,J6|pos|-1.526147,-1.267658,1.296275,0.001014,-1.477991,-0.000083|vel|0.000000,-0.000000,0.000000,0.000000,0.000000,0.000000|eff|0.000000,0.000000,0.000000,0.000000,0.000000,0.000000
cobot_dynamixel_driver/joint_states|name|J1,J2,J3,J4,J5,J6|pos|-1.526147,-1.267658,1.296275,0.001014,-1.477991,-0.000083|vel|0.000000,-0.000000,0.000000,0.000000,0.000000,0.000000|eff|0.000000,0.000000,0.000000,0.000000,0.000000,0.000000
cobot_dynamixel_driver/joint_states|name|J1,J2,J3,J4,J5,J6|pos|-1.526147,-1.267658,1.296275,0.001014,-1.477991,-0.000083|vel|0.000000,-0.000000,0.000000,0.000000,0.000000,0.000000|eff|0.000000,0.000000,0.000000,0.000000,0.000000,0.000000
cobot_dynamixel_driver/joint_states|name|J1,J2,J3,J4,J5,J6|pos|-1.526147,-1.267658,1.296275,0.001014,-1.477991,-0.000083|vel|0.000000,-0.000000,0.000000,0.000000,0.000000,0.000000|eff|0.000000,0.000000,0.000000,0.000000,0.000000,0.000000
cobot_dynamixel_driver/joint_states|name|J1,J2,J3,J4,J5,J6|pos|-1.526147,-1.267658,1.296275,0.001014,-1.477991,-0.000083|vel|0.000000,-0.000000,0.000000,0.000000,0.000000,0.000000|eff|0.000000,0.000000,0.000000,0.000000,0.000000,0.000000
cobot_dynamixel_driver/joint_states|name|J1,J2,J3,J4,J5,J6|pos|-1.526147,-1.267658,1.296275,0.001014,-1.477991,-0.000083|vel|0.000000,-0.000000,0.000000,0.000000,0.000000,0.000000|eff|0.000000,0.000000,0.000000,0.000000,0.000000,0.000000
cobot_dynamixel_driver/joint_states|name|J1,J2,J3,J4,J5,J6|pos|-1.526147,-1.267658,1.296275,0.001014,-1.477991,-0.000083|vel|0.000000,-0.000000,0.000000,0.000000,0.000000,0.000000|eff|0.000000,0.000000,0.000000,0.000000,0.000000,0.000000
cobot_dynamixel_driver/joint_states|name|J1,J2,J3,J4,J5,J6|pos|-1.526147,-1.267658,1.296275,0.001014,-1.477991,-0.000083|vel|0.000000,-0.000000,0.000000,0.000000,0.000000,0.000000|eff|0.000000,0.000000,0.000000,0.000000,0.000000,0.000000
cobot_dynamixel_driver/joint_states|name|J1,J2,J3,J4,J5,J6|pos|-1.526147,-1.267658,1.296275,0.001014,-1.477991,-0.000083|vel|0.000000,-0.000000,0.000000,0.000000,0.000000,0.000000|eff|0.000000,0.000000,0.000000,0.000000,0.000000,0.000000
cobot_dynamixel_driver/joint_states|name|J1,J2,J3,J4,J5,J6|pos|-1.526147,-1.267658,1.296275,0.001014,-1.477991,-0.000083|vel|0.000000,-0.000000,0.000000,0.000000,0.000000,0.000000|eff|0.000000,0.000000,0.000000,0.000000,0.000000,0.000000
cobot_dynamixel_driver/joint_states|name|J1,J2,J3,J4,J5,J6|pos|-1.526147,-1.267658,1.296275,0.001014,-1.477991,-0.000083|vel|0.000000,-0.000000,0.000000,0.000000,0.000000,0.000000|eff|0.000000,0.000000,0.000000,0.000000,0.000000,0.000000
cobot_dynamixel_driver/joint_states|name|J1,J2,J3,J4,J5,J6|pos|-1.526147,-1.267658,1.296275,0.001014,-1.477991,-0.000083|vel|0.000000,-0.000000,0.000000,0.000000,0.000000,0.000000|eff|0.000000,0.000000,0.000000,0.000000,0.000000,0.000000
cobot_dynamixel_driver/joint_states|name|J1,J2,J3,J4,J5,J6|pos|-1.526147,-1.267658,1.296275,0.001014,-1.477991,-0.000083|vel|0.000000,-0.000000,0.000000,0.000000,0.000000,0.000000|eff|0.000000,0.000000,0.000000,0.000000,0.000000,0.000000
cobot_dynamixel_driver/joint_states|name|J1,J2,J3,J4,J5,J6|pos|-1.526147,-1.267658,1.296275,0.001014,-1.477991,-0.000083|vel|0.000000,-0.000000,0.000000,0.000000,0.000000,0.000000|eff|0.000000,0.000000,0.000000,0.000000,0.000000,0.000000
cobot_dynamixel_driver/joint_states|name|J1,J2,J3,J4,J5,J6|pos|-1.526147,-1.267658,1.296275,0.001014,-1.477991,-0.000083|vel|0.000000,-0.000000,0.000000,0.000000,0.000000,0.000000|eff|0.000000,0.000000,0.000000,0.000000,0.000000,0.000000
cobot_dynamixel_driver/joint_states|name|J1,J2,J3,J4,J5,J6|pos|-1.526147,-1.267658,1.296275,0.001014,-1.477991,-0.000083|vel|0.000000,-0.000000,0.000000,0.000000,0.000000,0.000000|eff|0.000000,0.000000,0.000000,0.000000,0.000000,0.000000
cobot_dynamixel_driver/joint_states|name|J1,J2,J3,J4,J5,J6|pos|-1.526147,-1.267658,1.296275,0.001014,-1.477991,-0.000083|vel|0.000000,-0.000000,0.000000,0.000000,0.000000,0.000000|eff|0.000000,0.000000,0.000000,0.000000,0.000000,0.000000
cobot_dynamixel_driver/joint_states|name|J1,J2,J3,J4,J5,J6|pos|-1.526147,-1.267658,1.296275,0.001014,-1.477991,-0.000083|vel|0.000000,-0.000000,0.000000,0.000000,0.000000,0.000000|eff|0.000000,0.000000,0.000000,0.000000,0.000000,0.000000
cobot_dynamixel_driver/joint_states|name|J1,J2,J3,J4,J5,J6|pos|-1.526147,-1.267658,1.296275,0.001014,-1.477991,-0.000083|vel|0.000000,-0.000000,0.000000,0.000000,0.000000,0.000000|eff|0.000000,0.000000,0.000000,0.000000,0.000000,0.000000
cobot_dynamixel_driver/joint_states|name|J1,J2,J3,J4,J5,J6|pos|-1.526147,-1.267658,1.296275,0.001014,-1.477991,-0.000083|vel|0.000000,-0.000000,0.000000,0.000000,0.000000,0.000000|eff|0.000000,0.000000,0.000000,0.000000,0.000000,0.000000
cobot_dynamixel_driver/joint_states|name|J1,J2,J3,J4,J5,J6|pos|-1.526147,-1.267658,1.296275,0.001014,-1.477991,-0.000083|vel|0.000000,-0.000000,0.000000,0.000000,0.000000,0.000000|eff|0.000000,0.000000,0.000000,0.000000,0.000000,0.000000
cobot_dynamixel_driver/joint_states|name|J1,J2,J3,J4,J5,J6|pos|-1.526147,-1.267658,1.296275,0.001014,-1.477991,-0.000083|vel|0.000000,-0.000000,0.000000,0.000000,0.000000,0.000000|eff|0.000000,0.000000,0.000000,0.000000,0.000000,0.000000
cobot_dynamixel_driver/joint_states|name|J1,J2,J3,J4,J5,J6|pos|-1.526147,-1.267658,1.296275,0.001014,-1.477991,-0.000083|vel|0.000000,-0.000000,0.000000,0.000000,0.000000,0.000000|eff|0.000000,0.000000,0.000000,0.000000,0.000000,0.000000
cobot_dynamixel_driver/joint_states|name|J1,J2,J3,J4,J5,J6|pos|-1.526147,-1.267658,1.296275,0.001014,-1.477991,-0.000083|vel|0.000000,-0.000000,0.000000,0.000000,0.000000,0.000000|eff|0.000000,0.000000,0.000000,0.000000,0.000000,0.000000
cobot_dynamixel_driver/joint_states|name|J1,J2,J3,J4,J5,J6|pos|-1.526147,-1.267658,1.296275,0.001014,-1.477991,-0.000083|vel|0.000000,-0.000000,0.000000,0.000000,0.000000,0.000000|eff|0.000000,0.000000,0.000000,0.000000,0.000000,0.000000
cobot_dynamixel_driver/joint_states|name|J1,J2,J3,J4,J5,J6|pos|-1.526147,-1.267658,1.296275,0.001014,-1.477991,-0.000083|vel|0.000000,-0.000000,0.000000,0.000000,0.000000,0.000000|eff|0.000000,0.000000,0.000000,0.000000,0.000000,0.000000
cobot_dynamixel_driver/joint_states|name|J1,J2,J3,J4,J5,J6|pos|-1.526147,-1.267658,1.296275,0.001014,-1.477991,-0.000083|vel|0.000000,-0.000000,0.000000,0.000000,0.000000,0.000000|eff|0.000000,0.000000,0.000000,0.000000,0.000000,0.000000
cobot_dynamixel_driver/joint_states|name|J1,J2,J3,J4,J5,J6|pos|-1.526147,-1.267658,1.296275,0.001014,-1.477991,-0.000083|vel|0.000000,-0.000000,0.000000,0.000000,0.000000,0.000000|eff|0.000000,0.000000,0.000000,0.000000,0.000000,0.000000
cobot_dynamixel_driver/joint_states|name|J1,J2,J3,J4,J5,J6|pos|-1.526147,-1.267658,1.296275,0.001014,-1.477991,-0.000083|vel|0.000000,-0.000000,0.000000,0.000000,0.000000,0.000000|eff|0.000000,0.000000,0.000000,0.000000,0.000000,0.000000
cobot_dynamixel_driver/joint_states|name|J1,J2,J3,J4,J5,J6|pos|-1.526147,-1.267658,1.296275,0.001014,-1.477991,-0.000083|vel|0.000000,-0.000000,0.000000,0.000000,0.000000,0.000000|eff|0.000000,0.000000,0.000000,0.000000,0.000000,0.000000
cobot_dynamixel_driver/joint_states|name|J1,J2,J3,J4,J5,J6|pos|-1.526147,-1.267658,1.296275,0.001014,-1.477991,-0.000083|vel|0.000000,-0.000000,0.000000,0.000000,0.000000,0.000000|eff|0.000000,0.000000,0.000000,0.000000,0.000000,0.000000
cobot_dynamixel_driver/joint_states|name|J1,J2,J3,J4,J5,J6|pos|-1.526147,-1.267658,1.296275,0.001014,-1.477991,-0.000083|vel|0.000000,-0.000000,0.000000,0.000000,0.000000,0.000000|eff|0.000000,0.000000,0.000000,0.000000,0.000000,0.000000
cobot_dynamixel_driver/joint_states|name|J1,J2,J3,J4,J5,J6|pos|-1.526147,-1.267658,1.296275,0.001014,-1.477991,-0.000083|vel|0.000000,-0.000000,0.000000,0.000000,0.000000,0.000000|eff|0.000000,0.000000,0.000000,0.000000,0.000000,0.000000
cobot_dynamixel_driver/joint_states|name|J1,J2,J3,J4,J5,J6|pos|-1.526147,-1.267658,1.296275,0.001014,-1.477991,-0.000083|vel|0.000000,-0.000000,0.000000,0.000000,0.000000,0.000000|eff|0.000000,0.000000,0.000000,0.000000,0.000000,0.000000
cobot_dynamixel_driver/joint_states|name|J1,J2,J3,J4,J5,J6|pos|-1.526147,-1.267658,1.296275,0.001014,-1.477991,-0.000083|vel|0.000000,-0.000000,0.000000,0.000000,0.000000,0.000000|eff|0.000000,0.000000,0.000000,0.000000,0.000000,0.000000
cobot_dynamixel_driver/joint_states|name|J1,J2,J3,J4,J5,J6|pos|-1.526147,-1.267658,1.296275,0.001014,-1.477991,-0.000083|vel|0.000000,-0.000000,0.000000,0.000000,0.000000,0.000000|eff|0.000000,0.000000,0.000000,0.000000,0.000000,0.000000
cobot_dynamixel_driver/joint_states|name|J1,J2,J3,J4,J5,J6|pos|-1.526147,-1.267658,1.296275,0.001014,-1.477991,-0.000083|vel|0.000000,-0.000000,0.000000,0.000000,0.000000,0.000000|eff|0.000000,0.000000,0.000000,0.000000,0.000000,0.000000
cobot_dynamixel_driver/joint_states|name|J1,J2,J3,J4,J5,J6|pos|-1.526147,-1.267658,1.296275,0.001014,-1.477991,-0.000083|vel|0.000000,-0.000000,0.000000,0.000000,0.000000,0.000000|eff|0.000000,0.000000,0.000000,0.000000,0.000000,0.000000
cobot_dynamixel_driver/joint_states|name|J1,J2,J3,J4,J5,J6|pos|-1.526147,-1.267658,1.296275,0.001014,-1.477991,-0.000083|vel|0.000000,-0.000000,0.000000,0.000000,0.000000,0.000000|eff|0.000000,0.000000,0.000000,0.000000,0.000000,0.000000
cobot_dynamixel_driver/joint_states|name|J1,J2,J3,J4,J5,J6|pos|-1.526147,-1.267658,1.296275,0.001014,-1.477991,-0.000083|vel|0.000000,-0.000000,0.000000,0.000000,0.000000,0.000000|eff|0.000000,0.000000,0.000000,0.000000,0.000000,0.000000
cobot_dynamixel_driver/joint_states|name|J1,J2,J3,J4,J5,J6|pos|-1.526147,-1.267658,1.296275,0.001014,-1.477991,-0.000083|vel|0.000000,-0.000000,0.000000,0.000000,0.000000,0.000000|eff|0.000000,0.000000,0.000000,0.000000,0.000000,0.000000
cobot_dynamixel_driver/joint_states|name|J1,J2,J3,J4,J5,J6|pos|-1.526147,-1.267658,1.296275,0.001014,-1.477991,-0.000083|vel|0.000000,-0.000000,0.000000,0.000000,0.000000,0.000000|eff|0.000000,0.000000,0.000000,0.000000,0.000000,0.000000
cobot_dynamixel_driver/joint_states|name|J1,J2,J3,J4,J5,J6|pos|-1.526147,-1.267658,1.296275,0.001014,-1.477991,-0.000083|vel|0.000000,-0.000000,0.000000,0.000000,0.000000,0.000000|eff|0.000000,0.000000,0.000000,0.000000,0.000000,0.000000
cobot_dynamixel_driver/joint_states|name|J1,J2,J3,J4,J5,J6|pos|-1.526147,-1.267658,1.296275,0.001014,-1.477991,-0.000083|vel|0.000000,-0.000000,0.000000,0.000000,0.000000,0.000000|eff|0.000000,0.000000,0.000000,0.000000,0.000000,0.000000
cobot_dynamixel_driver/joint_states|name|J1,J2,J3,J4,J5,J6|pos|-1.526147,-1.267658,1.296275,0.001014,-1.477991,-0.000083|vel|0.000000,-0.000000,0.000000,0.000000,0.000000,0.000000|eff|0.000000,0.000000,0.000000,0.000000,0.000000,0.000000
cobot_dynamixel_driver/joint_states|name|J1,J2,J3,J4,J5,J6|pos|-1.526147,-1.267658,1.296275,0.001014,-1.477991,-0.000083|vel|0.000000,-0.000000,0.000000,0.000000,0.000000,0.000000|eff|0.000000,0.000000,0.000000,0.000000,0.000000,0.000000
cobot_dynamixel_driver/joint_states|name|J1,J2,J3,J4,J5,J6|pos|-1.526147,-1.267658,1.296275,0.001014,-1.477991,-0.000083|vel|0.000000,-0.000000,0.000000,0.000000,0.000000,0.000000|eff|0.000000,0.000000,0.000000,0.000000,0.000000,0.000000
cobot_dynamixel_driver/joint_states|name|J1,J2,J3,J4,J5,J6|pos|-1.526147,-1.267658,1.296275,0.001014,-1.477991,-0.000083|vel|0.000000,-0.000000,0.000000,0.000000,0.000000,0.000000|eff|0.000000,0.000000,0.000000,0.000000,0.000000,0.000000
cobot_dynamixel_driver/joint_states|name|J1,J2,J3,J4,J5,J6|pos|-1.526147,-1.267658,1.296275,0.001014,-1.477991,-0.000083|vel|0.000000,-0.000000,0.000000,0.000000,0.000000,0.000000|eff|0.000000,0.000000,0.000000,0.000000,0.000000,0.000000
cobot_dynamixel_driver/joint_states|name|J1,J2,J3,J4,J5,J6|pos|-1.526147,-1.267658,1.296275,0.001014,-1.477991,-0.000083|vel|0.000000,-0.000000,0.000000,0.000000,0.000000,0.000000|eff|0.000000,0.000000,0.000000,0.000000,0.000000,0.000000
cobot_dynamixel_driver/joint_states|name|J1,J2,J3,J4,J5,J6|pos|-1.526147,-1.267658,1.296275,0.001014,-1.477991,-0.000083|vel|0.000000,-0.000000,0.000000,0.000000,0.000000,0.000000|eff|0.000000,0.000000,0.000000,0.000000,0.000000,0.000000
cobot_dynamixel_driver/joint_states|name|J1,J2,J3,J4,J5,J6|pos|-1.526147,-1.267658,1.296275,0.001014,-1.477991,-0.000083|vel|0.000000,-0.000000,0.000000,0.000000,0.000000,0.000000|eff|0.000000,0.000000,0.000000,0.000000,0.000000,0.000000
cobot_dynamixel_driver/joint_states|name|J1,J2,J3,J4,J5,J6|pos|-1.526147,-1.267658,1.296275,0.001014,-1.477991,-0.000083|vel|0.000000,-0.000000,0.000000,0.000000,0.000000,0.000000|eff|0.000000,0.000000,0.000000,0.000000,0.000000,0.000000
cobot_dynamixel_driver/joint_states|name|J1,J2,J3,J4,J5,J6|pos|-1.526147,-1.267658,1.296275,0.001014,-1.477991,-0.000083|vel|0.000000,-0.000000,0.000000,0.000000,0.000000,0.000000|eff|0.000000,0.000000,0.000000,0.000000,0.000000,0.000000
cobot_dynamixel_driver/joint_states|name|J1,J2,J3,J4,J5,J6|pos|-1.526147,-1.267658,1.296275,0.001014,-1.477991,-0.000083|vel|0.000000,-0.000000,0.000000,0.000000,0.000000,0.000000|eff|0.000000,0.000000,0.000000,0.000000,0.000000,0.000000
cobot_dynamixel_driver/joint_states|name|J1,J2,J3,J4,J5,J6|pos|-1.526147,-1.267658,1.296275,0.001014,-1.477991,-0.000083|vel|0.000000,-0.000000,0.000000,0.000000,0.000000,0.000000|eff|0.000000,0.000000,0.000000,0.000000,0.000000,0.000000
cobot_dynamixel_driver/joint_states|name|J1,J2,J3,J4,J5,J6|pos|-1.526147,-1.267658,1.296275,0.001014,-1.477991,-0.000083|vel|0.000000,-0.000000,0.000000,0.000000,0.000000,0.000000|eff|0.000000,0.000000,0.000000,0.000000,0.000000,0.000000
cobot_dynamixel_driver/joint_states|name|J1,J2,J3,J4,J5,J6|pos|-1.526147,-1.267658,1.296275,0.001014,-1.477991,-0.000083|vel|0.000000,-0.000000,0.000000,0.000000,0.000000,0.000000|eff|0.000000,0.000000,0.000000,0.000000,0.000000,0.000000
cobot_dynamixel_driver/joint_states|name|J1,J2,J3,J4,J5,J6|pos|-1.526147,-1.267658,1.296275,0.001014,-1.477991,-0.000083|vel|0.000000,-0.000000,0.000000,0.000000,0.000000,0.000000|eff|0.000000,0.000000,0.000000,0.000000,0.000000,0.000000
cobot_dynamixel_driver/joint_states|name|J1,J2,J3,J4,J5,J6|pos|-1.526147,-1.267658,1.296275,0.001014,-1.477991,-0.000083|vel|0.000000,-0.000000,0.000000,0.000000,0.000000,0.000000|eff|0.000000,0.000000,0.000000,0.000000,0.000000,0.000000
cobot_dynamixel_driver/joint_states|name|J1,J2,J3,J4,J5,J6|pos|-1.526147,-1.267658,1.296275,0.001014,-1.477991,-0.000083|vel|0.000000,-0.000000,0.000000,0.000000,0.000000,0.000000|eff|0.000000,0.000000,0.000000,0.000000,0.000000,0.000000
cobot_dynamixel_driver/joint_states|name|J1,J2,J3,J4,J5,J6|pos|-1.526147,-1.267658,1.296275,0.001014,-1.477991,-0.000083|vel|0.000000,-0.000000,0.000000,0.000000,0.000000,0.000000|eff|0.000000,0.000000,0.000000,0.000000,0.000000,0.000000
cobot_dynamixel_driver/joint_states|name|J1,J2,J3,J4,J5,J6|pos|-1.526147,-1.267658,1.296275,0.001014,-1.477991,-0.000083|vel|0.000000,-0.000000,0.000000,0.000000,0.000000,0.000000|eff|0.000000,0.000000,0.000000,0.000000,0.000000,0.000000
cobot_dynamixel_driver/joint_states|name|J1,J2,J3,J4,J5,J6|pos|-1.526147,-1.267658,1.296275,0.001014,-1.477991,-0.000083|vel|0.000000,-0.000000,0.000000,0.000000,0.000000,0.000000|eff|0.000000,0.000000,0.000000,0.000000,0.000000,0.000000
cobot_dynamixel_driver/joint_states|name|J1,J2,J3,J4,J5,J6|pos|-1.526147,-1.267658,1.296275,0.001014,-1.477991,-0.000083|vel|0.000000,-0.000000,0.000000,0.000000,0.000000,0.000000|eff|0.000000,0.000000,0.000000,0.000000,0.000000,0.000000
cobot_dynamixel_driver/joint_states|name|J1,J2,J3,J4,J5,J6|pos|-1.526147,-1.267658,1.296275,0.001014,-1.477991,-0.000083|vel|0.000000,-0.000000,0.000000,0.000000,0.000000,0.000000|eff|0.000000,0.000000,0.000000,0.000000,0.000000,0.000000
cobot_dynamixel_driver/joint_states|name|J1,J2,J3,J4,J5,J6|pos|-1.526147,-1.267658,1.296275,0.001014,-1.477991,-0.000083|vel|0.000000,-0.000000,0.000000,0.000000,0.000000,0.000000|eff|0.000000,0.000000,0.000000,0.000000,0.000000,0.000000
cobot_dynamixel_driver/joint_states|name|J1,J2,J3,J4,J5,J6|pos|-1.526147,-1.267658,1.296275,0.001014,-1.477991,-0.000083|vel|0.000000,-0.000000,0.000000,0.000000,0.000000,0.000000|eff|0.000000,0.000000,0.000000,0.000000,0.000000,0.000000
cobot_dynamixel_driver/joint_states|name|J1,J2,J3,J4,J5,J6|pos|-1.526147,-1.267658,1.296275,0.001014,-1.477991,-0.000083|vel|0.000000,-0.000000,0.000000,0.000000,0.000000,0.000000|eff|0.000000,0.000000,0.000000,0.000000,0.000000,0.000000
cobot_dynamixel_driver/joint_states|name|J1,J2,J3,J4,J5,J6|pos|-1.526147,-1.267658,1.296275,0.001014,-1.477991,-0.000083|vel|0.000000,-0.000000,0.000000,0.000000,0.000000,0.000000|eff|0.000000,0.000000,0.000000,0.000000,0.000000,0.000000
cobot_dynamixel_driver/joint_states|name|J1,J2,J3,J4,J5,J6|pos|-1.526147,-1.267658,1.296275,0.001014,-1.477991,-0.000083|vel|0.000000,-0.000000,0.000000,0.000000,0.000000,0.000000|eff|0.000000,0.000000,0.000000,0.000000,0.000000,0.000000
cobot_dynamixel_driver/joint_states|name|J1,J2,J3,J4,J5,J6|pos|-1.526147,-1.267658,1.296275,0.001014,-1.477991,-0.000083|vel|0.000000,-0.000000,0.000000,0.000000,0.000000,0.000000|eff|0.000000,0.000000,0.000000,0.000000,0.000000,0.000000
cobot_dynamixel_driver/joint_states|name|J1,J2,J3,J4,J5,J6|pos|-1.526147,-1.267658,1.296275,0.001014,-1.477991,-0.000083|vel|0.000000,-0.000000,0.000000,0.000000,0.000000,0.000000|eff|0.000000,0.000000,0.000000,0.000000,0.000000,0.000000
cobot_dynamixel_driver/joint_states|name|J1,J2,J3,J4,J5,J6|pos|-1.526147,-1.267658,1.296275,0.001014,-1.477991,-0.000083|vel|0.000000,-0.000000,0.000000,0.000000,0.000000,0.000000|eff|0.000000,0.000000,0.000000,0.000000,0.000000,0.000000
cobot_dynamixel_driver/joint_states|name|J1,J2,J3,J4,J5,J6|pos|-1.526147,-1.267658,1.296275,0.001014,-1.477991,-0.000083|vel|0.000000,-0.000000,0.000000,0.000000,0.000000,0.000000|eff|0.000000,0.000000,0.000000,0.000000,0.000000,0.000000
cobot_dynamixel_driver/joint_states|name|J1,J2,J3,J4,J5,J6|pos|-1.526147,-1.267658,1.296275,0.001014,-1.477991,-0.000083|vel|0.000000,-0.000000,0.000000,0.000000,0.000000,0.000000|eff|0.000000,0.000000,0.000000,0.000000,0.000000,0.000000
cobot_dynamixel_driver/joint_states|name|J1,J2,J3,J4,J5,J6|pos|-1.526147,-1.267658,1.296275,0.001014,-1.477991,-0.000083|vel|0.000000,-0.000000,0.000000,0.000000,0.000000,0.000000|eff|0.000000,0.000000,0.000000,0.000000,0.000000,0.000000
cobot_dynamixel_driver/joint_states|name|J1,J2,J3,J4,J5,J6|pos|-1.526147,-1.267658,1.296275,0.001014,-1.477991,-0.000083|vel|0.000000,-0.000000,0.000000,0.000000,0.000000,0.000000|eff|0.000000,0.000000,0.000000,0.000000,0.000000,0.000000
cobot_dynamixel_driver/joint_states|name|J1,J2,J3,J4,J5,J6|pos|-1.526147,-1.267658,1.296275,0.001014,-1.477991,-0.000083|vel|0.000000,-0.000000,0.000000,0.000000,0.000000,0.000000|eff|0.000000,0.000000,0.000000,0.000000,0.000000,0.000000
cobot_dynamixel_driver/joint_states|name|J1,J2,J3,J4,J5,J6|pos|-1.526147,-1.267658,1.296275,0.001014,-1.477991,-0.000083|vel|0.000000,-0.000000,0.000000,0.000000,0.000000,0.000000|eff|0.000000,0.000000,0.000000,0.000000,0.000000,0.000000
cobot_dynamixel_driver/joint_states|name|J1,J2,J3,J4,J5,J6|pos|-1.526147,-1.267658,1.296275,0.001014,-1.477991,-0.000083|vel|0.000000,-0.000000,0.000000,0.000000,0.000000,0.000000|eff|0.000000,0.000000,0.000000,0.000000,0.000000,0.000000
cobot_dynamixel_driver/joint_states|name|J1,J2,J3,J4,J5,J6|pos|-1.526147,-1.267658,1.296275,0.001014,-1.477991,-0.000083|vel|0.000000,-0.000000,0.000000,0.000000,0.000000,0.000000|eff|0.000000,0.000000,0.000000,0.000000,0.000000,0.000000
cobot_dynamixel_driver/joint_states|name|J1,J2,J3,J4,J5,J6|pos|-1.526147,-1.267658,1.296275,0.001014,-1.477991,-0.000083|vel|0.000000,-0.000000,0.000000,0.000000,0.000000,0.000000|eff|0.000000,0.000000,0.000000,0.000000,0.000000,0.000000
cobot_dynamixel_driver/joint_states|name|J1,J2,J3,J4,J5,J6|pos|-1.526147,-1.267658,1.296275,0.001014,-1.477991,-0.000083|vel|0.000000,-0.000000,0.000000,0.000000,0.000000,0.000000|eff|0.000000,0.000000,0.000000,0.000000,0.000000,0.000000
cobot_dynamixel_driver/joint_states|name|J1,J2,J3,J4,J5,J6|pos|-1.526147,-1.267658,1.296275,0.001014,-1.477991,-0.000083|vel|0.000000,-0.000000,0.000000,0.000000,0.000000,0.000000|eff|0.000000,0.000000,0.000000,0.000000,0.000000,0.000000
cobot_dynamixel_driver/joint_states|name|J1,J2,J3,J4,J5,J6|pos|-1.526147,-1.267658,1.296275,0.001014,-1.477991,-0.000083|vel|0.000000,-0.000000,0.000000,0.000000,0.000000,0.000000|eff|0.000000,0.000000,0.000000,0.000000,0.000000,0.000000
cobot_dynamixel_driver/joint_states|name|J1,J2,J3,J4,J5,J6|pos|-1.526147,-1.267658,1.296275,0.001014,-1.477991,-0.000083|vel|0.000000,-0.000000,0.000000,0.000000,0.000000,0.000000|eff|0.000000,0.000000,0.000000,0.000000,0.000000,0.000000
cobot_dynamixel_driver/joint_states|name|J1,J2,J3,J4,J5,J6|pos|-1.526147,-1.267658,1.296275,0.001014,-1.477991,-0.000083|vel|0.000000,-0.000000,0.000000,0.000000,0.000000,0.000000|eff|0.000000,0.000000,0.000000,0.000000,0.000000,0.000000
cobot_dynamixel_driver/joint_states|name|J1,J2,J3,J4,J5,J6|pos|-1.526147,-1.267658,1.296275,0.001014,-1.477991,-0.000083|vel|0.000000,-0.000000,0.000000,0.000000,0.000000,0.000000|eff|0.000000,0.000000,0.000000,0.000000,0.000000,0.000000
cobot_dynamixel_driver/joint_states|name|J1,J2,J3,J4,J5,J6|pos|-1.526147,-1.267658,1.296275,0.001014,-1.477991,-0.000083|vel|0.000000,-0.000000,0.000000,0.000000,0.000000,0.000000|eff|0.000000,0.000000,0.000000,0.000000,0.000000,0.000000
cobot_dynamixel_driver/joint_states|name|J1,J2,J3,J4,J5,J6|pos|-1.526147,-1.267658,1.296275,0.001014,-1.477991,-0.000083|vel|0.000000,-0.000000,0.000000,0.000000,0.000000,0.000000|eff|0.000000,0.000000,0.000000,0.000000,0.000000,0.000000
cobot_dynamixel_driver/joint_states|name|J1,J2,J3,J4,J5,J6|pos|-1.526147,-1.267658,1.296275,0.001014,-1.477991,-0.000083|vel|0.000000,-0.000000,0.000000,0.000000,0.000000,0.000000|eff|0.000000,0.000000,0.000000,0.000000,0.000000,0.000000
cobot_dynamixel_driver/joint_states|name|J1,J2,J3,J4,J5,J6|pos|-1.526147,-1.267658,1.296275,0.001014,-1.477991,-0.000083|vel|0.000000,-0.000000,0.000000,0.000000,0.000000,0.000000|eff|0.000000,0.000000,0.000000,0.000000,0.000000,0.000000
cobot_dynamixel_driver/joint_states|name|J1,J2,J3,J4,J5,J6|pos|-1.526147,-1.267658,1.296275,0.001014,-1.477991,-0.000083|vel|0.000000,-0.000000,0.000000,0.000000,0.000000,0.000000|eff|0.000000,0.000000,0.000000,0.000000,0.000000,0.000000
cobot_dynamixel_driver/joint_states|name|J1,J2,J3,J4,J5,J6|pos|-1.526147,-1.267658,1.296275,0.001014,-1.477991,-0.000083|vel|0.000000,-0.000000,0.000000,0.000000,0.000000,0.000000|eff|0.000000,0.000000,0.000000,0.000000,0.000000,0.000000
cobot_dynamixel_driver/joint_states|name|J1,J2,J3,J4,J5,J6|pos|-1.526147,-1.267658,1.296275,0.001014,-1.477991,-0.000083|vel|0.000000,-0.000000,0.000000,0.000000,0.000000,0.000000|eff|0.000000,0.000000,0.000000,0.000000,0.000000,0.000000
cobot_dynamixel_driver/joint_states|name|J1,J2,J3,J4,J5,J6|pos|-1.526147,-1.267658,1.296275,0.001014,-1.477991,-0.000083|vel|0.000000,-0.000000,0.000000,0.000000,0.000000,0.000000|eff|0.000000,0.000000,0.000000,0.000000,0.000000,0.000000
cobot_dynamixel_driver/joint_states|name|J1,J2,J3,J4,J5,J6|pos|-1.526147,-1.267658,1.296275,0.001014,-1.477991,-0.000083|vel|0.000000,-0.000000,0.000000,0.000000,0.000000,0.000000|eff|0.000000,0.000000,0.000000,0.000000,0.000000,0.000000
cobot_dynamixel_driver/joint_states|name|J1,J2,J3,J4,J5,J6|pos|-1.526147,-1.267658,1.296275,0.001014,-1.477991,-0.000083|vel|0.000000,-0.000000,0.000000,0.000000,0.000000,0.000000|eff|0.000000,0.000000,0.000000,0.000000,0.000000,0.000000
cobot_dynamixel_driver/joint_states|name|J1,J2,J3,J4,J5,J6|pos|-1.526147,-1.267658,1.296275,0.001014,-1.477991,-0.000083|vel|0.000000,-0.000000,0.000000,0.000000,0.000000,0.000000|eff|0.000000,0.000000,0.000000,0.000000,0.000000,0.000000
cobot_dynamixel_driver/joint_states|name|J1,J2,J3,J4,J5,J6|pos|-1.526147,-1.267658,1.296275,0.001014,-1.477991,-0.000083|vel|0.000000,-0.000000,0.000000,0.000000,0.000000,0.000000|eff|0.000000,0.000000,0.000000,0.000000,0.000000,0.000000
cobot_dynamixel_driver/joint_states|name|J1,J2,J3,J4,J5,J6|pos|-1.526147,-1.267658,1.296275,0.001014,-1.477991,-0.000083|vel|0.000000,-0.000000,0.000000,0.000000,0.000000,0.000000|eff|0.000000,0.000000,0.000000,0.000000,0.000000,0.000000
cobot_dynamixel_driver/joint_states|name|J1,J2,J3,J4,J5,J6|pos|-1.526147,-1.267658,1.296275,0.001014,-1.477991,-0.000083|vel|0.000000,-0.000000,0.000000,0.000000,0.000000,0.000000|eff|0.000000,0.000000,0.000000,0.000000,0.000000,0.000000
cobot_dynamixel_driver/joint_states|name|J1,J2,J3,J4,J5,J6|pos|-1.526147,-1.267658,1.296275,0.001014,-1.477991,-0.000083|vel|0.000000,-0.000000,0.000000,0.000000,0.000000,0.000000|eff|0.000000,0.000000,0.000000,0.000000,0.000000,0.000000
cobot_dynamixel_driver/joint_states|name|J1,J2,J3,J4,J5,J6|pos|-1.526147,-1.267658,1.296275,0.001014,-1.477991,-0.000083|vel|0.000000,-0.000000,0.000000,0.000000,0.000000,0.000000|eff|0.000000,0.000000,0.000000,0.000000,0.000000,0.000000
cobot_dynamixel_driver/joint_states|name|J1,J2,J3,J4,J5,J6|pos|-1.526147,-1.267658,1.296275,0.001014,-1.477991,-0.000083|vel|0.000000,-0.000000,0.000000,0.000000,0.000000,0.000000|eff|0.000000,0.000000,0.000000,0.000000,0.000000,0.000000
cobot_dynamixel_driver/joint_states|name|J1,J2,J3,J4,J5,J6|pos|-1.526147,-1.267658,1.296275,0.001014,-1.477991,-0.000083|vel|0.000000,-0.000000,0.000000,0.000000,0.000000,0.000000|eff|0.000000,0.000000,0.000000,0.000000,0.000000,0.000000
cobot_dynamixel_driver/joint_states|name|J1,J2,J3,J4,J5,J6|pos|-1.526147,-1.267658,1.296275,0.001014,-1.477991,-0.000083|vel|0.000000,-0.000000,0.000000,0.000000,0.000000,0.000000|eff|0.000000,0.000000,0.000000,0.000000,0.000000,0.000000
cobot_dynamixel_driver/joint_states|name|J1,J2,J3,J4,J5,J6|pos|-1.526147,-1.267658,1.296275,0.001014,-1.477991,-0.000083|vel|0.000000,-0.000000,0.000000,0.000000,0.000000,0.000000|eff|0.000000,0.000000,0.000000,0.000000,0.000000,0.000000
cobot_dynamixel_driver/joint_states|name|J1,J2,J3,J4,J5,J6|pos|-1.526147,-1.267658,1.296275,0.001014,-1.477991,-0.000083|vel|0.000000,-0.000000,0.000000,0.000000,0.000000,0.000000|eff|0.000000,0.000000,0.000000,0.000000,0.000000,0.000000
cobot_dynamixel_driver/joint_states|name|J1,J2,J3,J4,J5,J6|pos|-1.526147,-1.267658,1.296275,0.001014,-1.477991,-0.000083|vel|0.000000,-0.000000,0.000000,0.000000,0.000000,0.000000|eff|0.000000,0.000000,0.000000,0.000000,0.000000,0.000000
cobot_dynamixel_driver/joint_states|name|J1,J2,J3,J4,J5,J6|pos|-1.526147,-1.267658,1.296275,0.001014,-1.477991,-0.000083|vel|0.000000,-0.000000,0.000000,0.000000,0.000000,0.000000|eff|0.000000,0.000000,0.000000,0.000000,0.000000,0.000000
cobot_dynamixel_driver/joint_states|name|J1,J2,J3,J4,J5,J6|pos|-1.526147,-1.267658,1.296275,0.001014,-1.477991,-0.000083|vel|0.000000,-0.000000,0.000000,0.000000,0.000000,0.000000|eff|0.000000,0.000000,0.000000,0.000000,0.000000,0.000000
cobot_dynamixel_driver/joint_states|name|J1,J2,J3,J4,J5,J6|pos|-1.526147,-1.267658,1.296275,0.001014,-1.477991,-0.000083|vel|0.000000,-0.000000,0.000000,0.000000,0.000000,0.000000|eff|0.000000,0.000000,0.000000,0.000000,0.000000,0.000000
cobot_dynamixel_driver/joint_states|name|J1,J2,J3,J4,J5,J6|pos|-1.526147,-1.267658,1.296275,0.001014,-1.477991,-0.000083|vel|0.000000,-0.000000,0.000000,0.000000,0.000000,0.000000|eff|0.000000,0.000000,0.000000,0.000000,0.000000,0.000000
cobot_dynamixel_driver/joint_states|name|J1,J2,J3,J4,J5,J6|pos|-1.526147,-1.267658,1.296275,0.001014,-1.477991,-0.000083|vel|0.000000,-0.000000,0.000000,0.000000,0.000000,0.000000|eff|0.000000,0.000000,0.000000,0.000000,0.000000,0.000000
cobot_dynamixel_driver/joint_states|name|J1,J2,J3,J4,J5,J6|pos|-1.526147,-1.267658,1.296275,0.001014,-1.477991,-0.000083|vel|0.000000,-0.000000,0.000000,0.000000,0.000000,0.000000|eff|0.000000,0.000000,0.000000,0.000000,0.000000,0.000000
cobot_dynamixel_driver/joint_states|name|J1,J2,J3,J4,J5,J6|pos|-1.526147,-1.267658,1.296275,0.001014,-1.477991,-0.000083|vel|0.000000,-0.000000,0.000000,0.000000,0.000000,0.000000|eff|0.000000,0.000000,0.000000,0.000000,0.000000,0.000000
cobot_dynamixel_driver/joint_states|name|J1,J2,J3,J4,J5,J6|pos|-1.526147,-1.267658,1.296275,0.001014,-1.477991,-0.000083|vel|0.000000,-0.000000,0.000000,0.000000,0.000000,0.000000|eff|0.000000,0.000000,0.000000,0.000000,0.000000,0.000000
cobot_dynamixel_driver/joint_states|name|J1,J2,J3,J4,J5,J6|pos|-1.526147,-1.267658,1.296275,0.001014,-1.477991,-0.000083|vel|0.000000,-0.000000,0.000000,0.000000,0.000000,0.000000|eff|0.000000,0.000000,0.000000,0.000000,0.000000,0.000000
cobot_dynamixel_driver/joint_states|name|J1,J2,J3,J4,J5,J6|pos|-1.526147,-1.267658,1.296275,0.001014,-1.477991,-0.000083|vel|0.000000,-0.000000,0.000000,0.000000,0.000000,0.000000|eff|0.000000,0.000000,0.000000,0.000000,0.000000,0.000000
cobot_dynamixel_driver/joint_states|name|J1,J2,J3,J4,J5,J6|pos|-1.526147,-1.267658,1.296275,0.001014,-1.477991,-0.000083|vel|0.000000,-0.000000,0.000000,0.000000,0.000000,0.000000|eff|0.000000,0.000000,0.000000,0.000000,0.000000,0.000000
cobot_dynamixel_driver/joint_states|name|J1,J2,J3,J4,J5,J6|pos|-1.526147,-1.267658,1.296275,0.001014,-1.477991,-0.000083|vel|0.000000,-0.000000,0.000000,0.000000,0.000000,0.000000|eff|0.000000,0.000000,0.000000,0.000000,0.000000,0.000000
cobot_dynamixel_driver/joint_states|name|J1,J2,J3,J4,J5,J6|pos|-1.526147,-1.267658,1.296275,0.001014,-1.477991,-0.000083|vel|0.000000,-0.000000,0.000000,0.000000,0.000000,0.000000|eff|0.000000,0.000000,0.000000,0.000000,0.000000,0.000000
cobot_dynamixel_driver/joint_states|name|J1,J2,J3,J4,J5,J6|pos|-1.526147,-1.267658,1.296275,0.001014,-1.477991,-0.000083|vel|0.000000,-0.000000,0.000000,0.000000,0.000000,0.000000|eff|0.000000,0.000000,0.000000,0.000000,0.000000,0.000000
cobot_dynamixel_driver/joint_states|name|J1,J2,J3,J4,J5,J6|pos|-1.526147,-1.267658,1.296275,0.001014,-1.477991,-0.000083|vel|0.000000,-0.000000,0.000000,0.000000,0.000000,0.000000|eff|0.000000,0.000000,0.000000,0.000000,0.000000,0.000000
cobot_dynamixel_driver/joint_states|name|J1,J2,J3,J4,J5,J6|pos|-1.526147,-1.267658,1.296275,0.001014,-1.477991,-0.000083|vel|0.000000,-0.000000,0.000000,0.000000,0.000000,0.000000|eff|0.000000,0.000000,0.000000,0.000000,0.000000,0.000000
cobot_dynamixel_driver/joint_states|name|J1,J2,J3,J4,J5,J6|pos|-1.526147,-1.267658,1.296275,0.001014,-1.477991,-0.000083|vel|0.000000,-0.000000,0.000000,0.000000,0.000000,0.000000|eff|0.000000,0.000000,0.000000,0.000000,0.000000,0.000000
cobot_dynamixel_driver/joint_states|name|J1,J2,J3,J4,J5,J6|pos|-1.526147,-1.267658,1.296275,0.001014,-1.477991,-0.000083|vel|0.000000,-0.000000,0.000000,0.000000,0.000000,0.000000|eff|0.000000,0.000000,0.000000,0.000000,0.000000,0.000000
cobot_dynamixel_driver/joint_states|name|J1,J2,J3,J4,J5,J6|pos|-1.526147,-1.267658,1.296275,0.001014,-1.477991,-0.000083|vel|0.000000,-0.000000,0.000000,0.000000,0.000000,0.000000|eff|0.000000,0.000000,0.000000,0.000000,0.000000,0.000000
cobot_dynamixel_driver/joint_states|name|J1,J2,J3,J4,J5,J6|pos|-1.526147,-1.267658,1.296275,0.001014,-1.477991,-0.000083|vel|0.000000,-0.000000,0.000000,0.000000,0.000000,0.000000|eff|0.000000,0.000000,0.000000,0.000000,0.000000,0.000000
cobot_dynamixel_driver/joint_states|name|J1,J2,J3,J4,J5,J6|pos|-1.526147,-1.267658,1.296275,0.001014,-1.477991,-0.000083|vel|0.000000,-0.000000,0.000000,0.000000,0.000000,0.000000|eff|0.000000,0.000000,0.000000,0.000000,0.000000,0.000000
cobot_dynamixel_driver/joint_states|name|J1,J2,J3,J4,J5,J6|pos|-1.526147,-1.267658,1.296275,0.001014,-1.477991,-0.000083|vel|0.000000,-0.000000,0.000000,0.000000,0.000000,0.000000|eff|0.000000,0.000000,0.000000,0.000000,0.000000,0.000000
cobot_dynamixel_driver/joint_states|name|J1,J2,J3,J4,J5,J6|pos|-1.526147,-1.267658,1.296275,0.001014,-1.477991,-0.000083|vel|0.000000,-0.000000,0.000000,0.000000,0.000000,0.000000|eff|0.000000,0.000000,0.000000,0.000000,0.000000,0.000000
cobot_dynamixel_driver/joint_states|name|J1,J2,J3,J4,J5,J6|pos|-1.526147,-1.267658,1.296275,0.001014,-1.477991,-0.000083|vel|0.000000,-0.000000,0.000000,0.000000,0.000000,0.000000|eff|0.000000,0.000000,0.000000,0.000000,0.000000,0.000000
cobot_dynamixel_driver/joint_states|name|J1,J2,J3,J4,J5,J6|pos|-1.526147,-1.267658,1.296275,0.001014,-1.477991,-0.000083|vel|0.000000,-0.000000,0.000000,0.000000,0.000000,0.000000|eff|0.000000,0.000000,0.000000,0.000000,0.000000,0.000000
cobot_dynamixel_driver/joint_states|name|J1,J2,J3,J4,J5,J6|pos|-1.526147,-1.267658,1.296275,0.001014,-1.477991,-0.000083|vel|0.000000,-0.000000,0.000000,0.000000,0.000000,0.000000|eff|0.000000,0.000000,0.000000,0.000000,0.000000,0.000000
cobot_dynamixel_driver/joint_states|name|J1,J2,J3,J4,J5,J6|pos|-1.526147,-1.267658,1.296275,0.001014,-1.477991,-0.000083|vel|0.000000,-0.000000,0.000000,0.000000,0.000000,0.000000|eff|0.000000,0.000000,0.000000,0.000000,0.000000,0.000000
cobot_dynamixel_driver/joint_states|name|J1,J2,J3,J4,J5,J6|pos|-1.526147,-1.267658,1.296275,0.001014,-1.477991,-0.000083|vel|0.000000,-0.000000,0.000000,0.000000,0.000000,0.000000|eff|0.000000,0.000000,0.000000,0.000000,0.000000,0.000000
cobot_dynamixel_driver/joint_states|name|J1,J2,J3,J4,J5,J6|pos|-1.526147,-1.267658,1.296275,0.001014,-1.477991,-0.000083|vel|0.000000,-0.000000,0.000000,0.000000,0.000000,0.000000|eff|0.000000,0.000000,0.000000,0.000000,0.000000,0.000000
cobot_dynamixel_driver/joint_states|name|J1,J2,J3,J4,J5,J6|pos|-1.526147,-1.267658,1.296275,0.001014,-1.477991,-0.000083|vel|0.000000,-0.000000,0.000000,0.000000,0.000000,0.000000|eff|0.000000,0.000000,0.000000,0.000000,0.000000,0.000000
cobot_dynamixel_driver/joint_states|name|J1,J2,J3,J4,J5,J6|pos|-1.526147,-1.267658,1.296275,0.001014,-1.477991,-0.000083|vel|0.000000,-0.000000,0.000000,0.000000,0.000000,0.000000|eff|0.000000,0.000000,0.000000,0.000000,0.000000,0.000000
cobot_dynamixel_driver/joint_states|name|J1,J2,J3,J4,J5,J6|pos|-1.526147,-1.267658,1.296275,0.001014,-1.477991,-0.000083|vel|0.000000,-0.000000,0.000000,0.000000,0.000000,0.000000|eff|0.000000,0.000000,0.000000,0.000000,0.000000,0.000000
cobot_dynamixel_driver/joint_states|name|J1,J2,J3,J4,J5,J6|pos|-1.526147,-1.267658,1.296275,0.001014,-1.477991,-0.000083|vel|0.000000,-0.000000,0.000000,0.000000,0.000000,0.000000|eff|0.000000,0.000000,0.000000,0.000000,0.000000,0.000000
cobot_dynamixel_driver/joint_states|name|J1,J2,J3,J4,J5,J6|pos|-1.526147,-1.267658,1.296275,0.001014,-1.477991,-0.000083|vel|0.000000,-0.000000,0.000000,0.000000,0.000000,0.000000|eff|0.000000,0.000000,0.000000,0.000000,0.000000,0.000000
cobot_dynamixel_driver/joint_states|name|J1,J2,J3,J4,J5,J6|pos|-1.526147,-1.267658,1.296275,0.001014,-1.477991,-0.000083|vel|0.000000,-0.000000,0.000000,0.000000,0.000000,0.000000|eff|0.000000,0.000000,0.000000,0.000000,0.000000,0.000000
cobot_dynamixel_driver/joint_states|name|J1,J2,J3,J4,J5,J6|pos|-1.526147,-1.267658,1.296275,0.001014,-1.477991,-0.000083|vel|0.000000,-0.000000,0.000000,0.000000,0.000000,0.000000|eff|0.000000,0.000000,0.000000,0.000000,0.000000,0.000000
cobot_dynamixel_driver/joint_states|name|J1,J2,J3,J4,J5,J6|pos|-1.526147,-1.267658,1.296275,0.001014,-1.477991,-0.000083|vel|0.000000,-0.000000,0.000000,0.000000,0.000000,0.000000|eff|0.000000,0.000000,0.000000,0.000000,0.000000,0.000000
cobot_dynamixel_driver/joint_states|name|J1,J2,J3,J4,J5,J6|pos|-1.526147,-1.267658,1.296275,0.001014,-1.477991,-0.000083|vel|0.000000,-0.000000,0.000000,0.000000,0.000000,0.000000|eff|0.000000,0.000000,0.000000,0.000000,0.000000,0.000000
cobot_dynamixel_driver/joint_states|name|J1,J2,J3,J4,J5,J6|pos|-1.526147,-1.267658,1.296275,0.001014,-1.477991,-0.000083|vel|0.000000,-0.000000,0.000000,0.000000,0.000000,0.000000|eff|0.000000,0.000000,0.000000,0.000000,0.000000,0.000000
cobot_dynamixel_driver/joint_states|name|J1,J2,J3,J4,J5,J6|pos|-1.526147,-1.267658,1.296275,0.001014,-1.477991,-0.000083|vel|0.000000,-0.000000,0.000000,0.000000,0.000000,0.000000|eff|0.000000,0.000000,0.000000,0.000000,0.000000,0.000000
cobot_dynamixel_driver/joint_states|name|J1,J2,J3,J4,J5,J6|pos|-1.526147,-1.267658,1.296275,0.001014,-1.477991,-0.000083|vel|0.000000,-0.000000,0.000000,0.000000,0.000000,0.000000|eff|0.000000,0.000000,0.000000,0.000000,0.000000,0.000000
cobot_dynamixel_driver/joint_states|name|J1,J2,J3,J4,J5,J6|pos|-1.526147,-1.267658,1.296275,0.001014,-1.477991,-0.000083|vel|0.000000,-0.000000,0.000000,0.000000,0.000000,0.000000|eff|0.000000,0.000000,0.000000,0.000000,0.000000,0.000000
cobot_dynamixel_driver/joint_states|name|J1,J2,J3,J4,J5,J6|pos|-1.526147,-1.267658,1.296275,0.001014,-1.477991,-0.000083|vel|0.000000,-0.000000,0.000000,0.000000,0.000000,0.000000|eff|0.000000,0.000000,0.000000,0.000000,0.000000,0.000000
cobot_dynamixel_driver/joint_states|name|J1,J2,J3,J4,J5,J6|pos|-1.526147,-1.267658,1.296275,0.001014,-1.477991,-0.000083|vel|0.000000,-0.000000,0.000000,0.000000,0.000000,0.000000|eff|0.000000,0.000000,0.000000,0.000000,0.000000,0.000000
cobot_dynamixel_driver/joint_states|name|J1,J2,J3,J4,J5,J6|pos|-1.526147,-1.267658,1.296275,0.001014,-1.477991,-0.000083|vel|0.000000,-0.000000,0.000000,0.000000,0.000000,0.000000|eff|0.000000,0.000000,0.000000,0.000000,0.000000,0.000000
cobot_dynamixel_driver/joint_states|name|J1,J2,J3,J4,J5,J6|pos|-1.526147,-1.267658,1.296275,0.001014,-1.477991,-0.000083|vel|0.000000,-0.000000,0.000000,0.000000,0.000000,0.000000|eff|0.000000,0.000000,0.000000,0.000000,0.000000,0.000000
cobot_dynamixel_driver/joint_states|name|J1,J2,J3,J4,J5,J6|pos|-1.526147,-1.267658,1.296275,0.001014,-1.477991,-0.000083|vel|0.000000,-0.000000,0.000000,0.000000,0.000000,0.000000|eff|0.000000,0.000000,0.000000,0.000000,0.000000,0.000000
cobot_dynamixel_driver/joint_states|name|J1,J2,J3,J4,J5,J6|pos|-1.526147,-1.267658,1.296275,0.001014,-1.477991,-0.000083|vel|0.000000,-0.000000,0.000000,0.000000,0.000000,0.000000|eff|0.000000,0.000000,0.000000,0.000000,0.000000,0.000000
cobot_dynamixel_driver/joint_states|name|J1,J2,J3,J4,J5,J6|pos|-1.526147,-1.267658,1.296275,0.001014,-1.477991,-0.000083|vel|0.000000,-0.000000,0.000000,0.000000,0.000000,0.000000|eff|0.000000,0.000000,0.000000,0.000000,0.000000,0.000000
cobot_dynamixel_driver/joint_states|name|J1,J2,J3,J4,J5,J6|pos|-1.526147,-1.267658,1.296275,0.001014,-1.477991,-0.000083|vel|0.000000,-0.000000,0.000000,0.000000,0.000000,0.000000|eff|0.000000,0.000000,0.000000,0.000000,0.000000,0.000000
cobot_dynamixel_driver/joint_states|name|J1,J2,J3,J4,J5,J6|pos|-1.526147,-1.267658,1.296275,0.001014,-1.477991,-0.000083|vel|0.000000,-0.000000,0.000000,0.000000,0.000000,0.000000|eff|0.000000,0.000000,0.000000,0.000000,0.000000,0.000000
cobot_dynamixel_driver/joint_states|name|J1,J2,J3,J4,J5,J6|pos|-1.526147,-1.267658,1.296275,0.001014,-1.477991,-0.000083|vel|0.000000,-0.000000,0.000000,0.000000,0.000000,0.000000|eff|0.000000,0.000000,0.000000,0.000000,0.000000,0.000000
cobot_dynamixel_driver/joint_states|name|J1,J2,J3,J4,J5,J6|pos|-1.526147,-1.267658,1.296275,0.001014,-1.477991,-0.000083|vel|0.000000,-0.000000,0.000000,0.000000,0.000000,0.000000|eff|0.000000,0.000000,0.000000,0.000000,0.000000,0.000000
cobot_dynamixel_driver/joint_states|name|J1,J2,J3,J4,J5,J6|pos|-1.526147,-1.267658,1.296275,0.001014,-1.477991,-0.000083|vel|0.000000,-0.000000,0.000000,0.000000,0.000000,0.000000|eff|0.000000,0.000000,0.000000,0.000000,0.000000,0.000000
cobot_dynamixel_driver/joint_states|name|J1,J2,J3,J4,J5,J6|pos|-1.526147,-1.267658,1.296275,0.001014,-1.477991,-0.000083|vel|0.000000,-0.000000,0.000000,0.000000,0.000000,0.000000|eff|0.000000,0.000000,0.000000,0.000000,0.000000,0.000000
cobot_dynamixel_driver/joint_states|name|J1,J2,J3,J4,J5,J6|pos|-1.526147,-1.267658,1.296275,0.001014,-1.477991,-0.000083|vel|0.000000,-0.000000,0.000000,0.000000,0.000000,0.000000|eff|0.000000,0.000000,0.000000,0.000000,0.000000,0.000000
cobot_dynamixel_driver/joint_states|name|J1,J2,J3,J4,J5,J6|pos|-1.526147,-1.267658,1.296275,0.001014,-1.477991,-0.000083|vel|0.000000,-0.000000,0.000000,0.000000,0.000000,0.000000|eff|0.000000,0.000000,0.000000,0.000000,0.000000,0.000000
cobot_dynamixel_driver/joint_states|name|J1,J2,J3,J4,J5,J6|pos|-1.526147,-1.267658,1.296275,0.001014,-1.477991,-0.000083|vel|0.000000,-0.000000,0.000000,0.000000,0.000000,0.000000|eff|0.000000,0.000000,0.000000,0.000000,0.000000,0.000000
cobot_dynamixel_driver/joint_states|name|J1,J2,J3,J4,J5,J6|pos|-1.526147,-1.267658,1.296275,0.001014,-1.477991,-0.000083|vel|0.000000,-0.000000,0.000000,0.000000,0.000000,0.000000|eff|0.000000,0.000000,0.000000,0.000000,0.000000,0.000000
cobot_dynamixel_driver/joint_states|name|J1,J2,J3,J4,J5,J6|pos|-1.526147,-1.267658,1.296275,0.001014,-1.477991,-0.000083|vel|0.000000,-0.000000,0.000000,0.000000,0.000000,0.000000|eff|0.000000,0.000000,0.000000,0.000000,0.000000,0.000000
cobot_dynamixel_driver/joint_states|name|J1,J2,J3,J4,J5,J6|pos|-1.526147,-1.267658,1.296275,0.001014,-1.477991,-0.000083|vel|0.000000,-0.000000,0.000000,0.000000,0.000000,0.000000|eff|0.000000,0.000000,0.000000,0.000000,0.000000,0.000000
cobot_dynamixel_driver/joint_states|name|J1,J2,J3,J4,J5,J6|pos|-1.526147,-1.267658,1.296275,0.001014,-1.477991,-0.000083|vel|0.000000,-0.000000,0.000000,0.000000,0.000000,0.000000|eff|0.000000,0.000000,0.000000,0.000000,0.000000,0.000000
cobot_dynamixel_driver/joint_states|name|J1,J2,J3,J4,J5,J6|pos|-1.526147,-1.267658,1.296275,0.001014,-1.477991,-0.000083|vel|0.000000,-0.000000,0.000000,0.000000,0.000000,0.000000|eff|0.000000,0.000000,0.000000,0.000000,0.000000,0.000000
cobot_dynamixel_driver/joint_states|name|J1,J2,J3,J4,J5,J6|pos|-1.526147,-1.267658,1.296275,0.001014,-1.477991,-0.000083|vel|0.000000,-0.000000,0.000000,0.000000,0.000000,0.000000|eff|0.000000,0.000000,0.000000,0.000000,0.000000,0.000000
cobot_dynamixel_driver/joint_states|name|J1,J2,J3,J4,J5,J6|pos|-1.526147,-1.267658,1.296275,0.001014,-1.477991,-0.000083|vel|0.000000,-0.000000,0.000000,0.000000,0.000000,0.000000|eff|0.000000,0.000000,0.000000,0.000000,0.000000,0.000000
cobot_dynamixel_driver/joint_states|name|J1,J2,J3,J4,J5,J6|pos|-1.526147,-1.267658,1.296275,0.001014,-1.477991,-0.000083|vel|0.000000,-0.000000,0.000000,0.000000,0.000000,0.000000|eff|0.000000,0.000000,0.000000,0.000000,0.000000,0.000000
cobot_dynamixel_driver/joint_states|name|J1,J2,J3,J4,J5,J6|pos|-1.526147,-1.267658,1.296275,0.001014,-1.477991,-0.000083|vel|0.000000,-0.000000,0.000000,0.000000,0.000000,0.000000|eff|0.000000,0.000000,0.000000,0.000000,0.000000,0.000000
cobot_dynamixel_driver/joint_states|name|J1,J2,J3,J4,J5,J6|pos|-1.526147,-1.267658,1.296275,0.001014,-1.477991,-0.000083|vel|0.000000,-0.000000,0.000000,0.000000,0.000000,0.000000|eff|0.000000,0.000000,0.000000,0.000000,0.000000,0.000000
cobot_dynamixel_driver/joint_states|name|J1,J2,J3,J4,J5,J6|pos|-1.526147,-1.267658,1.296275,0.001014,-1.477991,-0.000083|vel|0.000000,-0.000000,0.000000,0.000000,0.000000,0.000000|eff|0.000000,0.000000,0.000000,0.000000,0.000000,0.000000
cobot_dynamixel_driver/joint_states|name|J1,J2,J3,J4,J5,J6|pos|-1.526147,-1.267658,1.296275,0.001014,-1.477991,-0.000083|vel|0.000000,-0.000000,0.000000,0.000000,0.000000,0.000000|eff|0.000000,0.000000,0.000000,0.000000,0.000000,0.000000
cobot_dynamixel_driver/joint_states|name|J1,J2,J3,J4,J5,J6|pos|-1.526147,-1.267658,1.296275,0.001014,-1.477991,-0.000083|vel|0.000000,-0.000000,0.000000,0.000000,0.000000,0.000000|eff|0.000000,0.000000,0.000000,0.000000,0.000000,0.000000
cobot_dynamixel_driver/joint_states|name|J1,J2,J3,J4,J5,J6|pos|-1.526147,-1.267658,1.296275,0.001014,-1.477991,-0.000083|vel|0.000000,-0.000000,0.000000,0.000000,0.000000,0.000000|eff|0.000000,0.000000,0.000000,0.000000,0.000000,0.000000
cobot_dynamixel_driver/joint_states|name|J1,J2,J3,J4,J5,J6|pos|-1.526147,-1.267658,1.296275,0.001014,-1.477991,-0.000083|vel|0.000000,-0.000000,0.000000,0.000000,0.000000,0.000000|eff|0.000000,0.000000,0.000000,0.000000,0.000000,0.000000
cobot_dynamixel_driver/joint_states|name|J1,J2,J3,J4,J5,J6|pos|-1.526147,-1.267658,1.296275,0.001014,-1.477991,-0.000083|vel|0.000000,-0.000000,0.000000,0.000000,0.000000,0.000000|eff|0.000000,0.000000,0.000000,0.000000,0.000000,0.000000
cobot_dynamixel_driver/joint_states|name|J1,J2,J3,J4,J5,J6|pos|-1.526147,-1.267658,1.296275,0.001014,-1.477991,-0.000083|vel|0.000000,-0.000000,0.000000,0.000000,0.000000,0.000000|eff|0.000000,0.000000,0.000000,0.000000,0.000000,0.000000
cobot_dynamixel_driver/joint_states|name|J1,J2,J3,J4,J5,J6|pos|-1.526147,-1.267658,1.296275,0.001014,-1.477991,-0.000083|vel|0.000000,-0.000000,0.000000,0.000000,0.000000,0.000000|eff|0.000000,0.000000,0.000000,0.000000,0.000000,0.000000
cobot_dynamixel_driver/joint_states|name|J1,J2,J3,J4,J5,J6|pos|-1.526147,-1.267658,1.296275,0.001014,-1.477991,-0.000083|vel|0.000000,-0.000000,0.000000,0.000000,0.000000,0.000000|eff|0.000000,0.000000,0.000000,0.000000,0.000000,0.000000
cobot_dynamixel_driver/joint_states|name|J1,J2,J3,J4,J5,J6|pos|-1.526147,-1.267658,1.296275,0.001014,-1.477991,-0.000083|vel|0.000000,-0.000000,0.000000,0.000000,0.000000,0.000000|eff|0.000000,0.000000,0.000000,0.000000,0.000000,0.000000
cobot_dynamixel_driver/joint_states|name|J1,J2,J3,J4,J5,J6|pos|-1.526147,-1.267658,1.296275,0.001014,-1.477991,-0.000083|vel|0.000000,-0.000000,0.000000,0.000000,0.000000,0.000000|eff|0.000000,0.000000,0.000000,0.000000,0.000000,0.000000
cobot_dynamixel_driver/joint_states|name|J1,J2,J3,J4,J5,J6|pos|-1.526147,-1.267658,1.296275,0.001014,-1.477991,-0.000083|vel|0.000000,-0.000000,0.000000,0.000000,0.000000,0.000000|eff|0.000000,0.000000,0.000000,0.000000,0.000000,0.000000
cobot_dynamixel_driver/joint_states|name|J1,J2,J3,J4,J5,J6|pos|-1.526147,-1.267658,1.296275,0.001014,-1.477991,-0.000083|vel|0.000000,-0.000000,0.000000,0.000000,0.000000,0.000000|eff|0.000000,0.000000,0.000000,0.000000,0.000000,0.000000
cobot_dynamixel_driver/joint_states|name|J1,J2,J3,J4,J5,J6|pos|-1.526147,-1.267658,1.296275,0.001014,-1.477991,-0.000083|vel|0.000000,-0.000000,0.000000,0.000000,0.000000,0.000000|eff|0.000000,0.000000,0.000000,0.000000,0.000000,0.000000
cobot_dynamixel_driver/joint_states|name|J1,J2,J3,J4,J5,J6|pos|-1.526147,-1.267658,1.296275,0.001014,-1.477991,-0.000083|vel|0.000000,-0.000000,0.000000,0.000000,0.000000,0.000000|eff|0.000000,0.000000,0.000000,0.000000,0.000000,0.000000
cobot_dynamixel_driver/joint_states|name|J1,J2,J3,J4,J5,J6|pos|-1.526147,-1.267658,1.296275,0.001014,-1.477991,-0.000083|vel|0.000000,-0.000000,0.000000,0.000000,0.000000,0.000000|eff|0.000000,0.000000,0.000000,0.000000,0.000000,0.000000
cobot_dynamixel_driver/joint_states|name|J1,J2,J3,J4,J5,J6|pos|-1.526147,-1.267658,1.296275,0.001014,-1.477991,-0.000083|vel|0.000000,-0.000000,0.000000,0.000000,0.000000,0.000000|eff|0.000000,0.000000,0.000000,0.000000,0.000000,0.000000
cobot_dynamixel_driver/joint_states|name|J1,J2,J3,J4,J5,J6|pos|-1.526147,-1.267658,1.296275,0.001014,-1.477991,-0.000083|vel|0.000000,-0.000000,0.000000,0.000000,0.000000,0.000000|eff|0.000000,0.000000,0.000000,0.000000,0.000000,0.000000
cobot_dynamixel_driver/joint_states|name|J1,J2,J3,J4,J5,J6|pos|-1.526147,-1.267658,1.296275,0.001014,-1.477991,-0.000083|vel|0.000000,-0.000000,0.000000,0.000000,0.000000,0.000000|eff|0.000000,0.000000,0.000000,0.000000,0.000000,0.000000
cobot_dynamixel_driver/joint_states|name|J1,J2,J3,J4,J5,J6|pos|-1.526147,-1.267658,1.296275,0.001014,-1.477991,-0.000083|vel|0.000000,-0.000000,0.000000,0.000000,0.000000,0.000000|eff|0.000000,0.000000,0.000000,0.000000,0.000000,0.000000
cobot_dynamixel_driver/joint_states|name|J1,J2,J3,J4,J5,J6|pos|-1.526147,-1.267658,1.296275,0.001014,-1.477991,-0.000083|vel|0.000000,-0.000000,0.000000,0.000000,0.000000,0.000000|eff|0.000000,0.000000,0.000000,0.000000,0.000000,0.000000
cobot_dynamixel_driver/joint_states|name|J1,J2,J3,J4,J5,J6|pos|-1.526147,-1.267658,1.296275,0.001014,-1.477991,-0.000083|vel|0.000000,-0.000000,0.000000,0.000000,0.000000,0.000000|eff|0.000000,0.000000,0.000000,0.000000,0.000000,0.000000
cobot_dynamixel_driver/joint_states|name|J1,J2,J3,J4,J5,J6|pos|-1.526147,-1.267658,1.296275,0.001014,-1.477991,-0.000083|vel|0.000000,-0.000000,0.000000,0.000000,0.000000,0.000000|eff|0.000000,0.000000,0.000000,0.000000,0.000000,0.000000
cobot_dynamixel_driver/joint_states|name|J1,J2,J3,J4,J5,J6|pos|-1.526147,-1.267658,1.296275,0.001014,-1.477991,-0.000083|vel|0.000000,-0.000000,0.000000,0.000000,0.000000,0.000000|eff|0.000000,0.000000,0.000000,0.000000,0.000000,0.000000
cobot_dynamixel_driver/joint_states|name|J1,J2,J3,J4,J5,J6|pos|-1.526147,-1.267658,1.296275,0.001014,-1.477991,-0.000083|vel|0.000000,-0.000000,0.000000,0.000000,0.000000,0.000000|eff|0.000000,0.000000,0.000000,0.000000,0.000000,0.000000
cobot_dynamixel_driver/joint_states|name|J1,J2,J3,J4,J5,J6|pos|-1.526147,-1.267658,1.296275,0.001014,-1.477991,-0.000083|vel|0.000000,-0.000000,0.000000,0.000000,0.000000,0.000000|eff|0.000000,0.000000,0.000000,0.000000,0.000000,0.000000
cobot_dynamixel_driver/joint_states|name|J1,J2,J3,J4,J5,J6|pos|-1.526147,-1.267658,1.296275,0.001014,-1.477991,-0.000083|vel|0.000000,-0.000000,0.000000,0.000000,0.000000,0.000000|eff|0.000000,0.000000,0.000000,0.000000,0.000000,0.000000
cobot_dynamixel_driver/joint_states|name|J1,J2,J3,J4,J5,J6|pos|-1.526147,-1.267658,1.296275,0.001014,-1.477991,-0.000083|vel|0.000000,-0.000000,0.000000,0.000000,0.000000,0.000000|eff|0.000000,0.000000,0.000000,0.000000,0.000000,0.000000
cobot_dynamixel_driver/joint_states|name|J1,J2,J3,J4,J5,J6|pos|-1.526147,-1.267658,1.296275,0.001014,-1.477991,-0.000083|vel|0.000000,-0.000000,0.000000,0.000000,0.000000,0.000000|eff|0.000000,0.000000,0.000000,0.000000,0.000000,0.000000
cobot_dynamixel_driver/joint_states|name|J1,J2,J3,J4,J5,J6|pos|-1.526147,-1.267658,1.296275,0.001014,-1.477991,-0.000083|vel|0.000000,-0.000000,0.000000,0.000000,0.000000,0.000000|eff|0.000000,0.000000,0.000000,0.000000,0.000000,0.000000
cobot_dynamixel_driver/joint_states|name|J1,J2,J3,J4,J5,J6|pos|-1.526147,-1.267658,1.296275,0.001014,-1.477991,-0.000083|vel|0.000000,-0.000000,0.000000,0.000000,0.000000,0.000000|eff|0.000000,0.000000,0.000000,0.000000,0.000000,0.000000
cobot_dynamixel_driver/joint_states|name|J1,J2,J3,J4,J5,J6|pos|-1.526147,-1.267658,1.296275,0.001014,-1.477991,-0.000083|vel|0.000000,-0.000000,0.000000,0.000000,0.000000,0.000000|eff|0.000000,0.000000,0.000000,0.000000,0.000000,0.000000
cobot_dynamixel_driver/joint_states|name|J1,J2,J3,J4,J5,J6|pos|-1.526147,-1.267658,1.296275,0.001014,-1.477991,-0.000083|vel|0.000000,-0.000000,0.000000,0.000000,0.000000,0.000000|eff|0.000000,0.000000,0.000000,0.000000,0.000000,0.000000
cobot_dynamixel_driver/joint_states|name|J1,J2,J3,J4,J5,J6|pos|-1.526147,-1.267658,1.296275,0.001014,-1.477991,-0.000083|vel|0.000000,-0.000000,0.000000,0.000000,0.000000,0.000000|eff|0.000000,0.000000,0.000000,0.000000,0.000000,0.000000
cobot_dynamixel_driver/joint_states|name|J1,J2,J3,J4,J5,J6|pos|-1.526147,-1.267658,1.296275,0.001014,-1.477991,-0.000083|vel|0.000000,-0.000000,0.000000,0.000000,0.000000,0.000000|eff|0.000000,0.000000,0.000000,0.000000,0.000000,0.000000
cobot_dynamixel_driver/joint_states|name|J1,J2,J3,J4,J5,J6|pos|-1.526147,-1.267658,1.296275,0.001014,-1.477991,-0.000083|vel|0.000000,-0.000000,0.000000,0.000000,0.000000,0.000000|eff|0.000000,0.000000,0.000000,0.000000,0.000000,0.000000
cobot_dynamixel_driver/joint_states|name|J1,J2,J3,J4,J5,J6|pos|-1.526147,-1.267658,1.296275,0.001014,-1.477991,-0.000083|vel|0.000000,-0.000000,0.000000,0.000000,0.000000,0.000000|eff|0.000000,0.000000,0.000000,0.000000,0.000000,0.000000
cobot_dynamixel_driver/joint_states|name|J1,J2,J3,J4,J5,J6|pos|-1.526147,-1.267658,1.296275,0.001014,-1.477991,-0.000083|vel|0.000000,-0.000000,0.000000,0.000000,0.000000,0.000000|eff|0.000000,0.000000,0.000000,0.000000,0.000000,0.000000
cobot_dynamixel_driver/joint_states|name|J1,J2,J3,J4,J5,J6|pos|-1.526147,-1.267658,1.296275,0.001014,-1.477991,-0.000083|vel|0.000000,-0.000000,0.000000,0.000000,0.000000,0.000000|eff|0.000000,0.000000,0.000000,0.000000,0.000000,0.000000
cobot_dynamixel_driver/joint_states|name|J1,J2,J3,J4,J5,J6|pos|-1.526147,-1.267658,1.296275,0.001014,-1.477991,-0.000083|vel|0.000000,-0.000000,0.000000,0.000000,0.000000,0.000000|eff|0.000000,0.000000,0.000000,0.000000,0.000000,0.000000
cobot_dynamixel_driver/joint_states|name|J1,J2,J3,J4,J5,J6|pos|-1.526147,-1.267658,1.296275,0.001014,-1.477991,-0.000083|vel|0.000000,-0.000000,0.000000,0.000000,0.000000,0.000000|eff|0.000000,0.000000,0.000000,0.000000,0.000000,0.000000
cobot_dynamixel_driver/joint_states|name|J1,J2,J3,J4,J5,J6|pos|-1.526147,-1.267658,1.296275,0.001014,-1.477991,-0.000083|vel|0.000000,-0.000000,0.000000,0.000000,0.000000,0.000000|eff|0.000000,0.000000,0.000000,0.000000,0.000000,0.000000
cobot_dynamixel_driver/joint_states|name|J1,J2,J3,J4,J5,J6|pos|-1.526147,-1.267658,1.296275,0.001014,-1.477991,-0.000083|vel|0.000000,-0.000000,0.000000,0.000000,0.000000,0.000000|eff|0.000000,0.000000,0.000000,0.000000,0.000000,0.000000
cobot_dynamixel_driver/joint_states|name|J1,J2,J3,J4,J5,J6|pos|-1.526147,-1.267658,1.296275,0.001014,-1.477991,-0.000083|vel|0.000000,-0.000000,0.000000,0.000000,0.000000,0.000000|eff|0.000000,0.000000,0.000000,0.000000,0.000000,0.000000
cobot_dynamixel_driver/joint_states|name|J1,J2,J3,J4,J5,J6|pos|-1.526147,-1.267658,1.296275,0.001014,-1.477991,-0.000083|vel|0.000000,-0.000000,0.000000,0.000000,0.000000,0.000000|eff|0.000000,0.000000,0.000000,0.000000,0.000000,0.000000
cobot_dynamixel_driver/joint_states|name|J1,J2,J3,J4,J5,J6|pos|-1.526147,-1.267658,1.296275,0.001014,-1.477991,-0.000083|vel|0.000000,-0.000000,0.000000,0.000000,0.000000,0.000000|eff|0.000000,0.000000,0.000000,0.000000,0.000000,0.000000
cobot_dynamixel_driver/joint_states|name|J1,J2,J3,J4,J5,J6|pos|-1.526147,-1.267658,1.296275,0.001014,-1.477991,-0.000083|vel|0.000000,-0.000000,0.000000,0.000000,0.000000,0.000000|eff|0.000000,0.000000,0.000000,0.000000,0.000000,0.000000
cobot_dynamixel_driver/joint_states|name|J1,J2,J3,J4,J5,J6|pos|-1.526147,-1.267658,1.296275,0.001014,-1.477991,-0.000083|vel|0.000000,-0.000000,0.000000,0.000000,0.000000,0.000000|eff|0.000000,0.000000,0.000000,0.000000,0.000000,0.000000
cobot_dynamixel_driver/joint_states|name|J1,J2,J3,J4,J5,J6|pos|-1.526147,-1.267658,1.296275,0.001014,-1.477991,-0.000083|vel|0.000000,-0.000000,0.000000,0.000000,0.000000,0.000000|eff|0.000000,0.000000,0.000000,0.000000,0.000000,0.000000
cobot_dynamixel_driver/joint_states|name|J1,J2,J3,J4,J5,J6|pos|-1.526147,-1.267658,1.296275,0.001014,-1.477991,-0.000083|vel|0.000000,-0.000000,0.000000,0.000000,0.000000,0.000000|eff|0.000000,0.000000,0.000000,0.000000,0.000000,0.000000
cobot_dynamixel_driver/joint_states|name|J1,J2,J3,J4,J5,J6|pos|-1.526147,-1.267658,1.296275,0.001014,-1.477991,-0.000083|vel|0.000000,-0.000000,0.000000,0.000000,0.000000,0.000000|eff|0.000000,0.000000,0.000000,0.000000,0.000000,0.000000
cobot_dynamixel_driver/joint_states|name|J1,J2,J3,J4,J5,J6|pos|-1.526147,-1.267658,1.296275,0.001014,-1.477991,-0.000083|vel|0.000000,-0.000000,0.000000,0.000000,0.000000,0.000000|eff|0.000000,0.000000,0.000000,0.000000,0.000000,0.000000
cobot_dynamixel_driver/joint_states|name|J1,J2,J3,J4,J5,J6|pos|-1.526147,-1.267658,1.296275,0.001014,-1.477991,-0.000083|vel|0.000000,-0.000000,0.000000,0.000000,0.000000,0.000000|eff|0.000000,0.000000,0.000000,0.000000,0.000000,0.000000
cobot_dynamixel_driver/joint_states|name|J1,J2,J3,J4,J5,J6|pos|-1.526147,-1.267658,1.296275,0.001014,-1.477991,-0.000083|vel|0.000000,-0.000000,0.000000,0.000000,0.000000,0.000000|eff|0.000000,0.000000,0.000000,0.000000,0.000000,0.000000
cobot_dynamixel_driver/joint_states|name|J1,J2,J3,J4,J5,J6|pos|-1.526147,-1.267658,1.296275,0.001014,-1.477991,-0.000083|vel|0.000000,-0.000000,0.000000,0.000000,0.000000,0.000000|eff|0.000000,0.000000,0.000000,0.000000,0.000000,0.000000
cobot_dynamixel_driver/joint_states|name|J1,J2,J3,J4,J5,J6|pos|-1.526147,-1.267658,1.296275,0.001014,-1.477991,-0.000083|vel|0.000000,-0.000000,0.000000,0.000000,0.000000,0.000000|eff|0.000000,0.000000,0.000000,0.000000,0.000000,0.000000
cobot_dynamixel_driver/joint_states|name|J1,J2,J3,J4,J5,J6|pos|-1.526147,-1.267658,1.296275,0.001014,-1.477991,-0.000083|vel|0.000000,-0.000000,0.000000,0.000000,0.000000,0.000000|eff|0.000000,0.000000,0.000000,0.000000,0.000000,0.000000
cobot_dynamixel_driver/joint_states|name|J1,J2,J3,J4,J5,J6|pos|-1.526147,-1.267658,1.296275,0.001014,-1.477991,-0.000083|vel|0.000000,-0.000000,0.000000,0.000000,0.000000,0.000000|eff|0.000000,0.000000,0.000000,0.000000,0.000000,0.000000
cobot_dynamixel_driver/joint_states|name|J1,J2,J3,J4,J5,J6|pos|-1.526147,-1.267658,1.296275,0.001014,-1.477991,-0.000083|vel|0.000000,-0.000000,0.000000,0.000000,0.000000,0.000000|eff|0.000000,0.000000,0.000000,0.000000,0.000000,0.000000
cobot_dynamixel_driver/joint_states|name|J1,J2,J3,J4,J5,J6|pos|-1.526147,-1.267658,1.296275,0.001014,-1.477991,-0.000083|vel|0.000000,-0.000000,0.000000,0.000000,0.000000,0.000000|eff|0.000000,0.000000,0.000000,0.000000,0.000000,0.000000
cobot_dynamixel_driver/joint_states|name|J1,J2,J3,J4,J5,J6|pos|-1.526147,-1.267658,1.296275,0.001014,-1.477991,-0.000083|vel|0.000000,-0.000000,0.000000,0.000000,0.000000,0.000000|eff|0.000000,0.000000,0.000000,0.000000,0.000000,0.000000
cobot_dynamixel_driver/joint_states|name|J1,J2,J3,J4,J5,J6|pos|-1.526147,-1.267658,1.296275,0.001014,-1.477991,-0.000083|vel|0.000000,-0.000000,0.000000,0.000000,0.000000,0.000000|eff|0.000000,0.000000,0.000000,0.000000,0.000000,0.000000
cobot_dynamixel_driver/joint_states|name|J1,J2,J3,J4,J5,J6|pos|-1.526147,-1.267658,1.296275,0.001014,-1.477991,-0.000083|vel|0.000000,-0.000000,0.000000,0.000000,0.000000,0.000000|eff|0.000000,0.000000,0.000000,0.000000,0.000000,0.000000
cobot_dynamixel_driver/joint_states|name|J1,J2,J3,J4,J5,J6|pos|-1.526147,-1.267658,1.296275,0.001014,-1.477991,-0.000083|vel|0.000000,-0.000000,0.000000,0.000000,0.000000,0.000000|eff|0.000000,0.000000,0.000000,0.000000,0.000000,0.000000
cobot_dynamixel_driver/joint_states|name|J1,J2,J3,J4,J5,J6|pos|-1.526147,-1.267658,1.296275,0.001014,-1.477991,-0.000083|vel|0.000000,-0.000000,0.000000,0.000000,0.000000,0.000000|eff|0.000000,0.000000,0.000000,0.000000,0.000000,0.000000
cobot_dynamixel_driver/joint_states|name|J1,J2,J3,J4,J5,J6|pos|-1.526147,-1.267658,1.296275,0.001014,-1.477991,-0.000083|vel|0.000000,-0.000000,0.000000,0.000000,0.000000,0.000000|eff|0.000000,0.000000,0.000000,0.000000,0.000000,0.000000
cobot_dynamixel_driver/joint_states|name|J1,J2,J3,J4,J5,J6|pos|-1.526147,-1.267658,1.296275,0.001014,-1.477991,-0.000083|vel|0.000000,-0.000000,0.000000,0.000000,0.000000,0.000000|eff|0.000000,0.000000,0.000000,0.000000,0.000000,0.000000
cobot_dynamixel_driver/joint_states|name|J1,J2,J3,J4,J5,J6|pos|-1.526147,-1.267658,1.296275,0.001014,-1.477991,-0.000083|vel|0.000000,-0.000000,0.000000,0.000000,0.000000,0.000000|eff|0.000000,0.000000,0.000000,0.000000,0.000000,0.000000
cobot_dynamixel_driver/joint_states|name|J1,J2,J3,J4,J5,J6|pos|-1.526147,-1.267658,1.296275,0.001014,-1.477991,-0.000083|vel|0.000000,-0.000000,0.000000,0.000000,0.000000,0.000000|eff|0.000000,0.000000,0.000000,0.000000,0.000000,0.000000
cobot_dynamixel_driver/joint_states|name|J1,J2,J3,J4,J5,J6|pos|-1.526147,-1.267658,1.296275,0.001014,-1.477991,-0.000083|vel|0.000000,-0.000000,0.000000,0.000000,0.000000,0.000000|eff|0.000000,0.000000,0.000000,0.000000,0.000000,0.000000
cobot_dynamixel_driver/joint_states|name|J1,J2,J3,J4,J5,J6|pos|-1.526147,-1.267658,1.296275,0.001014,-1.477991,-0.000083|vel|0.000000,-0.000000,0.000000,0.000000,0.000000,0.000000|eff|0.000000,0.000000,0.000000,0.000000,0.000000,0.000000
cobot_dynamixel_driver/joint_states|name|J1,J2,J3,J4,J5,J6|pos|-1.526147,-1.267658,1.296275,0.001014,-1.477991,-0.000083|vel|0.000000,-0.000000,0.000000,0.000000,0.000000,0.000000|eff|0.000000,0.000000,0.000000,0.000000,0.000000,0.000000
cobot_dynamixel_driver/joint_states|name|J1,J2,J3,J4,J5,J6|pos|-1.526147,-1.267658,1.296275,0.001014,-1.477991,-0.000083|vel|0.000000,-0.000000,0.000000,0.000000,0.000000,0.000000|eff|0.000000,0.000000,0.000000,0.000000,0.000000,0.000000
cobot_dynamixel_driver/joint_states|name|J1,J2,J3,J4,J5,J6|pos|-1.526147,-1.267658,1.296275,0.001014,-1.477991,-0.000083|vel|0.000000,-0.000000,0.000000,0.000000,0.000000,0.000000|eff|0.000000,0.000000,0.000000,0.000000,0.000000,0.000000
cobot_dynamixel_driver/joint_states|name|J1,J2,J3,J4,J5,J6|pos|-1.526147,-1.267658,1.296275,0.001014,-1.477991,-0.000083|vel|0.000000,-0.000000,0.000000,0.000000,0.000000,0.000000|eff|0.000000,0.000000,0.000000,0.000000,0.000000,0.000000
cobot_dynamixel_driver/joint_states|name|J1,J2,J3,J4,J5,J6|pos|-1.526147,-1.267658,1.296275,0.001014,-1.477991,-0.000083|vel|0.000000,-0.000000,0.000000,0.000000,0.000000,0.000000|eff|0.000000,0.000000,0.000000,0.000000,0.000000,0.000000
cobot_dynamixel_driver/joint_states|name|J1,J2,J3,J4,J5,J6|pos|-1.526147,-1.267658,1.296275,0.001014,-1.477991,-0.000083|vel|0.000000,-0.000000,0.000000,0.000000,0.000000,0.000000|eff|0.000000,0.000000,0.000000,0.000000,0.000000,0.000000
cobot_dynamixel_driver/joint_states|name|J1,J2,J3,J4,J5,J6|pos|-1.526147,-1.267658,1.296275,0.001014,-1.477991,-0.000083|vel|0.000000,-0.000000,0.000000,0.000000,0.000000,0.000000|eff|0.000000,0.000000,0.000000,0.000000,0.000000,0.000000
cobot_dynamixel_driver/joint_states|name|J1,J2,J3,J4,J5,J6|pos|-1.526147,-1.267658,1.296275,0.001014,-1.477991,-0.000083|vel|0.000000,-0.000000,0.000000,0.000000,0.000000,0.000000|eff|0.000000,0.000000,0.000000,0.000000,0.000000,0.000000
cobot_dynamixel_driver/joint_states|name|J1,J2,J3,J4,J5,J6|pos|-1.526147,-1.267658,1.296275,0.001014,-1.477991,-0.000083|vel|0.000000,-0.000000,0.000000,0.000000,0.000000,0.000000|eff|0.000000,0.000000,0.000000,0.000000,0.000000,0.000000
cobot_dynamixel_driver/joint_states|name|J1,J2,J3,J4,J5,J6|pos|-1.526147,-1.267658,1.296275,0.001014,-1.477991,-0.000083|vel|0.000000,-0.000000,0.000000,0.000000,0.000000,0.000000|eff|0.000000,0.000000,0.000000,0.000000,0.000000,0.000000
