surachairobotic/cobot/cobot_dynamixel_driver/log/2018-12-19T02:51:25.545636_driver_log.txt
cobot_dynamixel_driver/joint_states|name|J1,J2,J3,J4,J5,J6|pos|1.046949,0.030983,0.353227,-0.000025,-0.000103,0.000041|vel|0.000000,0.001461,0.000000,0.000000,0.000000,0.000000|eff|0.000000,306.152344,-338.378906,0.000000,0.000000,0.000000
cobot_dynamixel_driver/joint_states|name|J1,J2,J3,J4,J5,J6|pos|1.046949,0.030983,0.353227,-0.000025,-0.000103,0.000041|vel|0.000000,-0.000000,0.000000,0.000000,0.000000,0.000000|eff|0.000000,338.378906,-338.378906,0.000000,0.000000,-8.056641
cobot_dynamixel_driver/joint_states|name|J1,J2,J3,J4,J5,J6|pos|1.046949,0.030983,0.353227,-0.000025,-0.000103,0.000041|vel|0.000000,-0.000000,0.000000,0.000000,0.000000,0.000000|eff|0.000000,386.718750,-338.378906,0.000000,0.000000,-8.056641
cobot_dynamixel_driver/joint_states|name|J1,J2,J3,J4,J5,J6|pos|1.046949,0.030995,0.353227,-0.000025,-0.000103,0.000041|vel|0.000000,-0.000000,0.000000,0.000000,0.000000,0.000000|eff|0.000000,209.472656,-338.378906,0.000000,0.000000,-8.056641
cobot_dynamixel_driver/joint_states|name|J1,J2,J3,J4,J5,J6|pos|1.046949,0.030995,0.353227,-0.000025,-0.000103,0.000041|vel|0.000000,-0.000000,0.000000,0.000000,0.000000,0.000000|eff|0.000000,193.359375,-338.378906,0.000000,0.000000,-8.056641
cobot_dynamixel_driver/joint_states|name|J1,J2,J3,J4,J5,J6|pos|1.046949,0.030995,0.353227,-0.000025,-0.000103,0.000041|vel|0.000000,-0.000000,0.000000,0.000000,0.000000,0.000000|eff|0.000000,193.359375,-338.378906,0.000000,0.000000,0.000000
cobot_dynamixel_driver/joint_states|name|J1,J2,J3,J4,J5,J6|pos|1.046949,0.031008,0.353227,-0.000025,-0.000103,0.000041|vel|0.000000,-0.000000,0.000000,0.000000,0.000000,0.000000|eff|0.000000,338.378906,-354.492188,0.000000,0.000000,16.113281
cobot_dynamixel_driver/joint_states|name|J1,J2,J3,J4,J5,J6|pos|1.046949,0.031008,0.353227,-0.000025,-0.000103,0.000041|vel|0.000000,-0.000000,0.000000,0.000000,0.000000,0.000000|eff|0.000000,209.472656,-354.492188,0.000000,0.000000,0.000000
cobot_dynamixel_driver/joint_states|name|J1,J2,J3,J4,J5,J6|pos|1.046949,0.031008,0.353227,-0.000025,-0.000103,0.000041|vel|0.000000,-0.000000,0.000000,0.000000,0.000000,0.000000|eff|0.000000,225.585938,-290.039062,0.000000,0.000000,20.141602
cobot_dynamixel_driver/joint_states|name|J1,J2,J3,J4,J5,J6|pos|1.046949,0.031008,0.353227,-0.000025,-0.000103,0.000041|vel|0.000000,-0.000000,0.000000,0.000000,0.000000,0.000000|eff|0.000000,209.472656,-354.492188,0.000000,0.000000,-8.056641
cobot_dynamixel_driver/joint_states|name|J1,J2,J3,J4,J5,J6|pos|1.046949,0.031008,0.353227,-0.000025,-0.000103,0.000041|vel|0.000000,-0.000000,0.000000,0.000000,0.000000,0.000000|eff|0.000000,322.265625,-273.925781,0.000000,0.000000,0.000000
cobot_dynamixel_driver/joint_states|name|J1,J2,J3,J4,J5,J6|pos|1.046949,0.031008,0.353227,-0.000025,-0.000103,0.000041|vel|0.000000,-0.000000,0.000000,0.000000,0.000000,0.000000|eff|0.000000,402.832031,-338.378906,0.000000,0.000000,0.000000
cobot_dynamixel_driver/joint_states|name|J1,J2,J3,J4,J5,J6|pos|1.046949,0.031008,0.353227,-0.000025,-0.000103,0.000041|vel|0.000000,-0.000000,0.000000,0.000000,0.000000,0.000000|eff|0.000000,209.472656,-322.265625,0.000000,0.000000,-8.056641
cobot_dynamixel_driver/joint_states|name|J1,J2,J3,J4,J5,J6|pos|1.046949,0.031008,0.353227,-0.000025,-0.000103,0.000041|vel|0.000000,-0.000000,0.000000,0.000000,0.000000,0.000000|eff|0.000000,225.585938,-354.492188,0.000000,0.000000,0.000000
cobot_dynamixel_driver/joint_states|name|J1,J2,J3,J4,J5,J6|pos|1.046949,0.031008,0.353227,-0.000025,-0.000103,0.000041|vel|0.000000,-0.000000,0.000000,0.000000,0.000000,0.000000|eff|0.000000,273.925781,-354.492188,0.000000,0.000000,0.000000
cobot_dynamixel_driver/joint_states|name|J1,J2,J3,J4,J5,J6|pos|1.046949,0.031008,0.353227,-0.000025,-0.000103,0.000041|vel|0.000000,-0.000000,0.000000,0.000000,0.000000,0.000000|eff|0.000000,273.925781,-338.378906,0.000000,0.000000,0.000000
cobot_dynamixel_driver/joint_states|name|J1,J2,J3,J4,J5,J6|pos|1.046949,0.031008,0.353227,-0.000025,-0.000103,0.000041|vel|0.000000,-0.000000,0.000000,0.000000,0.000000,0.000000|eff|0.000000,209.472656,-338.378906,0.000000,0.000000,20.141602
cobot_dynamixel_driver/joint_states|name|J1,J2,J3,J4,J5,J6|pos|1.046949,0.031020,0.353227,-0.000025,-0.000103,0.000041|vel|0.000000,-0.000000,0.000000,0.000000,0.000000,0.000000|eff|0.000000,209.472656,-338.378906,0.000000,0.000000,-8.056641
cobot_dynamixel_driver/joint_states|name|J1,J2,J3,J4,J5,J6|pos|1.046949,0.031020,0.353227,-0.000025,-0.000103,0.000041|vel|0.000000,-0.000000,0.000000,0.000000,0.000000,0.000000|eff|0.000000,338.378906,-338.378906,0.000000,0.000000,0.000000
cobot_dynamixel_driver/joint_states|name|J1,J2,J3,J4,J5,J6|pos|1.046949,0.031020,0.353227,-0.000025,-0.000103,0.000041|vel|0.000000,-0.000000,0.000000,0.000000,0.000000,0.000000|eff|0.000000,241.699219,-354.492188,0.000000,0.000000,8.056641
cobot_dynamixel_driver/joint_states|name|J1,J2,J3,J4,J5,J6|pos|1.046949,0.031020,0.353227,-0.000025,-0.000103,0.000041|vel|0.000000,-0.000000,0.000000,0.000000,0.000000,0.000000|eff|0.000000,209.472656,-338.378906,0.000000,0.000000,0.000000
cobot_dynamixel_driver/joint_states|name|J1,J2,J3,J4,J5,J6|pos|1.046949,0.031020,0.353227,-0.000025,-0.000103,0.000041|vel|0.000000,-0.000000,0.000000,0.000000,0.000000,0.000000|eff|0.000000,209.472656,-354.492188,0.000000,0.000000,-8.056641
cobot_dynamixel_driver/joint_states|name|J1,J2,J3,J4,J5,J6|pos|1.046949,0.031020,0.353227,-0.000025,-0.000103,0.000041|vel|0.000000,-0.000000,0.000000,0.000000,0.000000,0.000000|eff|0.000000,273.925781,-354.492188,0.000000,0.000000,0.000000
cobot_dynamixel_driver/joint_states|name|J1,J2,J3,J4,J5,J6|pos|1.046949,0.031020,0.353227,-0.000025,-0.000103,0.000041|vel|0.000000,-0.000000,0.000000,0.000000,0.000000,0.000000|eff|0.000000,241.699219,-354.492188,0.000000,0.000000,0.000000
cobot_dynamixel_driver/joint_states|name|J1,J2,J3,J4,J5,J6|pos|1.046949,0.031020,0.353227,-0.000025,-0.000103,0.000041|vel|0.000000,-0.000000,0.000000,0.000000,0.000000,0.000000|eff|0.000000,386.718750,-354.492188,0.000000,0.000000,0.000000
cobot_dynamixel_driver/joint_states|name|J1,J2,J3,J4,J5,J6|pos|1.046949,0.031020,0.353227,-0.000025,-0.000103,0.000041|vel|0.000000,-0.000000,0.000000,0.000000,0.000000,0.000000|eff|0.000000,225.585938,-354.492188,0.000000,0.000000,24.169922
cobot_dynamixel_driver/joint_states|name|J1,J2,J3,J4,J5,J6|pos|1.046949,0.031020,0.353227,-0.000025,-0.000103,0.000041|vel|0.000000,-0.000000,0.000000,0.000000,0.000000,0.000000|eff|0.000000,386.718750,-354.492188,0.000000,0.000000,24.169922
cobot_dynamixel_driver/joint_states|name|J1,J2,J3,J4,J5,J6|pos|1.046949,0.031020,0.353227,-0.000025,-0.000103,0.000041|vel|0.000000,-0.000000,0.000000,0.000000,0.000000,0.000000|eff|0.000000,370.605469,-290.039062,0.000000,0.000000,8.056641
cobot_dynamixel_driver/joint_states|name|J1,J2,J3,J4,J5,J6|pos|1.046949,0.031020,0.353227,-0.000025,-0.000103,0.000041|vel|0.000000,-0.000000,0.000000,0.000000,0.000000,0.000000|eff|0.000000,273.925781,-354.492188,0.000000,0.000000,0.000000
cobot_dynamixel_driver/goal|-:J1,J2,J3,J4,J5,J6:1.047198,0.000000,0.000000,0.000000,0.000000,0.000000:0.500000,0.500000,0.500000,0.500000,0.500000,0.500000:pos_vel_
cobot_dynamixel_driver/goal|-:J1,J2,J3,J4,J5,J6:1.047198,0.000000,0.000000,0.000000,0.000000,0.000000:0.500000,0.500000,0.500000,0.500000,0.500000,0.500000:pos_vel_
cobot_dynamixel_driver/goal|-:J1,J2,J3,J4,J5,J6:1.047198,0.000000,0.000000,0.000000,0.000000,0.000000:0.500000,0.500000,0.500000,0.500000,0.500000,0.500000:pos_vel_
cobot_dynamixel_driver/goal|-:J1,J2,J3,J4,J5,J6:1.047198,0.000000,0.000000,0.000000,0.000000,0.000000:0.500000,0.500000,0.500000,0.500000,0.500000,0.500000:pos_vel_
cobot_dynamixel_driver/goal|-:J1,J2,J3,J4,J5,J6:1.047198,0.000000,0.000000,0.000000,0.000000,0.000000:0.500000,0.500000,0.500000,0.500000,0.500000,0.500000:pos_vel_
cobot_dynamixel_driver/goal|-:J1,J2,J3,J4,J5,J6:1.047198,0.000000,0.000000,0.000000,0.000000,0.000000:0.500000,0.500000,0.500000,0.500000,0.500000,0.500000:pos_vel_
cobot_dynamixel_driver/joint_states|name|J1,J2,J3,J4,J5,J6|pos|1.043832,0.031546,0.355079,0.001014,-0.000931,-0.000083|vel|0.000000,-0.000417,-0.002712,0.000000,0.000000,0.000000|eff|0.000000,451.171875,-306.152344,0.000000,0.000000,0.000000
cobot_dynamixel_driver/goal|-:J1,J2,J3,J4,J5,J6:1.047198,0.000000,0.000000,0.000000,0.000000,0.000000:0.500000,0.500000,0.500000,0.500000,0.500000,0.500000:pos_vel_
cobot_dynamixel_driver/goal|-:J1,J2,J3,J4,J5,J6:1.047198,0.000000,0.000000,0.000000,0.000000,0.000000:0.500000,0.500000,0.500000,0.500000,0.500000,0.500000:pos_vel_
cobot_dynamixel_driver/goal|-:J1,J2,J3,J4,J5,J6:1.047198,0.000000,0.000000,0.000000,0.000000,0.000000:0.500000,0.500000,0.500000,0.500000,0.500000,0.500000:pos_vel_
cobot_dynamixel_driver/goal|-:J1,J2,J3,J4,J5,J6:1.047198,0.000000,0.000000,0.000000,0.000000,0.000000:0.500000,0.500000,0.500000,0.500000,0.500000,0.500000:pos_vel_
cobot_dynamixel_driver/goal|-:J1,J2,J3,J4,J5,J6:1.047198,0.000000,0.000000,0.000000,0.000000,0.000000:0.500000,0.500000,0.500000,0.500000,0.500000,0.500000:pos_vel_
cobot_dynamixel_driver/goal|-:J1,J2,J3,J4,J5,J6:1.047198,0.000000,0.000000,0.000000,0.000000,0.000000:0.500000,0.500000,0.500000,0.500000,0.500000,0.500000:pos_vel_
cobot_dynamixel_driver/goal|-:J1,J2,J3,J4,J5,J6:1.047198,0.000000,0.000000,0.000000,0.000000,0.000000:0.500000,0.500000,0.500000,0.500000,0.500000,0.500000:pos_vel_
cobot_dynamixel_driver/goal|-:J1,J2,J3,J4,J5,J6:1.047198,0.000000,0.000000,0.000000,0.000000,0.000000:0.500000,0.500000,0.500000,0.500000,0.500000,0.500000:pos_vel_
cobot_dynamixel_driver/goal|-:J1,J2,J3,J4,J5,J6:1.047198,0.000000,0.000000,0.000000,0.000000,0.000000:0.500000,0.500000,0.500000,0.500000,0.500000,0.500000:pos_vel_
cobot_dynamixel_driver/goal|-:J1,J2,J3,J4,J5,J6:1.047198,0.000000,0.000000,0.000000,0.000000,0.000000:0.500000,0.500000,0.500000,0.500000,0.500000,0.500000:pos_vel_
cobot_dynamixel_driver/goal|-:J1,J2,J3,J4,J5,J6:1.047198,0.000000,0.000000,0.000000,0.000000,0.000000:0.500000,0.500000,0.500000,0.500000,0.500000,0.500000:pos_vel_
cobot_dynamixel_driver/goal|-:J1,J2,J3,J4,J5,J6:1.047198,0.000000,0.000000,0.000000,0.000000,0.000000:0.500000,0.500000,0.500000,0.500000,0.500000,0.500000:pos_vel_
cobot_dynamixel_driver/goal|-:J1,J2,J3,J4,J5,J6:1.047198,0.000000,0.000000,0.000000,0.000000,0.000000:0.500000,0.500000,0.500000,0.500000,0.500000,0.500000:pos_vel_
cobot_dynamixel_driver/goal|-:J1,J2,J3,J4,J5,J6:1.047198,0.000000,0.000000,0.000000,0.000000,0.000000:0.500000,0.500000,0.500000,0.500000,0.500000,0.500000:pos_vel_
cobot_dynamixel_driver/goal|-:J1,J2,J3,J4,J5,J6:1.047198,0.000000,0.000000,0.000000,0.000000,0.000000:0.500000,0.500000,0.500000,0.500000,0.500000,0.500000:pos_vel_
cobot_dynamixel_driver/goal|-:J1,J2,J3,J4,J5,J6:1.047198,0.000000,0.000000,0.000000,0.000000,0.000000:0.500000,0.500000,0.500000,0.500000,0.500000,0.500000:pos_vel_
cobot_dynamixel_driver/goal|-:J1,J2,J3,J4,J5,J6:1.047198,0.000000,0.000000,0.000000,0.000000,0.000000:0.500000,0.500000,0.500000,0.500000,0.500000,0.500000:pos_vel_
cobot_dynamixel_driver/goal|-:J1,J2,J3,J4,J5,J6:1.047198,0.000000,0.000000,0.000000,0.000000,0.000000:0.500000,0.500000,0.500000,0.500000,0.500000,0.500000:pos_vel_
cobot_dynamixel_driver/goal|-:J1,J2,J3,J4,J5,J6:1.047198,0.000000,0.000000,0.000000,0.000000,0.000000:0.500000,0.500000,0.500000,0.500000,0.500000,0.500000:pos_vel_
cobot_dynamixel_driver/goal|-:J1,J2,J3,J4,J5,J6:1.047198,0.000000,0.000000,0.000000,0.000000,0.000000:0.500000,0.500000,0.500000,0.500000,0.500000,0.500000:pos_vel_
cobot_dynamixel_driver/goal|-:J1,J2,J3,J4,J5,J6:1.047198,0.000000,0.000000,0.000000,0.000000,0.000000:0.500000,0.500000,0.500000,0.500000,0.500000,0.500000:pos_vel_
cobot_dynamixel_driver/goal|-:J1,J2,J3,J4,J5,J6:1.047198,0.000000,0.000000,0.000000,0.000000,0.000000:0.500000,0.500000,0.500000,0.500000,0.500000,0.500000:pos_vel_
cobot_dynamixel_driver/goal|-:J1,J2,J3,J4,J5,J6:1.047198,0.000000,0.000000,0.000000,0.000000,0.000000:0.500000,0.500000,0.500000,0.500000,0.500000,0.500000:pos_vel_
cobot_dynamixel_driver/goal|-:J1,J2,J3,J4,J5,J6:1.047198,0.000000,0.000000,0.000000,0.000000,0.000000:0.500000,0.500000,0.500000,0.500000,0.500000,0.500000:pos_vel_
cobot_dynamixel_driver/goal|-:J1,J2,J3,J4,J5,J6:1.047198,0.000000,0.000000,0.000000,0.000000,0.000000:0.500000,0.500000,0.500000,0.500000,0.500000,0.500000:pos_vel_
cobot_dynamixel_driver/goal|-:J1,J2,J3,J4,J5,J6:1.047198,0.000000,0.000000,0.000000,0.000000,0.000000:0.500000,0.500000,0.500000,0.500000,0.500000,0.500000:pos_vel_
cobot_dynamixel_driver/goal|-:J1,J2,J3,J4,J5,J6:1.047198,0.000000,0.000000,0.000000,0.000000,0.000000:0.500000,0.500000,0.500000,0.500000,0.500000,0.500000:pos_vel_
cobot_dynamixel_driver/goal|-:J1,J2,J3,J4,J5,J6:1.047198,0.000000,0.000000,0.000000,0.000000,0.000000:0.500000,0.500000,0.500000,0.500000,0.500000,0.500000:pos_vel_
cobot_dynamixel_driver/goal|-:J1,J2,J3,J4,J5,J6:1.047198,0.000000,0.000000,0.000000,0.000000,0.000000:0.500000,0.500000,0.500000,0.500000,0.500000,0.500000:pos_vel_
cobot_dynamixel_driver/joint_states|name|J1,J2,J3,J4,J5,J6|pos|1.044896,0.023922,0.346479,0.000914,-0.000807,-0.000083|vel|0.014188,-0.180688,-0.211776,-0.003964,0.005170,0.000000|eff|209.472656,902.343750,-1047.363281,-193.359375,56.396484,0.000000
cobot_dynamixel_driver/joint_states|name|J1,J2,J3,J4,J5,J6|pos|1.045860,0.011417,0.316273,0.000551,-0.000786,-0.000083|vel|0.008346,-0.085336,-0.385996,-0.003338,0.004826,0.000000|eff|193.359375,676.757812,-1272.949219,-225.585938,60.424805,12.084961
cobot_dynamixel_driver/joint_states|name|J1,J2,J3,J4,J5,J6|pos|1.046511,0.005796,0.277404,0.000225,-0.000600,-0.000083|vel|0.004799,-0.036305,-0.450051,-0.003547,0.006549,0.000000|eff|273.925781,805.664062,-708.984375,-177.246094,52.368164,0.000000
cobot_dynamixel_driver/joint_states|name|J1,J2,J3,J4,J5,J6|pos|1.046887,0.003079,0.233878,0.000075,-0.000600,-0.000083|vel|0.003964,-0.015440,-0.467369,-0.001043,0.000000,0.000000|eff|257.812500,886.230469,-1434.082031,-128.906250,56.396484,28.198242
cobot_dynamixel_driver/joint_states|name|J1,J2,J3,J4,J5,J6|pos|1.047112,0.001627,0.187886,0.000025,-0.000455,-0.000083|vel|0.002086,-0.010432,-0.470081,-0.000626,0.003447,0.000000|eff|161.132812,725.097656,-1095.703125,-209.472656,72.509766,0.000000
cobot_dynamixel_driver/joint_states|name|J1,J2,J3,J4,J5,J6|pos|1.047125,0.001039,0.140717,0.000013,-0.000434,-0.000083|vel|0.002086,-0.002504,-0.494075,0.000000,0.000000,0.000000|eff|96.679688,902.343750,-757.324219,-112.792969,72.509766,32.226562
cobot_dynamixel_driver/joint_states|name|J1,J2,J3,J4,J5,J6|pos|1.047137,0.000551,0.092898,0.000000,-0.000310,-0.000083|vel|0.000000,-0.007720,-0.504925,0.000000,0.002413,0.000000|eff|177.246094,821.777344,-757.324219,-96.679688,76.538086,28.198242
cobot_dynamixel_driver/joint_states|name|J1,J2,J3,J4,J5,J6|pos|1.047162,0.000150,0.048383,-0.000013,-0.000290,-0.000083|vel|0.000209,-0.005008,-0.353447,0.000000,0.000345,0.000000|eff|177.246094,805.664062,-1063.476562,-96.679688,80.566406,32.226562
cobot_dynamixel_driver/joint_states|name|J1,J2,J3,J4,J5,J6|pos|1.047175,0.000088,0.024611,-0.000013,-0.000145,-0.000083|vel|0.000000,-0.003130,-0.167335,0.000000,0.002068,0.000000|eff|193.359375,757.324219,-789.550781,-145.019531,76.538086,0.000000
cobot_dynamixel_driver/joint_states|name|J1,J2,J3,J4,J5,J6|pos|1.047175,0.000088,0.012756,-0.000025,-0.000145,-0.000083|vel|0.000000,-0.000000,-0.086797,0.000000,0.000000,0.000000|eff|161.132812,773.437500,-918.457031,-161.132812,68.481445,36.254883
cobot_dynamixel_driver/joint_states|name|J1,J2,J3,J4,J5,J6|pos|1.047187,0.000088,0.006710,-0.000025,-0.000145,-0.000083|vel|0.000000,-0.000000,-0.048197,0.000000,0.000000,0.000000|eff|193.359375,676.757812,-886.230469,-145.019531,72.509766,36.254883
cobot_dynamixel_driver/joint_states|name|J1,J2,J3,J4,J5,J6|pos|1.047187,0.000088,0.003355,-0.000025,-0.000124,-0.000083|vel|0.000000,-0.000000,-0.026498,0.000000,0.000000,0.000000|eff|193.359375,773.437500,-805.664062,-145.019531,76.538086,40.283203
cobot_dynamixel_driver/joint_states|name|J1,J2,J3,J4,J5,J6|pos|1.047200,0.000088,0.001815,-0.000038,-0.000041,-0.000083|vel|0.000000,-0.000000,-0.011893,0.000000,0.001379,0.000000|eff|177.246094,773.437500,-902.343750,-177.246094,76.538086,36.254883
cobot_dynamixel_driver/joint_states|name|J1,J2,J3,J4,J5,J6|pos|1.047200,0.000088,0.001252,-0.000038,-0.000041,0.000062|vel|0.000000,-0.000000,-0.000417,0.000000,0.000000,0.004826|eff|193.359375,821.777344,-1015.136719,-177.246094,64.453125,0.000000
cobot_dynamixel_driver/joint_states|name|J1,J2,J3,J4,J5,J6|pos|1.047212,0.000075,0.000300,-0.000038,-0.000041,0.000062|vel|0.000000,-0.000000,-0.004590,0.000000,0.000000,0.000000|eff|128.906250,837.890625,-821.777344,-112.792969,64.453125,0.000000
cobot_dynamixel_driver/joint_states|name|J1,J2,J3,J4,J5,J6|pos|1.047212,0.000075,0.000263,-0.000038,-0.000041,0.000041|vel|0.000000,-0.000000,-0.002504,0.000000,0.000000,0.000000|eff|177.246094,773.437500,-821.777344,-96.679688,64.453125,-8.056641
cobot_dynamixel_driver/joint_states|name|J1,J2,J3,J4,J5,J6|pos|1.047212,0.000063,0.000250,-0.000038,-0.000041,0.000062|vel|0.000000,-0.000000,0.000000,0.000000,0.000000,0.000000|eff|96.679688,773.437500,-837.890625,-96.679688,64.453125,-8.056641
cobot_dynamixel_driver/joint_states|name|J1,J2,J3,J4,J5,J6|pos|1.047212,0.000063,0.000225,-0.000038,-0.000041,0.000041|vel|0.000000,-0.000000,-0.000209,0.000000,0.000000,0.000000|eff|177.246094,773.437500,-886.230469,-128.906250,64.453125,0.000000
cobot_dynamixel_driver/joint_states|name|J1,J2,J3,J4,J5,J6|pos|1.047225,0.000050,0.000200,-0.000038,-0.000041,0.000041|vel|0.000000,-0.000000,-0.000209,0.000000,0.000000,0.000000|eff|193.359375,789.550781,-950.683594,-96.679688,64.453125,-28.198242
cobot_dynamixel_driver/joint_states|name|J1,J2,J3,J4,J5,J6|pos|1.047212,0.000038,0.000075,-0.000038,-0.000041,0.000041|vel|0.000000,-0.000000,-0.005008,0.000000,0.000000,0.000000|eff|0.000000,837.890625,-886.230469,-96.679688,64.453125,-28.198242
cobot_dynamixel_driver/joint_states|name|J1,J2,J3,J4,J5,J6|pos|1.047212,0.000038,-0.000300,-0.000038,-0.000041,0.000041|vel|0.000000,-0.000000,-0.003338,0.000000,0.000000,0.000000|eff|177.246094,837.890625,-789.550781,-96.679688,64.453125,-28.198242
cobot_dynamixel_driver/joint_states|name|J1,J2,J3,J4,J5,J6|pos|1.047225,0.000025,-0.000313,-0.000038,-0.000041,0.000041|vel|0.000000,-0.000000,0.003338,0.000000,0.000000,0.000000|eff|177.246094,950.683594,-692.871094,-96.679688,64.453125,0.000000
cobot_dynamixel_driver/joint_states|name|J1,J2,J3,J4,J5,J6|pos|1.047225,0.000025,-0.000300,-0.000038,-0.000041,0.000041|vel|0.000000,-0.000000,0.000000,0.000000,0.000000,0.000000|eff|48.339844,805.664062,-644.531250,-96.679688,64.453125,0.000000
cobot_dynamixel_driver/joint_states|name|J1,J2,J3,J4,J5,J6|pos|1.047225,0.000025,-0.000288,-0.000038,-0.000041,0.000041|vel|0.000000,-0.000000,0.000000,0.000000,0.000000,0.000000|eff|177.246094,918.457031,-612.304688,-48.339844,64.453125,0.000000
cobot_dynamixel_driver/joint_states|name|J1,J2,J3,J4,J5,J6|pos|1.047212,0.000013,-0.000263,-0.000038,-0.000041,0.000041|vel|0.000000,-0.000000,0.000000,0.000000,0.000000,0.000000|eff|177.246094,854.003906,-563.964844,-64.453125,64.453125,0.000000
cobot_dynamixel_driver/goal|-:J1,J2,J3,J4,J5,J6:1.047198,0.000000,0.000000,0.000000,0.000000,0.000000:0.500000,0.500000,0.500000,0.500000,0.500000,0.500000:pos_vel_
cobot_dynamixel_driver/joint_states|name|J1,J2,J3,J4,J5,J6|pos|1.047212,0.000013,-0.000238,-0.000025,-0.000041,0.000041|vel|0.000000,-0.000000,0.000209,0.000000,0.000000,0.000000|eff|96.679688,773.437500,-531.738281,-64.453125,64.453125,-8.056641
cobot_dynamixel_driver/joint_states|name|J1,J2,J3,J4,J5,J6|pos|1.047212,0.000013,-0.000213,-0.000025,-0.000041,0.000041|vel|0.000000,-0.000000,0.000000,0.000000,0.000000,0.000000|eff|177.246094,918.457031,-467.285156,-64.453125,64.453125,0.000000
cobot_dynamixel_driver/joint_states|name|J1,J2,J3,J4,J5,J6|pos|1.047212,0.000013,-0.000188,-0.000025,-0.000041,0.000041|vel|0.000000,-0.000000,0.000209,0.000000,0.000000,0.000000|eff|0.000000,789.550781,-451.171875,-96.679688,64.453125,0.000000
cobot_dynamixel_driver/joint_states|name|J1,J2,J3,J4,J5,J6|pos|1.047212,0.000013,-0.000163,-0.000025,-0.000041,0.000041|vel|0.000000,-0.000000,0.000209,0.000000,0.000000,0.000000|eff|0.000000,773.437500,-435.058594,-64.453125,64.453125,0.000000
cobot_dynamixel_driver/joint_states|name|J1,J2,J3,J4,J5,J6|pos|1.047212,-0.000000,-0.000150,-0.000025,-0.000041,0.000041|vel|0.000000,-0.000000,0.000000,0.000000,0.000000,0.000000|eff|177.246094,805.664062,-435.058594,-96.679688,64.453125,-16.113281
cobot_dynamixel_driver/joint_states|name|J1,J2,J3,J4,J5,J6|pos|1.047212,-0.000000,-0.000125,-0.000025,-0.000041,0.000041|vel|0.000000,-0.000000,0.000209,0.000000,0.000000,0.000000|eff|177.246094,821.777344,-370.605469,-96.679688,64.453125,0.000000
cobot_dynamixel_driver/joint_states|name|J1,J2,J3,J4,J5,J6|pos|1.047212,-0.000000,-0.000113,-0.000025,-0.000041,0.000041|vel|0.000000,-0.000000,0.000209,0.000000,0.000000,0.000000|eff|0.000000,902.343750,-322.265625,-96.679688,64.453125,0.000000
cobot_dynamixel_driver/joint_states|name|J1,J2,J3,J4,J5,J6|pos|1.047212,-0.000000,-0.000100,-0.000025,-0.000041,0.000041|vel|0.000000,-0.000000,0.000000,0.000000,0.000000,0.000000|eff|177.246094,805.664062,-322.265625,-80.566406,64.453125,0.000000
cobot_dynamixel_driver/joint_states|name|J1,J2,J3,J4,J5,J6|pos|1.047212,-0.000000,-0.000100,-0.000025,-0.000041,0.000041|vel|0.000000,-0.000000,0.000000,0.000000,0.000000,0.000000|eff|177.246094,789.550781,-338.378906,-96.679688,64.453125,0.000000
cobot_dynamixel_driver/joint_states|name|J1,J2,J3,J4,J5,J6|pos|1.047212,-0.000000,-0.000088,-0.000025,-0.000041,0.000041|vel|0.000000,-0.000000,0.000000,0.000000,0.000000,0.000000|eff|177.246094,837.890625,-322.265625,-96.679688,64.453125,-24.169922
cobot_dynamixel_driver/joint_states|name|J1,J2,J3,J4,J5,J6|pos|1.047212,-0.000000,-0.000063,-0.000025,-0.000041,0.000041|vel|0.000000,-0.000000,0.000000,0.000000,0.000000,0.000000|eff|145.019531,950.683594,-322.265625,-96.679688,64.453125,0.000000
cobot_dynamixel_driver/joint_states|name|J1,J2,J3,J4,J5,J6|pos|1.047212,-0.000000,-0.000013,-0.000025,-0.000041,0.000041|vel|0.000000,-0.000000,0.001043,0.000000,0.000000,0.000000|eff|32.226562,886.230469,-322.265625,-80.566406,68.481445,-16.113281
cobot_dynamixel_driver/joint_states|name|J1,J2,J3,J4,J5,J6|pos|1.047212,-0.000000,-0.000013,-0.000025,-0.000041,0.000041|vel|0.000000,-0.000000,0.000000,0.000000,0.000000,0.000000|eff|145.019531,886.230469,-370.605469,0.000000,64.453125,0.000000
cobot_dynamixel_driver/joint_states|name|J1,J2,J3,J4,J5,J6|pos|1.047212,-0.000000,-0.000013,-0.000025,-0.000041,0.000041|vel|0.000000,-0.000000,0.000000,0.000000,0.000000,0.000000|eff|193.359375,773.437500,-322.265625,-96.679688,64.453125,-8.056641
cobot_dynamixel_driver/joint_states|name|J1,J2,J3,J4,J5,J6|pos|1.047212,-0.000000,-0.000013,-0.000025,-0.000041,0.000041|vel|0.000000,-0.000000,0.000000,0.000000,0.000000,0.000000|eff|32.226562,821.777344,-322.265625,-48.339844,64.453125,-16.113281
cobot_dynamixel_driver/joint_states|name|J1,J2,J3,J4,J5,J6|pos|1.047212,-0.000000,0.000000,-0.000025,-0.000041,0.000041|vel|0.000000,-0.000000,0.000000,0.000000,0.000000,0.000000|eff|177.246094,805.664062,-322.265625,-96.679688,64.453125,0.000000
cobot_dynamixel_driver/joint_states|name|J1,J2,J3,J4,J5,J6|pos|1.047212,-0.000000,0.000000,-0.000025,-0.000041,0.000041|vel|0.000000,-0.000000,0.000000,0.000000,0.000000,0.000000|eff|177.246094,902.343750,-322.265625,0.000000,64.453125,-28.198242
cobot_dynamixel_driver/joint_states|name|J1,J2,J3,J4,J5,J6|pos|1.047212,-0.000000,0.000000,-0.000025,-0.000041,0.000041|vel|0.000000,-0.000000,0.000000,0.000000,0.000000,0.000000|eff|0.000000,870.117188,-322.265625,-48.339844,64.453125,-8.056641
cobot_dynamixel_driver/joint_states|name|J1,J2,J3,J4,J5,J6|pos|1.047212,-0.000000,0.000000,-0.000025,-0.000041,0.000041|vel|0.000000,-0.000000,0.000000,0.000000,0.000000,0.000000|eff|32.226562,934.570312,-322.265625,-80.566406,64.453125,0.000000
cobot_dynamixel_driver/joint_states|name|J1,J2,J3,J4,J5,J6|pos|1.047212,-0.000000,0.000000,-0.000025,-0.000041,0.000041|vel|0.000000,-0.000000,0.000000,0.000000,0.000000,0.000000|eff|145.019531,805.664062,-322.265625,-96.679688,64.453125,-16.113281
cobot_dynamixel_driver/joint_states|name|J1,J2,J3,J4,J5,J6|pos|1.047212,-0.000000,0.000000,-0.000025,-0.000041,0.000041|vel|0.000000,-0.000000,0.000000,0.000000,0.000000,0.000000|eff|145.019531,886.230469,-322.265625,-96.679688,64.453125,-16.113281
cobot_dynamixel_driver/joint_states|name|J1,J2,J3,J4,J5,J6|pos|1.047212,-0.000013,0.000000,-0.000025,-0.000041,0.000041|vel|0.000000,-0.000000,0.000000,0.000000,0.000000,0.000000|eff|80.566406,886.230469,-322.265625,0.000000,64.453125,-16.113281
cobot_dynamixel_driver/joint_states|name|J1,J2,J3,J4,J5,J6|pos|1.047212,-0.000013,0.000000,-0.000025,-0.000041,0.000041|vel|0.000000,-0.000000,0.000000,0.000000,0.000000,0.000000|eff|32.226562,805.664062,-322.265625,-96.679688,64.453125,-16.113281
cobot_dynamixel_driver/joint_states|name|J1,J2,J3,J4,J5,J6|pos|1.047212,-0.000013,0.000000,-0.000025,-0.000041,0.000041|vel|0.000000,-0.000000,0.000000,0.000000,0.000000,0.000000|eff|128.906250,950.683594,-322.265625,-80.566406,60.424805,-28.198242
cobot_dynamixel_driver/joint_states|name|J1,J2,J3,J4,J5,J6|pos|1.047212,-0.000013,0.000000,-0.000025,-0.000041,0.000041|vel|0.000000,-0.000000,0.000000,0.000000,0.000000,0.000000|eff|177.246094,837.890625,-354.492188,-96.679688,68.481445,-16.113281
cobot_dynamixel_driver/goal|-:J1,J2,J3,J4,J5,J6:1.047198,0.000000,0.000000,0.000000,0.000000,0.000000:0.500000,0.500000,0.500000,0.500000,0.500000,0.500000:pos_vel_
cobot_dynamixel_driver/joint_states|name|J1,J2,J3,J4,J5,J6|pos|1.047212,-0.000063,0.000000,-0.000025,-0.000041,0.000041|vel|0.000000,-0.001252,0.000000,0.000000,0.000000,0.000000|eff|96.679688,757.324219,-322.265625,-96.679688,60.424805,-16.113281
cobot_dynamixel_driver/joint_states|name|J1,J2,J3,J4,J5,J6|pos|1.047212,-0.000063,0.000000,-0.000025,-0.000041,0.000041|vel|0.000000,-0.000000,0.000000,0.000000,0.000000,0.000000|eff|161.132812,870.117188,-322.265625,-48.339844,60.424805,-12.084961
cobot_dynamixel_driver/joint_states|name|J1,J2,J3,J4,J5,J6|pos|1.047212,-0.000063,0.000000,-0.000025,-0.000041,0.000041|vel|0.000000,-0.000000,0.000000,0.000000,0.000000,0.000000|eff|128.906250,757.324219,-322.265625,-80.566406,68.481445,-12.084961
cobot_dynamixel_driver/joint_states|name|J1,J2,J3,J4,J5,J6|pos|1.047212,-0.000063,0.000000,-0.000025,-0.000041,0.000041|vel|0.000000,-0.000000,0.000000,0.000000,0.000000,0.000000|eff|80.566406,725.097656,-322.265625,-48.339844,60.424805,0.000000
cobot_dynamixel_driver/joint_states|name|J1,J2,J3,J4,J5,J6|pos|1.047212,-0.000063,0.000000,-0.000025,-0.000041,0.000041|vel|0.000000,-0.000000,0.000000,0.000000,0.000000,0.000000|eff|161.132812,725.097656,-322.265625,-96.679688,64.453125,-28.198242
cobot_dynamixel_driver/joint_states|name|J1,J2,J3,J4,J5,J6|pos|1.047212,-0.000063,0.000000,-0.000025,-0.000041,0.000041|vel|0.000000,-0.000000,0.000000,0.000000,0.000000,0.000000|eff|177.246094,789.550781,-354.492188,-64.453125,60.424805,-12.084961
cobot_dynamixel_driver/joint_states|name|J1,J2,J3,J4,J5,J6|pos|1.047212,-0.000063,0.000000,-0.000025,-0.000041,0.000041|vel|0.000000,-0.000000,0.000000,0.000000,0.000000,0.000000|eff|177.246094,725.097656,-322.265625,-64.453125,68.481445,-16.113281
cobot_dynamixel_driver/joint_states|name|J1,J2,J3,J4,J5,J6|pos|1.047212,-0.000063,0.000000,-0.000025,-0.000041,0.000041|vel|0.000000,-0.000000,0.000000,0.000000,0.000000,0.000000|eff|145.019531,725.097656,-322.265625,0.000000,64.453125,0.000000
cobot_dynamixel_driver/joint_states|name|J1,J2,J3,J4,J5,J6|pos|1.047212,-0.000063,0.000000,-0.000025,-0.000041,0.000041|vel|0.000000,-0.000000,0.000000,0.000000,0.000000,0.000000|eff|112.792969,725.097656,-354.492188,-96.679688,64.453125,-28.198242
cobot_dynamixel_driver/joint_states|name|J1,J2,J3,J4,J5,J6|pos|1.047212,-0.000063,0.000000,-0.000025,-0.000041,0.000041|vel|0.000000,-0.000000,0.000000,0.000000,0.000000,0.000000|eff|193.359375,725.097656,-322.265625,-80.566406,64.453125,-16.113281
cobot_dynamixel_driver/joint_states|name|J1,J2,J3,J4,J5,J6|pos|1.047212,-0.000063,0.000000,-0.000025,-0.000041,0.000041|vel|0.000000,-0.000000,0.000000,0.000000,0.000000,0.000000|eff|145.019531,708.984375,-322.265625,-96.679688,60.424805,-28.198242
cobot_dynamixel_driver/joint_states|name|J1,J2,J3,J4,J5,J6|pos|1.047212,-0.000063,0.000000,-0.000025,-0.000041,0.000041|vel|0.000000,-0.000000,0.000000,0.000000,0.000000,0.000000|eff|32.226562,725.097656,-322.265625,-48.339844,64.453125,-8.056641
cobot_dynamixel_driver/joint_states|name|J1,J2,J3,J4,J5,J6|pos|1.047212,-0.000063,0.000000,-0.000025,-0.000041,0.000041|vel|0.000000,-0.000000,0.000000,0.000000,0.000000,0.000000|eff|145.019531,708.984375,-322.265625,0.000000,64.453125,-16.113281
cobot_dynamixel_driver/joint_states|name|J1,J2,J3,J4,J5,J6|pos|1.047212,-0.000050,0.000000,-0.000025,-0.000041,0.000041|vel|0.000000,-0.000000,0.000000,0.000000,0.000000,0.000000|eff|0.000000,708.984375,-386.718750,0.000000,64.453125,-28.198242
cobot_dynamixel_driver/joint_states|name|J1,J2,J3,J4,J5,J6|pos|1.047212,-0.000050,0.000000,-0.000025,-0.000041,0.000041|vel|0.000000,-0.000000,0.000000,0.000000,0.000000,0.000000|eff|112.792969,644.531250,-402.832031,-96.679688,64.453125,0.000000
cobot_dynamixel_driver/joint_states|name|J1,J2,J3,J4,J5,J6|pos|1.047212,-0.000050,0.000000,-0.000025,-0.000041,0.000041|vel|0.000000,-0.000000,0.000000,0.000000,0.000000,0.000000|eff|145.019531,644.531250,-370.605469,-96.679688,64.453125,-28.198242
cobot_dynamixel_driver/joint_states|name|J1,J2,J3,J4,J5,J6|pos|1.047212,-0.000050,0.000000,-0.000025,-0.000041,0.000041|vel|0.000000,-0.000000,0.000000,0.000000,0.000000,0.000000|eff|145.019531,628.417969,-322.265625,-96.679688,60.424805,-24.169922
cobot_dynamixel_driver/joint_states|name|J1,J2,J3,J4,J5,J6|pos|1.047212,-0.000050,0.000000,-0.000025,-0.000041,0.000041|vel|0.000000,-0.000000,0.000000,0.000000,0.000000,0.000000|eff|145.019531,708.984375,-322.265625,-48.339844,60.424805,-16.113281
cobot_dynamixel_driver/joint_states|name|J1,J2,J3,J4,J5,J6|pos|1.047212,-0.000050,0.000000,-0.000025,-0.000041,0.000041|vel|0.000000,-0.000000,0.000000,0.000000,0.000000,0.000000|eff|161.132812,692.871094,-322.265625,-80.566406,68.481445,-12.084961
cobot_dynamixel_driver/joint_states|name|J1,J2,J3,J4,J5,J6|pos|1.047212,-0.000050,0.000000,-0.000025,-0.000041,0.000041|vel|0.000000,-0.000000,0.000000,0.000000,0.000000,0.000000|eff|0.000000,708.984375,-322.265625,-48.339844,64.453125,-16.113281
cobot_dynamixel_driver/joint_states|name|J1,J2,J3,J4,J5,J6|pos|1.047212,-0.000050,0.000000,-0.000025,-0.000041,0.000041|vel|0.000000,-0.000000,0.000000,0.000000,0.000000,0.000000|eff|80.566406,660.644531,-354.492188,-96.679688,64.453125,0.000000
cobot_dynamixel_driver/joint_states|name|J1,J2,J3,J4,J5,J6|pos|1.047212,-0.000038,0.000000,-0.000025,-0.000041,0.000041|vel|0.000000,-0.000000,0.000000,0.000000,0.000000,0.000000|eff|0.000000,708.984375,-402.832031,-80.566406,64.453125,0.000000
cobot_dynamixel_driver/joint_states|name|J1,J2,J3,J4,J5,J6|pos|1.047212,-0.000038,0.000000,-0.000025,-0.000041,0.000041|vel|0.000000,-0.000000,0.000000,0.000000,0.000000,0.000000|eff|177.246094,515.625000,-322.265625,-96.679688,68.481445,-16.113281
cobot_dynamixel_driver/joint_states|name|J1,J2,J3,J4,J5,J6|pos|1.047212,-0.000038,0.000000,-0.000025,-0.000041,0.000041|vel|0.000000,-0.000000,0.000000,0.000000,0.000000,0.000000|eff|177.246094,644.531250,-322.265625,-48.339844,60.424805,0.000000
cobot_dynamixel_driver/joint_states|name|J1,J2,J3,J4,J5,J6|pos|1.047212,-0.000038,0.000000,-0.000025,-0.000041,0.000041|vel|0.000000,-0.000000,0.000000,0.000000,0.000000,0.000000|eff|177.246094,692.871094,-338.378906,-96.679688,64.453125,-20.141602
cobot_dynamixel_driver/joint_states|name|J1,J2,J3,J4,J5,J6|pos|1.047212,-0.000038,0.000000,-0.000025,-0.000041,0.000041|vel|0.000000,-0.000000,0.000000,0.000000,0.000000,0.000000|eff|112.792969,580.078125,-354.492188,-96.679688,64.453125,0.000000
cobot_dynamixel_driver/joint_states|name|J1,J2,J3,J4,J5,J6|pos|1.047212,-0.000038,0.000000,-0.000025,-0.000041,0.000041|vel|0.000000,-0.000000,0.000000,0.000000,0.000000,0.000000|eff|145.019531,628.417969,-370.605469,-48.339844,60.424805,-28.198242
cobot_dynamixel_driver/joint_states|name|J1,J2,J3,J4,J5,J6|pos|1.047212,-0.000038,0.000000,-0.000025,-0.000041,0.000041|vel|0.000000,-0.000000,0.000000,0.000000,0.000000,0.000000|eff|32.226562,644.531250,-322.265625,0.000000,64.453125,-24.169922
cobot_dynamixel_driver/joint_states|name|J1,J2,J3,J4,J5,J6|pos|1.047212,-0.000025,0.000000,-0.000025,-0.000041,0.000041|vel|0.000000,-0.000000,0.000000,0.000000,0.000000,0.000000|eff|0.000000,660.644531,-322.265625,-96.679688,64.453125,-8.056641
cobot_dynamixel_driver/joint_states|name|J1,J2,J3,J4,J5,J6|pos|1.047212,-0.000025,0.000000,-0.000025,-0.000041,0.000041|vel|0.000000,-0.000000,0.000000,0.000000,0.000000,0.000000|eff|161.132812,628.417969,-322.265625,-96.679688,64.453125,0.000000
cobot_dynamixel_driver/joint_states|name|J1,J2,J3,J4,J5,J6|pos|1.047212,-0.000025,0.000000,-0.000025,-0.000041,0.000041|vel|0.000000,-0.000000,0.000000,0.000000,0.000000,0.000000|eff|145.019531,515.625000,-354.492188,-48.339844,64.453125,0.000000
cobot_dynamixel_driver/joint_states|name|J1,J2,J3,J4,J5,J6|pos|1.047212,-0.000025,0.000000,-0.000025,-0.000041,0.000041|vel|0.000000,-0.000000,0.000000,0.000000,0.000000,0.000000|eff|177.246094,612.304688,-322.265625,0.000000,64.453125,-24.169922
cobot_dynamixel_driver/joint_states|name|J1,J2,J3,J4,J5,J6|pos|1.047212,-0.000025,0.000000,-0.000025,-0.000041,0.000041|vel|0.000000,-0.000000,0.000000,0.000000,0.000000,0.000000|eff|32.226562,644.531250,-338.378906,-48.339844,64.453125,0.000000
cobot_dynamixel_driver/joint_states|name|J1,J2,J3,J4,J5,J6|pos|1.047212,-0.000025,0.000000,-0.000025,-0.000041,0.000041|vel|0.000000,-0.000000,0.000000,0.000000,0.000000,0.000000|eff|177.246094,531.738281,-322.265625,-96.679688,60.424805,-16.113281
cobot_dynamixel_driver/joint_states|name|J1,J2,J3,J4,J5,J6|pos|1.047212,-0.000025,0.000000,-0.000025,-0.000041,0.000041|vel|0.000000,-0.000000,0.000000,0.000000,0.000000,0.000000|eff|177.246094,563.964844,-386.718750,-96.679688,68.481445,0.000000
cobot_dynamixel_driver/joint_states|name|J1,J2,J3,J4,J5,J6|pos|1.047212,-0.000025,0.000000,-0.000025,-0.000041,0.000041|vel|0.000000,-0.000000,0.000000,0.000000,0.000000,0.000000|eff|96.679688,708.984375,-322.265625,-64.453125,64.453125,-24.169922
cobot_dynamixel_driver/joint_states|name|J1,J2,J3,J4,J5,J6|pos|1.047212,-0.000025,0.000000,-0.000025,-0.000041,0.000041|vel|0.000000,-0.000000,0.000000,0.000000,0.000000,0.000000|eff|32.226562,692.871094,-322.265625,0.000000,64.453125,0.000000
cobot_dynamixel_driver/joint_states|name|J1,J2,J3,J4,J5,J6|pos|1.047212,-0.000025,0.000000,-0.000025,-0.000041,0.000041|vel|0.000000,-0.000000,0.000000,0.000000,0.000000,0.000000|eff|177.246094,676.757812,-322.265625,-64.453125,60.424805,-16.113281
cobot_dynamixel_driver/joint_states|name|J1,J2,J3,J4,J5,J6|pos|1.047212,-0.000025,0.000000,-0.000025,-0.000041,0.000041|vel|0.000000,-0.000000,0.000000,0.000000,0.000000,0.000000|eff|96.679688,692.871094,-322.265625,0.000000,60.424805,-28.198242
cobot_dynamixel_driver/joint_states|name|J1,J2,J3,J4,J5,J6|pos|1.047212,-0.000025,0.000000,-0.000025,-0.000041,0.000041|vel|0.000000,-0.000000,0.000000,0.000000,0.000000,0.000000|eff|145.019531,676.757812,-322.265625,-96.679688,68.481445,-12.084961
cobot_dynamixel_driver/joint_states|name|J1,J2,J3,J4,J5,J6|pos|1.047212,-0.000025,0.000000,-0.000025,-0.000041,0.000041|vel|0.000000,-0.000000,0.000000,0.000000,0.000000,0.000000|eff|0.000000,692.871094,-322.265625,-96.679688,68.481445,-8.056641
cobot_dynamixel_driver/joint_states|name|J1,J2,J3,J4,J5,J6|pos|1.047212,-0.000025,0.000000,-0.000025,-0.000041,0.000041|vel|0.000000,-0.000000,0.000000,0.000000,0.000000,0.000000|eff|145.019531,676.757812,-402.832031,-80.566406,64.453125,-24.169922
cobot_dynamixel_driver/joint_states|name|J1,J2,J3,J4,J5,J6|pos|1.047212,-0.000025,0.000000,-0.000025,-0.000041,0.000041|vel|0.000000,-0.000000,0.000000,0.000000,0.000000,0.000000|eff|177.246094,563.964844,-338.378906,-96.679688,64.453125,-16.113281
cobot_dynamixel_driver/joint_states|name|J1,J2,J3,J4,J5,J6|pos|1.047212,-0.000025,0.000000,-0.000025,-0.000041,0.000041|vel|0.000000,-0.000000,0.000000,0.000000,0.000000,0.000000|eff|145.019531,628.417969,-338.378906,-64.453125,68.481445,0.000000
cobot_dynamixel_driver/joint_states|name|J1,J2,J3,J4,J5,J6|pos|1.047212,-0.000025,0.000000,-0.000025,-0.000041,0.000041|vel|0.000000,-0.000000,0.000000,0.000000,0.000000,0.000000|eff|128.906250,515.625000,-354.492188,-80.566406,68.481445,-16.113281
cobot_dynamixel_driver/joint_states|name|J1,J2,J3,J4,J5,J6|pos|1.047212,-0.000025,0.000000,-0.000025,-0.000041,0.000041|vel|0.000000,-0.000000,0.000000,0.000000,0.000000,0.000000|eff|177.246094,563.964844,-386.718750,-80.566406,68.481445,-28.198242
cobot_dynamixel_driver/joint_states|name|J1,J2,J3,J4,J5,J6|pos|1.047212,-0.000025,0.000000,-0.000025,-0.000041,0.000041|vel|0.000000,-0.000000,0.000000,0.000000,0.000000,0.000000|eff|112.792969,596.191406,-322.265625,-64.453125,64.453125,0.000000
cobot_dynamixel_driver/joint_states|name|J1,J2,J3,J4,J5,J6|pos|1.047212,-0.000025,0.000000,-0.000025,-0.000041,0.000041|vel|0.000000,-0.000000,0.000000,0.000000,0.000000,0.000000|eff|128.906250,692.871094,-322.265625,-96.679688,60.424805,-16.113281
cobot_dynamixel_driver/joint_states|name|J1,J2,J3,J4,J5,J6|pos|1.047212,-0.000025,0.000000,-0.000025,-0.000041,0.000041|vel|0.000000,-0.000000,0.000000,0.000000,0.000000,0.000000|eff|96.679688,692.871094,-322.265625,-96.679688,64.453125,-16.113281
cobot_dynamixel_driver/joint_states|name|J1,J2,J3,J4,J5,J6|pos|1.047212,-0.000025,0.000000,-0.000025,-0.000041,0.000041|vel|0.000000,-0.000000,0.000000,0.000000,0.000000,0.000000|eff|96.679688,563.964844,-386.718750,0.000000,64.453125,-24.169922
cobot_dynamixel_driver/joint_states|name|J1,J2,J3,J4,J5,J6|pos|1.047212,-0.000025,0.000000,-0.000025,-0.000021,0.000041|vel|0.000000,-0.000000,0.000000,0.000000,0.000000,0.000000|eff|145.019531,531.738281,-322.265625,-48.339844,64.453125,-28.198242
cobot_dynamixel_driver/joint_states|name|J1,J2,J3,J4,J5,J6|pos|1.047212,-0.000025,0.000000,-0.000025,0.000103,0.000041|vel|0.000000,-0.000000,0.000000,0.000000,0.002068,0.000000|eff|80.566406,660.644531,-338.378906,-48.339844,52.368164,-24.169922
