surachairobotic/cobot/cobot_dynamixel_driver/log/2018-12-20T02:55:33.151941_driver_log.txt
cobot_dynamixel_driver/joint_states|name|J1,J2,J3,J4,J5,J6|pos|0.158681,0.668198,-0.008600,-0.001715,-1.464236,-0.000083|vel|0.003338,-0.000000,0.000417,0.000000,0.003792,0.000000|eff|-64.453125,757.324219,-257.812500,0.000000,0.000000,0.000000
cobot_dynamixel_driver/joint_states|name|J1,J2,J3,J4,J5,J6|pos|0.158706,0.668198,-0.008575,-0.001715,-1.464236,-0.000083|vel|0.001669,-0.000000,0.000835,0.000000,0.003792,0.000000|eff|-112.792969,547.851562,-290.039062,0.000000,0.000000,0.000000
cobot_dynamixel_driver/joint_states|name|J1,J2,J3,J4,J5,J6|pos|0.158706,0.668198,-0.008575,-0.001715,-1.464236,-0.000083|vel|0.001461,-0.000000,0.000835,0.000000,0.003792,0.000000|eff|-128.906250,644.531250,-225.585938,0.000000,-24.169922,0.000000
cobot_dynamixel_driver/joint_states|name|J1,J2,J3,J4,J5,J6|pos|0.158706,0.668198,-0.008562,-0.001715,-1.464236,-0.000083|vel|0.001252,-0.000000,0.000835,0.000000,0.003792,0.000000|eff|0.000000,628.417969,-290.039062,0.000000,-16.113281,0.000000
cobot_dynamixel_driver/joint_states|name|J1,J2,J3,J4,J5,J6|pos|0.158706,0.668210,-0.008562,-0.001715,-1.464236,-0.000083|vel|-0.001252,-0.000000,0.000835,0.000000,0.003792,0.000000|eff|-128.906250,725.097656,-257.812500,0.000000,-28.198242,0.000000
cobot_dynamixel_driver/joint_states|name|J1,J2,J3,J4,J5,J6|pos|0.158706,0.668210,-0.008550,-0.001715,-1.464236,-0.000083|vel|-0.001252,-0.000000,0.000209,0.000000,0.003792,0.000000|eff|-80.566406,725.097656,-225.585938,0.000000,-44.311523,0.000000
cobot_dynamixel_driver/joint_states|name|J1,J2,J3,J4,J5,J6|pos|0.158694,0.668210,-0.008537,-0.001715,-1.464236,-0.000083|vel|-0.001252,-0.000000,0.000209,0.000000,0.000000,0.000000|eff|-80.566406,596.191406,-290.039062,0.000000,-36.254883,0.000000
cobot_dynamixel_driver/joint_states|name|J1,J2,J3,J4,J5,J6|pos|0.158694,0.668210,-0.008525,-0.001715,-1.464236,-0.000083|vel|-0.000209,-0.000000,0.000626,0.000000,0.000000,0.000000|eff|-145.019531,628.417969,-257.812500,0.000000,-28.198242,0.000000
cobot_dynamixel_driver/joint_states|name|J1,J2,J3,J4,J5,J6|pos|0.158681,0.668210,-0.008525,-0.001715,-1.464236,-0.000083|vel|-0.000209,-0.000000,0.000626,0.000000,0.000000,0.000000|eff|-80.566406,757.324219,-225.585938,0.000000,-36.254883,0.000000
cobot_dynamixel_driver/joint_states|name|J1,J2,J3,J4,J5,J6|pos|0.158669,0.668210,-0.008500,-0.001715,-1.464236,-0.000083|vel|-0.000209,-0.000000,0.000417,0.000000,0.000000,0.000000|eff|-80.566406,741.210938,-241.699219,0.000000,-28.198242,0.000000
cobot_dynamixel_driver/joint_states|name|J1,J2,J3,J4,J5,J6|pos|0.158669,0.668248,-0.008475,-0.001715,-1.464236,-0.000083|vel|-0.000209,0.002086,0.001461,0.000000,0.000000,0.000000|eff|-145.019531,692.871094,-257.812500,0.000000,-28.198242,0.000000
cobot_dynamixel_driver/joint_states|name|J1,J2,J3,J4,J5,J6|pos|0.158669,0.668373,-0.008437,-0.001715,-1.464236,-0.000083|vel|-0.000209,0.007720,0.001878,0.000000,0.000000,0.000000|eff|-32.226562,837.890625,-338.378906,0.000000,-32.226562,0.000000
cobot_dynamixel_driver/joint_states|name|J1,J2,J3,J4,J5,J6|pos|0.158669,0.668498,-0.008412,-0.001715,-1.464236,-0.000083|vel|-0.000209,0.006468,0.001043,0.000000,0.000000,0.000000|eff|-128.906250,854.003906,-257.812500,0.000000,-28.198242,0.000000
cobot_dynamixel_driver/joint_states|name|J1,J2,J3,J4,J5,J6|pos|0.158669,0.668661,-0.008350,-0.001715,-1.464236,-0.000083|vel|0.000000,0.009389,0.003338,0.000000,0.000000,0.000000|eff|-96.679688,854.003906,-290.039062,0.000000,-44.311523,0.000000
cobot_dynamixel_driver/joint_states|name|J1,J2,J3,J4,J5,J6|pos|0.158669,0.668924,-0.008275,-0.001715,-1.464236,-0.000083|vel|0.000000,0.013145,0.004173,0.000000,0.000000,0.000000|eff|-128.906250,950.683594,-402.832031,0.000000,-44.311523,0.000000
cobot_dynamixel_driver/joint_states|name|J1,J2,J3,J4,J5,J6|pos|0.158681,0.669124,-0.008212,-0.001715,-1.464236,-0.000083|vel|0.000000,0.009389,0.003338,0.000000,0.000000,0.000000|eff|0.000000,1063.476562,-402.832031,0.000000,-28.198242,0.000000
cobot_dynamixel_driver/joint_states|name|J1,J2,J3,J4,J5,J6|pos|0.158681,0.669237,-0.008162,-0.001715,-1.464236,-0.000083|vel|0.000000,0.005216,0.002712,0.000000,0.000000,0.000000|eff|-112.792969,1015.136719,-386.718750,0.000000,-28.198242,0.000000
cobot_dynamixel_driver/joint_states|name|J1,J2,J3,J4,J5,J6|pos|0.158669,0.669237,-0.008149,-0.001715,-1.464236,-0.000083|vel|0.000000,0.005216,0.001878,0.000000,0.000000,0.000000|eff|0.000000,999.023438,-354.492188,0.000000,-28.198242,0.000000
cobot_dynamixel_driver/joint_states|name|J1,J2,J3,J4,J5,J6|pos|0.158631,0.669237,-0.008149,-0.001715,-1.464236,-0.000083|vel|-0.001252,0.005216,0.001878,0.000000,0.000000,0.000000|eff|-112.792969,966.796875,-386.718750,0.000000,-28.198242,0.000000
cobot_dynamixel_driver/joint_states|name|J1,J2,J3,J4,J5,J6|pos|0.158606,0.669237,-0.008162,-0.001715,-1.464236,-0.000083|vel|-0.001461,0.005216,-0.001878,0.000000,0.000000,0.000000|eff|0.000000,1079.589844,-354.492188,0.000000,-36.254883,0.000000
cobot_dynamixel_driver/joint_states|name|J1,J2,J3,J4,J5,J6|pos|0.158556,0.669237,-0.008162,-0.001715,-1.464236,-0.000083|vel|-0.002921,0.005216,-0.001878,0.000000,0.000000,0.000000|eff|-32.226562,1079.589844,-338.378906,0.000000,-32.226562,0.000000
cobot_dynamixel_driver/joint_states|name|J1,J2,J3,J4,J5,J6|pos|0.158456,0.669237,-0.008162,-0.001715,-1.464236,-0.000083|vel|-0.004173,0.005216,-0.001878,0.000000,0.000000,0.000000|eff|0.000000,1144.042969,-338.378906,0.000000,-28.198242,0.000000
cobot_dynamixel_driver/joint_states|name|J1,J2,J3,J4,J5,J6|pos|0.158393,0.669237,-0.008162,-0.001715,-1.464236,-0.000083|vel|-0.002921,-0.000000,-0.001878,0.000000,0.000000,0.000000|eff|32.226562,1144.042969,-338.378906,0.000000,-36.254883,0.000000
cobot_dynamixel_driver/joint_states|name|J1,J2,J3,J4,J5,J6|pos|0.158381,0.669237,-0.008162,-0.001715,-1.464236,-0.000083|vel|-0.002921,-0.000000,0.000000,0.000000,0.000000,0.000000|eff|0.000000,1127.929688,-386.718750,0.000000,-40.283203,0.000000
cobot_dynamixel_driver/joint_states|name|J1,J2,J3,J4,J5,J6|pos|0.158368,0.669237,-0.008162,-0.001715,-1.464236,-0.000083|vel|-0.002921,-0.000000,0.000000,0.000000,0.000000,0.000000|eff|0.000000,1015.136719,-354.492188,0.000000,-28.198242,0.000000
cobot_dynamixel_driver/joint_states|name|J1,J2,J3,J4,J5,J6|pos|0.158381,0.669237,-0.008162,-0.001715,-1.464236,-0.000083|vel|0.002921,-0.000000,0.000000,0.000000,0.000000,0.000000|eff|0.000000,1047.363281,-354.492188,0.000000,-36.254883,0.000000
cobot_dynamixel_driver/joint_states|name|J1,J2,J3,J4,J5,J6|pos|0.158381,0.669237,-0.008149,-0.001715,-1.464236,-0.000083|vel|0.002921,-0.000000,0.000000,0.000000,0.000000,0.000000|eff|0.000000,1063.476562,-354.492188,0.000000,-28.198242,0.000000
cobot_dynamixel_driver/joint_states|name|J1,J2,J3,J4,J5,J6|pos|0.158381,0.669237,-0.008124,-0.001715,-1.464236,-0.000083|vel|0.002921,-0.000000,0.000000,0.000000,0.000000,0.000000|eff|0.000000,1079.589844,-354.492188,0.000000,-28.198242,0.000000
cobot_dynamixel_driver/joint_states|name|J1,J2,J3,J4,J5,J6|pos|0.158368,0.669237,-0.008112,-0.001715,-1.464236,-0.000083|vel|-0.002921,-0.000000,0.001252,0.000000,0.000000,0.000000|eff|0.000000,1111.816406,-354.492188,0.000000,-28.198242,0.000000
cobot_dynamixel_driver/joint_states|name|J1,J2,J3,J4,J5,J6|pos|0.158381,0.669237,-0.008099,-0.001715,-1.464236,-0.000083|vel|0.000000,-0.000000,0.001252,0.000000,0.000000,0.000000|eff|-80.566406,999.023438,-338.378906,0.000000,-28.198242,0.000000
cobot_dynamixel_driver/joint_states|name|J1,J2,J3,J4,J5,J6|pos|0.158381,0.669237,-0.008099,-0.001715,-1.464236,-0.000083|vel|0.000000,-0.000000,0.001252,0.000000,0.000000,0.000000|eff|0.000000,1063.476562,-402.832031,0.000000,-32.226562,0.000000
cobot_dynamixel_driver/joint_states|name|J1,J2,J3,J4,J5,J6|pos|0.158381,0.669237,-0.008099,-0.001715,-1.464236,-0.000083|vel|0.000000,-0.000000,0.001252,0.000000,0.000000,0.000000|eff|0.000000,950.683594,-402.832031,0.000000,-28.198242,0.000000
cobot_dynamixel_driver/joint_states|name|J1,J2,J3,J4,J5,J6|pos|0.158381,0.669237,-0.008099,-0.001715,-1.464236,-0.000083|vel|0.000000,-0.000000,0.001252,0.000000,0.000000,0.000000|eff|0.000000,982.910156,-354.492188,0.000000,-28.198242,0.000000
cobot_dynamixel_driver/joint_states|name|J1,J2,J3,J4,J5,J6|pos|0.158381,0.669237,-0.008112,-0.001715,-1.464236,-0.000083|vel|0.000000,-0.000000,-0.001252,0.000000,0.000000,0.000000|eff|0.000000,1047.363281,-402.832031,0.000000,-28.198242,0.000000
cobot_dynamixel_driver/joint_states|name|J1,J2,J3,J4,J5,J6|pos|0.158381,0.669237,-0.008112,-0.001715,-1.464236,-0.000083|vel|0.000000,-0.000000,0.000000,0.000000,0.000000,0.000000|eff|0.000000,934.570312,-370.605469,0.000000,-28.198242,0.000000
cobot_dynamixel_driver/joint_states|name|J1,J2,J3,J4,J5,J6|pos|0.158381,0.669237,-0.008112,-0.001715,-1.464236,-0.000083|vel|0.000000,-0.000000,0.000000,0.000000,0.000000,0.000000|eff|0.000000,1031.250000,-354.492188,0.000000,-28.198242,0.000000
cobot_dynamixel_driver/joint_states|name|J1,J2,J3,J4,J5,J6|pos|0.158381,0.669237,-0.008112,-0.001715,-1.464236,-0.000083|vel|0.000000,-0.000000,0.000000,0.000000,0.000000,0.000000|eff|0.000000,1127.929688,-435.058594,0.000000,-28.198242,0.000000
cobot_dynamixel_driver/joint_states|name|J1,J2,J3,J4,J5,J6|pos|0.158381,0.669237,-0.008112,-0.001715,-1.464236,-0.000083|vel|0.000000,-0.000000,0.000000,0.000000,0.000000,0.000000|eff|-80.566406,1095.703125,-354.492188,0.000000,-28.198242,0.000000
cobot_dynamixel_driver/joint_states|name|J1,J2,J3,J4,J5,J6|pos|0.158381,0.669237,-0.008112,-0.001715,-1.464236,-0.000083|vel|0.000000,-0.000000,0.000000,0.000000,0.000000,0.000000|eff|0.000000,999.023438,-402.832031,0.000000,-44.311523,0.000000
cobot_dynamixel_driver/joint_states|name|J1,J2,J3,J4,J5,J6|pos|0.158381,0.669237,-0.008112,-0.001715,-1.464236,-0.000083|vel|0.000000,-0.000000,0.000000,0.000000,0.000000,0.000000|eff|0.000000,999.023438,-402.832031,0.000000,-36.254883,0.000000
cobot_dynamixel_driver/joint_states|name|J1,J2,J3,J4,J5,J6|pos|0.158381,0.669237,-0.008112,-0.001715,-1.464236,-0.000083|vel|0.000000,-0.000000,0.000000,0.000000,0.000000,0.000000|eff|0.000000,1079.589844,-354.492188,0.000000,-32.226562,0.000000
cobot_dynamixel_driver/joint_states|name|J1,J2,J3,J4,J5,J6|pos|0.158381,0.669237,-0.008112,-0.001715,-1.464236,-0.000083|vel|0.000000,-0.000000,0.000000,0.000000,0.000000,0.000000|eff|0.000000,966.796875,-402.832031,0.000000,-32.226562,0.000000
cobot_dynamixel_driver/joint_states|name|J1,J2,J3,J4,J5,J6|pos|0.158381,0.669237,-0.008112,-0.001715,-1.464236,-0.000083|vel|0.000000,-0.000000,0.000000,0.000000,0.000000,0.000000|eff|-48.339844,966.796875,-435.058594,0.000000,-28.198242,0.000000
cobot_dynamixel_driver/joint_states|name|J1,J2,J3,J4,J5,J6|pos|0.158381,0.669237,-0.008112,-0.001715,-1.464236,-0.000083|vel|0.000000,-0.000000,0.000000,0.000000,0.000000,0.000000|eff|0.000000,999.023438,-354.492188,0.000000,-28.198242,0.000000
cobot_dynamixel_driver/joint_states|name|J1,J2,J3,J4,J5,J6|pos|0.158381,0.669237,-0.008112,-0.001715,-1.464236,-0.000083|vel|0.000000,-0.000000,0.000000,0.000000,0.000000,0.000000|eff|0.000000,1031.250000,-338.378906,0.000000,-28.198242,0.000000
cobot_dynamixel_driver/joint_states|name|J1,J2,J3,J4,J5,J6|pos|0.158381,0.669237,-0.008112,-0.001715,-1.464236,-0.000083|vel|0.000000,-0.000000,0.000000,0.000000,0.000000,0.000000|eff|-80.566406,1079.589844,-338.378906,0.000000,-28.198242,0.000000
cobot_dynamixel_driver/joint_states|name|J1,J2,J3,J4,J5,J6|pos|0.158381,0.669237,-0.008112,-0.001715,-1.464236,-0.000083|vel|0.000000,-0.000000,0.000000,0.000000,0.000000,0.000000|eff|0.000000,1015.136719,-354.492188,0.000000,-28.198242,0.000000
cobot_dynamixel_driver/joint_states|name|J1,J2,J3,J4,J5,J6|pos|0.158381,0.669237,-0.008112,-0.001715,-1.464236,-0.000083|vel|0.000000,-0.000000,0.000000,0.000000,0.000000,0.000000|eff|0.000000,1095.703125,-386.718750,0.000000,-32.226562,0.000000
cobot_dynamixel_driver/joint_states|name|J1,J2,J3,J4,J5,J6|pos|0.158381,0.669237,-0.008112,-0.001715,-1.464236,-0.000083|vel|0.000000,-0.000000,0.000000,0.000000,0.000000,0.000000|eff|0.000000,999.023438,-402.832031,0.000000,-44.311523,0.000000
cobot_dynamixel_driver/joint_states|name|J1,J2,J3,J4,J5,J6|pos|0.158381,0.669237,-0.008112,-0.001715,-1.464236,-0.000083|vel|0.000000,-0.000000,0.000000,0.000000,0.000000,0.000000|eff|0.000000,1111.816406,-402.832031,0.000000,-36.254883,0.000000
cobot_dynamixel_driver/joint_states|name|J1,J2,J3,J4,J5,J6|pos|0.158381,0.669237,-0.008112,-0.001715,-1.464236,-0.000083|vel|0.000000,-0.000000,0.000000,0.000000,0.000000,0.000000|eff|-112.792969,1047.363281,-354.492188,0.000000,-32.226562,0.000000
cobot_dynamixel_driver/joint_states|name|J1,J2,J3,J4,J5,J6|pos|0.158381,0.669237,-0.008112,-0.001715,-1.464236,-0.000083|vel|0.000000,-0.000000,0.000000,0.000000,0.000000,0.000000|eff|0.000000,1111.816406,-370.605469,0.000000,-44.311523,0.000000
cobot_dynamixel_driver/joint_states|name|J1,J2,J3,J4,J5,J6|pos|0.158381,0.669237,-0.008112,-0.001715,-1.464236,-0.000083|vel|0.000000,-0.000000,0.000000,0.000000,0.000000,0.000000|eff|0.000000,999.023438,-435.058594,0.000000,-36.254883,0.000000
cobot_dynamixel_driver/joint_states|name|J1,J2,J3,J4,J5,J6|pos|0.158381,0.669237,-0.008112,-0.001715,-1.464236,-0.000083|vel|0.000000,-0.000000,0.000000,0.000000,0.000000,0.000000|eff|-80.566406,1095.703125,-354.492188,0.000000,-28.198242,0.000000
cobot_dynamixel_driver/joint_states|name|J1,J2,J3,J4,J5,J6|pos|0.158381,0.669237,-0.008112,-0.001715,-1.464236,-0.000083|vel|0.000000,-0.000000,0.000000,0.000000,0.000000,0.000000|eff|0.000000,1111.816406,-338.378906,0.000000,-28.198242,0.000000
cobot_dynamixel_driver/joint_states|name|J1,J2,J3,J4,J5,J6|pos|0.158381,0.669237,-0.008112,-0.001715,-1.464236,-0.000083|vel|0.000000,-0.000000,0.000000,0.000000,0.000000,0.000000|eff|0.000000,1047.363281,-354.492188,0.000000,-28.198242,0.000000
cobot_dynamixel_driver/joint_states|name|J1,J2,J3,J4,J5,J6|pos|0.158381,0.669237,-0.008112,-0.001715,-1.464236,-0.000083|vel|0.000000,-0.000000,0.000000,0.000000,0.000000,0.000000|eff|0.000000,1047.363281,-435.058594,0.000000,-28.198242,0.000000
cobot_dynamixel_driver/joint_states|name|J1,J2,J3,J4,J5,J6|pos|0.158381,0.669237,-0.008112,-0.001715,-1.464236,-0.000083|vel|0.000000,-0.000000,0.000000,0.000000,0.000000,0.000000|eff|0.000000,999.023438,-418.945312,0.000000,-32.226562,0.000000
cobot_dynamixel_driver/joint_states|name|J1,J2,J3,J4,J5,J6|pos|0.158381,0.669237,-0.008112,-0.001715,-1.464236,-0.000083|vel|0.000000,-0.000000,0.000000,0.000000,0.000000,0.000000|eff|-112.792969,982.910156,-386.718750,0.000000,-32.226562,0.000000
cobot_dynamixel_driver/joint_states|name|J1,J2,J3,J4,J5,J6|pos|0.158381,0.669237,-0.008112,-0.001715,-1.464236,-0.000083|vel|0.000000,-0.000000,0.000000,0.000000,0.000000,0.000000|eff|0.000000,982.910156,-386.718750,0.000000,-28.198242,0.000000
cobot_dynamixel_driver/joint_states|name|J1,J2,J3,J4,J5,J6|pos|0.158381,0.669237,-0.008112,-0.001715,-1.464236,-0.000083|vel|0.000000,-0.000000,0.000000,0.000000,0.000000,0.000000|eff|0.000000,966.796875,-402.832031,0.000000,-28.198242,0.000000
cobot_dynamixel_driver/joint_states|name|J1,J2,J3,J4,J5,J6|pos|0.158381,0.669237,-0.008112,-0.001715,-1.464236,-0.000083|vel|0.000000,-0.000000,0.000000,0.000000,0.000000,0.000000|eff|0.000000,999.023438,-338.378906,0.000000,-28.198242,0.000000
cobot_dynamixel_driver/joint_states|name|J1,J2,J3,J4,J5,J6|pos|0.158381,0.669237,-0.008112,-0.001715,-1.464236,-0.000083|vel|0.000000,-0.000000,0.000000,0.000000,0.000000,0.000000|eff|0.000000,1079.589844,-402.832031,0.000000,-28.198242,0.000000
cobot_dynamixel_driver/joint_states|name|J1,J2,J3,J4,J5,J6|pos|0.158381,0.669237,-0.008112,-0.001715,-1.464236,-0.000083|vel|0.000000,-0.000000,0.000000,0.000000,0.000000,0.000000|eff|0.000000,950.683594,-338.378906,0.000000,-40.283203,0.000000
cobot_dynamixel_driver/joint_states|name|J1,J2,J3,J4,J5,J6|pos|0.158381,0.669237,-0.008112,-0.001715,-1.464236,-0.000083|vel|0.000000,-0.000000,0.000000,0.000000,0.000000,0.000000|eff|0.000000,1095.703125,-354.492188,0.000000,-28.198242,0.000000
cobot_dynamixel_driver/joint_states|name|J1,J2,J3,J4,J5,J6|pos|0.158381,0.669237,-0.008112,-0.001715,-1.464236,-0.000083|vel|0.000000,-0.000000,0.000000,0.000000,0.000000,0.000000|eff|0.000000,1079.589844,-338.378906,0.000000,-36.254883,0.000000
cobot_dynamixel_driver/joint_states|name|J1,J2,J3,J4,J5,J6|pos|0.158381,0.669237,-0.008112,-0.001715,-1.464236,-0.000083|vel|0.000000,-0.000000,0.000000,0.000000,0.000000,0.000000|eff|0.000000,1047.363281,-386.718750,0.000000,-28.198242,0.000000
cobot_dynamixel_driver/joint_states|name|J1,J2,J3,J4,J5,J6|pos|0.158381,0.669237,-0.008112,-0.001715,-1.464236,-0.000083|vel|0.000000,-0.000000,0.000000,0.000000,0.000000,0.000000|eff|-48.339844,1063.476562,-338.378906,0.000000,-28.198242,0.000000
cobot_dynamixel_driver/joint_states|name|J1,J2,J3,J4,J5,J6|pos|0.158381,0.669237,-0.008112,-0.001715,-1.464236,-0.000083|vel|0.000000,-0.000000,0.000000,0.000000,0.000000,0.000000|eff|0.000000,966.796875,-370.605469,0.000000,-36.254883,0.000000
cobot_dynamixel_driver/joint_states|name|J1,J2,J3,J4,J5,J6|pos|0.158381,0.669237,-0.008112,-0.001715,-1.464236,-0.000083|vel|0.000000,-0.000000,0.000000,0.000000,0.000000,0.000000|eff|0.000000,1127.929688,-354.492188,0.000000,-28.198242,0.000000
cobot_dynamixel_driver/joint_states|name|J1,J2,J3,J4,J5,J6|pos|0.158381,0.669237,-0.008112,-0.001715,-1.464236,-0.000083|vel|0.000000,-0.000000,0.000000,0.000000,0.000000,0.000000|eff|0.000000,982.910156,-386.718750,0.000000,-28.198242,0.000000
cobot_dynamixel_driver/joint_states|name|J1,J2,J3,J4,J5,J6|pos|0.158381,0.669237,-0.008112,-0.001715,-1.464236,-0.000083|vel|0.000000,-0.000000,0.000000,0.000000,0.000000,0.000000|eff|-112.792969,950.683594,-402.832031,0.000000,-32.226562,0.000000
cobot_dynamixel_driver/joint_states|name|J1,J2,J3,J4,J5,J6|pos|0.158381,0.669237,-0.008112,-0.001715,-1.464236,-0.000083|vel|0.000000,-0.000000,0.000000,0.000000,0.000000,0.000000|eff|0.000000,966.796875,-354.492188,0.000000,-32.226562,0.000000
cobot_dynamixel_driver/joint_states|name|J1,J2,J3,J4,J5,J6|pos|0.158381,0.669237,-0.008112,-0.001715,-1.464236,-0.000083|vel|0.000000,-0.000000,0.000000,0.000000,0.000000,0.000000|eff|0.000000,982.910156,-338.378906,0.000000,-28.198242,0.000000
cobot_dynamixel_driver/joint_states|name|J1,J2,J3,J4,J5,J6|pos|0.158381,0.669237,-0.008112,-0.001715,-1.464236,-0.000083|vel|0.000000,-0.000000,0.000000,0.000000,0.000000,0.000000|eff|0.000000,1031.250000,-370.605469,0.000000,-28.198242,0.000000
cobot_dynamixel_driver/joint_states|name|J1,J2,J3,J4,J5,J6|pos|0.158381,0.669237,-0.008112,-0.001715,-1.464236,-0.000083|vel|0.000000,-0.000000,0.000000,0.000000,0.000000,0.000000|eff|-112.792969,1063.476562,-402.832031,0.000000,-32.226562,0.000000
cobot_dynamixel_driver/joint_states|name|J1,J2,J3,J4,J5,J6|pos|0.158381,0.669237,-0.008112,-0.001715,-1.464236,-0.000083|vel|0.000000,-0.000000,0.000000,0.000000,0.000000,0.000000|eff|0.000000,1095.703125,-354.492188,0.000000,-28.198242,0.000000
cobot_dynamixel_driver/joint_states|name|J1,J2,J3,J4,J5,J6|pos|0.158381,0.669237,-0.008112,-0.001715,-1.464236,-0.000083|vel|0.000000,-0.000000,0.000000,0.000000,0.000000,0.000000|eff|0.000000,1047.363281,-354.492188,0.000000,-36.254883,0.000000
cobot_dynamixel_driver/joint_states|name|J1,J2,J3,J4,J5,J6|pos|0.158381,0.669237,-0.008112,-0.001715,-1.464236,-0.000083|vel|0.000000,-0.000000,0.000000,0.000000,0.000000,0.000000|eff|0.000000,1015.136719,-338.378906,0.000000,-28.198242,0.000000
cobot_dynamixel_driver/joint_states|name|J1,J2,J3,J4,J5,J6|pos|0.158381,0.669237,-0.008112,-0.001715,-1.464236,-0.000083|vel|0.000000,-0.000000,0.000000,0.000000,0.000000,0.000000|eff|-80.566406,982.910156,-354.492188,0.000000,-32.226562,0.000000
cobot_dynamixel_driver/joint_states|name|J1,J2,J3,J4,J5,J6|pos|0.158381,0.669237,-0.008112,-0.001715,-1.464236,-0.000083|vel|0.000000,-0.000000,0.000000,0.000000,0.000000,0.000000|eff|0.000000,1063.476562,-370.605469,0.000000,-28.198242,0.000000
cobot_dynamixel_driver/joint_states|name|J1,J2,J3,J4,J5,J6|pos|0.158381,0.669237,-0.008112,-0.001715,-1.464236,-0.000083|vel|0.000000,-0.000000,0.000000,0.000000,0.000000,0.000000|eff|0.000000,1063.476562,-338.378906,0.000000,-36.254883,0.000000
cobot_dynamixel_driver/joint_states|name|J1,J2,J3,J4,J5,J6|pos|0.158381,0.669237,-0.008112,-0.001715,-1.464236,-0.000083|vel|0.000000,-0.000000,0.000000,0.000000,0.000000,0.000000|eff|0.000000,1063.476562,-338.378906,0.000000,-32.226562,0.000000
cobot_dynamixel_driver/joint_states|name|J1,J2,J3,J4,J5,J6|pos|0.158381,0.669237,-0.008112,-0.001715,-1.464236,-0.000083|vel|0.000000,-0.000000,0.000000,0.000000,0.000000,0.000000|eff|-80.566406,1127.929688,-418.945312,0.000000,-44.311523,0.000000
cobot_dynamixel_driver/joint_states|name|J1,J2,J3,J4,J5,J6|pos|0.158381,0.669237,-0.008112,-0.001715,-1.464236,-0.000083|vel|0.000000,-0.000000,0.000000,0.000000,0.000000,0.000000|eff|0.000000,950.683594,-338.378906,0.000000,-28.198242,0.000000
cobot_dynamixel_driver/joint_states|name|J1,J2,J3,J4,J5,J6|pos|0.158381,0.669237,-0.008112,-0.001715,-1.464236,-0.000083|vel|0.000000,-0.000000,0.000000,0.000000,0.000000,0.000000|eff|0.000000,1111.816406,-418.945312,0.000000,-28.198242,0.000000
cobot_dynamixel_driver/joint_states|name|J1,J2,J3,J4,J5,J6|pos|0.158381,0.669237,-0.008112,-0.001715,-1.464236,-0.000083|vel|0.000000,-0.000000,0.000000,0.000000,0.000000,0.000000|eff|0.000000,999.023438,-435.058594,0.000000,-32.226562,0.000000
cobot_dynamixel_driver/joint_states|name|J1,J2,J3,J4,J5,J6|pos|0.158381,0.669237,-0.008112,-0.001715,-1.464236,-0.000083|vel|0.000000,-0.000000,0.000000,0.000000,0.000000,0.000000|eff|0.000000,1047.363281,-338.378906,0.000000,-28.198242,0.000000
cobot_dynamixel_driver/joint_states|name|J1,J2,J3,J4,J5,J6|pos|0.158381,0.669237,-0.008112,-0.001715,-1.464236,-0.000083|vel|0.000000,-0.000000,0.000000,0.000000,0.000000,0.000000|eff|-48.339844,1111.816406,-354.492188,0.000000,-28.198242,0.000000
cobot_dynamixel_driver/joint_states|name|J1,J2,J3,J4,J5,J6|pos|0.158381,0.669237,-0.008112,-0.001715,-1.464236,-0.000083|vel|0.000000,-0.000000,0.000000,0.000000,0.000000,0.000000|eff|0.000000,1095.703125,-386.718750,0.000000,-28.198242,0.000000
cobot_dynamixel_driver/joint_states|name|J1,J2,J3,J4,J5,J6|pos|0.158381,0.669237,-0.008112,-0.001715,-1.464236,-0.000083|vel|0.000000,-0.000000,0.000000,0.000000,0.000000,0.000000|eff|0.000000,999.023438,-338.378906,0.000000,-40.283203,0.000000
cobot_dynamixel_driver/joint_states|name|J1,J2,J3,J4,J5,J6|pos|0.158381,0.669237,-0.008112,-0.001715,-1.464236,-0.000083|vel|0.000000,-0.000000,0.000000,0.000000,0.000000,0.000000|eff|0.000000,1047.363281,-402.832031,0.000000,-28.198242,0.000000
cobot_dynamixel_driver/joint_states|name|J1,J2,J3,J4,J5,J6|pos|0.158381,0.669237,-0.008112,-0.001715,-1.464236,-0.000083|vel|0.000000,-0.000000,0.000000,0.000000,0.000000,0.000000|eff|-112.792969,999.023438,-354.492188,0.000000,-32.226562,0.000000
cobot_dynamixel_driver/joint_states|name|J1,J2,J3,J4,J5,J6|pos|0.158381,0.669237,-0.008112,-0.001715,-1.464236,-0.000083|vel|0.000000,-0.000000,0.000000,0.000000,0.000000,0.000000|eff|0.000000,999.023438,-354.492188,0.000000,-28.198242,0.000000
cobot_dynamixel_driver/joint_states|name|J1,J2,J3,J4,J5,J6|pos|0.158381,0.669237,-0.008112,-0.001715,-1.464236,-0.000083|vel|0.000000,-0.000000,0.000000,0.000000,0.000000,0.000000|eff|0.000000,999.023438,-338.378906,0.000000,-28.198242,0.000000
cobot_dynamixel_driver/joint_states|name|J1,J2,J3,J4,J5,J6|pos|0.158381,0.669237,-0.008112,-0.001715,-1.464236,-0.000083|vel|0.000000,-0.000000,0.000000,0.000000,0.000000,0.000000|eff|0.000000,982.910156,-354.492188,0.000000,-28.198242,0.000000
cobot_dynamixel_driver/joint_states|name|J1,J2,J3,J4,J5,J6|pos|0.158381,0.669237,-0.008112,-0.001715,-1.464236,-0.000083|vel|0.000000,-0.000000,0.000000,0.000000,0.000000,0.000000|eff|-48.339844,950.683594,-338.378906,0.000000,-28.198242,0.000000
cobot_dynamixel_driver/joint_states|name|J1,J2,J3,J4,J5,J6|pos|0.158381,0.669237,-0.008112,-0.001715,-1.464236,-0.000083|vel|0.000000,-0.000000,0.000000,0.000000,0.000000,0.000000|eff|0.000000,966.796875,-354.492188,0.000000,-28.198242,0.000000
cobot_dynamixel_driver/joint_states|name|J1,J2,J3,J4,J5,J6|pos|0.158381,0.669237,-0.008112,-0.001715,-1.464236,-0.000083|vel|0.000000,-0.000000,0.000000,0.000000,0.000000,0.000000|eff|0.000000,1127.929688,-402.832031,0.000000,-28.198242,0.000000
cobot_dynamixel_driver/joint_states|name|J1,J2,J3,J4,J5,J6|pos|0.158381,0.669237,-0.008112,-0.001715,-1.464236,-0.000083|vel|0.000000,-0.000000,0.000000,0.000000,0.000000,0.000000|eff|0.000000,982.910156,-338.378906,0.000000,-28.198242,0.000000
cobot_dynamixel_driver/joint_states|name|J1,J2,J3,J4,J5,J6|pos|0.158381,0.669237,-0.008112,-0.001715,-1.464236,-0.000083|vel|0.000000,-0.000000,0.000000,0.000000,0.000000,0.000000|eff|-112.792969,950.683594,-354.492188,0.000000,-32.226562,0.000000
cobot_dynamixel_driver/joint_states|name|J1,J2,J3,J4,J5,J6|pos|0.158381,0.669237,-0.008112,-0.001715,-1.464236,-0.000083|vel|0.000000,-0.000000,0.000000,0.000000,0.000000,0.000000|eff|0.000000,1047.363281,-402.832031,0.000000,-28.198242,0.000000
cobot_dynamixel_driver/joint_states|name|J1,J2,J3,J4,J5,J6|pos|0.158381,0.669237,-0.008112,-0.001715,-1.464236,-0.000083|vel|0.000000,-0.000000,0.000000,0.000000,0.000000,0.000000|eff|0.000000,1031.250000,-386.718750,0.000000,-28.198242,0.000000
cobot_dynamixel_driver/joint_states|name|J1,J2,J3,J4,J5,J6|pos|0.158381,0.669237,-0.008112,-0.001715,-1.464236,-0.000083|vel|0.000000,-0.000000,0.000000,0.000000,0.000000,0.000000|eff|0.000000,950.683594,-338.378906,0.000000,-28.198242,0.000000
cobot_dynamixel_driver/joint_states|name|J1,J2,J3,J4,J5,J6|pos|0.158381,0.669237,-0.008112,-0.001715,-1.464236,-0.000083|vel|0.000000,-0.000000,0.000000,0.000000,0.000000,0.000000|eff|-112.792969,999.023438,-402.832031,0.000000,-28.198242,0.000000
cobot_dynamixel_driver/joint_states|name|J1,J2,J3,J4,J5,J6|pos|0.158381,0.669237,-0.008112,-0.001715,-1.464236,-0.000083|vel|0.000000,-0.000000,0.000000,0.000000,0.000000,0.000000|eff|0.000000,966.796875,-354.492188,0.000000,-40.283203,0.000000
cobot_dynamixel_driver/joint_states|name|J1,J2,J3,J4,J5,J6|pos|0.158381,0.669237,-0.008112,-0.001715,-1.464236,-0.000083|vel|0.000000,-0.000000,0.000000,0.000000,0.000000,0.000000|eff|0.000000,934.570312,-435.058594,0.000000,-36.254883,0.000000
cobot_dynamixel_driver/joint_states|name|J1,J2,J3,J4,J5,J6|pos|0.158381,0.669237,-0.008112,-0.001715,-1.464236,-0.000083|vel|0.000000,-0.000000,0.000000,0.000000,0.000000,0.000000|eff|0.000000,982.910156,-338.378906,0.000000,-44.311523,0.000000
cobot_dynamixel_driver/joint_states|name|J1,J2,J3,J4,J5,J6|pos|0.158381,0.669237,-0.008112,-0.001715,-1.464236,-0.000083|vel|0.000000,-0.000000,0.000000,0.000000,0.000000,0.000000|eff|-112.792969,1015.136719,-354.492188,0.000000,-28.198242,0.000000
cobot_dynamixel_driver/joint_states|name|J1,J2,J3,J4,J5,J6|pos|0.158381,0.669237,-0.008112,-0.001715,-1.464236,-0.000083|vel|0.000000,-0.000000,0.000000,0.000000,0.000000,0.000000|eff|0.000000,950.683594,-354.492188,0.000000,-28.198242,0.000000
cobot_dynamixel_driver/joint_states|name|J1,J2,J3,J4,J5,J6|pos|0.158381,0.669237,-0.008112,-0.001715,-1.464236,-0.000083|vel|0.000000,-0.000000,0.000000,0.000000,0.000000,0.000000|eff|0.000000,1047.363281,-402.832031,0.000000,-28.198242,0.000000
cobot_dynamixel_driver/joint_states|name|J1,J2,J3,J4,J5,J6|pos|0.158381,0.669237,-0.008112,-0.001715,-1.464236,-0.000083|vel|0.000000,-0.000000,0.000000,0.000000,0.000000,0.000000|eff|0.000000,999.023438,-354.492188,0.000000,-28.198242,0.000000
cobot_dynamixel_driver/joint_states|name|J1,J2,J3,J4,J5,J6|pos|0.158381,0.669237,-0.008112,-0.001715,-1.464236,-0.000083|vel|0.000000,-0.000000,0.000000,0.000000,0.000000,0.000000|eff|-112.792969,982.910156,-354.492188,0.000000,-44.311523,0.000000
cobot_dynamixel_driver/joint_states|name|J1,J2,J3,J4,J5,J6|pos|0.158381,0.669237,-0.008112,-0.001715,-1.464236,-0.000083|vel|0.000000,-0.000000,0.000000,0.000000,0.000000,0.000000|eff|0.000000,999.023438,-338.378906,0.000000,-28.198242,0.000000
cobot_dynamixel_driver/joint_states|name|J1,J2,J3,J4,J5,J6|pos|0.158381,0.669237,-0.008112,-0.001715,-1.464236,-0.000083|vel|0.000000,-0.000000,0.000000,0.000000,0.000000,0.000000|eff|0.000000,1127.929688,-418.945312,0.000000,-32.226562,0.000000
cobot_dynamixel_driver/joint_states|name|J1,J2,J3,J4,J5,J6|pos|0.158381,0.669237,-0.008112,-0.001715,-1.464236,-0.000083|vel|0.000000,-0.000000,0.000000,0.000000,0.000000,0.000000|eff|0.000000,950.683594,-402.832031,0.000000,-28.198242,0.000000
cobot_dynamixel_driver/joint_states|name|J1,J2,J3,J4,J5,J6|pos|0.158381,0.669237,-0.008112,-0.001715,-1.464236,-0.000083|vel|0.000000,-0.000000,0.000000,0.000000,0.000000,0.000000|eff|-80.566406,999.023438,-402.832031,0.000000,-44.311523,0.000000
cobot_dynamixel_driver/joint_states|name|J1,J2,J3,J4,J5,J6|pos|0.158381,0.669237,-0.008112,-0.001715,-1.464236,-0.000083|vel|0.000000,-0.000000,0.000000,0.000000,0.000000,0.000000|eff|-112.792969,966.796875,-338.378906,0.000000,-28.198242,0.000000
cobot_dynamixel_driver/joint_states|name|J1,J2,J3,J4,J5,J6|pos|0.158381,0.669237,-0.008112,-0.001715,-1.464236,-0.000083|vel|0.000000,-0.000000,0.000000,0.000000,0.000000,0.000000|eff|0.000000,966.796875,-370.605469,0.000000,-32.226562,0.000000
cobot_dynamixel_driver/joint_states|name|J1,J2,J3,J4,J5,J6|pos|0.158381,0.669237,-0.008112,-0.001715,-1.464236,-0.000083|vel|0.000000,-0.000000,0.000000,0.000000,0.000000,0.000000|eff|0.000000,1063.476562,-402.832031,0.000000,-44.311523,0.000000
cobot_dynamixel_driver/joint_states|name|J1,J2,J3,J4,J5,J6|pos|0.158381,0.669237,-0.008112,-0.001715,-1.464236,-0.000083|vel|0.000000,-0.000000,0.000000,0.000000,0.000000,0.000000|eff|0.000000,1095.703125,-370.605469,0.000000,-28.198242,0.000000
cobot_dynamixel_driver/joint_states|name|J1,J2,J3,J4,J5,J6|pos|0.158381,0.669237,-0.008112,-0.001715,-1.464236,-0.000083|vel|0.000000,-0.000000,0.000000,0.000000,0.000000,0.000000|eff|-48.339844,1015.136719,-338.378906,0.000000,-40.283203,0.000000
cobot_dynamixel_driver/joint_states|name|J1,J2,J3,J4,J5,J6|pos|0.158381,0.669237,-0.008112,-0.001715,-1.464236,-0.000083|vel|0.000000,-0.000000,0.000000,0.000000,0.000000,0.000000|eff|0.000000,1079.589844,-386.718750,0.000000,-32.226562,0.000000
cobot_dynamixel_driver/joint_states|name|J1,J2,J3,J4,J5,J6|pos|0.158381,0.669237,-0.008112,-0.001715,-1.464236,-0.000083|vel|0.000000,-0.000000,0.000000,0.000000,0.000000,0.000000|eff|0.000000,1063.476562,-370.605469,0.000000,-28.198242,0.000000
cobot_dynamixel_driver/joint_states|name|J1,J2,J3,J4,J5,J6|pos|0.158381,0.669237,-0.008112,-0.001715,-1.464236,-0.000083|vel|0.000000,-0.000000,0.000000,0.000000,0.000000,0.000000|eff|0.000000,950.683594,-370.605469,0.000000,-48.339844,0.000000
cobot_dynamixel_driver/joint_states|name|J1,J2,J3,J4,J5,J6|pos|0.158381,0.669237,-0.008112,-0.001715,-1.464236,-0.000083|vel|0.000000,-0.000000,0.000000,0.000000,0.000000,0.000000|eff|-48.339844,1111.816406,-354.492188,0.000000,-28.198242,0.000000
cobot_dynamixel_driver/joint_states|name|J1,J2,J3,J4,J5,J6|pos|0.158381,0.669237,-0.008112,-0.001715,-1.464236,-0.000083|vel|0.000000,-0.000000,0.000000,0.000000,0.000000,0.000000|eff|0.000000,1047.363281,-338.378906,0.000000,-28.198242,0.000000
cobot_dynamixel_driver/joint_states|name|J1,J2,J3,J4,J5,J6|pos|0.158381,0.669237,-0.008112,-0.001715,-1.464236,-0.000083|vel|0.000000,-0.000000,0.000000,0.000000,0.000000,0.000000|eff|0.000000,1015.136719,-354.492188,0.000000,-36.254883,0.000000
cobot_dynamixel_driver/joint_states|name|J1,J2,J3,J4,J5,J6|pos|0.158381,0.669237,-0.008112,-0.001715,-1.464236,-0.000083|vel|0.000000,-0.000000,0.000000,0.000000,0.000000,0.000000|eff|0.000000,1111.816406,-338.378906,0.000000,-28.198242,0.000000
cobot_dynamixel_driver/joint_states|name|J1,J2,J3,J4,J5,J6|pos|0.158381,0.669237,-0.008112,-0.001715,-1.464236,-0.000083|vel|0.000000,-0.000000,0.000000,0.000000,0.000000,0.000000|eff|-112.792969,1111.816406,-338.378906,0.000000,-28.198242,0.000000
cobot_dynamixel_driver/joint_states|name|J1,J2,J3,J4,J5,J6|pos|0.158381,0.669237,-0.008112,-0.001715,-1.464236,-0.000083|vel|0.000000,-0.000000,0.000000,0.000000,0.000000,0.000000|eff|0.000000,966.796875,-338.378906,0.000000,-36.254883,0.000000
cobot_dynamixel_driver/joint_states|name|J1,J2,J3,J4,J5,J6|pos|0.158381,0.669237,-0.008112,-0.001715,-1.464236,-0.000083|vel|0.000000,-0.000000,0.000000,0.000000,0.000000,0.000000|eff|0.000000,950.683594,-386.718750,0.000000,-28.198242,0.000000
cobot_dynamixel_driver/joint_states|name|J1,J2,J3,J4,J5,J6|pos|0.158381,0.669237,-0.008112,-0.001715,-1.464236,-0.000083|vel|0.000000,-0.000000,0.000000,0.000000,0.000000,0.000000|eff|0.000000,1031.250000,-354.492188,0.000000,-32.226562,0.000000
cobot_dynamixel_driver/joint_states|name|J1,J2,J3,J4,J5,J6|pos|0.158381,0.669237,-0.008112,-0.001715,-1.464236,-0.000083|vel|0.000000,-0.000000,0.000000,0.000000,0.000000,0.000000|eff|-80.566406,1063.476562,-386.718750,0.000000,-28.198242,0.000000
cobot_dynamixel_driver/joint_states|name|J1,J2,J3,J4,J5,J6|pos|0.158381,0.669237,-0.008112,-0.001715,-1.464236,-0.000083|vel|0.000000,-0.000000,0.000000,0.000000,0.000000,0.000000|eff|0.000000,982.910156,-338.378906,0.000000,-32.226562,0.000000
cobot_dynamixel_driver/joint_states|name|J1,J2,J3,J4,J5,J6|pos|0.158381,0.669237,-0.008112,-0.001715,-1.464236,-0.000083|vel|0.000000,-0.000000,0.000000,0.000000,0.000000,0.000000|eff|0.000000,950.683594,-370.605469,0.000000,-28.198242,0.000000
cobot_dynamixel_driver/joint_states|name|J1,J2,J3,J4,J5,J6|pos|0.158381,0.669237,-0.008112,-0.001715,-1.464236,-0.000083|vel|0.000000,-0.000000,0.000000,0.000000,0.000000,0.000000|eff|0.000000,950.683594,-435.058594,0.000000,-40.283203,0.000000
cobot_dynamixel_driver/joint_states|name|J1,J2,J3,J4,J5,J6|pos|0.158381,0.669237,-0.008112,-0.001715,-1.464236,-0.000083|vel|0.000000,-0.000000,0.000000,0.000000,0.000000,0.000000|eff|-112.792969,966.796875,-354.492188,0.000000,-28.198242,0.000000
cobot_dynamixel_driver/joint_states|name|J1,J2,J3,J4,J5,J6|pos|0.158381,0.669237,-0.008112,-0.001715,-1.464236,-0.000083|vel|0.000000,-0.000000,0.000000,0.000000,0.000000,0.000000|eff|0.000000,1063.476562,-386.718750,0.000000,-28.198242,0.000000
cobot_dynamixel_driver/joint_states|name|J1,J2,J3,J4,J5,J6|pos|0.158381,0.669237,-0.008112,-0.001715,-1.464236,-0.000083|vel|0.000000,-0.000000,0.000000,0.000000,0.000000,0.000000|eff|0.000000,999.023438,-354.492188,0.000000,-32.226562,0.000000
cobot_dynamixel_driver/joint_states|name|J1,J2,J3,J4,J5,J6|pos|0.158381,0.669237,-0.008112,-0.001715,-1.464236,-0.000083|vel|0.000000,-0.000000,0.000000,0.000000,0.000000,0.000000|eff|0.000000,966.796875,-354.492188,0.000000,-44.311523,0.000000
cobot_dynamixel_driver/joint_states|name|J1,J2,J3,J4,J5,J6|pos|0.158381,0.669237,-0.008112,-0.001715,-1.464236,-0.000083|vel|0.000000,-0.000000,0.000000,0.000000,0.000000,0.000000|eff|-80.566406,1015.136719,-338.378906,0.000000,-28.198242,0.000000
cobot_dynamixel_driver/joint_states|name|J1,J2,J3,J4,J5,J6|pos|0.158381,0.669237,-0.008112,-0.001715,-1.464236,-0.000083|vel|0.000000,-0.000000,0.000000,0.000000,0.000000,0.000000|eff|0.000000,999.023438,-418.945312,0.000000,-28.198242,0.000000
cobot_dynamixel_driver/joint_states|name|J1,J2,J3,J4,J5,J6|pos|0.158381,0.669237,-0.008112,-0.001715,-1.464236,-0.000083|vel|0.000000,-0.000000,0.000000,0.000000,0.000000,0.000000|eff|0.000000,950.683594,-370.605469,0.000000,-36.254883,0.000000
cobot_dynamixel_driver/joint_states|name|J1,J2,J3,J4,J5,J6|pos|0.158381,0.669237,-0.008112,-0.001715,-1.464236,-0.000083|vel|0.000000,-0.000000,0.000000,0.000000,0.000000,0.000000|eff|0.000000,1047.363281,-402.832031,0.000000,-28.198242,0.000000
cobot_dynamixel_driver/joint_states|name|J1,J2,J3,J4,J5,J6|pos|0.158381,0.669237,-0.008112,-0.001715,-1.464236,-0.000083|vel|0.000000,-0.000000,0.000000,0.000000,0.000000,0.000000|eff|0.000000,1079.589844,-338.378906,0.000000,-32.226562,0.000000
cobot_dynamixel_driver/joint_states|name|J1,J2,J3,J4,J5,J6|pos|0.158381,0.669237,-0.008112,-0.001715,-1.464236,-0.000083|vel|0.000000,-0.000000,0.000000,0.000000,0.000000,0.000000|eff|0.000000,1079.589844,-338.378906,0.000000,-28.198242,0.000000
cobot_dynamixel_driver/joint_states|name|J1,J2,J3,J4,J5,J6|pos|0.158381,0.669237,-0.008112,-0.001715,-1.464236,-0.000083|vel|0.000000,-0.000000,0.000000,0.000000,0.000000,0.000000|eff|-48.339844,934.570312,-370.605469,0.000000,-36.254883,0.000000
cobot_dynamixel_driver/joint_states|name|J1,J2,J3,J4,J5,J6|pos|0.158381,0.669237,-0.008112,-0.001715,-1.464236,-0.000083|vel|0.000000,-0.000000,0.000000,0.000000,0.000000,0.000000|eff|0.000000,999.023438,-338.378906,0.000000,-28.198242,0.000000
cobot_dynamixel_driver/joint_states|name|J1,J2,J3,J4,J5,J6|pos|0.158381,0.669237,-0.008112,-0.001715,-1.464236,-0.000083|vel|0.000000,-0.000000,0.000000,0.000000,0.000000,0.000000|eff|0.000000,1095.703125,-354.492188,0.000000,-28.198242,0.000000
cobot_dynamixel_driver/joint_states|name|J1,J2,J3,J4,J5,J6|pos|0.158381,0.669237,-0.008112,-0.001715,-1.464236,-0.000083|vel|0.000000,-0.000000,0.000000,0.000000,0.000000,0.000000|eff|0.000000,934.570312,-354.492188,0.000000,-28.198242,0.000000
cobot_dynamixel_driver/joint_states|name|J1,J2,J3,J4,J5,J6|pos|0.158381,0.669237,-0.008112,-0.001715,-1.464236,-0.000083|vel|0.000000,-0.000000,0.000000,0.000000,0.000000,0.000000|eff|-112.792969,1095.703125,-370.605469,0.000000,-28.198242,0.000000
cobot_dynamixel_driver/joint_states|name|J1,J2,J3,J4,J5,J6|pos|0.158381,0.669237,-0.008112,-0.001715,-1.464236,-0.000083|vel|0.000000,-0.000000,0.000000,0.000000,0.000000,0.000000|eff|0.000000,1015.136719,-338.378906,0.000000,-32.226562,0.000000
cobot_dynamixel_driver/joint_states|name|J1,J2,J3,J4,J5,J6|pos|0.158381,0.669237,-0.008112,-0.001715,-1.464236,-0.000083|vel|0.000000,-0.000000,0.000000,0.000000,0.000000,0.000000|eff|0.000000,1079.589844,-338.378906,0.000000,-28.198242,0.000000
cobot_dynamixel_driver/joint_states|name|J1,J2,J3,J4,J5,J6|pos|0.158381,0.669237,-0.008112,-0.001715,-1.464236,-0.000083|vel|0.000000,-0.000000,0.000000,0.000000,0.000000,0.000000|eff|0.000000,982.910156,-338.378906,0.000000,-28.198242,0.000000
cobot_dynamixel_driver/joint_states|name|J1,J2,J3,J4,J5,J6|pos|0.158381,0.669237,-0.008112,-0.001715,-1.464236,-0.000083|vel|0.000000,-0.000000,0.000000,0.000000,0.000000,0.000000|eff|-112.792969,1031.250000,-370.605469,0.000000,-28.198242,0.000000
cobot_dynamixel_driver/joint_states|name|J1,J2,J3,J4,J5,J6|pos|0.158381,0.669237,-0.008112,-0.001715,-1.464236,-0.000083|vel|0.000000,-0.000000,0.000000,0.000000,0.000000,0.000000|eff|0.000000,1015.136719,-354.492188,0.000000,-28.198242,0.000000
cobot_dynamixel_driver/joint_states|name|J1,J2,J3,J4,J5,J6|pos|0.158381,0.669237,-0.008112,-0.001715,-1.464236,-0.000083|vel|0.000000,-0.000000,0.000000,0.000000,0.000000,0.000000|eff|0.000000,999.023438,-402.832031,0.000000,-44.311523,0.000000
cobot_dynamixel_driver/joint_states|name|J1,J2,J3,J4,J5,J6|pos|0.158381,0.669237,-0.008112,-0.001715,-1.464236,-0.000083|vel|0.000000,-0.000000,0.000000,0.000000,0.000000,0.000000|eff|0.000000,999.023438,-338.378906,0.000000,-28.198242,0.000000
cobot_dynamixel_driver/joint_states|name|J1,J2,J3,J4,J5,J6|pos|0.158381,0.669237,-0.008112,-0.001715,-1.464236,-0.000083|vel|0.000000,-0.000000,0.000000,0.000000,0.000000,0.000000|eff|0.000000,1063.476562,-354.492188,0.000000,-28.198242,0.000000
cobot_dynamixel_driver/joint_states|name|J1,J2,J3,J4,J5,J6|pos|0.158381,0.669237,-0.008112,-0.001715,-1.464236,-0.000083|vel|0.000000,-0.000000,0.000000,0.000000,0.000000,0.000000|eff|0.000000,1079.589844,-435.058594,0.000000,-36.254883,0.000000
cobot_dynamixel_driver/joint_states|name|J1,J2,J3,J4,J5,J6|pos|0.158381,0.669237,-0.008112,-0.001715,-1.464236,-0.000083|vel|0.000000,-0.000000,0.000000,0.000000,0.000000,0.000000|eff|0.000000,999.023438,-338.378906,0.000000,-28.198242,0.000000
cobot_dynamixel_driver/joint_states|name|J1,J2,J3,J4,J5,J6|pos|0.158381,0.669237,-0.008112,-0.001715,-1.464236,-0.000083|vel|0.000000,-0.000000,0.000000,0.000000,0.000000,0.000000|eff|0.000000,1111.816406,-354.492188,0.000000,-28.198242,0.000000
cobot_dynamixel_driver/joint_states|name|J1,J2,J3,J4,J5,J6|pos|0.158381,0.669237,-0.008112,-0.001715,-1.464236,-0.000083|vel|0.000000,-0.000000,0.000000,0.000000,0.000000,0.000000|eff|0.000000,982.910156,-354.492188,0.000000,-32.226562,0.000000
cobot_dynamixel_driver/joint_states|name|J1,J2,J3,J4,J5,J6|pos|0.158381,0.669237,-0.008112,-0.001715,-1.464236,-0.000083|vel|0.000000,-0.000000,0.000000,0.000000,0.000000,0.000000|eff|0.000000,1095.703125,-386.718750,0.000000,-28.198242,0.000000
cobot_dynamixel_driver/joint_states|name|J1,J2,J3,J4,J5,J6|pos|0.158381,0.669237,-0.008112,-0.001715,-1.464236,-0.000083|vel|0.000000,-0.000000,0.000000,0.000000,0.000000,0.000000|eff|0.000000,934.570312,-418.945312,0.000000,-40.283203,0.000000
cobot_dynamixel_driver/joint_states|name|J1,J2,J3,J4,J5,J6|pos|0.158381,0.669237,-0.008112,-0.001715,-1.464236,-0.000083|vel|0.000000,-0.000000,0.000000,0.000000,0.000000,0.000000|eff|0.000000,999.023438,-338.378906,0.000000,-28.198242,0.000000
cobot_dynamixel_driver/joint_states|name|J1,J2,J3,J4,J5,J6|pos|0.158381,0.669237,-0.008112,-0.001715,-1.464236,-0.000083|vel|0.000000,-0.000000,0.000000,0.000000,0.000000,0.000000|eff|-48.339844,1079.589844,-370.605469,0.000000,-32.226562,0.000000
cobot_dynamixel_driver/joint_states|name|J1,J2,J3,J4,J5,J6|pos|0.158381,0.669237,-0.008112,-0.001715,-1.464236,-0.000083|vel|0.000000,-0.000000,0.000000,0.000000,0.000000,0.000000|eff|0.000000,982.910156,-338.378906,0.000000,-28.198242,0.000000
cobot_dynamixel_driver/joint_states|name|J1,J2,J3,J4,J5,J6|pos|0.158381,0.669237,-0.008112,-0.001715,-1.464236,-0.000083|vel|0.000000,-0.000000,0.000000,0.000000,0.000000,0.000000|eff|0.000000,1047.363281,-435.058594,0.000000,-28.198242,0.000000
cobot_dynamixel_driver/joint_states|name|J1,J2,J3,J4,J5,J6|pos|0.158381,0.669237,-0.008112,-0.001715,-1.464236,-0.000083|vel|0.000000,-0.000000,0.000000,0.000000,0.000000,0.000000|eff|0.000000,1079.589844,-354.492188,0.000000,-28.198242,0.000000
cobot_dynamixel_driver/joint_states|name|J1,J2,J3,J4,J5,J6|pos|0.158381,0.669237,-0.008112,-0.001715,-1.464236,-0.000083|vel|0.000000,-0.000000,0.000000,0.000000,0.000000,0.000000|eff|-112.792969,999.023438,-354.492188,0.000000,-36.254883,0.000000
cobot_dynamixel_driver/joint_states|name|J1,J2,J3,J4,J5,J6|pos|0.158381,0.669237,-0.008112,-0.001715,-1.464236,-0.000083|vel|0.000000,-0.000000,0.000000,0.000000,0.000000,0.000000|eff|0.000000,1063.476562,-338.378906,0.000000,-28.198242,0.000000
cobot_dynamixel_driver/joint_states|name|J1,J2,J3,J4,J5,J6|pos|0.158381,0.669237,-0.008112,-0.001715,-1.464236,-0.000083|vel|0.000000,-0.000000,0.000000,0.000000,0.000000,0.000000|eff|0.000000,1127.929688,-338.378906,0.000000,-28.198242,0.000000
cobot_dynamixel_driver/joint_states|name|J1,J2,J3,J4,J5,J6|pos|0.158381,0.669237,-0.008112,-0.001715,-1.464236,-0.000083|vel|0.000000,-0.000000,0.000000,0.000000,0.000000,0.000000|eff|0.000000,1127.929688,-354.492188,0.000000,-28.198242,0.000000
cobot_dynamixel_driver/joint_states|name|J1,J2,J3,J4,J5,J6|pos|0.158381,0.669237,-0.008112,-0.001715,-1.464236,-0.000083|vel|0.000000,-0.000000,0.000000,0.000000,0.000000,0.000000|eff|-48.339844,1063.476562,-354.492188,0.000000,-28.198242,0.000000
cobot_dynamixel_driver/joint_states|name|J1,J2,J3,J4,J5,J6|pos|0.158381,0.669237,-0.008112,-0.001715,-1.464236,-0.000083|vel|0.000000,-0.000000,0.000000,0.000000,0.000000,0.000000|eff|0.000000,966.796875,-338.378906,0.000000,-32.226562,0.000000
cobot_dynamixel_driver/joint_states|name|J1,J2,J3,J4,J5,J6|pos|0.158381,0.669237,-0.008112,-0.001715,-1.464236,-0.000083|vel|0.000000,-0.000000,0.000000,0.000000,0.000000,0.000000|eff|0.000000,1079.589844,-402.832031,0.000000,-28.198242,0.000000
cobot_dynamixel_driver/joint_states|name|J1,J2,J3,J4,J5,J6|pos|0.158381,0.669237,-0.008112,-0.001715,-1.464236,-0.000083|vel|0.000000,-0.000000,0.000000,0.000000,0.000000,0.000000|eff|0.000000,1015.136719,-386.718750,0.000000,-28.198242,0.000000
cobot_dynamixel_driver/joint_states|name|J1,J2,J3,J4,J5,J6|pos|0.158381,0.669237,-0.008112,-0.001715,-1.464236,-0.000083|vel|0.000000,-0.000000,0.000000,0.000000,0.000000,0.000000|eff|-112.792969,1031.250000,-386.718750,0.000000,-28.198242,0.000000
cobot_dynamixel_driver/joint_states|name|J1,J2,J3,J4,J5,J6|pos|0.158381,0.669237,-0.008112,-0.001715,-1.464236,-0.000083|vel|0.000000,-0.000000,0.000000,0.000000,0.000000,0.000000|eff|0.000000,950.683594,-386.718750,0.000000,-28.198242,0.000000
cobot_dynamixel_driver/joint_states|name|J1,J2,J3,J4,J5,J6|pos|0.158381,0.669237,-0.008112,-0.001715,-1.464236,-0.000083|vel|0.000000,-0.000000,0.000000,0.000000,0.000000,0.000000|eff|0.000000,1031.250000,-338.378906,0.000000,-40.283203,0.000000
cobot_dynamixel_driver/joint_states|name|J1,J2,J3,J4,J5,J6|pos|0.158381,0.669237,-0.008112,-0.001715,-1.464236,-0.000083|vel|0.000000,-0.000000,0.000000,0.000000,0.000000,0.000000|eff|0.000000,1079.589844,-418.945312,0.000000,-28.198242,0.000000
cobot_dynamixel_driver/joint_states|name|J1,J2,J3,J4,J5,J6|pos|0.158381,0.669237,-0.008112,-0.001715,-1.464236,-0.000083|vel|0.000000,-0.000000,0.000000,0.000000,0.000000,0.000000|eff|0.000000,950.683594,-354.492188,0.000000,-28.198242,0.000000
cobot_dynamixel_driver/joint_states|name|J1,J2,J3,J4,J5,J6|pos|0.158381,0.669237,-0.008112,-0.001715,-1.464236,-0.000083|vel|0.000000,-0.000000,0.000000,0.000000,0.000000,0.000000|eff|0.000000,1047.363281,-370.605469,0.000000,-28.198242,0.000000
cobot_dynamixel_driver/joint_states|name|J1,J2,J3,J4,J5,J6|pos|0.158381,0.669237,-0.008112,-0.001715,-1.464236,-0.000083|vel|0.000000,-0.000000,0.000000,0.000000,0.000000,0.000000|eff|0.000000,1063.476562,-354.492188,0.000000,-28.198242,0.000000
cobot_dynamixel_driver/joint_states|name|J1,J2,J3,J4,J5,J6|pos|0.158381,0.669237,-0.008112,-0.001715,-1.464236,-0.000083|vel|0.000000,-0.000000,0.000000,0.000000,0.000000,0.000000|eff|0.000000,1079.589844,-354.492188,0.000000,-36.254883,0.000000
cobot_dynamixel_driver/joint_states|name|J1,J2,J3,J4,J5,J6|pos|0.158381,0.669237,-0.008112,-0.001715,-1.464236,-0.000083|vel|0.000000,-0.000000,0.000000,0.000000,0.000000,0.000000|eff|0.000000,950.683594,-386.718750,0.000000,-28.198242,0.000000
cobot_dynamixel_driver/joint_states|name|J1,J2,J3,J4,J5,J6|pos|0.158381,0.669237,-0.008112,-0.001715,-1.464236,-0.000083|vel|0.000000,-0.000000,0.000000,0.000000,0.000000,0.000000|eff|0.000000,966.796875,-354.492188,0.000000,-32.226562,-8.056641
cobot_dynamixel_driver/joint_states|name|J1,J2,J3,J4,J5,J6|pos|0.158381,0.669237,-0.008112,-0.001715,-1.464236,-0.000083|vel|0.000000,-0.000000,0.000000,0.000000,0.000000,0.000000|eff|0.000000,950.683594,-338.378906,0.000000,-44.311523,0.000000
cobot_dynamixel_driver/joint_states|name|J1,J2,J3,J4,J5,J6|pos|0.158381,0.669237,-0.008112,-0.001715,-1.464236,-0.000083|vel|0.000000,-0.000000,0.000000,0.000000,0.000000,0.000000|eff|0.000000,1095.703125,-338.378906,0.000000,-28.198242,0.000000
cobot_dynamixel_driver/joint_states|name|J1,J2,J3,J4,J5,J6|pos|0.158381,0.669237,-0.008112,-0.001715,-1.464236,-0.000083|vel|0.000000,-0.000000,0.000000,0.000000,0.000000,0.000000|eff|0.000000,1095.703125,-338.378906,0.000000,-28.198242,0.000000
cobot_dynamixel_driver/joint_states|name|J1,J2,J3,J4,J5,J6|pos|0.158381,0.669237,-0.008112,-0.001715,-1.464236,-0.000083|vel|0.000000,-0.000000,0.000000,0.000000,0.000000,0.000000|eff|0.000000,1079.589844,-402.832031,0.000000,-32.226562,0.000000
cobot_dynamixel_driver/joint_states|name|J1,J2,J3,J4,J5,J6|pos|0.158381,0.669237,-0.008112,-0.001715,-1.464236,-0.000083|vel|0.000000,-0.000000,0.000000,0.000000,0.000000,0.000000|eff|0.000000,966.796875,-402.832031,0.000000,-40.283203,0.000000
cobot_dynamixel_driver/joint_states|name|J1,J2,J3,J4,J5,J6|pos|0.158381,0.669237,-0.008112,-0.001715,-1.464236,-0.000083|vel|0.000000,-0.000000,0.000000,0.000000,0.000000,0.000000|eff|0.000000,1127.929688,-338.378906,0.000000,-28.198242,0.000000
cobot_dynamixel_driver/joint_states|name|J1,J2,J3,J4,J5,J6|pos|0.158381,0.669237,-0.008112,-0.001715,-1.464236,-0.000083|vel|0.000000,-0.000000,0.000000,0.000000,0.000000,0.000000|eff|-80.566406,999.023438,-386.718750,0.000000,-44.311523,0.000000
cobot_dynamixel_driver/joint_states|name|J1,J2,J3,J4,J5,J6|pos|0.158381,0.669237,-0.008112,-0.001715,-1.464236,-0.000083|vel|0.000000,-0.000000,0.000000,0.000000,0.000000,0.000000|eff|0.000000,1031.250000,-338.378906,0.000000,-28.198242,0.000000
cobot_dynamixel_driver/joint_states|name|J1,J2,J3,J4,J5,J6|pos|0.158381,0.669237,-0.008112,-0.001715,-1.464236,-0.000083|vel|0.000000,-0.000000,0.000000,0.000000,0.000000,0.000000|eff|0.000000,1127.929688,-338.378906,0.000000,-44.311523,0.000000
cobot_dynamixel_driver/joint_states|name|J1,J2,J3,J4,J5,J6|pos|0.158381,0.669237,-0.008112,-0.001715,-1.464236,-0.000083|vel|0.000000,-0.000000,0.000000,0.000000,0.000000,0.000000|eff|0.000000,966.796875,-338.378906,0.000000,-28.198242,0.000000
cobot_dynamixel_driver/joint_states|name|J1,J2,J3,J4,J5,J6|pos|0.158381,0.669237,-0.008112,-0.001715,-1.464236,-0.000083|vel|0.000000,-0.000000,0.000000,0.000000,0.000000,0.000000|eff|-80.566406,1111.816406,-386.718750,0.000000,-32.226562,0.000000
cobot_dynamixel_driver/joint_states|name|J1,J2,J3,J4,J5,J6|pos|0.158381,0.669237,-0.008112,-0.001715,-1.464236,-0.000083|vel|0.000000,-0.000000,0.000000,0.000000,0.000000,0.000000|eff|0.000000,1111.816406,-354.492188,0.000000,-28.198242,0.000000
cobot_dynamixel_driver/joint_states|name|J1,J2,J3,J4,J5,J6|pos|0.158381,0.669237,-0.008112,-0.001715,-1.464236,-0.000083|vel|0.000000,-0.000000,0.000000,0.000000,0.000000,0.000000|eff|0.000000,966.796875,-354.492188,0.000000,-36.254883,0.000000
cobot_dynamixel_driver/joint_states|name|J1,J2,J3,J4,J5,J6|pos|0.158381,0.669237,-0.008112,-0.001715,-1.464236,-0.000083|vel|0.000000,-0.000000,0.000000,0.000000,0.000000,0.000000|eff|0.000000,934.570312,-418.945312,0.000000,-28.198242,0.000000
cobot_dynamixel_driver/joint_states|name|J1,J2,J3,J4,J5,J6|pos|0.158381,0.669237,-0.008112,-0.001715,-1.464236,-0.000083|vel|0.000000,-0.000000,0.000000,0.000000,0.000000,0.000000|eff|-80.566406,1111.816406,-386.718750,0.000000,-32.226562,0.000000
cobot_dynamixel_driver/joint_states|name|J1,J2,J3,J4,J5,J6|pos|0.158381,0.669237,-0.008112,-0.001715,-1.464236,-0.000083|vel|0.000000,-0.000000,0.000000,0.000000,0.000000,0.000000|eff|0.000000,1079.589844,-354.492188,0.000000,-28.198242,0.000000
cobot_dynamixel_driver/joint_states|name|J1,J2,J3,J4,J5,J6|pos|0.158381,0.669237,-0.008112,-0.001715,-1.464236,-0.000083|vel|0.000000,-0.000000,0.000000,0.000000,0.000000,0.000000|eff|0.000000,982.910156,-354.492188,0.000000,-28.198242,0.000000
cobot_dynamixel_driver/joint_states|name|J1,J2,J3,J4,J5,J6|pos|0.158381,0.669237,-0.008112,-0.001715,-1.464236,-0.000083|vel|0.000000,-0.000000,0.000000,0.000000,0.000000,0.000000|eff|0.000000,999.023438,-338.378906,0.000000,-36.254883,0.000000
cobot_dynamixel_driver/joint_states|name|J1,J2,J3,J4,J5,J6|pos|0.158381,0.669237,-0.008112,-0.001715,-1.464236,-0.000083|vel|0.000000,-0.000000,0.000000,0.000000,0.000000,0.000000|eff|-80.566406,1111.816406,-338.378906,0.000000,-36.254883,0.000000
cobot_dynamixel_driver/joint_states|name|J1,J2,J3,J4,J5,J6|pos|0.158381,0.669237,-0.008112,-0.001715,-1.464236,-0.000083|vel|0.000000,-0.000000,0.000000,0.000000,0.000000,0.000000|eff|0.000000,950.683594,-354.492188,0.000000,-32.226562,0.000000
cobot_dynamixel_driver/joint_states|name|J1,J2,J3,J4,J5,J6|pos|0.158381,0.669237,-0.008112,-0.001715,-1.464236,-0.000083|vel|0.000000,-0.000000,0.000000,0.000000,0.000000,0.000000|eff|0.000000,999.023438,-338.378906,0.000000,-40.283203,0.000000
cobot_dynamixel_driver/joint_states|name|J1,J2,J3,J4,J5,J6|pos|0.158381,0.669237,-0.008112,-0.001715,-1.464236,-0.000083|vel|0.000000,-0.000000,0.000000,0.000000,0.000000,0.000000|eff|0.000000,1015.136719,-354.492188,0.000000,-28.198242,0.000000
cobot_dynamixel_driver/joint_states|name|J1,J2,J3,J4,J5,J6|pos|0.158381,0.669237,-0.008112,-0.001715,-1.464236,-0.000083|vel|0.000000,-0.000000,0.000000,0.000000,0.000000,0.000000|eff|-112.792969,966.796875,-386.718750,0.000000,-28.198242,0.000000
cobot_dynamixel_driver/joint_states|name|J1,J2,J3,J4,J5,J6|pos|0.158381,0.669237,-0.008112,-0.001715,-1.464236,-0.000083|vel|0.000000,-0.000000,0.000000,0.000000,0.000000,0.000000|eff|0.000000,950.683594,-354.492188,0.000000,-28.198242,0.000000
cobot_dynamixel_driver/joint_states|name|J1,J2,J3,J4,J5,J6|pos|0.158381,0.669237,-0.008112,-0.001715,-1.464236,-0.000083|vel|0.000000,-0.000000,0.000000,0.000000,0.000000,0.000000|eff|0.000000,1047.363281,-338.378906,0.000000,-32.226562,0.000000
cobot_dynamixel_driver/joint_states|name|J1,J2,J3,J4,J5,J6|pos|0.158381,0.669237,-0.008112,-0.001715,-1.464236,-0.000083|vel|0.000000,-0.000000,0.000000,0.000000,0.000000,0.000000|eff|0.000000,1031.250000,-386.718750,0.000000,-28.198242,0.000000
cobot_dynamixel_driver/joint_states|name|J1,J2,J3,J4,J5,J6|pos|0.158381,0.669237,-0.008112,-0.001715,-1.464236,-0.000083|vel|0.000000,-0.000000,0.000000,0.000000,0.000000,0.000000|eff|-112.792969,950.683594,-354.492188,0.000000,-28.198242,0.000000
cobot_dynamixel_driver/joint_states|name|J1,J2,J3,J4,J5,J6|pos|0.158381,0.669237,-0.008112,-0.001715,-1.464236,-0.000083|vel|0.000000,-0.000000,0.000000,0.000000,0.000000,0.000000|eff|0.000000,950.683594,-354.492188,0.000000,-32.226562,0.000000
cobot_dynamixel_driver/joint_states|name|J1,J2,J3,J4,J5,J6|pos|0.158381,0.669237,-0.008112,-0.001715,-1.464236,-0.000083|vel|0.000000,-0.000000,0.000000,0.000000,0.000000,0.000000|eff|0.000000,1127.929688,-338.378906,0.000000,-28.198242,0.000000
cobot_dynamixel_driver/joint_states|name|J1,J2,J3,J4,J5,J6|pos|0.158381,0.669237,-0.008112,-0.001715,-1.464236,-0.000083|vel|0.000000,-0.000000,0.000000,0.000000,0.000000,0.000000|eff|0.000000,1015.136719,-386.718750,0.000000,-28.198242,0.000000
cobot_dynamixel_driver/joint_states|name|J1,J2,J3,J4,J5,J6|pos|0.158381,0.669237,-0.008112,-0.001715,-1.464236,-0.000083|vel|0.000000,-0.000000,0.000000,0.000000,0.000000,0.000000|eff|-80.566406,950.683594,-370.605469,0.000000,-44.311523,0.000000
cobot_dynamixel_driver/joint_states|name|J1,J2,J3,J4,J5,J6|pos|0.158381,0.669237,-0.008112,-0.001715,-1.464236,-0.000083|vel|0.000000,-0.000000,0.000000,0.000000,0.000000,0.000000|eff|0.000000,1031.250000,-338.378906,0.000000,-28.198242,0.000000
cobot_dynamixel_driver/joint_states|name|J1,J2,J3,J4,J5,J6|pos|0.158381,0.669237,-0.008112,-0.001715,-1.464236,-0.000083|vel|0.000000,-0.000000,0.000000,0.000000,0.000000,0.000000|eff|0.000000,1095.703125,-354.492188,0.000000,-32.226562,0.000000
cobot_dynamixel_driver/joint_states|name|J1,J2,J3,J4,J5,J6|pos|0.158381,0.669237,-0.008112,-0.001715,-1.464236,-0.000083|vel|0.000000,-0.000000,0.000000,0.000000,0.000000,0.000000|eff|0.000000,966.796875,-418.945312,0.000000,-28.198242,0.000000
cobot_dynamixel_driver/joint_states|name|J1,J2,J3,J4,J5,J6|pos|0.158381,0.669237,-0.008112,-0.001715,-1.464236,-0.000083|vel|0.000000,-0.000000,0.000000,0.000000,0.000000,0.000000|eff|0.000000,999.023438,-354.492188,0.000000,-32.226562,0.000000
cobot_dynamixel_driver/joint_states|name|J1,J2,J3,J4,J5,J6|pos|0.158381,0.669237,-0.008112,-0.001715,-1.464236,-0.000083|vel|0.000000,-0.000000,0.000000,0.000000,0.000000,0.000000|eff|0.000000,1095.703125,-354.492188,0.000000,-44.311523,0.000000
cobot_dynamixel_driver/joint_states|name|J1,J2,J3,J4,J5,J6|pos|0.158381,0.669237,-0.008112,-0.001715,-1.464236,-0.000083|vel|0.000000,-0.000000,0.000000,0.000000,0.000000,0.000000|eff|0.000000,999.023438,-354.492188,0.000000,-28.198242,0.000000
cobot_dynamixel_driver/joint_states|name|J1,J2,J3,J4,J5,J6|pos|0.158381,0.669237,-0.008112,-0.001715,-1.464236,-0.000083|vel|0.000000,-0.000000,0.000000,0.000000,0.000000,0.000000|eff|0.000000,966.796875,-370.605469,0.000000,-28.198242,0.000000
cobot_dynamixel_driver/goal|-:J1,J2,J3,J4,J5,J6:0.000000,0.000000,0.000000,0.000000,0.000000,0.000000:0.700000,0.700000,0.700000,0.700000,0.700000,0.700000:pos_vel_
cobot_dynamixel_driver/joint_states|name|J1,J2,J3,J4,J5,J6|pos|0.162912,0.677799,-0.002291,-0.001715,-1.459974,-0.000083|vel|0.000000,-0.003964,-0.001043,0.000000,0.000000,0.000000|eff|0.000000,1127.929688,-354.492188,0.000000,0.000000,0.000000
cobot_dynamixel_driver/joint_states|name|J1,J2,J3,J4,J5,J6|pos|0.162912,0.677774,-0.002278,-0.001715,-1.459892,-0.000083|vel|0.000000,-0.003964,0.000209,0.000000,0.014822,0.000000|eff|-225.585938,1514.648438,-241.699219,128.906250,92.651367,0.000000
cobot_dynamixel_driver/joint_states|name|J1,J2,J3,J4,J5,J6|pos|0.162462,0.677436,-0.002166,-0.001552,-1.458754,-0.000083|vel|-0.042564,-0.029211,0.007303,0.008555,0.088933,0.000000|eff|-725.097656,2239.746094,-177.246094,32.226562,116.821289,0.000000
cobot_dynamixel_driver/joint_states|name|J1,J2,J3,J4,J5,J6|pos|0.161034,0.676247,-0.002053,-0.001490,-1.455837,-0.000083|vel|-0.108079,-0.097438,0.006885,0.003756,0.208543,0.000000|eff|-1031.250000,2707.031250,-145.019531,128.906250,140.991211,0.000000
cobot_dynamixel_driver/joint_states|name|J1,J2,J3,J4,J5,J6|pos|0.158205,0.673393,-0.001853,-0.001352,-1.451349,-0.000083|vel|-0.183609,-0.201761,0.014188,0.006259,0.235085,0.000000|eff|-1127.929688,2545.898438,-128.906250,48.339844,104.736328,0.000000
cobot_dynamixel_driver/joint_states|name|J1,J2,J3,J4,J5,J6|pos|0.153949,0.668999,-0.001565,-0.001252,-1.445681,-0.000083|vel|-0.231806,-0.287515,0.012936,0.005842,0.329878,0.000000|eff|-1321.289062,2594.238281,-209.472656,145.019531,76.538086,0.000000
cobot_dynamixel_driver/joint_states|name|J1,J2,J3,J4,J5,J6|pos|0.148091,0.662777,-0.001364,-0.001114,-1.439061,-0.000083|vel|-0.321524,-0.364923,0.009598,0.006885,0.324018,0.000000|eff|-1595.214844,2481.445312,-209.472656,177.246094,80.566406,0.000000
cobot_dynamixel_driver/joint_states|name|J1,J2,J3,J4,J5,J6|pos|0.140980,0.655342,-0.001214,-0.000976,-1.431594,-0.000083|vel|-0.356368,-0.413955,0.006677,0.006677,0.397094,0.000000|eff|-1127.929688,2304.199219,-177.246094,177.246094,64.453125,0.000000
cobot_dynamixel_driver/joint_states|name|J1,J2,J3,J4,J5,J6|pos|0.133019,0.647004,-0.001064,-0.000851,-1.423403,-0.000083|vel|-0.403105,-0.443374,0.007511,0.006885,0.433632,0.000000|eff|-547.851562,1885.253906,-177.246094,96.679688,64.453125,0.000000
cobot_dynamixel_driver/joint_states|name|J1,J2,J3,J4,J5,J6|pos|0.124481,0.637841,-0.000951,-0.000701,-1.414611,-0.000083|vel|-0.425222,-0.508055,0.004799,0.006677,0.515326,0.000000|eff|-1047.363281,2336.425781,-145.019531,96.679688,84.594727,0.000000
cobot_dynamixel_driver/joint_states|name|J1,J2,J3,J4,J5,J6|pos|0.115218,0.628077,-0.000864,-0.000601,-1.405179,-0.000083|vel|-0.493241,-0.475714,0.005008,0.005425,0.555311,0.000000|eff|-660.644531,1772.460938,-209.472656,128.906250,84.594727,0.000000
cobot_dynamixel_driver/joint_states|name|J1,J2,J3,J4,J5,J6|pos|0.105303,0.617950,-0.000789,-0.000513,-1.395188,-0.000083|vel|-0.526833,-0.524120,0.003756,0.003756,0.516015,0.000000|eff|-2191.406250,1772.460938,-193.359375,128.906250,52.368164,0.000000
cobot_dynamixel_driver/joint_states|name|J1,J2,J3,J4,J5,J6|pos|0.094988,0.607547,-0.000638,-0.000476,-1.384804,-0.000083|vel|-0.518070,-0.517444,0.009598,0.002295,0.551175,0.000000|eff|-2030.273438,2143.066406,-209.472656,96.679688,56.396484,0.000000
cobot_dynamixel_driver/joint_states|name|J1,J2,J3,J4,J5,J6|pos|0.084248,0.596506,-0.000576,-0.000438,-1.374089,-0.000083|vel|-0.644510,-0.556669,0.005633,0.001461,0.613910,0.000000|eff|-821.777344,2497.558594,-193.359375,96.679688,60.424805,0.000000
cobot_dynamixel_driver/joint_states|name|J1,J2,J3,J4,J5,J6|pos|0.073557,0.585127,-0.000576,-0.000388,-1.363022,-0.000083|vel|-0.544776,-0.576491,0.005633,0.002921,0.575648,0.000000|eff|-48.339844,2143.066406,-209.472656,128.906250,28.198242,0.000000
cobot_dynamixel_driver/joint_states|name|J1,J2,J3,J4,J5,J6|pos|0.063517,0.573685,-0.000501,-0.000338,-1.351624,-0.000083|vel|-0.466117,-0.583793,0.005008,0.002295,0.582542,0.000000|eff|-1514.648438,2014.160156,-241.699219,128.906250,52.368164,0.000000
cobot_dynamixel_driver/joint_states|name|J1,J2,J3,J4,J5,J6|pos|0.054717,0.561881,-0.000426,-0.000313,-1.340020,-0.000083|vel|-0.411243,-0.624897,0.003338,0.001461,0.681816,0.000000|eff|531.738281,3512.695312,-161.132812,193.359375,48.339844,16.113281
cobot_dynamixel_driver/joint_states|name|J1,J2,J3,J4,J5,J6|pos|0.047294,0.549800,-0.000376,-0.000288,-1.328229,-0.000083|vel|-0.332165,-0.644301,0.002295,0.001461,0.604603,0.000000|eff|112.792969,1498.535156,-241.699219,112.792969,32.226562,16.113281
cobot_dynamixel_driver/joint_states|name|J1,J2,J3,J4,J5,J6|pos|0.040997,0.537658,-0.000275,-0.000275,-1.316087,-0.000083|vel|-0.306502,-0.643675,0.005842,0.000835,0.653551,0.000000|eff|-80.566406,1981.933594,-225.585938,128.906250,36.254883,0.000000
cobot_dynamixel_driver/joint_states|name|J1,J2,J3,J4,J5,J6|pos|0.035589,0.525290,-0.000238,-0.000250,-1.303820,-0.000083|vel|-0.261852,-0.639502,0.003756,0.000626,0.652172,0.000000|eff|-241.699219,3786.621094,-257.812500,177.246094,24.169922,0.000000
cobot_dynamixel_driver/joint_states|name|J1,J2,J3,J4,J5,J6|pos|0.030895,0.512684,-0.000238,-0.000213,-1.291430,-0.000083|vel|-0.210733,-0.676224,0.003756,0.001669,0.645278,0.000000|eff|-32.226562,1127.929688,-225.585938,128.906250,64.453125,32.226562
cobot_dynamixel_driver/joint_states|name|J1,J2,J3,J4,J5,J6|pos|0.026877,0.499953,-0.000238,-0.000175,-1.278915,-0.000083|vel|-0.182774,-0.667669,0.003756,0.002295,0.719388,0.000000|eff|-386.718750,934.570312,-241.699219,96.679688,84.594727,16.113281
cobot_dynamixel_driver/joint_states|name|J1,J2,J3,J4,J5,J6|pos|0.023397,0.487385,-0.000225,-0.000125,-1.266235,-0.000083|vel|-0.170047,-0.609457,0.003756,0.002295,0.644588,0.000000|eff|-161.132812,1305.175781,-290.039062,177.246094,28.198242,0.000000
cobot_dynamixel_driver/joint_states|name|J1,J2,J3,J4,J5,J6|pos|0.020392,0.474654,-0.000225,-0.000088,-1.253514,-0.000083|vel|-0.147096,-0.681440,0.003756,0.002086,0.629422,0.000000|eff|-112.792969,1595.214844,-306.152344,112.792969,60.424805,8.056641
cobot_dynamixel_driver/joint_states|name|J1,J2,J3,J4,J5,J6|pos|0.017788,0.461522,-0.000225,-0.000063,-1.240730,-0.000083|vel|-0.121015,-0.652229,0.003756,0.001461,0.656308,0.000000|eff|-241.699219,1240.722656,-225.585938,112.792969,0.000000,28.198242
cobot_dynamixel_driver/joint_states|name|J1,J2,J3,J4,J5,J6|pos|0.015510,0.448490,-0.000225,-0.000050,-1.227864,-0.000083|vel|-0.110791,-0.652855,0.000000,0.000835,0.632869,0.000000|eff|-241.699219,1981.933594,-225.585938,112.792969,12.084961,16.113281
cobot_dynamixel_driver/joint_states|name|J1,J2,J3,J4,J5,J6|pos|0.013570,0.435384,-0.000225,-0.000050,-1.214894,-0.000083|vel|-0.088258,-0.670590,0.000000,0.000835,0.663202,0.000000|eff|-257.812500,1611.328125,-225.585938,112.792969,32.226562,16.113281
cobot_dynamixel_driver/joint_states|name|J1,J2,J3,J4,J5,J6|pos|0.011905,0.422165,-0.000225,-0.000038,-1.201924,-0.000083|vel|-0.081789,-0.685613,0.000000,0.000417,0.718699,0.000000|eff|-225.585938,3399.902344,-290.039062,112.792969,96.679688,28.198242
cobot_dynamixel_driver/joint_states|name|J1,J2,J3,J4,J5,J6|pos|0.010378,0.409083,-0.000225,-0.000025,-1.188851,-0.000083|vel|-0.078660,-0.689994,0.000000,0.000417,0.686297,0.000000|eff|-161.132812,999.023438,-241.699219,112.792969,44.311523,24.169922
cobot_dynamixel_driver/joint_states|name|J1,J2,J3,J4,J5,J6|pos|0.008988,0.395901,-0.000213,-0.000013,-1.175488,-0.000083|vel|-0.066976,-0.677267,0.000000,0.000417,0.770404,0.000000|eff|145.019531,2288.085938,-290.039062,112.792969,-20.141602,0.000000
cobot_dynamixel_driver/joint_states|name|J1,J2,J3,J4,J5,J6|pos|0.007786,0.382444,-0.000200,-0.000013,-1.162146,-0.000083|vel|-0.055291,-0.678728,0.000000,0.000417,0.716286,0.000000|eff|-177.246094,3625.488281,-225.585938,128.906250,80.566406,32.226562
cobot_dynamixel_driver/joint_states|name|J1,J2,J3,J4,J5,J6|pos|0.006785,0.369137,-0.000200,-0.000013,-1.148970,-0.000083|vel|-0.044233,-0.651603,0.000209,0.000417,0.686986,0.000000|eff|-161.132812,1949.707031,-257.812500,0.000000,56.396484,32.226562
cobot_dynamixel_driver/joint_states|name|J1,J2,J3,J4,J5,J6|pos|0.005996,0.356006,-0.000163,-0.000013,-1.135896,-0.000083|vel|-0.039434,-0.690620,0.001669,0.000417,0.661823,0.000000|eff|-225.585938,1015.136719,-241.699219,112.792969,52.368164,36.254883
cobot_dynamixel_driver/joint_states|name|J1,J2,J3,J4,J5,J6|pos|0.005295,0.342536,-0.000150,-0.000013,-1.122534,-0.000083|vel|-0.036513,-0.698340,0.001252,0.000417,0.741794,0.000000|eff|-257.812500,757.324219,-225.585938,96.679688,0.000000,0.000000
cobot_dynamixel_driver/joint_states|name|J1,J2,J3,J4,J5,J6|pos|0.004582,0.329029,-0.000138,-0.000013,-1.109088,-0.000083|vel|-0.035261,-0.684570,0.001252,0.000417,0.731453,0.000000|eff|-225.585938,1965.820312,-225.585938,32.226562,-8.056641,0.000000
cobot_dynamixel_driver/joint_states|name|J1,J2,J3,J4,J5,J6|pos|0.003968,0.315672,-0.000125,-0.000013,-1.095684,-0.000083|vel|-0.028793,-0.705643,0.000417,0.000417,0.591505,0.000000|eff|-161.132812,4237.792969,-225.585938,0.000000,0.000000,12.084961
cobot_dynamixel_driver/joint_states|name|J1,J2,J3,J4,J5,J6|pos|0.003455,0.302152,-0.000113,-0.000013,-1.082632,-0.000083|vel|-0.024829,-0.715032,0.000417,0.000000,0.709737,0.000000|eff|-209.472656,3206.542969,-241.699219,112.792969,56.396484,24.169922
cobot_dynamixel_driver/joint_states|name|J1,J2,J3,J4,J5,J6|pos|0.003017,0.288658,-0.000100,-0.000013,-1.069372,-0.000083|vel|-0.019613,-0.718579,0.000417,0.000000,0.759718,0.000000|eff|-193.359375,2932.617188,-241.699219,112.792969,56.396484,12.084961
cobot_dynamixel_driver/joint_states|name|J1,J2,J3,J4,J5,J6|pos|0.002616,0.275263,-0.000088,-0.000013,-1.055823,-0.000083|vel|-0.019195,-0.704182,0.000417,0.000000,0.727316,0.000000|eff|-225.585938,1853.027344,-225.585938,0.000000,-36.254883,32.226562
cobot_dynamixel_driver/joint_states|name|J1,J2,J3,J4,J5,J6|pos|0.002241,0.261756,-0.000063,-0.000013,-1.042792,-0.000083|vel|-0.016900,-0.724630,0.000626,0.000000,0.665270,0.000000|eff|-161.132812,1337.402344,-241.699219,128.906250,60.424805,36.254883
cobot_dynamixel_driver/joint_states|name|J1,J2,J3,J4,J5,J6|pos|0.001965,0.248124,-0.000038,-0.000013,-1.029387,-0.000083|vel|-0.011058,-0.645553,0.001878,0.000000,0.624251,0.000000|eff|-193.359375,1853.027344,-257.812500,96.679688,40.283203,36.254883
cobot_dynamixel_driver/joint_states|name|J1,J2,J3,J4,J5,J6|pos|0.001765,0.234867,0.000025,0.000000,-1.015921,-0.000083|vel|-0.010015,-0.684778,0.005216,0.000000,0.672509,0.000000|eff|-209.472656,1176.269531,-290.039062,96.679688,20.141602,32.226562
cobot_dynamixel_driver/joint_states|name|J1,J2,J3,J4,J5,J6|pos|0.001552,0.221210,0.000038,0.000000,-1.002745,-0.000083|vel|-0.012310,-0.693541,0.002086,0.000000,0.634592,0.000000|eff|-193.359375,676.757812,-257.812500,32.226562,-16.113281,12.084961
cobot_dynamixel_driver/joint_states|name|J1,J2,J3,J4,J5,J6|pos|0.001302,0.207590,0.000050,0.000000,-0.989444,-0.000083|vel|-0.011684,-0.702722,0.002086,0.000000,0.689055,0.000000|eff|-161.132812,1015.136719,-273.925781,112.792969,36.254883,24.169922
cobot_dynamixel_driver/joint_states|name|J1,J2,J3,J4,J5,J6|pos|0.001114,0.194045,0.000050,0.000000,-0.975750,-0.000062|vel|-0.007929,-0.685404,0.002086,0.000000,0.682850,0.000000|eff|-225.585938,1208.496094,-306.152344,128.906250,-12.084961,32.226562
cobot_dynamixel_driver/joint_states|name|J1,J2,J3,J4,J5,J6|pos|0.001001,0.180438,0.000050,0.000000,-0.962325,-0.000062|vel|-0.005216,-0.586088,0.002086,0.000000,0.731453,0.000000|eff|-193.359375,1095.703125,-338.378906,64.453125,-16.113281,28.198242
cobot_dynamixel_driver/joint_states|name|J1,J2,J3,J4,J5,J6|pos|0.000901,0.166918,0.000050,0.000000,-0.948859,-0.000062|vel|-0.005216,-0.618429,0.002086,0.000000,0.711805,0.000000|eff|-257.812500,1095.703125,-338.378906,128.906250,92.651367,36.254883
cobot_dynamixel_driver/joint_states|name|J1,J2,J3,J4,J5,J6|pos|0.000764,0.152109,0.000050,0.000000,-0.934028,-0.000062|vel|-0.006259,-0.669964,0.002086,0.000000,0.702498,0.000000|eff|-161.132812,2094.726562,-338.378906,64.453125,0.000000,32.226562
cobot_dynamixel_driver/joint_states|name|J1,J2,J3,J4,J5,J6|pos|0.000651,0.139979,0.000050,0.000000,-0.921844,-0.000021|vel|-0.005425,-0.689160,0.000000,0.000000,0.583577,0.000345|eff|-128.906250,499.511719,-257.812500,64.453125,72.509766,32.226562
cobot_dynamixel_driver/joint_states|name|J1,J2,J3,J4,J5,J6|pos|0.000601,0.126284,0.000050,0.000000,-0.908357,0.000021|vel|-0.003130,-0.673303,0.000000,0.000000,0.686642,0.002413|eff|-128.906250,612.304688,-322.265625,112.792969,32.226562,28.198242
cobot_dynamixel_driver/joint_states|name|J1,J2,J3,J4,J5,J6|pos|0.000538,0.112789,0.000050,0.000000,-0.894271,0.000021|vel|-0.003547,-0.669964,0.000000,0.000000,0.676990,0.002413|eff|-241.699219,3528.808594,-306.152344,128.906250,92.651367,0.000000
cobot_dynamixel_driver/joint_states|name|J1,J2,J3,J4,J5,J6|pos|0.000451,0.099370,0.000050,0.000000,-0.881487,0.000021|vel|-0.005216,-0.700010,0.000000,0.000000,0.690433,0.002413|eff|-209.472656,435.058594,-338.378906,128.906250,80.566406,8.056641
cobot_dynamixel_driver/joint_states|name|J1,J2,J3,J4,J5,J6|pos|0.000363,0.086463,0.000050,0.000000,-0.867959,0.000021|vel|-0.003756,-0.615090,0.000000,0.000000,0.664926,0.002413|eff|-177.246094,950.683594,-322.265625,112.792969,48.339844,8.056641
cobot_dynamixel_driver/joint_states|name|J1,J2,J3,J4,J5,J6|pos|0.000325,0.074709,0.000050,0.000000,-0.854555,0.000021|vel|-0.002086,-0.542481,0.000000,0.000000,0.722146,0.002413|eff|-128.906250,1836.914062,-338.378906,128.906250,48.339844,12.084961
cobot_dynamixel_driver/joint_states|name|J1,J2,J3,J4,J5,J6|pos|0.000275,0.064556,0.000038,0.000000,-0.841047,0.000021|vel|-0.002712,-0.492406,0.000000,0.000000,0.686297,0.002413|eff|-145.019531,612.304688,-338.378906,112.792969,12.084961,0.000000
cobot_dynamixel_driver/joint_states|name|J1,J2,J3,J4,J5,J6|pos|0.000200,0.055468,0.000050,0.000000,-0.826981,0.000021|vel|-0.003756,-0.388917,0.000000,0.000000,0.685263,0.000000|eff|-80.566406,290.039062,-338.378906,64.453125,16.113281,0.000000
cobot_dynamixel_driver/joint_states|name|J1,J2,J3,J4,J5,J6|pos|0.000163,0.048521,0.000050,0.000000,-0.814156,0.000021|vel|-0.003130,-0.366175,0.000000,0.000000,0.672854,0.000000|eff|-145.019531,1482.421875,-338.378906,112.792969,40.283203,0.000000
cobot_dynamixel_driver/joint_states|name|J1,J2,J3,J4,J5,J6|pos|0.000150,0.042274,0.000050,0.000000,-0.800690,0.000021|vel|-0.001252,-0.309632,0.000000,0.000000,0.782813,0.000000|eff|-145.019531,1256.835938,-338.378906,112.792969,8.056641,0.000000
cobot_dynamixel_driver/joint_states|name|J1,J2,J3,J4,J5,J6|pos|0.000125,0.036829,0.000050,0.000000,-0.787182,0.000021|vel|-0.000835,-0.257679,0.000000,0.000000,0.671130,0.000000|eff|-273.925781,338.378906,-273.925781,64.453125,64.453125,0.000000
cobot_dynamixel_driver/joint_states|name|J1,J2,J3,J4,J5,J6|pos|0.000100,0.032047,0.000050,0.000000,-0.773654,0.000021|vel|-0.001043,-0.234102,0.000000,0.000000,0.674233,0.000000|eff|-128.906250,805.664062,-338.378906,80.566406,-8.056641,0.000000
cobot_dynamixel_driver/joint_states|name|J1,J2,J3,J4,J5,J6|pos|0.000088,0.027991,0.000050,0.000000,-0.760188,0.000021|vel|-0.001043,-0.196754,0.000000,0.000000,0.721801,0.000000|eff|-177.246094,725.097656,-338.378906,128.906250,52.368164,0.000000
cobot_dynamixel_driver/joint_states|name|J1,J2,J3,J4,J5,J6|pos|0.000088,0.024473,0.000050,0.000000,-0.746970,0.000021|vel|-0.000835,-0.174220,0.000000,0.000000,0.698706,0.000000|eff|-161.132812,644.531250,-338.378906,128.906250,44.311523,0.000000
cobot_dynamixel_driver/joint_states|name|J1,J2,J3,J4,J5,J6|pos|0.000075,0.021406,0.000050,0.000000,-0.733483,0.000021|vel|-0.000835,-0.150852,0.000000,0.000000,0.764889,0.000000|eff|-161.132812,837.890625,-338.378906,128.906250,52.368164,0.000000
cobot_dynamixel_driver/joint_states|name|J1,J2,J3,J4,J5,J6|pos|0.000075,0.018765,0.000050,0.000000,-0.719872,0.000021|vel|-0.000835,-0.132073,0.000000,0.000000,0.725937,0.000000|eff|-161.132812,741.210938,-338.378906,128.906250,-24.169922,0.000000
cobot_dynamixel_driver/joint_states|name|J1,J2,J3,J4,J5,J6|pos|0.000063,0.016436,0.000050,0.000000,-0.706468,0.000021|vel|-0.000835,-0.113086,0.000000,0.000000,0.705255,0.000000|eff|-161.132812,773.437500,-338.378906,0.000000,0.000000,0.000000
cobot_dynamixel_driver/joint_states|name|J1,J2,J3,J4,J5,J6|pos|0.000063,0.014333,0.000050,0.000000,-0.693022,0.000021|vel|-0.000209,-0.100776,0.000000,0.000000,0.678714,0.000000|eff|-96.679688,708.984375,-338.378906,112.792969,112.792969,0.000000
cobot_dynamixel_driver/joint_states|name|J1,J2,J3,J4,J5,J6|pos|0.000050,0.012518,0.000050,0.000000,-0.679494,0.000021|vel|-0.000209,-0.089509,0.000000,0.000000,0.622872,0.000000|eff|-177.246094,757.324219,-338.378906,112.792969,-52.368164,0.000000
cobot_dynamixel_driver/joint_states|name|J1,J2,J3,J4,J5,J6|pos|0.000050,0.010991,0.000050,0.000000,-0.666152,0.000021|vel|-0.000209,-0.074487,0.000000,0.000000,0.632179,0.000000|eff|-177.246094,789.550781,-354.492188,112.792969,88.623047,0.000000
cobot_dynamixel_driver/joint_states|name|J1,J2,J3,J4,J5,J6|pos|0.000050,0.009664,0.000050,0.000000,-0.652645,0.000021|vel|-0.000209,-0.062594,0.000000,0.000000,0.669751,0.000000|eff|-161.132812,757.324219,-338.378906,112.792969,72.509766,0.000000
cobot_dynamixel_driver/joint_states|name|J1,J2,J3,J4,J5,J6|pos|0.000038,0.008475,0.000050,0.000000,-0.639137,0.000021|vel|-0.000209,-0.058004,0.000000,0.000000,0.766957,0.000000|eff|-177.246094,692.871094,-338.378906,128.906250,-20.141602,0.000000
cobot_dynamixel_driver/joint_states|name|J1,J2,J3,J4,J5,J6|pos|0.000038,0.007448,0.000050,0.000000,-0.625691,0.000021|vel|-0.000209,-0.049241,0.000000,0.000000,0.604948,0.000000|eff|-177.246094,805.664062,-338.378906,112.792969,16.113281,0.000000
cobot_dynamixel_driver/joint_states|name|J1,J2,J3,J4,J5,J6|pos|0.000038,0.006597,0.000050,0.000000,-0.612287,0.000021|vel|0.000000,-0.037974,0.000000,0.000000,0.667683,0.000000|eff|-161.132812,837.890625,-338.378906,0.000000,88.623047,0.000000
cobot_dynamixel_driver/joint_states|name|J1,J2,J3,J4,J5,J6|pos|0.000025,0.005833,0.000050,0.000000,-0.598842,0.000021|vel|0.000000,-0.036513,0.000000,0.000000,0.717320,0.000000|eff|-161.132812,837.890625,-354.492188,128.906250,88.623047,0.000000
cobot_dynamixel_driver/joint_states|name|J1,J2,J3,J4,J5,J6|pos|0.000013,0.005145,0.000050,0.000000,-0.585334,0.000021|vel|-0.000417,-0.036722,0.000000,0.000000,0.739725,0.000000|eff|-161.132812,837.890625,-338.378906,128.906250,16.113281,0.000000
cobot_dynamixel_driver/joint_states|name|J1,J2,J3,J4,J5,J6|pos|0.000000,0.004494,0.000050,0.000000,-0.571827,0.000021|vel|-0.000417,-0.030045,0.000000,0.000000,0.635626,0.000000|eff|-145.019531,821.777344,-338.378906,128.906250,64.453125,0.000000
cobot_dynamixel_driver/joint_states|name|J1,J2,J3,J4,J5,J6|pos|0.000000,0.003968,0.000050,0.000000,-0.558692,0.000021|vel|-0.000417,-0.028376,0.000000,0.000000,0.594952,0.000000|eff|-145.019531,789.550781,-338.378906,128.906250,104.736328,0.000000
cobot_dynamixel_driver/joint_states|name|J1,J2,J3,J4,J5,J6|pos|0.000000,0.003518,0.000050,0.000000,-0.545287,0.000021|vel|-0.000417,-0.020865,0.000000,0.000000,0.687676,0.000000|eff|-177.246094,886.230469,-338.378906,96.679688,24.169922,-8.056641
cobot_dynamixel_driver/joint_states|name|J1,J2,J3,J4,J5,J6|pos|-0.000013,0.003105,0.000050,0.000000,-0.531697,0.000021|vel|-0.000417,-0.020030,0.000000,0.000000,0.678369,0.000000|eff|-80.566406,902.343750,-386.718750,32.226562,48.339844,0.000000
cobot_dynamixel_driver/joint_states|name|J1,J2,J3,J4,J5,J6|pos|-0.000013,0.002729,0.000050,0.000000,-0.518293,0.000021|vel|-0.000417,-0.017735,0.000000,0.000000,0.670786,0.000000|eff|-161.132812,821.777344,-338.378906,128.906250,80.566406,0.000000
cobot_dynamixel_driver/joint_states|name|J1,J2,J3,J4,J5,J6|pos|-0.000013,0.002466,0.000038,0.000013,-0.504744,0.000021|vel|0.000000,-0.013979,0.000000,0.000000,0.680092,0.000000|eff|-96.679688,902.343750,-386.718750,128.906250,0.000000,0.000000
cobot_dynamixel_driver/joint_states|name|J1,J2,J3,J4,J5,J6|pos|-0.000013,0.002178,0.000038,0.000013,-0.491340,0.000021|vel|0.000000,-0.012310,0.000000,0.000000,0.695259,0.000000|eff|-161.132812,918.457031,-338.378906,128.906250,56.396484,0.000000
cobot_dynamixel_driver/joint_states|name|J1,J2,J3,J4,J5,J6|pos|-0.000013,0.001978,0.000038,0.000013,-0.478019,0.000021|vel|0.000000,-0.010850,0.000000,0.000000,0.813836,0.000000|eff|-161.132812,854.003906,-354.492188,128.906250,80.566406,0.000000
cobot_dynamixel_driver/joint_states|name|J1,J2,J3,J4,J5,J6|pos|-0.000013,0.001753,0.000038,0.000013,-0.464428,0.000021|vel|0.000000,-0.012519,0.000000,0.000000,0.709392,0.000000|eff|-177.246094,854.003906,-386.718750,0.000000,52.368164,0.000000
cobot_dynamixel_driver/joint_states|name|J1,J2,J3,J4,J5,J6|pos|-0.000013,0.001527,0.000038,0.000013,-0.450921,0.000021|vel|0.000000,-0.009180,0.000000,0.000000,0.635971,0.000000|eff|-32.226562,821.777344,-338.378906,96.679688,56.396484,0.000000
cobot_dynamixel_driver/joint_states|name|J1,J2,J3,J4,J5,J6|pos|-0.000013,0.001339,0.000038,0.000013,-0.437661,0.000021|vel|0.000000,-0.010224,0.000000,0.000000,0.595641,0.000000|eff|-128.906250,870.117188,-386.718750,128.906250,64.453125,0.000000
cobot_dynamixel_driver/joint_states|name|J1,J2,J3,J4,J5,J6|pos|-0.000013,0.001127,0.000038,0.000013,-0.424568,0.000021|vel|0.000000,-0.010015,0.000000,0.000000,0.632179,0.000000|eff|-177.246094,870.117188,-370.605469,112.792969,149.047852,0.000000
cobot_dynamixel_driver/joint_states|name|J1,J2,J3,J4,J5,J6|pos|-0.000013,0.000976,0.000038,0.000013,-0.410874,0.000021|vel|0.000000,-0.007929,0.000000,0.000000,0.688710,0.000000|eff|-145.019531,821.777344,-338.378906,112.792969,48.339844,0.000000
cobot_dynamixel_driver/joint_states|name|J1,J2,J3,J4,J5,J6|pos|-0.000025,0.000814,0.000038,0.000013,-0.397283,0.000021|vel|0.000000,-0.007511,0.000000,0.000000,0.589781,0.000000|eff|-177.246094,821.777344,-402.832031,128.906250,52.368164,0.000000
cobot_dynamixel_driver/joint_states|name|J1,J2,J3,J4,J5,J6|pos|-0.000025,0.000714,0.000038,0.000013,-0.383921,0.000021|vel|0.000000,-0.004173,0.000000,0.000000,0.664236,0.000000|eff|-177.246094,805.664062,-338.378906,128.906250,88.623047,0.000000
cobot_dynamixel_driver/joint_states|name|J1,J2,J3,J4,J5,J6|pos|-0.000025,0.000663,0.000038,0.000013,-0.370496,0.000021|vel|0.000000,-0.002086,0.000000,0.000000,0.717665,0.000000|eff|-96.679688,821.777344,-338.378906,96.679688,120.849609,0.000000
cobot_dynamixel_driver/joint_states|name|J1,J2,J3,J4,J5,J6|pos|-0.000025,0.000601,0.000038,0.000013,-0.356947,0.000021|vel|0.000000,-0.002921,0.000000,0.000000,0.670096,0.000000|eff|-177.246094,870.117188,-370.605469,64.453125,64.453125,0.000000
cobot_dynamixel_driver/joint_states|name|J1,J2,J3,J4,J5,J6|pos|-0.000025,0.000601,0.000038,0.000013,-0.343419,0.000021|vel|0.000000,-0.002921,0.000000,0.000000,0.732831,0.000000|eff|-145.019531,870.117188,-338.378906,112.792969,20.141602,0.000000
cobot_dynamixel_driver/joint_states|name|J1,J2,J3,J4,J5,J6|pos|-0.000025,0.000588,0.000038,0.000013,-0.329973,0.000021|vel|0.000000,-0.002921,0.000000,0.000000,0.690433,0.000000|eff|-80.566406,902.343750,-354.492188,0.000000,24.169922,0.000000
cobot_dynamixel_driver/joint_states|name|J1,J2,J3,J4,J5,J6|pos|-0.000025,0.000563,0.000038,0.000013,-0.316548,0.000021|vel|0.000000,-0.001461,0.000000,0.000000,0.676990,0.000000|eff|-177.246094,950.683594,-386.718750,112.792969,108.764648,0.000000
cobot_dynamixel_driver/joint_states|name|J1,J2,J3,J4,J5,J6|pos|-0.000025,0.000501,0.000038,0.000013,-0.303020,0.000021|vel|0.000000,-0.003547,0.000000,0.000000,0.597020,0.000000|eff|0.000000,902.343750,-370.605469,128.906250,24.169922,0.000000
cobot_dynamixel_driver/joint_states|name|J1,J2,J3,J4,J5,J6|pos|-0.000025,0.000463,0.000038,0.000013,-0.289554,0.000021|vel|0.000000,-0.001669,0.000000,0.000000,0.612187,0.000000|eff|-96.679688,837.890625,-354.492188,128.906250,116.821289,0.000000
cobot_dynamixel_driver/joint_states|name|J1,J2,J3,J4,J5,J6|pos|-0.000025,0.000388,0.000038,0.000013,-0.276046,0.000021|vel|0.000000,-0.003547,0.000000,0.000000,0.684918,0.000000|eff|-177.246094,854.003906,-402.832031,112.792969,36.254883,0.000000
cobot_dynamixel_driver/joint_states|name|J1,J2,J3,J4,J5,J6|pos|-0.000025,0.000313,0.000038,0.000013,-0.262622,0.000021|vel|0.000000,-0.003756,0.000000,0.000000,0.754892,0.000000|eff|-177.246094,950.683594,-386.718750,96.679688,68.481445,0.000000
cobot_dynamixel_driver/joint_states|name|J1,J2,J3,J4,J5,J6|pos|-0.000025,0.000250,0.000038,0.000013,-0.249093,0.000021|vel|0.000000,-0.003338,0.000000,0.000000,0.739381,0.000000|eff|-96.679688,870.117188,-354.492188,128.906250,-8.056641,0.000000
cobot_dynamixel_driver/joint_states|name|J1,J2,J3,J4,J5,J6|pos|-0.000025,0.000188,0.000038,0.000013,-0.235772,0.000021|vel|0.000000,-0.003130,0.000000,0.000000,0.625285,0.000000|eff|-177.246094,854.003906,-435.058594,64.453125,92.651367,0.000000
cobot_dynamixel_driver/joint_states|name|J1,J2,J3,J4,J5,J6|pos|-0.000025,0.000163,0.000038,0.000013,-0.222244,0.000021|vel|0.000000,-0.002086,0.000000,0.000000,0.724903,0.000000|eff|-161.132812,886.230469,-418.945312,112.792969,60.424805,0.000000
cobot_dynamixel_driver/joint_states|name|J1,J2,J3,J4,J5,J6|pos|-0.000025,0.000150,0.000038,0.000013,-0.208840,0.000021|vel|0.000000,-0.001043,0.000000,0.000000,0.702498,0.000000|eff|0.000000,918.457031,-354.492188,128.906250,120.849609,0.000000
cobot_dynamixel_driver/joint_states|name|J1,J2,J3,J4,J5,J6|pos|-0.000025,0.000138,0.000038,0.000013,-0.195270,0.000021|vel|0.000000,-0.001043,0.000000,0.000000,0.663892,0.000000|eff|-177.246094,837.890625,-402.832031,112.792969,56.396484,0.000000
cobot_dynamixel_driver/joint_states|name|J1,J2,J3,J4,J5,J6|pos|-0.000025,0.000125,0.000038,0.000013,-0.181907,0.000021|vel|0.000000,-0.000417,0.000000,0.000000,0.685952,0.000000|eff|-177.246094,886.230469,-402.832031,128.906250,32.226562,0.000000
cobot_dynamixel_driver/joint_states|name|J1,J2,J3,J4,J5,J6|pos|-0.000025,0.000113,0.000038,0.000013,-0.168793,0.000021|vel|0.000000,-0.000417,0.000000,0.000000,0.674922,0.000000|eff|-80.566406,918.457031,-338.378906,128.906250,100.708008,0.000000
cobot_dynamixel_driver/joint_states|name|J1,J2,J3,J4,J5,J6|pos|-0.000025,0.000113,0.000038,0.000013,-0.155202,0.000021|vel|0.000000,-0.000417,0.000000,0.000000,0.684229,0.000000|eff|-80.566406,934.570312,-338.378906,128.906250,108.764648,0.000000
cobot_dynamixel_driver/joint_states|name|J1,J2,J3,J4,J5,J6|pos|-0.000025,0.000100,0.000038,0.000013,-0.141757,0.000021|vel|0.000000,-0.000417,0.000000,0.000000,0.731108,0.000000|eff|-177.246094,934.570312,-418.945312,128.906250,132.934570,0.000000
cobot_dynamixel_driver/joint_states|name|J1,J2,J3,J4,J5,J6|pos|-0.000025,0.000100,0.000038,0.000013,-0.128146,0.000021|vel|0.000000,-0.000417,0.000000,0.000000,0.704911,0.000000|eff|-96.679688,902.343750,-354.492188,128.906250,68.481445,0.000000
cobot_dynamixel_driver/joint_states|name|J1,J2,J3,J4,J5,J6|pos|-0.000038,0.000100,0.000038,0.000013,-0.115031,0.000021|vel|0.000000,-0.000417,0.000000,0.000000,0.718009,0.000000|eff|-145.019531,805.664062,-354.492188,128.906250,136.962891,0.000000
cobot_dynamixel_driver/joint_states|name|J1,J2,J3,J4,J5,J6|pos|-0.000038,0.000100,0.000038,0.000013,-0.101855,0.000021|vel|0.000000,-0.000417,0.000000,0.000000,0.612531,0.000000|eff|-161.132812,773.437500,-435.058594,128.906250,124.877930,0.000000
cobot_dynamixel_driver/joint_states|name|J1,J2,J3,J4,J5,J6|pos|-0.000038,0.000100,0.000038,0.000013,-0.088533,0.000021|vel|0.000000,-0.000417,0.000000,0.000000,0.591505,0.000000|eff|-177.246094,886.230469,-402.832031,128.906250,28.198242,0.000000
cobot_dynamixel_driver/joint_states|name|J1,J2,J3,J4,J5,J6|pos|-0.000038,0.000100,0.000038,0.000013,-0.076722,0.000021|vel|0.000000,-0.000417,0.000000,0.000000,0.551864,0.000000|eff|-161.132812,934.570312,-370.605469,128.906250,-64.453125,0.000000
cobot_dynamixel_driver/joint_states|name|J1,J2,J3,J4,J5,J6|pos|-0.000038,0.000100,0.000038,0.000013,-0.067124,0.000021|vel|0.000000,-0.000000,0.000000,0.000000,0.395371,0.000000|eff|-145.019531,886.230469,-418.945312,128.906250,8.056641,0.000000
cobot_dynamixel_driver/joint_states|name|J1,J2,J3,J4,J5,J6|pos|-0.000038,0.000100,0.000038,0.000013,-0.058809,0.000021|vel|0.000000,-0.000000,0.000000,0.000000,0.350215,0.000000|eff|-177.246094,918.457031,-386.718750,128.906250,12.084961,0.000000
cobot_dynamixel_driver/joint_states|name|J1,J2,J3,J4,J5,J6|pos|-0.000038,0.000088,0.000038,0.000013,-0.051465,0.000021|vel|0.000000,-0.000000,0.000000,0.000000,0.368139,0.000000|eff|-80.566406,886.230469,-386.718750,80.566406,-12.084961,0.000000
cobot_dynamixel_driver/joint_states|name|J1,J2,J3,J4,J5,J6|pos|-0.000038,0.000088,0.000038,0.000013,-0.045094,0.000021|vel|0.000000,-0.000000,0.000000,0.000000,0.318158,0.000000|eff|-161.132812,934.570312,-402.832031,128.906250,24.169922,0.000000
cobot_dynamixel_driver/joint_states|name|J1,J2,J3,J4,J5,J6|pos|-0.000038,0.000088,0.000038,0.000013,-0.039571,0.000021|vel|0.000000,-0.000000,0.000000,0.000000,0.227846,0.000000|eff|0.000000,934.570312,-370.605469,128.906250,48.339844,0.000000
cobot_dynamixel_driver/joint_states|name|J1,J2,J3,J4,J5,J6|pos|-0.000038,0.000088,0.000038,0.000013,-0.034648,0.000021|vel|0.000000,-0.000000,0.000000,0.000000,0.235430,0.000000|eff|0.000000,870.117188,-386.718750,80.566406,24.169922,0.000000
cobot_dynamixel_driver/joint_states|name|J1,J2,J3,J4,J5,J6|pos|-0.000038,0.000088,0.000038,0.000013,-0.030345,0.000021|vel|0.000000,-0.000000,0.000000,0.000000,0.204752,0.000000|eff|-145.019531,789.550781,-386.718750,96.679688,40.283203,0.000000
cobot_dynamixel_driver/joint_states|name|J1,J2,J3,J4,J5,J6|pos|-0.000038,0.000088,0.000038,0.000013,-0.026581,0.000021|vel|0.000000,-0.000000,0.000000,0.000000,0.176142,0.000000|eff|-161.132812,934.570312,-435.058594,112.792969,44.311523,0.000000
cobot_dynamixel_driver/joint_states|name|J1,J2,J3,J4,J5,J6|pos|-0.000038,0.000088,0.000038,0.000013,-0.023271,0.000021|vel|0.000000,-0.000000,0.000000,0.000000,0.156494,0.000000|eff|-128.906250,902.343750,-386.718750,32.226562,48.339844,0.000000
cobot_dynamixel_driver/joint_states|name|J1,J2,J3,J4,J5,J6|pos|-0.000038,0.000075,0.000025,0.000013,-0.020396,0.000021|vel|0.000000,-0.000000,0.000000,0.000000,0.139259,0.000000|eff|-32.226562,918.457031,-418.945312,128.906250,60.424805,0.000000
cobot_dynamixel_driver/joint_states|name|J1,J2,J3,J4,J5,J6|pos|-0.000038,0.000075,0.000025,0.000025,-0.017872,0.000021|vel|0.000000,-0.000000,0.000000,0.000000,0.124781,0.000000|eff|-177.246094,934.570312,-418.945312,80.566406,64.453125,0.000000
cobot_dynamixel_driver/joint_states|name|J1,J2,J3,J4,J5,J6|pos|-0.000038,0.000063,0.000025,0.000025,-0.015659,0.000021|vel|0.000000,-0.000000,0.000000,0.000000,0.111683,0.000000|eff|-145.019531,934.570312,-418.945312,112.792969,60.424805,0.000000
cobot_dynamixel_driver/joint_states|name|J1,J2,J3,J4,J5,J6|pos|-0.000038,0.000063,0.000025,0.000025,-0.013714,0.000021|vel|0.000000,-0.000000,0.000000,0.000000,0.105133,0.000000|eff|-177.246094,902.343750,-354.492188,96.679688,60.424805,8.056641
cobot_dynamixel_driver/joint_states|name|J1,J2,J3,J4,J5,J6|pos|-0.000038,0.000063,0.000025,0.000025,-0.011998,0.000021|vel|0.000000,-0.000000,0.000000,0.000000,0.094103,0.000000|eff|0.000000,870.117188,-435.058594,96.679688,64.453125,0.000000
cobot_dynamixel_driver/joint_states|name|J1,J2,J3,J4,J5,J6|pos|-0.000038,0.000050,0.000025,0.000025,-0.010508,0.000021|vel|0.000000,-0.000000,0.000000,0.000000,0.073076,0.000000|eff|-161.132812,902.343750,-386.718750,80.566406,68.481445,0.000000
cobot_dynamixel_driver/joint_states|name|J1,J2,J3,J4,J5,J6|pos|-0.000038,0.000050,0.000025,0.000025,-0.009164,0.000021|vel|0.000000,-0.000000,0.000000,0.000000,0.062735,0.000000|eff|-177.246094,934.570312,-354.492188,64.453125,48.339844,0.000000
cobot_dynamixel_driver/joint_states|name|J1,J2,J3,J4,J5,J6|pos|-0.000038,0.000050,0.000025,0.000025,-0.008047,0.000021|vel|0.000000,-0.000000,0.000000,0.000000,0.052050,0.000000|eff|-161.132812,934.570312,-435.058594,112.792969,84.594727,0.000000
cobot_dynamixel_driver/joint_states|name|J1,J2,J3,J4,J5,J6|pos|-0.000038,0.000050,0.000025,0.000025,-0.007054,0.000021|vel|0.000000,-0.000000,0.000000,0.000000,0.054807,0.000000|eff|-128.906250,950.683594,-354.492188,112.792969,56.396484,0.000000
cobot_dynamixel_driver/joint_states|name|J1,J2,J3,J4,J5,J6|pos|-0.000038,0.000050,0.000025,0.000025,-0.006206,0.000021|vel|0.000000,-0.000000,0.000000,0.000000,0.048947,0.000000|eff|-177.246094,934.570312,-435.058594,128.906250,68.481445,0.000000
cobot_dynamixel_driver/joint_states|name|J1,J2,J3,J4,J5,J6|pos|-0.000038,0.000050,0.000025,0.000025,-0.005440,0.000021|vel|0.000000,-0.000000,0.000000,0.000000,0.038262,0.000000|eff|-177.246094,934.570312,-435.058594,128.906250,68.481445,0.000000
cobot_dynamixel_driver/joint_states|name|J1,J2,J3,J4,J5,J6|pos|-0.000038,0.000050,0.000025,0.000025,-0.004778,0.000021|vel|0.000000,-0.000000,0.000000,0.000000,0.029644,0.000000|eff|-177.246094,950.683594,-435.058594,112.792969,76.538086,0.000000
cobot_dynamixel_driver/joint_states|name|J1,J2,J3,J4,J5,J6|pos|-0.000038,0.000038,0.000025,0.000025,-0.004199,0.000021|vel|0.000000,-0.000000,0.000000,0.000000,0.025163,0.000000|eff|-32.226562,950.683594,-386.718750,112.792969,80.566406,-8.056641
cobot_dynamixel_driver/joint_states|name|J1,J2,J3,J4,J5,J6|pos|-0.000038,0.000038,0.000025,0.000025,-0.003682,0.000021|vel|0.000000,-0.000000,0.000000,0.000000,0.030678,0.000000|eff|0.000000,950.683594,-386.718750,112.792969,64.453125,0.000000
cobot_dynamixel_driver/joint_states|name|J1,J2,J3,J4,J5,J6|pos|-0.000038,0.000038,0.000025,0.000025,-0.003248,0.000021|vel|0.000000,-0.000000,0.000000,0.000000,0.017924,0.000000|eff|-177.246094,934.570312,-386.718750,112.792969,80.566406,0.000000
cobot_dynamixel_driver/joint_states|name|J1,J2,J3,J4,J5,J6|pos|-0.000038,0.000025,0.000025,0.000025,-0.002875,0.000021|vel|0.000000,-0.000000,0.000000,0.000000,0.020337,0.000000|eff|-96.679688,934.570312,-370.605469,96.679688,68.481445,0.000000
cobot_dynamixel_driver/joint_states|name|J1,J2,J3,J4,J5,J6|pos|-0.000038,0.000025,0.000025,0.000025,-0.002524,0.000021|vel|0.000000,-0.000000,0.000000,0.000000,0.016546,0.000000|eff|-96.679688,950.683594,-370.605469,128.906250,80.566406,0.000000
cobot_dynamixel_driver/joint_states|name|J1,J2,J3,J4,J5,J6|pos|-0.000038,0.000025,0.000025,0.000025,-0.002213,0.000021|vel|0.000000,-0.000000,0.000000,0.000000,0.018269,0.000000|eff|-112.792969,950.683594,-418.945312,128.906250,80.566406,0.000000
cobot_dynamixel_driver/joint_states|name|J1,J2,J3,J4,J5,J6|pos|-0.000038,0.000025,0.000025,0.000025,-0.001882,0.000021|vel|0.000000,-0.000000,0.000000,0.000000,0.014822,0.000000|eff|-96.679688,950.683594,-386.718750,112.792969,72.509766,0.000000
cobot_dynamixel_driver/joint_states|name|J1,J2,J3,J4,J5,J6|pos|-0.000038,0.000025,0.000025,0.000025,-0.001676,0.000021|vel|0.000000,-0.000000,0.000000,0.000000,0.008617,0.000000|eff|0.000000,934.570312,-386.718750,96.679688,76.538086,-8.056641
cobot_dynamixel_driver/joint_states|name|J1,J2,J3,J4,J5,J6|pos|-0.000038,0.000025,0.000025,0.000025,-0.001489,0.000021|vel|0.000000,-0.000000,0.000000,0.000000,0.009652,0.000000|eff|-112.792969,950.683594,-451.171875,128.906250,80.566406,0.000000
cobot_dynamixel_driver/joint_states|name|J1,J2,J3,J4,J5,J6|pos|-0.000038,0.000013,0.000025,0.000025,-0.001262,0.000021|vel|0.000000,-0.000000,0.000000,0.000000,0.011375,0.000000|eff|-32.226562,950.683594,-354.492188,96.679688,72.509766,0.000000
cobot_dynamixel_driver/joint_states|name|J1,J2,J3,J4,J5,J6|pos|-0.000038,0.000013,0.000025,0.000025,-0.001138,0.000021|vel|0.000000,-0.000000,0.000000,0.000000,0.005860,0.000000|eff|-112.792969,934.570312,-435.058594,32.226562,80.566406,0.000000
cobot_dynamixel_driver/joint_states|name|J1,J2,J3,J4,J5,J6|pos|-0.000038,0.000013,0.000025,0.000025,-0.001014,0.000021|vel|0.000000,-0.000000,0.000000,0.000000,0.007239,0.000000|eff|-177.246094,934.570312,-435.058594,96.679688,100.708008,0.000000
cobot_dynamixel_driver/joint_states|name|J1,J2,J3,J4,J5,J6|pos|-0.000038,0.000013,0.000025,0.000025,-0.000848,0.000021|vel|0.000000,-0.000000,0.000000,0.000000,0.006894,0.000000|eff|0.000000,886.230469,-354.492188,32.226562,80.566406,0.000000
cobot_dynamixel_driver/joint_states|name|J1,J2,J3,J4,J5,J6|pos|-0.000038,0.000013,0.000025,0.000025,-0.000745,0.000021|vel|0.000000,-0.000000,0.000000,0.000000,0.005860,0.000000|eff|-80.566406,950.683594,-435.058594,80.566406,72.509766,0.000000
cobot_dynamixel_driver/joint_states|name|J1,J2,J3,J4,J5,J6|pos|-0.000038,0.000013,0.000025,0.000025,-0.000662,0.000021|vel|0.000000,-0.000000,0.000000,0.000000,0.003792,0.000000|eff|-96.679688,950.683594,-386.718750,64.453125,80.566406,0.000000
cobot_dynamixel_driver/joint_states|name|J1,J2,J3,J4,J5,J6|pos|-0.000038,0.000013,0.000025,0.000025,-0.000579,0.000021|vel|0.000000,-0.000000,0.000000,0.000000,0.004136,0.000000|eff|-161.132812,934.570312,-386.718750,128.906250,80.566406,0.000000
cobot_dynamixel_driver/joint_states|name|J1,J2,J3,J4,J5,J6|pos|-0.000038,-0.000000,0.000025,0.000025,-0.000476,0.000021|vel|0.000000,-0.000000,0.000000,0.000000,0.004136,0.000000|eff|-177.246094,950.683594,-435.058594,128.906250,80.566406,0.000000
cobot_dynamixel_driver/joint_states|name|J1,J2,J3,J4,J5,J6|pos|-0.000038,-0.000000,0.000025,0.000025,-0.000414,0.000021|vel|0.000000,-0.000000,0.000000,0.000000,0.004826,0.000000|eff|-161.132812,950.683594,-386.718750,0.000000,68.481445,0.000000
cobot_dynamixel_driver/joint_states|name|J1,J2,J3,J4,J5,J6|pos|-0.000038,-0.000000,0.000025,0.000025,-0.000414,0.000021|vel|0.000000,-0.000000,0.000000,0.000000,0.004826,0.000000|eff|-161.132812,934.570312,-435.058594,128.906250,68.481445,-8.056641
cobot_dynamixel_driver/joint_states|name|J1,J2,J3,J4,J5,J6|pos|-0.000038,-0.000000,0.000025,0.000025,-0.000414,0.000021|vel|0.000000,-0.000000,0.000000,0.000000,0.004826,0.000000|eff|0.000000,950.683594,-386.718750,128.906250,60.424805,-8.056641
cobot_dynamixel_driver/joint_states|name|J1,J2,J3,J4,J5,J6|pos|-0.000038,-0.000000,0.000025,0.000025,-0.000414,0.000021|vel|0.000000,-0.000000,0.000000,0.000000,0.004826,0.000000|eff|0.000000,950.683594,-354.492188,128.906250,56.396484,0.000000
cobot_dynamixel_driver/joint_states|name|J1,J2,J3,J4,J5,J6|pos|-0.000038,-0.000000,0.000025,0.000025,-0.000414,0.000021|vel|0.000000,-0.000000,0.000000,0.000000,0.004826,0.000000|eff|-32.226562,950.683594,-451.171875,112.792969,56.396484,0.000000
cobot_dynamixel_driver/joint_states|name|J1,J2,J3,J4,J5,J6|pos|-0.000038,-0.000000,0.000025,0.000025,-0.000414,0.000021|vel|0.000000,-0.000000,0.000000,0.000000,0.004826,0.000000|eff|-161.132812,934.570312,-354.492188,0.000000,56.396484,0.000000
cobot_dynamixel_driver/joint_states|name|J1,J2,J3,J4,J5,J6|pos|-0.000038,-0.000000,0.000025,0.000025,-0.000414,0.000021|vel|0.000000,-0.000000,0.000000,0.000000,0.000000,0.000000|eff|-161.132812,934.570312,-354.492188,64.453125,60.424805,0.000000
cobot_dynamixel_driver/joint_states|name|J1,J2,J3,J4,J5,J6|pos|-0.000038,-0.000000,0.000025,0.000025,-0.000414,0.000021|vel|0.000000,-0.000000,0.000000,0.000000,0.000000,0.000000|eff|-145.019531,934.570312,-402.832031,128.906250,60.424805,0.000000
cobot_dynamixel_driver/joint_states|name|J1,J2,J3,J4,J5,J6|pos|-0.000038,-0.000000,0.000025,0.000025,-0.000414,0.000021|vel|0.000000,-0.000000,0.000000,0.000000,0.000000,0.000000|eff|0.000000,870.117188,-354.492188,112.792969,68.481445,0.000000
cobot_dynamixel_driver/joint_states|name|J1,J2,J3,J4,J5,J6|pos|-0.000038,-0.000013,0.000025,0.000025,-0.000414,0.000021|vel|0.000000,-0.000000,0.000000,0.000000,0.000000,0.000000|eff|0.000000,950.683594,-418.945312,96.679688,72.509766,0.000000
cobot_dynamixel_driver/joint_states|name|J1,J2,J3,J4,J5,J6|pos|-0.000038,-0.000013,0.000025,0.000025,-0.000393,0.000021|vel|0.000000,-0.000000,0.000000,0.000000,0.000000,0.000000|eff|-96.679688,934.570312,-451.171875,128.906250,72.509766,0.000000
cobot_dynamixel_driver/joint_states|name|J1,J2,J3,J4,J5,J6|pos|-0.000038,-0.000013,0.000025,0.000025,-0.000331,0.000021|vel|0.000000,-0.000000,0.000000,0.000000,0.004136,0.000000|eff|-96.679688,918.457031,-418.945312,112.792969,76.538086,20.141602
cobot_dynamixel_driver/joint_states|name|J1,J2,J3,J4,J5,J6|pos|-0.000038,-0.000013,0.000025,0.000025,-0.000269,0.000021|vel|0.000000,-0.000000,0.000000,0.000000,0.003792,0.000000|eff|0.000000,934.570312,-370.605469,112.792969,72.509766,-8.056641
cobot_dynamixel_driver/joint_states|name|J1,J2,J3,J4,J5,J6|pos|-0.000038,-0.000013,0.000025,0.000025,-0.000269,0.000021|vel|0.000000,-0.000000,0.000000,0.000000,0.003792,0.000000|eff|-32.226562,950.683594,-435.058594,112.792969,60.424805,0.000000
cobot_dynamixel_driver/joint_states|name|J1,J2,J3,J4,J5,J6|pos|-0.000038,-0.000013,0.000025,0.000025,-0.000269,0.000021|vel|0.000000,-0.000000,0.000000,0.000000,0.003792,0.000000|eff|-80.566406,950.683594,-435.058594,32.226562,60.424805,0.000000
cobot_dynamixel_driver/joint_states|name|J1,J2,J3,J4,J5,J6|pos|-0.000038,-0.000013,0.000025,0.000025,-0.000269,0.000021|vel|0.000000,-0.000000,0.000000,0.000000,0.003792,0.000000|eff|-80.566406,934.570312,-418.945312,32.226562,56.396484,0.000000
cobot_dynamixel_driver/joint_states|name|J1,J2,J3,J4,J5,J6|pos|-0.000038,-0.000013,0.000025,0.000025,-0.000269,0.000021|vel|0.000000,-0.000000,0.000000,0.000000,0.003792,0.000000|eff|0.000000,950.683594,-354.492188,128.906250,56.396484,0.000000
cobot_dynamixel_driver/joint_states|name|J1,J2,J3,J4,J5,J6|pos|-0.000038,-0.000013,0.000025,0.000025,-0.000269,0.000021|vel|0.000000,-0.000000,0.000000,0.000000,0.003792,0.000000|eff|-177.246094,950.683594,-418.945312,128.906250,52.368164,0.000000
cobot_dynamixel_driver/joint_states|name|J1,J2,J3,J4,J5,J6|pos|-0.000038,-0.000013,0.000025,0.000025,-0.000269,0.000021|vel|0.000000,-0.000000,0.000000,0.000000,0.000000,0.000000|eff|-177.246094,918.457031,-386.718750,128.906250,56.396484,0.000000
cobot_dynamixel_driver/joint_states|name|J1,J2,J3,J4,J5,J6|pos|-0.000038,-0.000013,0.000025,0.000025,-0.000269,0.000021|vel|0.000000,-0.000000,0.000000,0.000000,0.000000,0.000000|eff|-177.246094,950.683594,-370.605469,112.792969,56.396484,24.169922
cobot_dynamixel_driver/joint_states|name|J1,J2,J3,J4,J5,J6|pos|-0.000038,-0.000025,0.000025,0.000025,-0.000269,0.000021|vel|0.000000,-0.000000,0.000000,0.000000,0.000000,0.000000|eff|-112.792969,950.683594,-354.492188,112.792969,56.396484,0.000000
cobot_dynamixel_driver/joint_states|name|J1,J2,J3,J4,J5,J6|pos|-0.000038,-0.000025,0.000025,0.000025,-0.000269,0.000021|vel|0.000000,-0.000000,0.000000,0.000000,0.000000,0.000000|eff|-112.792969,934.570312,-370.605469,32.226562,60.424805,0.000000
cobot_dynamixel_driver/joint_states|name|J1,J2,J3,J4,J5,J6|pos|-0.000038,-0.000025,0.000025,0.000025,-0.000269,0.000021|vel|0.000000,-0.000000,0.000000,0.000000,0.000000,0.000000|eff|-80.566406,934.570312,-418.945312,64.453125,68.481445,12.084961
cobot_dynamixel_driver/joint_states|name|J1,J2,J3,J4,J5,J6|pos|-0.000038,-0.000025,0.000025,0.000025,-0.000269,0.000021|vel|0.000000,-0.000000,0.000000,0.000000,0.000000,0.000000|eff|-161.132812,934.570312,-451.171875,128.906250,76.538086,0.000000
cobot_dynamixel_driver/joint_states|name|J1,J2,J3,J4,J5,J6|pos|-0.000038,-0.000025,0.000025,0.000025,-0.000248,0.000021|vel|0.000000,-0.000000,0.000000,0.000000,0.000000,0.000000|eff|-32.226562,934.570312,-418.945312,128.906250,76.538086,0.000000
cobot_dynamixel_driver/joint_states|name|J1,J2,J3,J4,J5,J6|pos|-0.000038,-0.000063,0.000025,0.000025,-0.000207,0.000021|vel|0.000000,-0.000000,0.000000,0.000000,0.000000,0.000000|eff|0.000000,982.910156,-386.718750,128.906250,72.509766,-8.056641
cobot_dynamixel_driver/joint_states|name|J1,J2,J3,J4,J5,J6|pos|-0.000038,-0.000113,0.000025,0.000025,-0.000186,0.000021|vel|0.000000,-0.003756,0.000000,0.000000,0.001034,0.000000|eff|-32.226562,789.550781,-418.945312,0.000000,76.538086,0.000000
