surachairobotic/cobot/cobot_dynamixel_driver/log/2018-12-07T09:16:42.012076_driver_log.txt
cobot_dynamixel_driver/joint_states|name|J1,J2,J3,J4,J5,J6|pos|0.269192,-1.267658,1.296275,-0.001715,-1.366869,-0.000083|vel|0.000000,-0.000000,0.000000,0.000000,0.000000,0.000000|eff|0.000000,0.000000,0.000000,0.000000,0.000000,0.000000
cobot_dynamixel_driver/joint_states|name|J1,J2,J3,J4,J5,J6|pos|0.269192,-1.267658,1.296275,-0.001715,-1.366869,-0.000083|vel|0.000000,-0.000000,0.000000,0.000000,0.000000,0.000000|eff|0.000000,0.000000,0.000000,0.000000,0.000000,0.000000
cobot_dynamixel_driver/joint_states|name|J1,J2,J3,J4,J5,J6|pos|0.269192,-1.267658,1.296275,-0.001715,-1.366869,-0.000083|vel|0.000000,-0.000000,0.000000,0.000000,0.000000,0.000000|eff|0.000000,0.000000,0.000000,0.000000,0.000000,0.000000
cobot_dynamixel_driver/joint_states|name|J1,J2,J3,J4,J5,J6|pos|0.269192,-1.267658,1.296275,-0.001715,-1.366869,-0.000083|vel|0.000000,-0.000000,0.000000,0.000000,0.000000,0.000000|eff|0.000000,0.000000,0.000000,0.000000,0.000000,0.000000
cobot_dynamixel_driver/joint_states|name|J1,J2,J3,J4,J5,J6|pos|0.269192,-1.267658,1.296275,-0.001715,-1.366869,-0.000083|vel|0.000000,-0.000000,0.000000,0.000000,0.000000,0.000000|eff|0.000000,0.000000,0.000000,0.000000,0.000000,0.000000
cobot_dynamixel_driver/joint_states|name|J1,J2,J3,J4,J5,J6|pos|0.269192,-1.267658,1.296275,-0.001715,-1.366869,-0.000083|vel|0.000000,-0.000000,0.000000,0.000000,0.000000,0.000000|eff|0.000000,0.000000,0.000000,0.000000,0.000000,0.000000
cobot_dynamixel_driver/joint_states|name|J1,J2,J3,J4,J5,J6|pos|0.269192,-1.267658,1.296275,-0.001715,-1.366869,-0.000083|vel|0.000000,-0.000000,0.000000,0.000000,0.000000,0.000000|eff|0.000000,0.000000,0.000000,0.000000,0.000000,0.000000
cobot_dynamixel_driver/joint_states|name|J1,J2,J3,J4,J5,J6|pos|0.269192,-1.267658,1.296275,-0.001715,-1.366869,-0.000083|vel|0.000000,-0.000000,0.000000,0.000000,0.000000,0.000000|eff|0.000000,0.000000,0.000000,0.000000,0.000000,0.000000
cobot_dynamixel_driver/joint_states|name|J1,J2,J3,J4,J5,J6|pos|0.269192,-1.267658,1.296275,-0.001715,-1.366869,-0.000083|vel|0.000000,-0.000000,0.000000,0.000000,0.000000,0.000000|eff|0.000000,0.000000,0.000000,0.000000,0.000000,0.000000
cobot_dynamixel_driver/joint_states|name|J1,J2,J3,J4,J5,J6|pos|0.269192,-1.267658,1.296275,-0.001715,-1.366869,-0.000083|vel|0.000000,-0.000000,0.000000,0.000000,0.000000,0.000000|eff|0.000000,0.000000,0.000000,0.000000,0.000000,0.000000
cobot_dynamixel_driver/joint_states|name|J1,J2,J3,J4,J5,J6|pos|0.269192,-1.267658,1.296275,-0.001715,-1.366869,-0.000083|vel|0.000000,-0.000000,0.000000,0.000000,0.000000,0.000000|eff|0.000000,0.000000,0.000000,0.000000,0.000000,0.000000
cobot_dynamixel_driver/joint_states|name|J1,J2,J3,J4,J5,J6|pos|0.269192,-1.267658,1.296275,-0.001715,-1.366869,-0.000083|vel|0.000000,-0.000000,0.000000,0.000000,0.000000,0.000000|eff|0.000000,0.000000,0.000000,0.000000,0.000000,0.000000
cobot_dynamixel_driver/joint_states|name|J1,J2,J3,J4,J5,J6|pos|0.269192,-1.267658,1.296275,-0.001715,-1.366869,-0.000083|vel|0.000000,-0.000000,0.000000,0.000000,0.000000,0.000000|eff|0.000000,0.000000,0.000000,0.000000,0.000000,0.000000
cobot_dynamixel_driver/joint_states|name|J1,J2,J3,J4,J5,J6|pos|0.269192,-1.267658,1.296275,-0.001715,-1.366869,-0.000083|vel|0.000000,-0.000000,0.000000,0.000000,0.000000,0.000000|eff|0.000000,0.000000,0.000000,0.000000,0.000000,0.000000
cobot_dynamixel_driver/joint_states|name|J1,J2,J3,J4,J5,J6|pos|0.269192,-1.267658,1.296275,-0.001715,-1.366869,-0.000083|vel|0.000000,-0.000000,0.000000,0.000000,0.000000,0.000000|eff|0.000000,0.000000,0.000000,0.000000,0.000000,0.000000
cobot_dynamixel_driver/joint_states|name|J1,J2,J3,J4,J5,J6|pos|0.269192,-1.267658,1.296275,-0.001715,-1.366869,-0.000083|vel|0.000000,-0.000000,0.000000,0.000000,0.000000,0.000000|eff|0.000000,0.000000,0.000000,0.000000,0.000000,0.000000
cobot_dynamixel_driver/joint_states|name|J1,J2,J3,J4,J5,J6|pos|0.269192,-1.267658,1.296275,-0.001715,-1.366869,-0.000083|vel|0.000000,-0.000000,0.000000,0.000000,0.000000,0.000000|eff|0.000000,0.000000,0.000000,0.000000,0.000000,0.000000
cobot_dynamixel_driver/joint_states|name|J1,J2,J3,J4,J5,J6|pos|0.269192,-1.267658,1.296275,-0.001715,-1.366869,-0.000083|vel|0.000000,-0.000000,0.000000,0.000000,0.000000,0.000000|eff|0.000000,0.000000,0.000000,0.000000,0.000000,0.000000
cobot_dynamixel_driver/joint_states|name|J1,J2,J3,J4,J5,J6|pos|0.269192,-1.267658,1.296275,-0.001715,-1.366869,-0.000083|vel|0.000000,-0.000000,0.000000,0.000000,0.000000,0.000000|eff|0.000000,0.000000,0.000000,0.000000,0.000000,0.000000
cobot_dynamixel_driver/joint_states|name|J1,J2,J3,J4,J5,J6|pos|0.269192,-1.267658,1.296275,-0.001715,-1.366869,-0.000083|vel|0.000000,-0.000000,0.000000,0.000000,0.000000,0.000000|eff|0.000000,0.000000,0.000000,0.000000,0.000000,0.000000
cobot_dynamixel_driver/joint_states|name|J1,J2,J3,J4,J5,J6|pos|0.269192,-1.267658,1.296275,-0.001715,-1.366869,-0.000083|vel|0.000000,-0.000000,0.000000,0.000000,0.000000,0.000000|eff|0.000000,0.000000,0.000000,0.000000,0.000000,0.000000
cobot_dynamixel_driver/joint_states|name|J1,J2,J3,J4,J5,J6|pos|0.269192,-1.267658,1.296275,-0.001715,-1.366869,-0.000083|vel|0.000000,-0.000000,0.000000,0.000000,0.000000,0.000000|eff|0.000000,0.000000,0.000000,0.000000,0.000000,0.000000
cobot_dynamixel_driver/joint_states|name|J1,J2,J3,J4,J5,J6|pos|0.269192,-1.267658,1.296275,-0.001715,-1.366869,-0.000083|vel|0.000000,-0.000000,0.000000,0.000000,0.000000,0.000000|eff|0.000000,0.000000,0.000000,0.000000,0.000000,0.000000
cobot_dynamixel_driver/joint_states|name|J1,J2,J3,J4,J5,J6|pos|0.269192,-1.267658,1.296275,-0.001715,-1.366869,-0.000083|vel|0.000000,-0.000000,0.000000,0.000000,0.000000,0.000000|eff|0.000000,0.000000,0.000000,0.000000,0.000000,0.000000
cobot_dynamixel_driver/joint_states|name|J1,J2,J3,J4,J5,J6|pos|0.269192,-1.267658,1.296275,-0.001715,-1.366869,-0.000083|vel|0.000000,-0.000000,0.000000,0.000000,0.000000,0.000000|eff|0.000000,0.000000,0.000000,0.000000,0.000000,0.000000
cobot_dynamixel_driver/joint_states|name|J1,J2,J3,J4,J5,J6|pos|0.269192,-1.267658,1.296275,-0.001715,-1.366869,-0.000083|vel|0.000000,-0.000000,0.000000,0.000000,0.000000,0.000000|eff|0.000000,0.000000,0.000000,0.000000,0.000000,0.000000
cobot_dynamixel_driver/joint_states|name|J1,J2,J3,J4,J5,J6|pos|0.269192,-1.267658,1.296275,-0.001715,-1.366869,-0.000083|vel|0.000000,-0.000000,0.000000,0.000000,0.000000,0.000000|eff|0.000000,0.000000,0.000000,0.000000,0.000000,0.000000
cobot_dynamixel_driver/joint_states|name|J1,J2,J3,J4,J5,J6|pos|0.269192,-1.267658,1.296275,-0.001715,-1.366869,-0.000083|vel|0.000000,-0.000000,0.000000,0.000000,0.000000,0.000000|eff|0.000000,0.000000,0.000000,0.000000,0.000000,0.000000
cobot_dynamixel_driver/joint_states|name|J1,J2,J3,J4,J5,J6|pos|0.269192,-1.267658,1.296275,-0.001715,-1.366869,-0.000083|vel|0.000000,-0.000000,0.000000,0.000000,0.000000,0.000000|eff|0.000000,0.000000,0.000000,0.000000,0.000000,0.000000
cobot_dynamixel_driver/joint_states|name|J1,J2,J3,J4,J5,J6|pos|0.269192,-1.267658,1.296275,-0.001715,-1.366869,-0.000083|vel|0.000000,-0.000000,0.000000,0.000000,0.000000,0.000000|eff|0.000000,0.000000,0.000000,0.000000,0.000000,0.000000
cobot_dynamixel_driver/joint_states|name|J1,J2,J3,J4,J5,J6|pos|0.269192,-1.267658,1.296275,-0.001715,-1.366869,-0.000083|vel|0.000000,-0.000000,0.000000,0.000000,0.000000,0.000000|eff|0.000000,0.000000,0.000000,0.000000,0.000000,0.000000
cobot_dynamixel_driver/joint_states|name|J1,J2,J3,J4,J5,J6|pos|0.269192,-1.267658,1.296275,-0.001715,-1.366869,-0.000083|vel|0.000000,-0.000000,0.000000,0.000000,0.000000,0.000000|eff|0.000000,0.000000,0.000000,0.000000,0.000000,0.000000
cobot_dynamixel_driver/joint_states|name|J1,J2,J3,J4,J5,J6|pos|0.269192,-1.267658,1.296275,-0.001715,-1.366869,-0.000083|vel|0.000000,-0.000000,0.000000,0.000000,0.000000,0.000000|eff|0.000000,0.000000,0.000000,0.000000,0.000000,0.000000
cobot_dynamixel_driver/joint_states|name|J1,J2,J3,J4,J5,J6|pos|0.269192,-1.267658,1.296275,-0.001715,-1.366869,-0.000083|vel|0.000000,-0.000000,0.000000,0.000000,0.000000,0.000000|eff|0.000000,0.000000,0.000000,0.000000,0.000000,0.000000
cobot_dynamixel_driver/joint_states|name|J1,J2,J3,J4,J5,J6|pos|0.269192,-1.267658,1.296275,-0.001715,-1.366869,-0.000083|vel|0.000000,-0.000000,0.000000,0.000000,0.000000,0.000000|eff|0.000000,0.000000,0.000000,0.000000,0.000000,0.000000
cobot_dynamixel_driver/joint_states|name|J1,J2,J3,J4,J5,J6|pos|0.269192,-1.267658,1.296275,-0.001715,-1.366869,-0.000083|vel|0.000000,-0.000000,0.000000,0.000000,0.000000,0.000000|eff|0.000000,0.000000,0.000000,0.000000,0.000000,0.000000
cobot_dynamixel_driver/joint_states|name|J1,J2,J3,J4,J5,J6|pos|0.269192,-1.267658,1.296275,-0.001715,-1.366869,-0.000083|vel|0.000000,-0.000000,0.000000,0.000000,0.000000,0.000000|eff|0.000000,0.000000,0.000000,0.000000,0.000000,0.000000
cobot_dynamixel_driver/joint_states|name|J1,J2,J3,J4,J5,J6|pos|0.269192,-1.267658,1.296275,-0.001715,-1.366869,-0.000083|vel|0.000000,-0.000000,0.000000,0.000000,0.000000,0.000000|eff|0.000000,0.000000,0.000000,0.000000,0.000000,0.000000
cobot_dynamixel_driver/joint_states|name|J1,J2,J3,J4,J5,J6|pos|0.269192,-1.267658,1.296275,-0.001715,-1.366869,-0.000083|vel|0.000000,-0.000000,0.000000,0.000000,0.000000,0.000000|eff|0.000000,0.000000,0.000000,0.000000,0.000000,0.000000
cobot_dynamixel_driver/joint_states|name|J1,J2,J3,J4,J5,J6|pos|0.269192,-1.267658,1.296275,-0.001715,-1.366869,-0.000083|vel|0.000000,-0.000000,0.000000,0.000000,0.000000,0.000000|eff|0.000000,0.000000,0.000000,0.000000,0.000000,0.000000
cobot_dynamixel_driver/joint_states|name|J1,J2,J3,J4,J5,J6|pos|0.269192,-1.267658,1.296275,-0.001715,-1.366869,-0.000083|vel|0.000000,-0.000000,0.000000,0.000000,0.000000,0.000000|eff|0.000000,0.000000,0.000000,0.000000,0.000000,0.000000
cobot_dynamixel_driver/joint_states|name|J1,J2,J3,J4,J5,J6|pos|0.269192,-1.267658,1.296275,-0.001715,-1.366869,-0.000083|vel|0.000000,-0.000000,0.000000,0.000000,0.000000,0.000000|eff|0.000000,0.000000,0.000000,0.000000,0.000000,0.000000
cobot_dynamixel_driver/joint_states|name|J1,J2,J3,J4,J5,J6|pos|0.269192,-1.267658,1.296275,-0.001715,-1.366869,-0.000083|vel|0.000000,-0.000000,0.000000,0.000000,0.000000,0.000000|eff|0.000000,0.000000,0.000000,0.000000,0.000000,0.000000
cobot_dynamixel_driver/joint_states|name|J1,J2,J3,J4,J5,J6|pos|0.269192,-1.267658,1.296275,-0.001715,-1.366869,-0.000083|vel|0.000000,-0.000000,0.000000,0.000000,0.000000,0.000000|eff|0.000000,0.000000,0.000000,0.000000,0.000000,0.000000
cobot_dynamixel_driver/joint_states|name|J1,J2,J3,J4,J5,J6|pos|0.269192,-1.267658,1.296275,-0.001715,-1.366869,-0.000083|vel|0.000000,-0.000000,0.000000,0.000000,0.000000,0.000000|eff|0.000000,0.000000,0.000000,0.000000,0.000000,0.000000
cobot_dynamixel_driver/joint_states|name|J1,J2,J3,J4,J5,J6|pos|0.269192,-1.267658,1.296275,-0.001715,-1.366869,-0.000083|vel|0.000000,-0.000000,0.000000,0.000000,0.000000,0.000000|eff|0.000000,0.000000,0.000000,0.000000,0.000000,0.000000
cobot_dynamixel_driver/joint_states|name|J1,J2,J3,J4,J5,J6|pos|0.269192,-1.267658,1.296275,-0.001715,-1.366869,-0.000083|vel|0.000000,-0.000000,0.000000,0.000000,0.000000,0.000000|eff|0.000000,0.000000,0.000000,0.000000,0.000000,0.000000
cobot_dynamixel_driver/joint_states|name|J1,J2,J3,J4,J5,J6|pos|0.269192,-1.267658,1.296275,-0.001715,-1.366869,-0.000083|vel|0.000000,-0.000000,0.000000,0.000000,0.000000,0.000000|eff|0.000000,0.000000,0.000000,0.000000,0.000000,0.000000
cobot_dynamixel_driver/joint_states|name|J1,J2,J3,J4,J5,J6|pos|0.269192,-1.267658,1.296275,-0.001715,-1.366869,-0.000083|vel|0.000000,-0.000000,0.000000,0.000000,0.000000,0.000000|eff|0.000000,0.000000,0.000000,0.000000,0.000000,0.000000
cobot_dynamixel_driver/joint_states|name|J1,J2,J3,J4,J5,J6|pos|0.269192,-1.267658,1.296275,-0.001715,-1.366869,-0.000083|vel|0.000000,-0.000000,0.000000,0.000000,0.000000,0.000000|eff|0.000000,0.000000,0.000000,0.000000,0.000000,0.000000
cobot_dynamixel_driver/joint_states|name|J1,J2,J3,J4,J5,J6|pos|0.269192,-1.267658,1.296275,-0.001715,-1.366869,-0.000083|vel|0.000000,-0.000000,0.000000,0.000000,0.000000,0.000000|eff|0.000000,0.000000,0.000000,0.000000,0.000000,0.000000
cobot_dynamixel_driver/joint_states|name|J1,J2,J3,J4,J5,J6|pos|0.269192,-1.267658,1.296275,-0.001715,-1.366869,-0.000083|vel|0.000000,-0.000000,0.000000,0.000000,0.000000,0.000000|eff|0.000000,0.000000,0.000000,0.000000,0.000000,0.000000
cobot_dynamixel_driver/joint_states|name|J1,J2,J3,J4,J5,J6|pos|0.269192,-1.267658,1.296275,-0.001715,-1.366869,-0.000083|vel|0.000000,-0.000000,0.000000,0.000000,0.000000,0.000000|eff|0.000000,0.000000,0.000000,0.000000,0.000000,0.000000
cobot_dynamixel_driver/joint_states|name|J1,J2,J3,J4,J5,J6|pos|0.269192,-1.267658,1.296275,-0.001715,-1.366869,-0.000083|vel|0.000000,-0.000000,0.000000,0.000000,0.000000,0.000000|eff|0.000000,0.000000,0.000000,0.000000,0.000000,0.000000
cobot_dynamixel_driver/joint_states|name|J1,J2,J3,J4,J5,J6|pos|0.269192,-1.267658,1.296275,-0.001715,-1.366869,-0.000083|vel|0.000000,-0.000000,0.000000,0.000000,0.000000,0.000000|eff|0.000000,0.000000,0.000000,0.000000,0.000000,0.000000
cobot_dynamixel_driver/joint_states|name|J1,J2,J3,J4,J5,J6|pos|0.269192,-1.267658,1.296275,-0.001715,-1.366869,-0.000083|vel|0.000000,-0.000000,0.000000,0.000000,0.000000,0.000000|eff|0.000000,0.000000,0.000000,0.000000,0.000000,0.000000
cobot_dynamixel_driver/joint_states|name|J1,J2,J3,J4,J5,J6|pos|0.269192,-1.267658,1.296275,-0.001715,-1.366869,-0.000083|vel|0.000000,-0.000000,0.000000,0.000000,0.000000,0.000000|eff|0.000000,0.000000,0.000000,0.000000,0.000000,0.000000
cobot_dynamixel_driver/joint_states|name|J1,J2,J3,J4,J5,J6|pos|0.269192,-1.267658,1.296275,-0.001715,-1.366869,-0.000083|vel|0.000000,-0.000000,0.000000,0.000000,0.000000,0.000000|eff|0.000000,0.000000,0.000000,0.000000,0.000000,0.000000
cobot_dynamixel_driver/joint_states|name|J1,J2,J3,J4,J5,J6|pos|0.269192,-1.267658,1.296275,-0.001715,-1.366869,-0.000083|vel|0.000000,-0.000000,0.000000,0.000000,0.000000,0.000000|eff|0.000000,0.000000,0.000000,0.000000,0.000000,0.000000
cobot_dynamixel_driver/joint_states|name|J1,J2,J3,J4,J5,J6|pos|0.269192,-1.267658,1.296275,-0.001715,-1.366869,-0.000083|vel|0.000000,-0.000000,0.000000,0.000000,0.000000,0.000000|eff|0.000000,0.000000,0.000000,0.000000,0.000000,0.000000
cobot_dynamixel_driver/joint_states|name|J1,J2,J3,J4,J5,J6|pos|0.269192,-1.267658,1.296275,-0.001715,-1.366869,-0.000083|vel|0.000000,-0.000000,0.000000,0.000000,0.000000,0.000000|eff|0.000000,0.000000,0.000000,0.000000,0.000000,0.000000
cobot_dynamixel_driver/joint_states|name|J1,J2,J3,J4,J5,J6|pos|0.269192,-1.267658,1.296275,-0.001715,-1.366869,-0.000083|vel|0.000000,-0.000000,0.000000,0.000000,0.000000,0.000000|eff|0.000000,0.000000,0.000000,0.000000,0.000000,0.000000
cobot_dynamixel_driver/joint_states|name|J1,J2,J3,J4,J5,J6|pos|0.269192,-1.267658,1.296275,-0.001715,-1.366869,-0.000083|vel|0.000000,-0.000000,0.000000,0.000000,0.000000,0.000000|eff|0.000000,0.000000,0.000000,0.000000,0.000000,0.000000
cobot_dynamixel_driver/joint_states|name|J1,J2,J3,J4,J5,J6|pos|0.269192,-1.267658,1.296275,-0.001715,-1.366869,-0.000083|vel|0.000000,-0.000000,0.000000,0.000000,0.000000,0.000000|eff|0.000000,0.000000,0.000000,0.000000,0.000000,0.000000
cobot_dynamixel_driver/joint_states|name|J1,J2,J3,J4,J5,J6|pos|0.269192,-1.267658,1.296275,-0.001715,-1.366869,-0.000083|vel|0.000000,-0.000000,0.000000,0.000000,0.000000,0.000000|eff|0.000000,0.000000,0.000000,0.000000,0.000000,0.000000
cobot_dynamixel_driver/joint_states|name|J1,J2,J3,J4,J5,J6|pos|0.269192,-1.267658,1.296275,-0.001715,-1.366869,-0.000083|vel|0.000000,-0.000000,0.000000,0.000000,0.000000,0.000000|eff|0.000000,0.000000,0.000000,0.000000,0.000000,0.000000
cobot_dynamixel_driver/joint_states|name|J1,J2,J3,J4,J5,J6|pos|0.269192,-1.267658,1.296275,-0.001715,-1.366869,-0.000083|vel|0.000000,-0.000000,0.000000,0.000000,0.000000,0.000000|eff|0.000000,0.000000,0.000000,0.000000,0.000000,0.000000
cobot_dynamixel_driver/joint_states|name|J1,J2,J3,J4,J5,J6|pos|0.269192,-1.267658,1.296275,-0.001715,-1.366869,-0.000083|vel|0.000000,-0.000000,0.000000,0.000000,0.000000,0.000000|eff|0.000000,0.000000,0.000000,0.000000,0.000000,0.000000
cobot_dynamixel_driver/joint_states|name|J1,J2,J3,J4,J5,J6|pos|0.269192,-1.267658,1.296275,-0.001715,-1.366869,-0.000083|vel|0.000000,-0.000000,0.000000,0.000000,0.000000,0.000000|eff|0.000000,0.000000,0.000000,0.000000,0.000000,0.000000
cobot_dynamixel_driver/joint_states|name|J1,J2,J3,J4,J5,J6|pos|0.269192,-1.267658,1.296275,-0.001715,-1.366869,-0.000083|vel|0.000000,-0.000000,0.000000,0.000000,0.000000,0.000000|eff|0.000000,0.000000,0.000000,0.000000,0.000000,0.000000
cobot_dynamixel_driver/joint_states|name|J1,J2,J3,J4,J5,J6|pos|0.269192,-1.267658,1.296275,-0.001715,-1.366869,-0.000083|vel|0.000000,-0.000000,0.000000,0.000000,0.000000,0.000000|eff|0.000000,0.000000,0.000000,0.000000,0.000000,0.000000
cobot_dynamixel_driver/joint_states|name|J1,J2,J3,J4,J5,J6|pos|0.269192,-1.267658,1.296275,-0.001715,-1.366869,-0.000083|vel|0.000000,-0.000000,0.000000,0.000000,0.000000,0.000000|eff|0.000000,0.000000,0.000000,0.000000,0.000000,0.000000
cobot_dynamixel_driver/joint_states|name|J1,J2,J3,J4,J5,J6|pos|0.269192,-1.267658,1.296275,-0.001715,-1.366869,-0.000083|vel|0.000000,-0.000000,0.000000,0.000000,0.000000,0.000000|eff|0.000000,0.000000,0.000000,0.000000,0.000000,0.000000
cobot_dynamixel_driver/joint_states|name|J1,J2,J3,J4,J5,J6|pos|0.269192,-1.267658,1.296275,-0.001715,-1.366869,-0.000083|vel|0.000000,-0.000000,0.000000,0.000000,0.000000,0.000000|eff|0.000000,0.000000,0.000000,0.000000,0.000000,0.000000
cobot_dynamixel_driver/joint_states|name|J1,J2,J3,J4,J5,J6|pos|0.269192,-1.267658,1.296275,-0.001715,-1.366869,-0.000083|vel|0.000000,-0.000000,0.000000,0.000000,0.000000,0.000000|eff|0.000000,0.000000,0.000000,0.000000,0.000000,0.000000
cobot_dynamixel_driver/joint_states|name|J1,J2,J3,J4,J5,J6|pos|0.269192,-1.267658,1.296275,-0.001715,-1.366869,-0.000083|vel|0.000000,-0.000000,0.000000,0.000000,0.000000,0.000000|eff|0.000000,0.000000,0.000000,0.000000,0.000000,0.000000
cobot_dynamixel_driver/joint_states|name|J1,J2,J3,J4,J5,J6|pos|0.269192,-1.267658,1.296275,-0.001715,-1.366869,-0.000083|vel|0.000000,-0.000000,0.000000,0.000000,0.000000,0.000000|eff|0.000000,0.000000,0.000000,0.000000,0.000000,0.000000
cobot_dynamixel_driver/joint_states|name|J1,J2,J3,J4,J5,J6|pos|0.269192,-1.267658,1.296275,-0.001715,-1.366869,-0.000083|vel|0.000000,-0.000000,0.000000,0.000000,0.000000,0.000000|eff|0.000000,0.000000,0.000000,0.000000,0.000000,0.000000
cobot_dynamixel_driver/joint_states|name|J1,J2,J3,J4,J5,J6|pos|0.269192,-1.267658,1.296275,-0.001715,-1.366869,-0.000083|vel|0.000000,-0.000000,0.000000,0.000000,0.000000,0.000000|eff|0.000000,0.000000,0.000000,0.000000,0.000000,0.000000
cobot_dynamixel_driver/joint_states|name|J1,J2,J3,J4,J5,J6|pos|0.269192,-1.267658,1.296275,-0.001715,-1.366869,-0.000083|vel|0.000000,-0.000000,0.000000,0.000000,0.000000,0.000000|eff|0.000000,0.000000,0.000000,0.000000,0.000000,0.000000
cobot_dynamixel_driver/joint_states|name|J1,J2,J3,J4,J5,J6|pos|0.269192,-1.267658,1.296275,-0.001715,-1.366869,-0.000083|vel|0.000000,-0.000000,0.000000,0.000000,0.000000,0.000000|eff|0.000000,0.000000,0.000000,0.000000,0.000000,0.000000
cobot_dynamixel_driver/joint_states|name|J1,J2,J3,J4,J5,J6|pos|0.269192,-1.267658,1.296275,-0.001715,-1.366869,-0.000083|vel|0.000000,-0.000000,0.000000,0.000000,0.000000,0.000000|eff|0.000000,0.000000,0.000000,0.000000,0.000000,0.000000
cobot_dynamixel_driver/joint_states|name|J1,J2,J3,J4,J5,J6|pos|0.269192,-1.267658,1.296275,-0.001715,-1.366869,-0.000083|vel|0.000000,-0.000000,0.000000,0.000000,0.000000,0.000000|eff|0.000000,0.000000,0.000000,0.000000,0.000000,0.000000
cobot_dynamixel_driver/joint_states|name|J1,J2,J3,J4,J5,J6|pos|0.269192,-1.267658,1.296275,-0.001715,-1.366869,-0.000083|vel|0.000000,-0.000000,0.000000,0.000000,0.000000,0.000000|eff|0.000000,0.000000,0.000000,0.000000,0.000000,0.000000
cobot_dynamixel_driver/joint_states|name|J1,J2,J3,J4,J5,J6|pos|0.269192,-1.267658,1.296275,-0.001715,-1.366869,-0.000083|vel|0.000000,-0.000000,0.000000,0.000000,0.000000,0.000000|eff|0.000000,0.000000,0.000000,0.000000,0.000000,0.000000
cobot_dynamixel_driver/joint_states|name|J1,J2,J3,J4,J5,J6|pos|0.269192,-1.267658,1.296275,-0.001715,-1.366869,-0.000083|vel|0.000000,-0.000000,0.000000,0.000000,0.000000,0.000000|eff|0.000000,0.000000,0.000000,0.000000,0.000000,0.000000
cobot_dynamixel_driver/joint_states|name|J1,J2,J3,J4,J5,J6|pos|0.269192,-1.267658,1.296275,-0.001715,-1.366869,-0.000083|vel|0.000000,-0.000000,0.000000,0.000000,0.000000,0.000000|eff|0.000000,0.000000,0.000000,0.000000,0.000000,0.000000
cobot_dynamixel_driver/joint_states|name|J1,J2,J3,J4,J5,J6|pos|0.269192,-1.267658,1.296275,-0.001715,-1.366869,-0.000083|vel|0.000000,-0.000000,0.000000,0.000000,0.000000,0.000000|eff|0.000000,0.000000,0.000000,0.000000,0.000000,0.000000
cobot_dynamixel_driver/joint_states|name|J1,J2,J3,J4,J5,J6|pos|0.269192,-1.267658,1.296275,-0.001715,-1.366869,-0.000083|vel|0.000000,-0.000000,0.000000,0.000000,0.000000,0.000000|eff|0.000000,0.000000,0.000000,0.000000,0.000000,0.000000
cobot_dynamixel_driver/joint_states|name|J1,J2,J3,J4,J5,J6|pos|0.269192,-1.267658,1.296275,-0.001715,-1.366869,-0.000083|vel|0.000000,-0.000000,0.000000,0.000000,0.000000,0.000000|eff|0.000000,0.000000,0.000000,0.000000,0.000000,0.000000
cobot_dynamixel_driver/joint_states|name|J1,J2,J3,J4,J5,J6|pos|0.269192,-1.267658,1.296275,-0.001715,-1.366869,-0.000083|vel|0.000000,-0.000000,0.000000,0.000000,0.000000,0.000000|eff|0.000000,0.000000,0.000000,0.000000,0.000000,0.000000
cobot_dynamixel_driver/joint_states|name|J1,J2,J3,J4,J5,J6|pos|0.269192,-1.267658,1.296275,-0.001715,-1.366869,-0.000083|vel|0.000000,-0.000000,0.000000,0.000000,0.000000,0.000000|eff|0.000000,0.000000,0.000000,0.000000,0.000000,0.000000
cobot_dynamixel_driver/joint_states|name|J1,J2,J3,J4,J5,J6|pos|0.269192,-1.267658,1.296275,-0.001715,-1.366869,-0.000083|vel|0.000000,-0.000000,0.000000,0.000000,0.000000,0.000000|eff|0.000000,0.000000,0.000000,0.000000,0.000000,0.000000
cobot_dynamixel_driver/joint_states|name|J1,J2,J3,J4,J5,J6|pos|0.269192,-1.267658,1.296275,-0.001715,-1.366869,-0.000083|vel|0.000000,-0.000000,0.000000,0.000000,0.000000,0.000000|eff|0.000000,0.000000,0.000000,0.000000,0.000000,0.000000
cobot_dynamixel_driver/joint_states|name|J1,J2,J3,J4,J5,J6|pos|0.269192,-1.267658,1.296275,-0.001715,-1.366869,-0.000083|vel|0.000000,-0.000000,0.000000,0.000000,0.000000,0.000000|eff|0.000000,0.000000,0.000000,0.000000,0.000000,0.000000
cobot_dynamixel_driver/joint_states|name|J1,J2,J3,J4,J5,J6|pos|0.269192,-1.267658,1.296275,-0.001715,-1.366869,-0.000083|vel|0.000000,-0.000000,0.000000,0.000000,0.000000,0.000000|eff|0.000000,0.000000,0.000000,0.000000,0.000000,0.000000
cobot_dynamixel_driver/joint_states|name|J1,J2,J3,J4,J5,J6|pos|0.269192,-1.267658,1.296275,-0.001715,-1.366869,-0.000083|vel|0.000000,-0.000000,0.000000,0.000000,0.000000,0.000000|eff|0.000000,0.000000,0.000000,0.000000,0.000000,0.000000
cobot_dynamixel_driver/joint_states|name|J1,J2,J3,J4,J5,J6|pos|0.269192,-1.267658,1.296275,-0.001715,-1.366869,-0.000083|vel|0.000000,-0.000000,0.000000,0.000000,0.000000,0.000000|eff|0.000000,0.000000,0.000000,0.000000,0.000000,0.000000
cobot_dynamixel_driver/joint_states|name|J1,J2,J3,J4,J5,J6|pos|0.269192,-1.267658,1.296275,-0.001715,-1.366869,-0.000083|vel|0.000000,-0.000000,0.000000,0.000000,0.000000,0.000000|eff|0.000000,0.000000,0.000000,0.000000,0.000000,0.000000
cobot_dynamixel_driver/joint_states|name|J1,J2,J3,J4,J5,J6|pos|0.269192,-1.267658,1.296275,-0.001715,-1.366869,-0.000083|vel|0.000000,-0.000000,0.000000,0.000000,0.000000,0.000000|eff|0.000000,0.000000,0.000000,0.000000,0.000000,0.000000
cobot_dynamixel_driver/joint_states|name|J1,J2,J3,J4,J5,J6|pos|0.269192,-1.267658,1.296275,-0.001715,-1.366869,-0.000083|vel|0.000000,-0.000000,0.000000,0.000000,0.000000,0.000000|eff|0.000000,0.000000,0.000000,0.000000,0.000000,0.000000
cobot_dynamixel_driver/joint_states|name|J1,J2,J3,J4,J5,J6|pos|0.269192,-1.267658,1.296275,-0.001715,-1.366869,-0.000083|vel|0.000000,-0.000000,0.000000,0.000000,0.000000,0.000000|eff|0.000000,0.000000,0.000000,0.000000,0.000000,0.000000
cobot_dynamixel_driver/joint_states|name|J1,J2,J3,J4,J5,J6|pos|0.269192,-1.267658,1.296275,-0.001715,-1.366869,-0.000083|vel|0.000000,-0.000000,0.000000,0.000000,0.000000,0.000000|eff|0.000000,0.000000,0.000000,0.000000,0.000000,0.000000
cobot_dynamixel_driver/joint_states|name|J1,J2,J3,J4,J5,J6|pos|0.269192,-1.267658,1.296275,-0.001715,-1.366869,-0.000083|vel|0.000000,-0.000000,0.000000,0.000000,0.000000,0.000000|eff|0.000000,0.000000,0.000000,0.000000,0.000000,0.000000
cobot_dynamixel_driver/joint_states|name|J1,J2,J3,J4,J5,J6|pos|0.269192,-1.267658,1.296275,-0.001715,-1.366869,-0.000083|vel|0.000000,-0.000000,0.000000,0.000000,0.000000,0.000000|eff|0.000000,0.000000,0.000000,0.000000,0.000000,0.000000
cobot_dynamixel_driver/joint_states|name|J1,J2,J3,J4,J5,J6|pos|0.269192,-1.267658,1.296275,-0.001715,-1.366869,-0.000083|vel|0.000000,-0.000000,0.000000,0.000000,0.000000,0.000000|eff|0.000000,0.000000,0.000000,0.000000,0.000000,0.000000
cobot_dynamixel_driver/joint_states|name|J1,J2,J3,J4,J5,J6|pos|0.269192,-1.267658,1.296275,-0.001715,-1.366869,-0.000083|vel|0.000000,-0.000000,0.000000,0.000000,0.000000,0.000000|eff|0.000000,0.000000,0.000000,0.000000,0.000000,0.000000
cobot_dynamixel_driver/joint_states|name|J1,J2,J3,J4,J5,J6|pos|0.269192,-1.267658,1.296275,-0.001715,-1.366869,-0.000083|vel|0.000000,-0.000000,0.000000,0.000000,0.000000,0.000000|eff|0.000000,0.000000,0.000000,0.000000,0.000000,0.000000
cobot_dynamixel_driver/joint_states|name|J1,J2,J3,J4,J5,J6|pos|0.269192,-1.267658,1.296275,-0.001715,-1.366869,-0.000083|vel|0.000000,-0.000000,0.000000,0.000000,0.000000,0.000000|eff|0.000000,0.000000,0.000000,0.000000,0.000000,0.000000
cobot_dynamixel_driver/joint_states|name|J1,J2,J3,J4,J5,J6|pos|0.269192,-1.267658,1.296275,-0.001715,-1.366869,-0.000083|vel|0.000000,-0.000000,0.000000,0.000000,0.000000,0.000000|eff|0.000000,0.000000,0.000000,0.000000,0.000000,0.000000
cobot_dynamixel_driver/joint_states|name|J1,J2,J3,J4,J5,J6|pos|0.269192,-1.267658,1.296275,-0.001715,-1.366869,-0.000083|vel|0.000000,-0.000000,0.000000,0.000000,0.000000,0.000000|eff|0.000000,0.000000,0.000000,0.000000,0.000000,0.000000
cobot_dynamixel_driver/joint_states|name|J1,J2,J3,J4,J5,J6|pos|0.269192,-1.267658,1.296275,-0.001715,-1.366869,-0.000083|vel|0.000000,-0.000000,0.000000,0.000000,0.000000,0.000000|eff|0.000000,0.000000,0.000000,0.000000,0.000000,0.000000
cobot_dynamixel_driver/joint_states|name|J1,J2,J3,J4,J5,J6|pos|0.269192,-1.267658,1.296275,-0.001715,-1.366869,-0.000083|vel|0.000000,-0.000000,0.000000,0.000000,0.000000,0.000000|eff|0.000000,0.000000,0.000000,0.000000,0.000000,0.000000
cobot_dynamixel_driver/joint_states|name|J1,J2,J3,J4,J5,J6|pos|0.269192,-1.267658,1.296275,-0.001715,-1.366869,-0.000083|vel|0.000000,-0.000000,0.000000,0.000000,0.000000,0.000000|eff|0.000000,0.000000,0.000000,0.000000,0.000000,0.000000
cobot_dynamixel_driver/joint_states|name|J1,J2,J3,J4,J5,J6|pos|0.269192,-1.267658,1.296275,-0.001715,-1.366869,-0.000083|vel|0.000000,-0.000000,0.000000,0.000000,0.000000,0.000000|eff|0.000000,0.000000,0.000000,0.000000,0.000000,0.000000
cobot_dynamixel_driver/joint_states|name|J1,J2,J3,J4,J5,J6|pos|0.269192,-1.267658,1.296275,-0.001715,-1.366869,-0.000083|vel|0.000000,-0.000000,0.000000,0.000000,0.000000,0.000000|eff|0.000000,0.000000,0.000000,0.000000,0.000000,0.000000
cobot_dynamixel_driver/joint_states|name|J1,J2,J3,J4,J5,J6|pos|0.269192,-1.267658,1.296275,-0.001715,-1.366869,-0.000083|vel|0.000000,-0.000000,0.000000,0.000000,0.000000,0.000000|eff|0.000000,0.000000,0.000000,0.000000,0.000000,0.000000
cobot_dynamixel_driver/joint_states|name|J1,J2,J3,J4,J5,J6|pos|0.269192,-1.267658,1.296275,-0.001715,-1.366869,-0.000083|vel|0.000000,-0.000000,0.000000,0.000000,0.000000,0.000000|eff|0.000000,0.000000,0.000000,0.000000,0.000000,0.000000
cobot_dynamixel_driver/joint_states|name|J1,J2,J3,J4,J5,J6|pos|0.269192,-1.267658,1.296275,-0.001715,-1.366869,-0.000083|vel|0.000000,-0.000000,0.000000,0.000000,0.000000,0.000000|eff|0.000000,0.000000,0.000000,0.000000,0.000000,0.000000
cobot_dynamixel_driver/joint_states|name|J1,J2,J3,J4,J5,J6|pos|0.269192,-1.267658,1.296275,-0.001715,-1.366869,-0.000083|vel|0.000000,-0.000000,0.000000,0.000000,0.000000,0.000000|eff|0.000000,0.000000,0.000000,0.000000,0.000000,0.000000
cobot_dynamixel_driver/joint_states|name|J1,J2,J3,J4,J5,J6|pos|0.269192,-1.267658,1.296275,-0.001715,-1.366869,-0.000083|vel|0.000000,-0.000000,0.000000,0.000000,0.000000,0.000000|eff|0.000000,0.000000,0.000000,0.000000,0.000000,0.000000
cobot_dynamixel_driver/joint_states|name|J1,J2,J3,J4,J5,J6|pos|0.269192,-1.267658,1.296275,-0.001715,-1.366869,-0.000083|vel|0.000000,-0.000000,0.000000,0.000000,0.000000,0.000000|eff|0.000000,0.000000,0.000000,0.000000,0.000000,0.000000
cobot_dynamixel_driver/joint_states|name|J1,J2,J3,J4,J5,J6|pos|0.269192,-1.267658,1.296275,-0.001715,-1.366869,-0.000083|vel|0.000000,-0.000000,0.000000,0.000000,0.000000,0.000000|eff|0.000000,0.000000,0.000000,0.000000,0.000000,0.000000
cobot_dynamixel_driver/joint_states|name|J1,J2,J3,J4,J5,J6|pos|0.269192,-1.267658,1.296275,-0.001715,-1.366869,-0.000083|vel|0.000000,-0.000000,0.000000,0.000000,0.000000,0.000000|eff|0.000000,0.000000,0.000000,0.000000,0.000000,0.000000
cobot_dynamixel_driver/joint_states|name|J1,J2,J3,J4,J5,J6|pos|0.269192,-1.267658,1.296275,-0.001715,-1.366869,-0.000083|vel|0.000000,-0.000000,0.000000,0.000000,0.000000,0.000000|eff|0.000000,0.000000,0.000000,0.000000,0.000000,0.000000
cobot_dynamixel_driver/joint_states|name|J1,J2,J3,J4,J5,J6|pos|0.269192,-1.267658,1.296275,-0.001715,-1.366869,-0.000083|vel|0.000000,-0.000000,0.000000,0.000000,0.000000,0.000000|eff|0.000000,0.000000,0.000000,0.000000,0.000000,0.000000
cobot_dynamixel_driver/joint_states|name|J1,J2,J3,J4,J5,J6|pos|0.269192,-1.267658,1.296275,-0.001715,-1.366869,-0.000083|vel|0.000000,-0.000000,0.000000,0.000000,0.000000,0.000000|eff|0.000000,0.000000,0.000000,0.000000,0.000000,0.000000
cobot_dynamixel_driver/joint_states|name|J1,J2,J3,J4,J5,J6|pos|0.269192,-1.267658,1.296275,-0.001715,-1.366869,-0.000083|vel|0.000000,-0.000000,0.000000,0.000000,0.000000,0.000000|eff|0.000000,0.000000,0.000000,0.000000,0.000000,0.000000
cobot_dynamixel_driver/joint_states|name|J1,J2,J3,J4,J5,J6|pos|0.269192,-1.267658,1.296275,-0.001715,-1.366869,-0.000083|vel|0.000000,-0.000000,0.000000,0.000000,0.000000,0.000000|eff|0.000000,0.000000,0.000000,0.000000,0.000000,0.000000
cobot_dynamixel_driver/joint_states|name|J1,J2,J3,J4,J5,J6|pos|0.269192,-1.267658,1.296275,-0.001715,-1.366869,-0.000083|vel|0.000000,-0.000000,0.000000,0.000000,0.000000,0.000000|eff|0.000000,0.000000,0.000000,0.000000,0.000000,0.000000
cobot_dynamixel_driver/joint_states|name|J1,J2,J3,J4,J5,J6|pos|0.269192,-1.267658,1.296275,-0.001715,-1.366869,-0.000083|vel|0.000000,-0.000000,0.000000,0.000000,0.000000,0.000000|eff|0.000000,0.000000,0.000000,0.000000,0.000000,0.000000
cobot_dynamixel_driver/joint_states|name|J1,J2,J3,J4,J5,J6|pos|0.269192,-1.267658,1.296275,-0.001715,-1.366869,-0.000083|vel|0.000000,-0.000000,0.000000,0.000000,0.000000,0.000000|eff|0.000000,0.000000,0.000000,0.000000,0.000000,0.000000
cobot_dynamixel_driver/joint_states|name|J1,J2,J3,J4,J5,J6|pos|0.269192,-1.267658,1.296275,-0.001715,-1.366869,-0.000083|vel|0.000000,-0.000000,0.000000,0.000000,0.000000,0.000000|eff|0.000000,0.000000,0.000000,0.000000,0.000000,0.000000
cobot_dynamixel_driver/joint_states|name|J1,J2,J3,J4,J5,J6|pos|0.269192,-1.267658,1.296275,-0.001715,-1.366869,-0.000083|vel|0.000000,-0.000000,0.000000,0.000000,0.000000,0.000000|eff|0.000000,0.000000,0.000000,0.000000,0.000000,0.000000
cobot_dynamixel_driver/joint_states|name|J1,J2,J3,J4,J5,J6|pos|0.269192,-1.267658,1.296275,-0.001715,-1.366869,-0.000083|vel|0.000000,-0.000000,0.000000,0.000000,0.000000,0.000000|eff|0.000000,0.000000,0.000000,0.000000,0.000000,0.000000
cobot_dynamixel_driver/joint_states|name|J1,J2,J3,J4,J5,J6|pos|0.269192,-1.267658,1.296275,-0.001715,-1.366869,-0.000083|vel|0.000000,-0.000000,0.000000,0.000000,0.000000,0.000000|eff|0.000000,0.000000,0.000000,0.000000,0.000000,0.000000
cobot_dynamixel_driver/joint_states|name|J1,J2,J3,J4,J5,J6|pos|0.269192,-1.267658,1.296275,-0.001715,-1.366869,-0.000083|vel|0.000000,-0.000000,0.000000,0.000000,0.000000,0.000000|eff|0.000000,0.000000,0.000000,0.000000,0.000000,0.000000
cobot_dynamixel_driver/joint_states|name|J1,J2,J3,J4,J5,J6|pos|0.269192,-1.267658,1.296275,-0.001715,-1.366869,-0.000083|vel|0.000000,-0.000000,0.000000,0.000000,0.000000,0.000000|eff|0.000000,0.000000,0.000000,0.000000,0.000000,0.000000
cobot_dynamixel_driver/joint_states|name|J1,J2,J3,J4,J5,J6|pos|0.269192,-1.267658,1.296275,-0.001715,-1.366869,-0.000083|vel|0.000000,-0.000000,0.000000,0.000000,0.000000,0.000000|eff|0.000000,0.000000,0.000000,0.000000,0.000000,0.000000
cobot_dynamixel_driver/joint_states|name|J1,J2,J3,J4,J5,J6|pos|0.269192,-1.267658,1.296275,-0.001715,-1.366869,-0.000083|vel|0.000000,-0.000000,0.000000,0.000000,0.000000,0.000000|eff|0.000000,0.000000,0.000000,0.000000,0.000000,0.000000
cobot_dynamixel_driver/joint_states|name|J1,J2,J3,J4,J5,J6|pos|0.269192,-1.267658,1.296275,-0.001715,-1.366869,-0.000083|vel|0.000000,-0.000000,0.000000,0.000000,0.000000,0.000000|eff|0.000000,0.000000,0.000000,0.000000,0.000000,0.000000
cobot_dynamixel_driver/joint_states|name|J1,J2,J3,J4,J5,J6|pos|0.269192,-1.267658,1.296275,-0.001715,-1.366869,-0.000083|vel|0.000000,-0.000000,0.000000,0.000000,0.000000,0.000000|eff|0.000000,0.000000,0.000000,0.000000,0.000000,0.000000
cobot_dynamixel_driver/joint_states|name|J1,J2,J3,J4,J5,J6|pos|0.269192,-1.267658,1.296275,-0.001715,-1.366869,-0.000083|vel|0.000000,-0.000000,0.000000,0.000000,0.000000,0.000000|eff|0.000000,0.000000,0.000000,0.000000,0.000000,0.000000
cobot_dynamixel_driver/joint_states|name|J1,J2,J3,J4,J5,J6|pos|0.269192,-1.267658,1.296275,-0.001715,-1.366869,-0.000083|vel|0.000000,-0.000000,0.000000,0.000000,0.000000,0.000000|eff|0.000000,0.000000,0.000000,0.000000,0.000000,0.000000
cobot_dynamixel_driver/joint_states|name|J1,J2,J3,J4,J5,J6|pos|0.269192,-1.267658,1.296275,-0.001715,-1.366869,-0.000083|vel|0.000000,-0.000000,0.000000,0.000000,0.000000,0.000000|eff|0.000000,0.000000,0.000000,0.000000,0.000000,0.000000
cobot_dynamixel_driver/joint_states|name|J1,J2,J3,J4,J5,J6|pos|0.269192,-1.267658,1.296275,-0.001715,-1.366869,-0.000083|vel|0.000000,-0.000000,0.000000,0.000000,0.000000,0.000000|eff|0.000000,0.000000,0.000000,0.000000,0.000000,0.000000
cobot_dynamixel_driver/joint_states|name|J1,J2,J3,J4,J5,J6|pos|0.269192,-1.267658,1.296275,-0.001715,-1.366869,-0.000083|vel|0.000000,-0.000000,0.000000,0.000000,0.000000,0.000000|eff|0.000000,0.000000,0.000000,0.000000,0.000000,0.000000
cobot_dynamixel_driver/joint_states|name|J1,J2,J3,J4,J5,J6|pos|0.269192,-1.267658,1.296275,-0.001715,-1.366869,-0.000083|vel|0.000000,-0.000000,0.000000,0.000000,0.000000,0.000000|eff|0.000000,0.000000,0.000000,0.000000,0.000000,0.000000
cobot_dynamixel_driver/joint_states|name|J1,J2,J3,J4,J5,J6|pos|0.269192,-1.267658,1.296275,-0.001715,-1.366869,-0.000083|vel|0.000000,-0.000000,0.000000,0.000000,0.000000,0.000000|eff|0.000000,0.000000,0.000000,0.000000,0.000000,0.000000
cobot_dynamixel_driver/joint_states|name|J1,J2,J3,J4,J5,J6|pos|0.269192,-1.267658,1.296275,-0.001715,-1.366869,-0.000083|vel|0.000000,-0.000000,0.000000,0.000000,0.000000,0.000000|eff|0.000000,0.000000,0.000000,0.000000,0.000000,0.000000
cobot_dynamixel_driver/joint_states|name|J1,J2,J3,J4,J5,J6|pos|0.269192,-1.267658,1.296275,-0.001715,-1.366869,-0.000083|vel|0.000000,-0.000000,0.000000,0.000000,0.000000,0.000000|eff|0.000000,0.000000,0.000000,0.000000,0.000000,0.000000
cobot_dynamixel_driver/joint_states|name|J1,J2,J3,J4,J5,J6|pos|0.269192,-1.267658,1.296275,-0.001715,-1.366869,-0.000083|vel|0.000000,-0.000000,0.000000,0.000000,0.000000,0.000000|eff|0.000000,0.000000,0.000000,0.000000,0.000000,0.000000
cobot_dynamixel_driver/joint_states|name|J1,J2,J3,J4,J5,J6|pos|0.269192,-1.267658,1.296275,-0.001715,-1.366869,-0.000083|vel|0.000000,-0.000000,0.000000,0.000000,0.000000,0.000000|eff|0.000000,0.000000,0.000000,0.000000,0.000000,0.000000
cobot_dynamixel_driver/joint_states|name|J1,J2,J3,J4,J5,J6|pos|0.269192,-1.267658,1.296275,-0.001715,-1.366869,-0.000083|vel|0.000000,-0.000000,0.000000,0.000000,0.000000,0.000000|eff|0.000000,0.000000,0.000000,0.000000,0.000000,0.000000
cobot_dynamixel_driver/joint_states|name|J1,J2,J3,J4,J5,J6|pos|0.269192,-1.267658,1.296275,-0.001715,-1.366869,-0.000083|vel|0.000000,-0.000000,0.000000,0.000000,0.000000,0.000000|eff|0.000000,0.000000,0.000000,0.000000,0.000000,0.000000
cobot_dynamixel_driver/joint_states|name|J1,J2,J3,J4,J5,J6|pos|0.269192,-1.267658,1.296275,-0.001715,-1.366869,-0.000083|vel|0.000000,-0.000000,0.000000,0.000000,0.000000,0.000000|eff|0.000000,0.000000,0.000000,0.000000,0.000000,0.000000
cobot_dynamixel_driver/joint_states|name|J1,J2,J3,J4,J5,J6|pos|0.269192,-1.267658,1.296275,-0.001715,-1.366869,-0.000083|vel|0.000000,-0.000000,0.000000,0.000000,0.000000,0.000000|eff|0.000000,0.000000,0.000000,0.000000,0.000000,0.000000
cobot_dynamixel_driver/joint_states|name|J1,J2,J3,J4,J5,J6|pos|0.269192,-1.267658,1.296275,-0.001715,-1.366869,-0.000083|vel|0.000000,-0.000000,0.000000,0.000000,0.000000,0.000000|eff|0.000000,0.000000,0.000000,0.000000,0.000000,0.000000
cobot_dynamixel_driver/joint_states|name|J1,J2,J3,J4,J5,J6|pos|0.269192,-1.267658,1.296275,-0.001715,-1.366869,-0.000083|vel|0.000000,-0.000000,0.000000,0.000000,0.000000,0.000000|eff|0.000000,0.000000,0.000000,0.000000,0.000000,0.000000
cobot_dynamixel_driver/joint_states|name|J1,J2,J3,J4,J5,J6|pos|0.269192,-1.267658,1.296275,-0.001715,-1.366869,-0.000083|vel|0.000000,-0.000000,0.000000,0.000000,0.000000,0.000000|eff|0.000000,0.000000,0.000000,0.000000,0.000000,0.000000
cobot_dynamixel_driver/joint_states|name|J1,J2,J3,J4,J5,J6|pos|0.269192,-1.267658,1.296275,-0.001715,-1.366869,-0.000083|vel|0.000000,-0.000000,0.000000,0.000000,0.000000,0.000000|eff|0.000000,0.000000,0.000000,0.000000,0.000000,0.000000
cobot_dynamixel_driver/joint_states|name|J1,J2,J3,J4,J5,J6|pos|0.269192,-1.267658,1.296275,-0.001715,-1.366869,-0.000083|vel|0.000000,-0.000000,0.000000,0.000000,0.000000,0.000000|eff|0.000000,0.000000,0.000000,0.000000,0.000000,0.000000
cobot_dynamixel_driver/joint_states|name|J1,J2,J3,J4,J5,J6|pos|0.269192,-1.267658,1.296275,-0.001715,-1.366869,-0.000083|vel|0.000000,-0.000000,0.000000,0.000000,0.000000,0.000000|eff|0.000000,0.000000,0.000000,0.000000,0.000000,0.000000
cobot_dynamixel_driver/joint_states|name|J1,J2,J3,J4,J5,J6|pos|0.269192,-1.267658,1.296275,-0.001715,-1.366869,-0.000083|vel|0.000000,-0.000000,0.000000,0.000000,0.000000,0.000000|eff|0.000000,0.000000,0.000000,0.000000,0.000000,0.000000
cobot_dynamixel_driver/joint_states|name|J1,J2,J3,J4,J5,J6|pos|0.269192,-1.267658,1.296275,-0.001715,-1.366869,-0.000083|vel|0.000000,-0.000000,0.000000,0.000000,0.000000,0.000000|eff|0.000000,0.000000,0.000000,0.000000,0.000000,0.000000
cobot_dynamixel_driver/joint_states|name|J1,J2,J3,J4,J5,J6|pos|0.269192,-1.267658,1.296275,-0.001715,-1.366869,-0.000083|vel|0.000000,-0.000000,0.000000,0.000000,0.000000,0.000000|eff|0.000000,0.000000,0.000000,0.000000,0.000000,0.000000
cobot_dynamixel_driver/joint_states|name|J1,J2,J3,J4,J5,J6|pos|0.269192,-1.267658,1.296275,-0.001715,-1.366869,-0.000083|vel|0.000000,-0.000000,0.000000,0.000000,0.000000,0.000000|eff|0.000000,0.000000,0.000000,0.000000,0.000000,0.000000
cobot_dynamixel_driver/joint_states|name|J1,J2,J3,J4,J5,J6|pos|0.269192,-1.267658,1.296275,-0.001715,-1.366869,-0.000083|vel|0.000000,-0.000000,0.000000,0.000000,0.000000,0.000000|eff|0.000000,0.000000,0.000000,0.000000,0.000000,0.000000
cobot_dynamixel_driver/joint_states|name|J1,J2,J3,J4,J5,J6|pos|0.269192,-1.267658,1.296275,-0.001715,-1.366869,-0.000083|vel|0.000000,-0.000000,0.000000,0.000000,0.000000,0.000000|eff|0.000000,0.000000,0.000000,0.000000,0.000000,0.000000
cobot_dynamixel_driver/joint_states|name|J1,J2,J3,J4,J5,J6|pos|0.269192,-1.267658,1.296275,-0.001715,-1.366869,-0.000083|vel|0.000000,-0.000000,0.000000,0.000000,0.000000,0.000000|eff|0.000000,0.000000,0.000000,0.000000,0.000000,0.000000
cobot_dynamixel_driver/joint_states|name|J1,J2,J3,J4,J5,J6|pos|0.269192,-1.267658,1.296275,-0.001715,-1.366869,-0.000083|vel|0.000000,-0.000000,0.000000,0.000000,0.000000,0.000000|eff|0.000000,0.000000,0.000000,0.000000,0.000000,0.000000
cobot_dynamixel_driver/joint_states|name|J1,J2,J3,J4,J5,J6|pos|0.269192,-1.267658,1.296275,-0.001715,-1.366869,-0.000083|vel|0.000000,-0.000000,0.000000,0.000000,0.000000,0.000000|eff|0.000000,0.000000,0.000000,0.000000,0.000000,0.000000
cobot_dynamixel_driver/joint_states|name|J1,J2,J3,J4,J5,J6|pos|0.269192,-1.267658,1.296275,-0.001715,-1.366869,-0.000083|vel|0.000000,-0.000000,0.000000,0.000000,0.000000,0.000000|eff|0.000000,0.000000,0.000000,0.000000,0.000000,0.000000
cobot_dynamixel_driver/joint_states|name|J1,J2,J3,J4,J5,J6|pos|0.269192,-1.267658,1.296275,-0.001715,-1.366869,-0.000083|vel|0.000000,-0.000000,0.000000,0.000000,0.000000,0.000000|eff|0.000000,0.000000,0.000000,0.000000,0.000000,0.000000
cobot_dynamixel_driver/joint_states|name|J1,J2,J3,J4,J5,J6|pos|0.269192,-1.267658,1.296275,-0.001715,-1.366869,-0.000083|vel|0.000000,-0.000000,0.000000,0.000000,0.000000,0.000000|eff|0.000000,0.000000,0.000000,0.000000,0.000000,0.000000
cobot_dynamixel_driver/joint_states|name|J1,J2,J3,J4,J5,J6|pos|0.269192,-1.267658,1.296275,-0.001715,-1.366869,-0.000083|vel|0.000000,-0.000000,0.000000,0.000000,0.000000,0.000000|eff|0.000000,0.000000,0.000000,0.000000,0.000000,0.000000
cobot_dynamixel_driver/joint_states|name|J1,J2,J3,J4,J5,J6|pos|0.269192,-1.267658,1.296275,-0.001715,-1.366869,-0.000083|vel|0.000000,-0.000000,0.000000,0.000000,0.000000,0.000000|eff|0.000000,0.000000,0.000000,0.000000,0.000000,0.000000
cobot_dynamixel_driver/joint_states|name|J1,J2,J3,J4,J5,J6|pos|0.269192,-1.267658,1.296275,-0.001715,-1.366869,-0.000083|vel|0.000000,-0.000000,0.000000,0.000000,0.000000,0.000000|eff|0.000000,0.000000,0.000000,0.000000,0.000000,0.000000
cobot_dynamixel_driver/joint_states|name|J1,J2,J3,J4,J5,J6|pos|0.269192,-1.267658,1.296275,-0.001715,-1.366869,-0.000083|vel|0.000000,-0.000000,0.000000,0.000000,0.000000,0.000000|eff|0.000000,0.000000,0.000000,0.000000,0.000000,0.000000
cobot_dynamixel_driver/joint_states|name|J1,J2,J3,J4,J5,J6|pos|0.269192,-1.267658,1.296275,-0.001715,-1.366869,-0.000083|vel|0.000000,-0.000000,0.000000,0.000000,0.000000,0.000000|eff|0.000000,0.000000,0.000000,0.000000,0.000000,0.000000
cobot_dynamixel_driver/joint_states|name|J1,J2,J3,J4,J5,J6|pos|0.269192,-1.267658,1.296275,-0.001715,-1.366869,-0.000083|vel|0.000000,-0.000000,0.000000,0.000000,0.000000,0.000000|eff|0.000000,0.000000,0.000000,0.000000,0.000000,0.000000
cobot_dynamixel_driver/joint_states|name|J1,J2,J3,J4,J5,J6|pos|0.269192,-1.267658,1.296275,-0.001715,-1.366869,-0.000083|vel|0.000000,-0.000000,0.000000,0.000000,0.000000,0.000000|eff|0.000000,0.000000,0.000000,0.000000,0.000000,0.000000
cobot_dynamixel_driver/joint_states|name|J1,J2,J3,J4,J5,J6|pos|0.269192,-1.267658,1.296275,-0.001715,-1.366869,-0.000083|vel|0.000000,-0.000000,0.000000,0.000000,0.000000,0.000000|eff|0.000000,0.000000,0.000000,0.000000,0.000000,0.000000
cobot_dynamixel_driver/joint_states|name|J1,J2,J3,J4,J5,J6|pos|0.269192,-1.267658,1.296275,-0.001715,-1.366869,-0.000083|vel|0.000000,-0.000000,0.000000,0.000000,0.000000,0.000000|eff|0.000000,0.000000,0.000000,0.000000,0.000000,0.000000
cobot_dynamixel_driver/joint_states|name|J1,J2,J3,J4,J5,J6|pos|0.269192,-1.267658,1.296275,-0.001715,-1.366869,-0.000083|vel|0.000000,-0.000000,0.000000,0.000000,0.000000,0.000000|eff|0.000000,0.000000,0.000000,0.000000,0.000000,0.000000
cobot_dynamixel_driver/joint_states|name|J1,J2,J3,J4,J5,J6|pos|0.269192,-1.267658,1.296275,-0.001715,-1.366869,-0.000083|vel|0.000000,-0.000000,0.000000,0.000000,0.000000,0.000000|eff|0.000000,0.000000,0.000000,0.000000,0.000000,0.000000
cobot_dynamixel_driver/joint_states|name|J1,J2,J3,J4,J5,J6|pos|0.269192,-1.267658,1.296275,-0.001715,-1.366869,-0.000083|vel|0.000000,-0.000000,0.000000,0.000000,0.000000,0.000000|eff|0.000000,0.000000,0.000000,0.000000,0.000000,0.000000
cobot_dynamixel_driver/joint_states|name|J1,J2,J3,J4,J5,J6|pos|0.269192,-1.267658,1.296275,-0.001715,-1.366869,-0.000083|vel|0.000000,-0.000000,0.000000,0.000000,0.000000,0.000000|eff|0.000000,0.000000,0.000000,0.000000,0.000000,0.000000
cobot_dynamixel_driver/joint_states|name|J1,J2,J3,J4,J5,J6|pos|0.269192,-1.267658,1.296275,-0.001715,-1.366869,-0.000083|vel|0.000000,-0.000000,0.000000,0.000000,0.000000,0.000000|eff|0.000000,0.000000,0.000000,0.000000,0.000000,0.000000
cobot_dynamixel_driver/joint_states|name|J1,J2,J3,J4,J5,J6|pos|0.269192,-1.267658,1.296275,-0.001715,-1.366869,-0.000083|vel|0.000000,-0.000000,0.000000,0.000000,0.000000,0.000000|eff|0.000000,0.000000,0.000000,0.000000,0.000000,0.000000
cobot_dynamixel_driver/joint_states|name|J1,J2,J3,J4,J5,J6|pos|0.269192,-1.267658,1.296275,-0.001715,-1.366869,-0.000083|vel|0.000000,-0.000000,0.000000,0.000000,0.000000,0.000000|eff|0.000000,0.000000,0.000000,0.000000,0.000000,0.000000
cobot_dynamixel_driver/joint_states|name|J1,J2,J3,J4,J5,J6|pos|0.269192,-1.267658,1.296275,-0.001715,-1.366869,-0.000083|vel|0.000000,-0.000000,0.000000,0.000000,0.000000,0.000000|eff|0.000000,0.000000,0.000000,0.000000,0.000000,0.000000
cobot_dynamixel_driver/goal|-:J1,J2,J3,J4,J5,J6:0.000000,0.000000,0.000000,0.000000,0.000000,0.000000:0.700000,0.700000,0.700000,0.700000,0.700000,0.700000:pos_vel_
cobot_dynamixel_driver/joint_states|name|J1,J2,J3,J4,J5,J6|pos|0.269192,-1.267658,1.296275,-0.001715,-1.366869,-0.000083|vel|0.000000,-0.000000,0.000000,0.000000,0.000000,0.000000|eff|0.000000,0.000000,0.000000,0.000000,0.000000,0.000000
cobot_dynamixel_driver/joint_states|name|J1,J2,J3,J4,J5,J6|pos|0.269179,-1.267658,1.296262,-0.001702,-1.366807,-0.000083|vel|0.000000,-0.000000,0.000000,0.000000,0.012754,0.000000|eff|-225.585938,-257.812500,-225.585938,112.792969,84.594727,0.000000
cobot_dynamixel_driver/joint_states|name|J1,J2,J3,J4,J5,J6|pos|0.268779,-1.267207,1.295899,-0.001527,-1.365628,-0.000083|vel|-0.043607,0.042981,-0.044233,0.008555,0.117543,0.000000|eff|-725.097656,-580.078125,-580.078125,48.339844,132.934570,0.000000
cobot_dynamixel_driver/joint_states|name|J1,J2,J3,J4,J5,J6|pos|0.267302,-1.265743,1.294547,-0.001427,-1.362691,-0.000083|vel|-0.111626,0.108496,-0.098690,0.005633,0.175797,0.000000|eff|-1079.589844,-1111.816406,-1047.363281,112.792969,116.821289,0.000000
cobot_dynamixel_driver/joint_states|name|J1,J2,J3,J4,J5,J6|pos|0.264397,-1.263101,1.292106,-0.001302,-1.358202,-0.000083|vel|-0.192998,0.161493,-0.132908,0.006051,0.299889,0.000000|eff|-1321.289062,-1675.781250,-1788.574219,128.906250,92.651367,0.000000
cobot_dynamixel_driver/joint_states|name|J1,J2,J3,J4,J5,J6|pos|0.259979,-1.259183,1.287975,-0.001202,-1.352514,-0.000083|vel|-0.271449,0.242030,-0.283134,0.004590,0.332635,0.000000|eff|-757.324219,-2062.500000,-1498.535156,145.019531,76.538086,0.000000
cobot_dynamixel_driver/joint_states|name|J1,J2,J3,J4,J5,J6|pos|0.254107,-1.253788,1.281966,-0.001089,-1.345915,-0.000083|vel|-0.336547,0.295652,-0.348649,0.004799,0.371586,0.000000|eff|-1369.628906,-2642.578125,-1482.421875,128.906250,84.594727,0.000000
cobot_dynamixel_driver/joint_states|name|J1,J2,J3,J4,J5,J6|pos|0.247172,-1.247153,1.274593,-0.000976,-1.338468,-0.000083|vel|-0.374312,0.360541,-0.420214,0.005425,0.420878,0.000000|eff|-773.437500,-1579.101562,-1643.554688,128.906250,68.481445,0.000000
cobot_dynamixel_driver/joint_states|name|J1,J2,J3,J4,J5,J6|pos|0.239298,-1.239342,1.266406,-0.000889,-1.330215,-0.000083|vel|-0.426265,0.429186,-0.427726,0.004382,0.450178,0.000000|eff|-2014.160156,-2400.878906,-1514.648438,193.359375,40.283203,0.000000
cobot_dynamixel_driver/joint_states|name|J1,J2,J3,J4,J5,J6|pos|0.230636,-1.230742,1.257543,-0.000776,-1.321341,-0.000083|vel|-0.477592,0.457562,-0.468412,0.005425,0.496712,0.000000|eff|-547.851562,-1820.800781,-870.117188,145.019531,60.424805,0.000000
cobot_dynamixel_driver/joint_states|name|J1,J2,J3,J4,J5,J6|pos|0.221347,-1.221366,1.248117,-0.000689,-1.311846,-0.000083|vel|-0.531632,0.468829,-0.519947,0.003964,0.493955,0.000000|eff|-612.304688,-2062.500000,-982.910156,128.906250,56.396484,0.000000
cobot_dynamixel_driver/joint_states|name|J1,J2,J3,J4,J5,J6|pos|0.211495,-1.211401,1.238228,-0.000626,-1.301938,-0.000083|vel|-0.528502,0.544568,-0.499917,0.003130,0.517394,0.000000|eff|-1482.421875,-1611.328125,-1917.480469,177.246094,20.141602,0.000000
cobot_dynamixel_driver/joint_states|name|J1,J2,J3,J4,J5,J6|pos|0.201068,-1.200811,1.227750,-0.000563,-1.291575,-0.000083|vel|-0.557087,0.555626,-0.542690,0.003756,0.564963,0.000000|eff|-1450.195312,-2384.765625,-1659.667969,225.585938,48.339844,0.000000
cobot_dynamixel_driver/joint_states|name|J1,J2,J3,J4,J5,J6|pos|0.190290,-1.189920,1.216934,-0.000488,-1.280860,-0.000083|vel|-0.580455,0.584419,-0.578786,0.003756,0.501193,0.000000|eff|-1466.308594,-1369.628906,-789.550781,161.132812,72.509766,8.056641
cobot_dynamixel_driver/joint_states|name|J1,J2,J3,J4,J5,J6|pos|0.179111,-1.178553,1.205793,-0.000426,-1.269690,-0.000083|vel|-0.654316,0.573570,-0.523494,0.003338,0.609429,0.000000|eff|-1579.101562,-1514.648438,-1562.988281,193.359375,32.226562,8.056641
cobot_dynamixel_driver/joint_states|name|J1,J2,J3,J4,J5,J6|pos|0.167832,-1.166886,1.194502,-0.000413,-1.258333,-0.000083|vel|-0.621767,0.602154,-0.609457,0.001461,0.594262,0.000000|eff|-1095.703125,-870.117188,-1853.027344,209.472656,52.368164,0.000000
cobot_dynamixel_driver/joint_states|name|J1,J2,J3,J4,J5,J6|pos|0.156127,-1.155094,1.182760,-0.000388,-1.246853,-0.000083|vel|-0.564598,0.633243,-0.621350,0.000835,0.573580,0.000000|eff|-2159.179688,-1546.875000,-1353.515625,145.019531,52.368164,12.084961
cobot_dynamixel_driver/joint_states|name|J1,J2,J3,J4,J5,J6|pos|0.144035,-1.143014,1.170880,-0.000351,-1.234979,-0.000083|vel|-0.649100,0.636164,-0.629487,0.001878,0.627698,0.000000|eff|-177.246094,-950.683594,-1079.589844,145.019531,48.339844,8.056641
cobot_dynamixel_driver/joint_states|name|J1,J2,J3,J4,J5,J6|pos|0.131742,-1.130721,1.158699,-0.000325,-1.222879,-0.000083|vel|-0.655776,0.618011,-0.654316,0.001252,0.609774,0.000000|eff|-451.171875,-3657.714844,-950.683594,193.359375,36.254883,12.084961
cobot_dynamixel_driver/joint_states|name|J1,J2,J3,J4,J5,J6|pos|0.119461,-1.118316,1.146319,-0.000275,-1.210591,-0.000083|vel|-0.635746,0.651812,-0.678310,0.002086,0.546004,0.000000|eff|-3254.882812,-2948.730469,-1917.480469,193.359375,0.000000,12.084961
cobot_dynamixel_driver/joint_states|name|J1,J2,J3,J4,J5,J6|pos|0.107093,-1.105697,1.133813,-0.000250,-1.198263,-0.000083|vel|-0.667252,0.640545,-0.696671,0.001461,0.622183,0.000000|eff|-2497.558594,-3673.828125,-1869.140625,209.472656,64.453125,12.084961
cobot_dynamixel_driver/joint_states|name|J1,J2,J3,J4,J5,J6|pos|0.094575,-1.093016,1.121257,-0.000225,-1.185769,-0.000083|vel|-0.664748,0.670799,-0.629696,0.001043,0.555311,0.000000|eff|-2223.632812,-1562.988281,-1627.441406,193.359375,44.311523,12.084961
cobot_dynamixel_driver/joint_states|name|J1,J2,J3,J4,J5,J6|pos|0.082407,-1.080148,1.108702,-0.000200,-1.173172,-0.000083|vel|-0.602363,0.637416,-0.595269,0.001043,0.706290,0.000000|eff|0.000000,-515.625000,-1611.328125,177.246094,20.141602,12.084961
cobot_dynamixel_driver/joint_states|name|J1,J2,J3,J4,J5,J6|pos|0.071404,-1.067229,1.095820,-0.000188,-1.160471,-0.000083|vel|-0.500543,0.666000,-0.666000,0.000835,0.644933,0.000000|eff|-2014.160156,-2513.671875,-725.097656,193.359375,64.453125,12.084961
cobot_dynamixel_driver/joint_states|name|J1,J2,J3,J4,J5,J6|pos|0.061677,-1.054260,1.082889,-0.000163,-1.147584,-0.000083|vel|-0.473002,0.803707,-0.685613,0.001043,0.653895,0.000000|eff|386.718750,-499.511719,-2046.386719,145.019531,44.311523,16.113281
cobot_dynamixel_driver/joint_states|name|J1,J2,J3,J4,J5,J6|pos|0.053353,-1.041141,1.069858,-0.000138,-1.134655,-0.000062|vel|-0.402688,0.704808,-0.689577,0.001043,0.648035,0.000000|eff|209.472656,-2707.031250,-708.984375,161.132812,44.311523,20.141602
cobot_dynamixel_driver/joint_states|name|J1,J2,J3,J4,J5,J6|pos|0.046393,-1.028022,1.056713,-0.000113,-1.121748,-0.000021|vel|-0.331540,0.691664,-0.722961,0.001043,0.676990,0.000000|eff|-837.890625,-644.531250,-1917.480469,177.246094,60.424805,12.084961
cobot_dynamixel_driver/joint_states|name|J1,J2,J3,J4,J5,J6|pos|0.040371,-1.014865,1.043695,-0.000088,-1.108778,0.000000|vel|-0.297739,0.670590,-0.665374,0.001252,0.587024,0.000000|eff|-386.718750,-2529.785156,-902.343750,177.246094,12.084961,12.084961
cobot_dynamixel_driver/joint_states|name|J1,J2,J3,J4,J5,J6|pos|0.035013,-1.001658,1.030525,-0.000038,-1.095705,0.000021|vel|-0.246203,0.676432,-0.609248,0.002295,0.698706,0.001034|eff|-322.265625,-1530.761719,-1788.574219,193.359375,-16.113281,20.141602
cobot_dynamixel_driver/joint_states|name|J1,J2,J3,J4,J5,J6|pos|0.030369,-0.988502,1.017281,-0.000025,-1.082714,0.000021|vel|-0.222417,0.681231,-0.693959,0.002295,0.670096,0.001034|eff|-112.792969,-563.964844,-1562.988281,112.792969,80.566406,0.000000
cobot_dynamixel_driver/joint_states|name|J1,J2,J3,J4,J5,J6|pos|0.026413,-0.975282,1.003824,-0.000025,-1.069207,0.000021|vel|-0.191120,0.668504,-0.642006,0.002295,0.668373,0.001034|eff|-354.492188,-3673.828125,-1063.476562,112.792969,0.000000,12.084961
cobot_dynamixel_driver/joint_states|name|J1,J2,J3,J4,J5,J6|pos|0.023021,-0.961775,0.990592,-0.000025,-1.056175,0.000021|vel|-0.163788,0.675807,-0.594434,0.002295,0.660789,0.001034|eff|-241.699219,-3270.996094,-741.210938,128.906250,28.198242,12.084961
cobot_dynamixel_driver/joint_states|name|J1,J2,J3,J4,J5,J6|pos|0.020079,-0.948293,0.977110,-0.000025,-1.042998,0.000021|vel|-0.133951,0.717744,-0.686239,0.002295,0.679403,0.001034|eff|-322.265625,-2207.519531,-628.417969,96.679688,48.339844,0.000000
cobot_dynamixel_driver/joint_states|name|J1,J2,J3,J4,J5,J6|pos|0.017500,-0.935049,0.963578,-0.000025,-1.029553,0.000021|vel|-0.118720,0.690412,-0.708981,0.002295,0.733521,0.001034|eff|-209.472656,-1127.929688,-773.437500,96.679688,84.594727,0.000000
cobot_dynamixel_driver/joint_states|name|J1,J2,J3,J4,J5,J6|pos|0.015260,-0.921604,0.950108,-0.000025,-1.016066,0.000021|vel|-0.110583,0.670382,-0.716493,0.000000,0.730074,0.000000|eff|-257.812500,-370.605469,-1079.589844,96.679688,-28.198242,12.084961
cobot_dynamixel_driver/joint_states|name|J1,J2,J3,J4,J5,J6|pos|0.013257,-0.908210,0.936814,-0.000025,-1.003117,0.000021|vel|-0.099107,0.673094,-0.730889,0.000000,0.662857,0.000000|eff|-128.906250,-370.605469,-2239.746094,96.679688,92.651367,0.000000
cobot_dynamixel_driver/joint_states|name|J1,J2,J3,J4,J5,J6|pos|0.011517,-0.894790,0.923520,-0.000025,-0.989609,0.000021|vel|-0.076991,0.741530,-0.660784,0.000000,0.741449,0.000000|eff|-145.019531,-1965.820312,-1353.515625,96.679688,12.084961,8.056641
cobot_dynamixel_driver/joint_states|name|J1,J2,J3,J4,J5,J6|pos|0.010040,-0.881308,0.910037,-0.000025,-0.976185,0.000021|vel|-0.070940,0.703765,-0.685196,0.000000,0.677680,0.000000|eff|-209.472656,-2787.597656,-773.437500,96.679688,28.198242,0.000000
cobot_dynamixel_driver/joint_states|name|J1,J2,J3,J4,J5,J6|pos|0.008850,-0.867876,0.896493,-0.000025,-0.963070,0.000021|vel|-0.055709,0.707938,-0.736523,0.000000,0.671820,0.000000|eff|-322.265625,-3464.355469,-870.117188,96.679688,72.509766,12.084961
cobot_dynamixel_driver/joint_states|name|J1,J2,J3,J4,J5,J6|pos|0.007711,-0.854394,0.882961,-0.000025,-0.949583,0.000021|vel|-0.059047,0.728177,-0.722126,0.000000,0.777642,0.000000|eff|-161.132812,-2707.031250,-773.437500,96.679688,24.169922,0.000000
cobot_dynamixel_driver/joint_states|name|J1,J2,J3,J4,J5,J6|pos|0.006647,-0.840862,0.869416,-0.000025,-0.936096,0.000021|vel|-0.050492,0.725882,-0.683735,0.000000,0.688021,0.000000|eff|-145.019531,-2481.445312,-982.910156,96.679688,16.113281,16.113281
cobot_dynamixel_driver/joint_states|name|J1,J2,J3,J4,J5,J6|pos|0.005783,-0.827229,0.855871,-0.000025,-0.922589,0.000021|vel|-0.040060,0.710859,-0.723587,0.000000,0.733521,0.000000|eff|-161.132812,-2594.238281,-789.550781,96.679688,28.198242,0.000000
cobot_dynamixel_driver/joint_states|name|J1,J2,J3,J4,J5,J6|pos|0.005095,-0.813685,0.842351,-0.000025,-0.909454,0.000021|vel|-0.032549,0.657446,-0.584837,0.000000,0.592194,0.000000|eff|-273.925781,-3061.523438,-821.777344,96.679688,64.453125,0.000000
cobot_dynamixel_driver/joint_states|name|J1,J2,J3,J4,J5,J6|pos|0.004469,-0.800115,0.828769,-0.000025,-0.895987,0.000021|vel|-0.029628,0.721917,-0.749667,0.000000,0.653895,0.000000|eff|-209.472656,-2562.011719,-515.625000,96.679688,48.339844,12.084961
cobot_dynamixel_driver/joint_states|name|J1,J2,J3,J4,J5,J6|pos|0.003881,-0.786570,0.815224,-0.000025,-0.882790,0.000021|vel|-0.028167,0.724421,-0.729220,0.000000,0.625630,0.000000|eff|-241.699219,-2755.371094,-596.191406,96.679688,76.538086,12.084961
cobot_dynamixel_driver/joint_states|name|J1,J2,J3,J4,J5,J6|pos|0.003380,-0.773050,0.801943,-0.000025,-0.869345,0.000021|vel|-0.024203,0.719414,-0.697923,0.000000,0.796946,0.000000|eff|-161.132812,-2110.839844,-1305.175781,96.679688,40.283203,0.000000
cobot_dynamixel_driver/joint_states|name|J1,J2,J3,J4,J5,J6|pos|0.002942,-0.759443,0.788523,-0.000025,-0.855816,0.000021|vel|-0.020030,0.678102,-0.679354,0.000000,0.662168,0.000000|eff|-177.246094,-2707.031250,-1579.101562,112.792969,64.453125,0.000000
cobot_dynamixel_driver/joint_states|name|J1,J2,J3,J4,J5,J6|pos|0.002529,-0.745949,0.774841,-0.000025,-0.842371,0.000021|vel|-0.018361,0.691664,-0.687491,0.000000,0.647346,0.000000|eff|-161.132812,-2062.500000,-1095.703125,112.792969,68.481445,16.113281
cobot_dynamixel_driver/joint_states|name|J1,J2,J3,J4,J5,J6|pos|0.002216,-0.732466,0.761271,-0.000025,-0.828884,0.000021|vel|-0.014814,0.721083,-0.718579,0.000000,0.683539,0.000000|eff|-241.699219,-1562.988281,-1127.929688,112.792969,8.056641,0.000000
cobot_dynamixel_driver/joint_states|name|J1,J2,J3,J4,J5,J6|pos|0.001915,-0.718922,0.747676,-0.000025,-0.815376,0.000021|vel|-0.015857,0.684778,-0.700010,0.000000,0.696638,0.000000|eff|-161.132812,-1401.855469,-966.796875,96.679688,52.368164,0.000000
cobot_dynamixel_driver/joint_states|name|J1,J2,J3,J4,J5,J6|pos|0.001627,-0.705302,0.734319,-0.000025,-0.801972,0.000021|vel|-0.011893,0.711694,-0.692707,0.000000,0.735934,0.000000|eff|-145.019531,-1691.894531,-1965.820312,96.679688,68.481445,0.000000
cobot_dynamixel_driver/joint_states|name|J1,J2,J3,J4,J5,J6|pos|0.001402,-0.691695,0.720799,-0.000025,-0.788465,0.000021|vel|-0.011267,0.710025,-0.701679,0.000000,0.606671,0.000000|eff|-161.132812,-1869.140625,-2062.500000,96.679688,20.141602,12.084961
cobot_dynamixel_driver/joint_states|name|J1,J2,J3,J4,J5,J6|pos|0.001239,-0.678025,0.707330,-0.000025,-0.774999,0.000021|vel|-0.006677,0.715032,-0.733810,0.000000,0.767991,0.000000|eff|-225.585938,-2739.257812,-2207.519531,112.792969,76.538086,0.000000
cobot_dynamixel_driver/joint_states|name|J1,J2,J3,J4,J5,J6|pos|0.001077,-0.664593,0.693685,-0.000025,-0.761429,0.000021|vel|-0.008972,0.687073,-0.678519,0.000000,0.743862,0.000000|eff|-209.472656,-2014.160156,-2207.519531,96.679688,48.339844,0.000000
cobot_dynamixel_driver/joint_states|name|J1,J2,J3,J4,J5,J6|pos|0.000951,-0.651035,0.680090,-0.000025,-0.747963,0.000021|vel|-0.005008,0.669338,-0.723169,0.000000,0.732487,0.000000|eff|-161.132812,-2110.839844,-1546.875000,96.679688,-24.169922,16.113281
cobot_dynamixel_driver/joint_states|name|J1,J2,J3,J4,J5,J6|pos|0.000826,-0.637441,0.666758,-0.000025,-0.734703,0.000021|vel|-0.006677,0.649934,-0.701053,0.000000,0.673888,0.000000|eff|-112.792969,-1708.007812,-1562.988281,96.679688,48.339844,0.000000
cobot_dynamixel_driver/joint_states|name|J1,J2,J3,J4,J5,J6|pos|0.000689,-0.623833,0.653276,-0.000025,-0.721175,0.000021|vel|-0.006468,0.722543,-0.703139,0.000000,0.720422,0.000000|eff|-145.019531,-2416.992188,-1434.082031,96.679688,0.000000,8.056641
cobot_dynamixel_driver/joint_states|name|J1,J2,J3,J4,J5,J6|pos|0.000613,-0.610314,0.639631,-0.000025,-0.707688,0.000021|vel|-0.002921,0.731724,-0.688743,0.000000,0.729384,0.000000|eff|-96.679688,-1804.687500,-1272.949219,112.792969,68.481445,8.056641
cobot_dynamixel_driver/joint_states|name|J1,J2,J3,J4,J5,J6|pos|0.000538,-0.596719,0.626074,-0.000025,-0.694222,0.000021|vel|-0.003964,0.695837,-0.709399,0.000000,0.630111,0.000000|eff|-209.472656,-2449.218750,-1724.121094,96.679688,44.311523,0.000000
cobot_dynamixel_driver/joint_states|name|J1,J2,J3,J4,J5,J6|pos|0.000463,-0.583124,0.612567,-0.000025,-0.680735,0.000021|vel|-0.003964,0.704808,-0.691455,0.000000,0.711460,0.000000|eff|-193.359375,-2304.199219,-1256.835938,96.679688,72.509766,12.084961
cobot_dynamixel_driver/joint_states|name|J1,J2,J3,J4,J5,J6|pos|0.000413,-0.569529,0.598897,-0.000025,-0.667352,0.000021|vel|-0.003338,0.700635,-0.624479,0.000000,0.680092,0.000000|eff|-209.472656,-2835.937500,-1836.914062,96.679688,76.538086,0.000000
cobot_dynamixel_driver/joint_states|name|J1,J2,J3,J4,J5,J6|pos|0.000351,-0.555947,0.585252,-0.000025,-0.653741,0.000021|vel|-0.003130,0.689577,-0.657446,0.000000,0.584611,0.000000|eff|-80.566406,-2513.671875,-1772.460938,96.679688,52.368164,0.000000
cobot_dynamixel_driver/joint_states|name|J1,J2,J3,J4,J5,J6|pos|0.000288,-0.542427,0.571595,-0.000025,-0.640233,0.000021|vel|-0.003130,0.695002,-0.730472,0.000000,0.707324,0.000000|eff|-112.792969,-2529.785156,-1256.835938,96.679688,32.226562,12.084961
cobot_dynamixel_driver/joint_states|name|J1,J2,J3,J4,J5,J6|pos|0.000250,-0.528933,0.558050,-0.000025,-0.626912,0.000021|vel|-0.002712,0.727551,-0.751754,0.000000,0.706634,0.000000|eff|-112.792969,-2046.386719,-1176.269531,96.679688,0.000000,0.000000
cobot_dynamixel_driver/joint_states|name|J1,J2,J3,J4,J5,J6|pos|0.000213,-0.515238,0.543867,-0.000025,-0.612804,0.000021|vel|-0.001461,0.654733,-0.696463,0.000000,0.691123,0.000000|eff|-112.792969,273.925781,-725.097656,64.453125,28.198242,12.084961
cobot_dynamixel_driver/joint_states|name|J1,J2,J3,J4,J5,J6|pos|0.000175,-0.501630,0.530823,-0.000025,-0.600083,0.000021|vel|-0.001669,0.718162,-0.743199,0.000000,0.651482,0.000000|eff|-112.792969,-1965.820312,-1450.195312,112.792969,16.113281,8.056641
cobot_dynamixel_driver/joint_states|name|J1,J2,J3,J4,J5,J6|pos|0.000138,-0.488336,0.517165,-0.000025,-0.586782,0.000021|vel|-0.002086,0.674763,-0.725464,0.000000,0.600122,0.000000|eff|-161.132812,-1530.761719,-1321.289062,96.679688,52.368164,12.084961
cobot_dynamixel_driver/joint_states|name|J1,J2,J3,J4,J5,J6|pos|0.000113,-0.474816,0.503646,-0.000025,-0.573213,0.000021|vel|-0.001461,0.701470,-0.703974,0.000000,0.698017,0.000000|eff|-112.792969,-1256.835938,-1498.535156,96.679688,0.000000,0.000000
cobot_dynamixel_driver/joint_states|name|J1,J2,J3,J4,J5,J6|pos|0.000088,-0.461171,0.490376,-0.000025,-0.559664,0.000021|vel|-0.001461,0.658072,-0.720457,0.000000,0.748688,0.000000|eff|-128.906250,-1224.609375,-2030.273438,96.679688,0.000000,0.000000
cobot_dynamixel_driver/joint_states|name|J1,J2,J3,J4,J5,J6|pos|0.000063,-0.447564,0.476656,-0.000025,-0.546322,0.000021|vel|-0.001043,0.720457,-0.640963,0.000000,0.732487,0.000000|eff|-112.792969,-1659.667969,-1176.269531,96.679688,84.594727,12.084961
cobot_dynamixel_driver/joint_states|name|J1,J2,J3,J4,J5,J6|pos|0.000050,-0.434019,0.462936,-0.000025,-0.532814,0.000021|vel|-0.001043,0.668921,-0.706060,0.000000,0.676645,0.000000|eff|-145.019531,-1756.347656,-1305.175781,96.679688,24.169922,8.056641
cobot_dynamixel_driver/joint_states|name|J1,J2,J3,J4,J5,J6|pos|0.000038,-0.420500,0.449179,-0.000025,-0.519286,0.000021|vel|-0.001043,0.678310,-0.654107,0.000000,0.712839,0.000000|eff|-145.019531,-1256.835938,-370.605469,96.679688,20.141602,0.000000
cobot_dynamixel_driver/joint_states|name|J1,J2,J3,J4,J5,J6|pos|0.000025,-0.406980,0.435559,-0.000025,-0.505737,0.000021|vel|-0.000417,0.662870,-0.713154,0.000000,0.679058,0.000000|eff|-145.019531,-1144.042969,-499.511719,112.792969,60.424805,16.113281
cobot_dynamixel_driver/joint_states|name|J1,J2,J3,J4,J5,J6|pos|0.000025,-0.393310,0.422277,-0.000025,-0.492271,0.000021|vel|-0.000417,0.740070,-0.702722,0.000000,0.662857,0.000000|eff|-145.019531,-1643.554688,-1836.914062,96.679688,52.368164,0.000000
cobot_dynamixel_driver/joint_states|name|J1,J2,J3,J4,J5,J6|pos|0.000013,-0.379590,0.408720,-0.000025,-0.478805,0.000021|vel|-0.000417,0.717744,-0.681857,0.000000,0.822453,0.000000|eff|-145.019531,-2964.843750,-1562.988281,96.679688,52.368164,0.000000
cobot_dynamixel_driver/joint_states|name|J1,J2,J3,J4,J5,J6|pos|0.000013,-0.366008,0.395100,-0.000025,-0.465566,0.000021|vel|-0.000209,0.667669,-0.631782,0.000000,0.732487,0.000000|eff|-96.679688,-612.304688,-789.550781,96.679688,20.141602,8.056641
cobot_dynamixel_driver/joint_states|name|J1,J2,J3,J4,J5,J6|pos|0.000000,-0.352576,0.381480,-0.000025,-0.452513,0.000021|vel|-0.000209,0.678936,-0.709399,0.000000,0.671820,0.000000|eff|-145.019531,-1949.707031,-837.890625,96.679688,108.764648,12.084961
cobot_dynamixel_driver/joint_states|name|J1,J2,J3,J4,J5,J6|pos|0.000000,-0.339219,0.368161,-0.000025,-0.439068,0.000021|vel|0.000626,0.731724,-0.717327,0.000000,0.785915,0.000000|eff|-80.566406,-563.964844,-2352.539062,96.679688,88.623047,0.000000
cobot_dynamixel_driver/joint_states|name|J1,J2,J3,J4,J5,J6|pos|0.000000,-0.325624,0.354654,-0.000025,-0.425747,0.000021|vel|-0.000626,0.732141,-0.702722,0.000000,0.719388,0.000000|eff|-161.132812,-854.003906,-2191.406250,96.679688,84.594727,12.084961
cobot_dynamixel_driver/joint_states|name|J1,J2,J3,J4,J5,J6|pos|-0.000013,-0.312017,0.340971,-0.000025,-0.412156,0.000021|vel|-0.000626,0.695002,-0.578160,0.000000,0.590126,0.000000|eff|-80.566406,-1015.136719,-1869.140625,96.679688,72.509766,8.056641
cobot_dynamixel_driver/joint_states|name|J1,J2,J3,J4,J5,J6|pos|-0.000013,-0.298472,0.327314,-0.000025,-0.398566,0.000021|vel|-0.000209,0.713780,-0.727551,0.000000,0.835207,0.000000|eff|-80.566406,-886.230469,-1546.875000,112.792969,108.764648,0.000000
cobot_dynamixel_driver/joint_states|name|J1,J2,J3,J4,J5,J6|pos|-0.000013,-0.284840,0.313607,-0.000025,-0.384996,0.000021|vel|-0.000209,0.730472,-0.696463,0.000000,0.723525,0.000000|eff|-161.132812,-1466.308594,-628.417969,112.792969,64.453125,0.000000
cobot_dynamixel_driver/joint_states|name|J1,J2,J3,J4,J5,J6|pos|-0.000013,-0.271295,0.300087,-0.000025,-0.371468,0.000021|vel|-0.000209,0.672885,-0.713363,0.000000,0.608395,0.000000|eff|-177.246094,-1192.382812,-1127.929688,96.679688,0.000000,0.000000
cobot_dynamixel_driver/joint_states|name|J1,J2,J3,J4,J5,J6|pos|-0.000013,-0.257688,0.286505,-0.000025,-0.358085,0.000021|vel|-0.000209,0.701470,-0.709190,0.000000,0.692157,0.000000|eff|-177.246094,-1530.761719,-547.851562,96.679688,88.623047,0.000000
cobot_dynamixel_driver/joint_states|name|J1,J2,J3,J4,J5,J6|pos|-0.000025,-0.244055,0.272935,-0.000025,-0.344536,0.000021|vel|-0.000209,0.699175,-0.635538,0.000000,0.749377,0.000000|eff|0.000000,-2207.519531,-483.398438,80.566406,12.084961,0.000000
cobot_dynamixel_driver/joint_states|name|J1,J2,J3,J4,J5,J6|pos|-0.000025,-0.230435,0.259378,-0.000025,-0.331049,0.000021|vel|-0.000209,0.700218,-0.629070,0.000000,0.582887,0.000000|eff|0.000000,-3254.882812,-821.777344,112.792969,108.764648,0.000000
cobot_dynamixel_driver/joint_states|name|J1,J2,J3,J4,J5,J6|pos|-0.000025,-0.216878,0.245883,-0.000025,-0.317541,0.000021|vel|0.000000,0.706269,-0.744451,0.000000,0.688710,0.000000|eff|-193.359375,-2400.878906,-966.796875,96.679688,28.198242,0.000000
cobot_dynamixel_driver/joint_states|name|J1,J2,J3,J4,J5,J6|pos|-0.000025,-0.203271,0.232363,-0.000025,-0.304117,0.000021|vel|0.000000,0.619472,-0.731307,0.000000,0.676301,0.000000|eff|-80.566406,-934.570312,-934.570312,96.679688,64.453125,0.000000
cobot_dynamixel_driver/joint_states|name|J1,J2,J3,J4,J5,J6|pos|-0.000025,-0.189689,0.218956,-0.000025,-0.290609,0.000021|vel|0.000000,0.718788,-0.687073,0.000000,0.683539,0.000000|eff|-112.792969,-1885.253906,-1804.687500,96.679688,76.538086,12.084961
cobot_dynamixel_driver/joint_states|name|J1,J2,J3,J4,J5,J6|pos|-0.000038,-0.176282,0.205299,-0.000025,-0.277163,0.000021|vel|0.000000,0.703974,-0.624897,0.000000,0.666994,0.000000|eff|-145.019531,-1788.574219,-1691.894531,96.679688,36.254883,0.000000
cobot_dynamixel_driver/joint_states|name|J1,J2,J3,J4,J5,J6|pos|-0.000038,-0.162687,0.191616,-0.000025,-0.263904,0.000021|vel|0.000000,0.687073,-0.693750,0.000000,0.668028,0.000000|eff|-80.566406,-1998.046875,-821.777344,96.679688,96.679688,0.000000
cobot_dynamixel_driver/joint_states|name|J1,J2,J3,J4,J5,J6|pos|-0.000038,-0.149067,0.178072,-0.000025,-0.250355,0.000021|vel|0.000000,0.677476,-0.719831,0.000000,0.708358,0.000000|eff|-145.019531,-1240.722656,-1015.136719,96.679688,8.056641,12.084961
cobot_dynamixel_driver/joint_states|name|J1,J2,J3,J4,J5,J6|pos|-0.000038,-0.135472,0.164439,-0.000025,-0.236951,0.000021|vel|0.000000,0.707104,-0.690412,0.000000,0.679748,0.000000|eff|-177.246094,-2384.765625,-402.832031,96.679688,64.453125,0.000000
cobot_dynamixel_driver/joint_states|name|J1,J2,J3,J4,J5,J6|pos|-0.000038,-0.121852,0.150920,-0.000025,-0.223423,0.000021|vel|0.000000,0.709816,-0.684152,0.000000,0.623906,0.000000|eff|0.000000,-1256.835938,-612.304688,96.679688,64.453125,0.000000
cobot_dynamixel_driver/joint_states|name|J1,J2,J3,J4,J5,J6|pos|-0.000038,-0.108270,0.137463,-0.000025,-0.209957,0.000021|vel|0.000000,0.688534,-0.729220,0.000000,0.682505,0.000000|eff|-112.792969,-1804.687500,-1756.347656,96.679688,48.339844,0.000000
cobot_dynamixel_driver/joint_states|name|J1,J2,J3,J4,J5,J6|pos|-0.000038,-0.094938,0.124031,-0.000025,-0.196387,0.000021|vel|0.000209,0.665374,-0.703557,0.000000,0.728350,0.000000|eff|-80.566406,-870.117188,-2271.972656,96.679688,16.113281,0.000000
cobot_dynamixel_driver/joint_states|name|J1,J2,J3,J4,J5,J6|pos|-0.000038,-0.082445,0.110423,-0.000025,-0.182962,0.000021|vel|-0.000626,0.596938,-0.705434,0.000000,0.603914,0.000000|eff|0.000000,-386.718750,-1562.988281,96.679688,24.169922,0.000000
cobot_dynamixel_driver/joint_states|name|J1,J2,J3,J4,J5,J6|pos|-0.000038,-0.071366,0.097179,-0.000025,-0.169475,0.000021|vel|0.000626,0.518278,-0.700427,0.000000,0.698362,0.000000|eff|-145.019531,1111.816406,-1337.402344,96.679688,40.283203,0.000000
cobot_dynamixel_driver/joint_states|name|J1,J2,J3,J4,J5,J6|pos|-0.000038,-0.061765,0.084711,-0.000025,-0.156382,0.000021|vel|0.000626,0.476758,-0.628861,0.000000,0.711460,0.000000|eff|-177.246094,418.945312,-725.097656,96.679688,44.311523,0.000000
cobot_dynamixel_driver/joint_states|name|J1,J2,J3,J4,J5,J6|pos|-0.000038,-0.053591,0.073507,-0.000025,-0.143122,0.000021|vel|0.000626,0.345519,-0.476758,0.000000,0.687676,0.000000|eff|-32.226562,725.097656,-209.472656,96.679688,92.651367,0.000000
cobot_dynamixel_driver/joint_states|name|J1,J2,J3,J4,J5,J6|pos|-0.000038,-0.046605,0.063906,-0.000025,-0.129428,0.000021|vel|-0.000209,0.338008,-0.456519,0.000000,0.792809,0.000000|eff|-145.019531,741.210938,-515.625000,96.679688,64.453125,0.000000
cobot_dynamixel_driver/joint_states|name|J1,J2,J3,J4,J5,J6|pos|-0.000038,-0.040622,0.055769,-0.000025,-0.115921,0.000021|vel|-0.000209,0.288141,-0.393090,0.000000,0.581853,0.000000|eff|-177.246094,-64.453125,-435.058594,48.339844,116.821289,0.000000
cobot_dynamixel_driver/joint_states|name|J1,J2,J3,J4,J5,J6|pos|-0.000038,-0.035427,0.048758,-0.000025,-0.102413,0.000021|vel|-0.000209,0.242030,-0.324446,0.000000,0.688365,0.000000|eff|-145.019531,0.000000,-999.023438,96.679688,56.396484,0.000000
cobot_dynamixel_driver/joint_states|name|J1,J2,J3,J4,J5,J6|pos|-0.000038,-0.030907,0.042637,-0.000025,-0.089464,0.000021|vel|-0.000209,0.220748,-0.294400,0.000000,0.561860,0.000000|eff|-96.679688,596.191406,-854.003906,64.453125,16.113281,16.113281
cobot_dynamixel_driver/joint_states|name|J1,J2,J3,J4,J5,J6|pos|-0.000038,-0.026952,0.037304,-0.000025,-0.077922,0.000021|vel|0.000209,0.195919,-0.217618,0.000000,0.529459,0.000000|eff|0.000000,193.359375,-837.890625,80.566406,-24.169922,0.000000
cobot_dynamixel_driver/joint_states|name|J1,J2,J3,J4,J5,J6|pos|-0.000038,-0.023547,0.032710,-0.000025,-0.068117,0.000021|vel|0.000209,0.153564,-0.216993,0.000000,0.466379,0.000000|eff|-161.132812,386.718750,-741.210938,96.679688,16.113281,0.000000
cobot_dynamixel_driver/joint_states|name|J1,J2,J3,J4,J5,J6|pos|-0.000038,-0.020643,0.028579,-0.000025,-0.059595,0.000021|vel|0.000000,0.138541,-0.206143,0.000000,0.356419,0.000000|eff|0.000000,257.812500,-708.984375,112.792969,8.056641,0.000000
cobot_dynamixel_driver/joint_states|name|J1,J2,J3,J4,J5,J6|pos|-0.000038,-0.018126,0.024949,-0.000025,-0.052169,0.000021|vel|0.000000,0.112461,-0.175680,0.000000,0.318158,0.000000|eff|-112.792969,177.246094,-757.324219,96.679688,0.000000,0.000000
cobot_dynamixel_driver/joint_states|name|J1,J2,J3,J4,J5,J6|pos|-0.000038,-0.015923,0.021832,-0.000025,-0.045735,0.000021|vel|0.000000,0.109539,-0.150643,0.000000,0.328843,0.000000|eff|-112.792969,177.246094,-773.437500,96.679688,24.169922,0.000000
cobot_dynamixel_driver/joint_states|name|J1,J2,J3,J4,J5,J6|pos|-0.000038,-0.013945,0.019203,-0.000025,-0.040109,0.000021|vel|0.000000,0.100568,-0.131030,0.000000,0.287480,0.000000|eff|-161.132812,241.699219,-805.664062,96.679688,48.339844,8.056641
cobot_dynamixel_driver/joint_states|name|J1,J2,J3,J4,J5,J6|pos|-0.000038,-0.012155,0.016837,-0.000025,-0.035062,0.000021|vel|0.000000,0.085128,-0.115382,0.000000,0.239911,0.000000|eff|-80.566406,241.699219,-837.890625,112.792969,28.198242,0.000000
cobot_dynamixel_driver/joint_states|name|J1,J2,J3,J4,J5,J6|pos|-0.000038,-0.010640,0.014759,-0.000025,-0.030676,0.000021|vel|0.000000,0.069479,-0.102863,0.000000,0.206130,0.000000|eff|-161.132812,193.359375,-773.437500,112.792969,32.226562,0.000000
cobot_dynamixel_driver/joint_states|name|J1,J2,J3,J4,J5,J6|pos|-0.000038,-0.009389,0.012944,-0.000025,-0.026891,0.000021|vel|0.000000,0.055500,-0.088049,0.000000,0.190619,0.000000|eff|-177.246094,128.906250,-837.890625,112.792969,52.368164,0.000000
cobot_dynamixel_driver/joint_states|name|J1,J2,J3,J4,J5,J6|pos|-0.000038,-0.008262,0.011279,-0.000025,-0.023581,0.000021|vel|0.000000,0.054665,-0.083459,0.000000,0.182691,0.000000|eff|0.000000,177.246094,-805.664062,96.679688,60.424805,0.000000
cobot_dynamixel_driver/joint_states|name|J1,J2,J3,J4,J5,J6|pos|-0.000038,-0.007236,0.009877,-0.000025,-0.020665,0.000021|vel|0.000000,0.052579,-0.068645,0.000000,0.121334,0.000000|eff|-177.246094,193.359375,-837.890625,80.566406,64.453125,0.000000
cobot_dynamixel_driver/joint_states|name|J1,J2,J3,J4,J5,J6|pos|-0.000038,-0.006309,0.008700,-0.000025,-0.018120,0.000021|vel|0.000000,0.045902,-0.046528,0.000000,0.112027,0.000000|eff|-161.132812,193.359375,-902.343750,96.679688,56.396484,0.000000
cobot_dynamixel_driver/joint_states|name|J1,J2,J3,J4,J5,J6|pos|-0.000038,-0.005483,0.007749,-0.000025,-0.015866,0.000021|vel|0.000000,0.036930,-0.047571,0.000000,0.106857,0.000000|eff|0.000000,177.246094,-934.570312,96.679688,64.453125,0.000000
cobot_dynamixel_driver/joint_states|name|J1,J2,J3,J4,J5,J6|pos|-0.000038,-0.004794,0.006797,-0.000025,-0.013859,0.000021|vel|0.000000,0.033592,-0.047571,0.000000,0.091345,0.000000|eff|-145.019531,177.246094,-886.230469,112.792969,52.368164,0.000000
cobot_dynamixel_driver/joint_states|name|J1,J2,J3,J4,J5,J6|pos|-0.000038,-0.004219,0.005921,-0.000025,-0.012122,0.000021|vel|0.000000,0.027333,-0.049032,0.000000,0.082728,0.000000|eff|-32.226562,193.359375,-870.117188,96.679688,64.453125,0.000000
cobot_dynamixel_driver/joint_states|name|J1,J2,J3,J4,J5,J6|pos|-0.000038,-0.003705,0.005170,-0.000025,-0.010612,0.000021|vel|0.000000,0.024203,-0.035053,0.000000,0.073766,0.000000|eff|0.000000,225.585938,-934.570312,96.679688,64.453125,8.056641
cobot_dynamixel_driver/joint_states|name|J1,J2,J3,J4,J5,J6|pos|-0.000038,-0.003280,0.004507,-0.000025,-0.009288,0.000021|vel|0.000000,0.021908,-0.029002,0.000000,0.061701,0.000000|eff|-161.132812,209.472656,-902.343750,32.226562,52.368164,16.113281
cobot_dynamixel_driver/joint_states|name|J1,J2,J3,J4,J5,J6|pos|-0.000038,-0.002867,0.003918,-0.000025,-0.008150,0.000021|vel|0.000000,0.021073,-0.033175,0.000000,0.059633,0.000000|eff|0.000000,225.585938,-870.117188,96.679688,72.509766,16.113281
cobot_dynamixel_driver/joint_states|name|J1,J2,J3,J4,J5,J6|pos|-0.000038,-0.002504,0.003443,-0.000025,-0.007157,0.000021|vel|0.000000,0.014397,-0.018987,0.000000,0.047913,0.000000|eff|-32.226562,177.246094,-902.343750,96.679688,76.538086,0.000000
cobot_dynamixel_driver/joint_states|name|J1,J2,J3,J4,J5,J6|pos|-0.000038,-0.002216,0.003042,-0.000025,-0.006268,0.000021|vel|0.000000,0.015023,-0.026707,0.000000,0.043432,0.000000|eff|0.000000,161.132812,-870.117188,96.679688,76.538086,0.000000
cobot_dynamixel_driver/joint_states|name|J1,J2,J3,J4,J5,J6|pos|-0.000038,-0.001953,0.002604,-0.000025,-0.005482,0.000021|vel|0.000000,0.015023,-0.015857,0.000000,0.037917,0.000000|eff|-112.792969,193.359375,-886.230469,96.679688,72.509766,0.000000
cobot_dynamixel_driver/joint_states|name|J1,J2,J3,J4,J5,J6|pos|-0.000038,-0.001652,0.002366,-0.000025,-0.004840,0.000021|vel|0.000000,0.015023,-0.009598,0.000000,0.027231,0.000000|eff|0.000000,209.472656,-934.570312,96.679688,84.594727,0.000000
cobot_dynamixel_driver/joint_states|name|J1,J2,J3,J4,J5,J6|pos|-0.000038,-0.001427,0.002091,-0.000025,-0.004241,0.000021|vel|0.000000,0.010432,-0.017318,0.000000,0.028610,0.000000|eff|-145.019531,161.132812,-918.457031,80.566406,72.509766,12.084961
cobot_dynamixel_driver/joint_states|name|J1,J2,J3,J4,J5,J6|pos|-0.000038,-0.001239,0.001753,-0.000025,-0.003744,0.000021|vel|0.000000,0.009389,-0.013979,0.000000,0.025163,0.000000|eff|-112.792969,145.019531,-886.230469,112.792969,84.594727,16.113281
cobot_dynamixel_driver/joint_states|name|J1,J2,J3,J4,J5,J6|pos|-0.000038,-0.001089,0.001627,-0.000025,-0.003310,0.000021|vel|0.000000,0.006468,-0.005008,0.000000,0.017924,0.000000|eff|0.000000,273.925781,-934.570312,96.679688,84.594727,0.000000
cobot_dynamixel_driver/joint_states|name|J1,J2,J3,J4,J5,J6|pos|-0.000038,-0.001001,0.001540,-0.000025,-0.002855,0.000021|vel|0.000000,0.004382,-0.003964,0.000000,0.028955,0.000000|eff|0.000000,128.906250,-1031.250000,96.679688,80.566406,0.000000
cobot_dynamixel_driver/joint_states|name|J1,J2,J3,J4,J5,J6|pos|-0.000038,-0.000851,0.001377,-0.000025,-0.002482,0.000021|vel|0.000000,0.008346,-0.008972,0.000000,0.014822,0.000000|eff|-161.132812,273.925781,-950.683594,96.679688,72.509766,0.000000
cobot_dynamixel_driver/joint_states|name|J1,J2,J3,J4,J5,J6|pos|-0.000038,-0.000701,0.001164,-0.000025,-0.002234,0.000021|vel|0.000000,0.006259,-0.012519,0.000000,0.013788,0.000000|eff|0.000000,290.039062,-886.230469,96.679688,84.594727,0.000000
cobot_dynamixel_driver/joint_states|name|J1,J2,J3,J4,J5,J6|pos|-0.000038,-0.000613,0.000839,-0.000025,-0.001944,0.000021|vel|0.000000,0.004173,-0.016274,0.000000,0.013099,0.000000|eff|-80.566406,225.585938,-789.550781,96.679688,72.509766,0.000000
cobot_dynamixel_driver/joint_states|name|J1,J2,J3,J4,J5,J6|pos|-0.000038,-0.000538,0.000626,-0.000025,-0.001696,0.000021|vel|0.000000,0.003547,-0.007720,0.000000,0.010341,0.000000|eff|-80.566406,225.585938,-837.890625,112.792969,84.594727,0.000000
cobot_dynamixel_driver/joint_states|name|J1,J2,J3,J4,J5,J6|pos|-0.000038,-0.000476,0.000576,-0.000025,-0.001510,0.000021|vel|0.000000,0.003130,-0.005008,0.000000,0.011375,0.000000|eff|0.000000,177.246094,-854.003906,96.679688,92.651367,0.000000
cobot_dynamixel_driver/joint_states|name|J1,J2,J3,J4,J5,J6|pos|-0.000038,-0.000413,0.000576,-0.000025,-0.001303,0.000021|vel|0.000000,0.003130,-0.005008,0.000000,0.009996,0.000000|eff|-145.019531,209.472656,-854.003906,112.792969,84.594727,12.084961
cobot_dynamixel_driver/joint_states|name|J1,J2,J3,J4,J5,J6|pos|-0.000038,-0.000351,0.000576,-0.000025,-0.001117,0.000021|vel|0.000000,0.003130,-0.005008,0.000000,0.008617,0.000000|eff|0.000000,177.246094,-821.777344,96.679688,80.566406,0.000000
cobot_dynamixel_driver/joint_states|name|J1,J2,J3,J4,J5,J6|pos|-0.000038,-0.000288,0.000576,-0.000025,-0.001014,0.000021|vel|0.000000,0.003130,-0.005008,0.000000,0.004481,0.000000|eff|-80.566406,225.585938,-854.003906,112.792969,92.651367,16.113281
cobot_dynamixel_driver/joint_states|name|J1,J2,J3,J4,J5,J6|pos|-0.000038,-0.000213,0.000576,-0.000025,-0.000910,0.000021|vel|0.000000,0.004173,-0.005008,0.000000,0.006894,0.000000|eff|-80.566406,209.472656,-789.550781,32.226562,96.679688,0.000000
cobot_dynamixel_driver/joint_states|name|J1,J2,J3,J4,J5,J6|pos|-0.000038,-0.000150,0.000576,-0.000025,-0.000765,0.000021|vel|0.000000,0.002504,-0.005008,0.000000,0.006549,0.000000|eff|0.000000,241.699219,-854.003906,96.679688,84.594727,0.000000
cobot_dynamixel_driver/joint_states|name|J1,J2,J3,J4,J5,J6|pos|-0.000038,-0.000150,0.000576,-0.000025,-0.000662,0.000021|vel|0.000000,0.002504,0.000000,0.000000,0.005860,0.000000|eff|-32.226562,273.925781,-870.117188,96.679688,80.566406,0.000000
cobot_dynamixel_driver/joint_states|name|J1,J2,J3,J4,J5,J6|pos|-0.000038,-0.000138,0.000576,-0.000025,-0.000641,0.000021|vel|0.000000,0.002504,0.000000,0.000000,0.003447,0.000000|eff|-80.566406,225.585938,-886.230469,96.679688,84.594727,0.000000
cobot_dynamixel_driver/joint_states|name|J1,J2,J3,J4,J5,J6|pos|-0.000038,-0.000138,0.000563,-0.000025,-0.000641,0.000021|vel|0.000000,0.002504,0.000000,0.000000,0.003447,0.000000|eff|-32.226562,386.718750,-886.230469,96.679688,76.538086,0.000000
cobot_dynamixel_driver/joint_states|name|J1,J2,J3,J4,J5,J6|pos|-0.000038,-0.000138,0.000538,-0.000025,-0.000621,0.000021|vel|0.000000,0.002504,-0.001252,0.000000,0.000689,0.000000|eff|-161.132812,193.359375,-918.457031,96.679688,88.623047,0.000000
cobot_dynamixel_driver/joint_states|name|J1,J2,J3,J4,J5,J6|pos|-0.000038,-0.000138,0.000488,-0.000025,-0.000538,0.000021|vel|0.000000,0.002504,-0.001669,0.000000,0.002758,0.000000|eff|0.000000,338.378906,-886.230469,32.226562,88.623047,0.000000
cobot_dynamixel_driver/joint_states|name|J1,J2,J3,J4,J5,J6|pos|-0.000038,-0.000138,0.000413,-0.000025,-0.000393,0.000021|vel|0.000000,0.002504,-0.005425,0.000000,0.006894,0.000000|eff|-145.019531,273.925781,-918.457031,96.679688,76.538086,0.000000
cobot_dynamixel_driver/joint_states|name|J1,J2,J3,J4,J5,J6|pos|-0.000038,-0.000138,0.000313,-0.000025,-0.000393,0.000021|vel|0.000000,-0.000000,-0.004799,0.000000,0.006894,0.000000|eff|-32.226562,209.472656,-918.457031,96.679688,68.481445,0.000000
cobot_dynamixel_driver/joint_states|name|J1,J2,J3,J4,J5,J6|pos|-0.000038,-0.000138,0.000200,-0.000025,-0.000393,0.000021|vel|0.000000,-0.000000,-0.006885,0.000000,0.006894,0.000000|eff|0.000000,386.718750,-805.664062,112.792969,60.424805,16.113281
cobot_dynamixel_driver/joint_states|name|J1,J2,J3,J4,J5,J6|pos|-0.000038,-0.000138,0.000063,-0.000025,-0.000393,0.000021|vel|0.000000,-0.000000,-0.007303,0.000000,0.006894,0.000000|eff|0.000000,193.359375,-773.437500,96.679688,52.368164,0.000000
cobot_dynamixel_driver/joint_states|name|J1,J2,J3,J4,J5,J6|pos|-0.000038,-0.000138,-0.000025,-0.000025,-0.000393,0.000021|vel|0.000000,-0.000000,-0.003756,0.000000,0.006894,0.000000|eff|-145.019531,209.472656,-789.550781,96.679688,44.311523,0.000000
cobot_dynamixel_driver/joint_states|name|J1,J2,J3,J4,J5,J6|pos|-0.000038,-0.000138,-0.000075,-0.000025,-0.000393,0.000021|vel|0.000000,-0.000000,-0.002086,0.000000,0.006894,0.000000|eff|0.000000,322.265625,-805.664062,80.566406,40.283203,0.000000
cobot_dynamixel_driver/joint_states|name|J1,J2,J3,J4,J5,J6|pos|-0.000038,-0.000138,-0.000100,-0.000025,-0.000393,0.000021|vel|0.000000,-0.000000,-0.001878,0.000000,0.000000,0.000000|eff|-80.566406,225.585938,-757.324219,112.792969,28.198242,0.000000
cobot_dynamixel_driver/joint_states|name|J1,J2,J3,J4,J5,J6|pos|-0.000038,-0.000138,-0.000100,-0.000025,-0.000393,0.000021|vel|0.000000,-0.000000,-0.001878,0.000000,0.000000,0.000000|eff|-32.226562,193.359375,-757.324219,96.679688,44.311523,0.000000
cobot_dynamixel_driver/joint_states|name|J1,J2,J3,J4,J5,J6|pos|-0.000025,-0.000138,-0.000100,-0.000025,-0.000393,0.000021|vel|0.000000,-0.000000,-0.001878,0.000000,0.000000,0.000000|eff|0.000000,306.152344,-757.324219,96.679688,48.339844,0.000000
cobot_dynamixel_driver/joint_states|name|J1,J2,J3,J4,J5,J6|pos|-0.000025,-0.000125,-0.000100,-0.000025,-0.000393,0.000021|vel|0.000000,-0.000000,-0.001878,0.000000,0.000000,0.000000|eff|-145.019531,290.039062,-725.097656,96.679688,52.368164,0.000000
cobot_dynamixel_driver/joint_states|name|J1,J2,J3,J4,J5,J6|pos|-0.000025,-0.000113,-0.000100,-0.000025,-0.000393,0.000021|vel|0.000000,-0.000000,-0.001878,0.000000,0.000000,0.000000|eff|0.000000,193.359375,-708.984375,96.679688,56.396484,0.000000
cobot_dynamixel_driver/joint_states|name|J1,J2,J3,J4,J5,J6|pos|-0.000025,-0.000113,-0.000100,-0.000025,-0.000393,0.000021|vel|0.000000,-0.000000,-0.001878,0.000000,0.000000,0.000000|eff|-64.453125,193.359375,-708.984375,96.679688,64.453125,0.000000
cobot_dynamixel_driver/joint_states|name|J1,J2,J3,J4,J5,J6|pos|-0.000025,-0.000100,-0.000100,-0.000025,-0.000393,0.000021|vel|0.000000,-0.000000,0.000000,0.000000,0.000000,0.000000|eff|0.000000,209.472656,-741.210938,96.679688,68.481445,0.000000
cobot_dynamixel_driver/joint_states|name|J1,J2,J3,J4,J5,J6|pos|-0.000025,-0.000100,-0.000100,-0.000025,-0.000393,0.000021|vel|0.000000,-0.000000,0.000000,0.000000,0.000000,0.000000|eff|0.000000,225.585938,-725.097656,96.679688,76.538086,0.000000
cobot_dynamixel_driver/joint_states|name|J1,J2,J3,J4,J5,J6|pos|-0.000025,-0.000088,-0.000100,-0.000025,-0.000393,0.000021|vel|0.000000,0.000209,0.000000,0.000000,0.000000,0.000000|eff|-112.792969,225.585938,-676.757812,96.679688,80.566406,0.000000
cobot_dynamixel_driver/joint_states|name|J1,J2,J3,J4,J5,J6|pos|-0.000025,-0.000063,-0.000100,-0.000025,-0.000372,0.000021|vel|0.000000,0.000835,0.000000,0.000000,0.000000,0.000000|eff|0.000000,225.585938,-708.984375,96.679688,84.594727,0.000000
cobot_dynamixel_driver/joint_states|name|J1,J2,J3,J4,J5,J6|pos|-0.000025,-0.000050,-0.000100,-0.000025,-0.000290,0.000021|vel|0.000000,0.001043,0.000000,0.000000,0.003447,0.000000|eff|-80.566406,241.699219,-741.210938,96.679688,92.651367,0.000000
cobot_dynamixel_driver/joint_states|name|J1,J2,J3,J4,J5,J6|pos|-0.000025,-0.000013,-0.000100,-0.000025,-0.000248,0.000021|vel|0.000000,0.001252,0.000000,0.000000,0.003447,0.000000|eff|-32.226562,241.699219,-708.984375,96.679688,72.509766,0.000000
cobot_dynamixel_driver/joint_states|name|J1,J2,J3,J4,J5,J6|pos|-0.000025,0.000013,-0.000100,-0.000025,-0.000248,0.000021|vel|0.000000,0.001252,0.000000,0.000000,0.003447,0.000000|eff|0.000000,241.699219,-692.871094,112.792969,68.481445,0.000000
cobot_dynamixel_driver/joint_states|name|J1,J2,J3,J4,J5,J6|pos|-0.000025,0.000038,-0.000100,-0.000025,-0.000248,0.000021|vel|0.000000,0.001252,0.000000,0.000000,0.003447,0.000000|eff|-80.566406,241.699219,-741.210938,96.679688,68.481445,0.000000
cobot_dynamixel_driver/joint_states|name|J1,J2,J3,J4,J5,J6|pos|-0.000025,0.000050,-0.000100,-0.000025,-0.000248,0.000021|vel|0.000000,0.001252,0.000000,0.000000,0.003447,0.000000|eff|-32.226562,209.472656,-660.644531,112.792969,60.424805,0.000000
cobot_dynamixel_driver/joint_states|name|J1,J2,J3,J4,J5,J6|pos|-0.000025,0.000050,-0.000100,-0.000025,-0.000248,0.000021|vel|0.000000,0.001252,0.000000,0.000000,0.003447,0.000000|eff|0.000000,193.359375,-692.871094,96.679688,56.396484,16.113281
cobot_dynamixel_driver/joint_states|name|J1,J2,J3,J4,J5,J6|pos|-0.000025,0.000050,-0.000100,-0.000025,-0.000248,0.000021|vel|0.000000,0.001252,0.000000,0.000000,0.003447,0.000000|eff|-80.566406,386.718750,-660.644531,112.792969,60.424805,8.056641
cobot_dynamixel_driver/joint_states|name|J1,J2,J3,J4,J5,J6|pos|-0.000025,0.000050,-0.000100,-0.000025,-0.000248,0.000021|vel|0.000000,0.001252,0.000000,0.000000,0.000000,0.000000|eff|-112.792969,386.718750,-708.984375,96.679688,60.424805,0.000000
cobot_dynamixel_driver/joint_states|name|J1,J2,J3,J4,J5,J6|pos|-0.000025,0.000050,-0.000100,-0.000025,-0.000248,0.000021|vel|0.000000,0.001252,0.000000,0.000000,0.000000,0.000000|eff|-32.226562,338.378906,-660.644531,112.792969,68.481445,0.000000
cobot_dynamixel_driver/joint_states|name|J1,J2,J3,J4,J5,J6|pos|-0.000025,0.000050,-0.000100,-0.000025,-0.000248,0.000021|vel|0.000000,-0.000000,0.000000,0.000000,0.000000,0.000000|eff|0.000000,370.605469,-676.757812,96.679688,72.509766,0.000000
cobot_dynamixel_driver/joint_states|name|J1,J2,J3,J4,J5,J6|pos|-0.000025,0.000050,-0.000100,-0.000025,-0.000248,0.000021|vel|0.000000,-0.000000,0.000000,0.000000,0.000000,0.000000|eff|0.000000,209.472656,-660.644531,96.679688,72.509766,0.000000
cobot_dynamixel_driver/joint_states|name|J1,J2,J3,J4,J5,J6|pos|-0.000025,0.000050,-0.000100,-0.000025,-0.000248,0.000021|vel|0.000000,-0.000000,0.000000,0.000000,0.000000,0.000000|eff|-128.906250,322.265625,-660.644531,96.679688,72.509766,0.000000
cobot_dynamixel_driver/joint_states|name|J1,J2,J3,J4,J5,J6|pos|-0.000025,0.000050,-0.000088,-0.000025,-0.000228,0.000021|vel|0.000000,-0.000000,0.000000,0.000000,0.000000,0.000000|eff|0.000000,322.265625,-660.644531,96.679688,76.538086,8.056641
cobot_dynamixel_driver/joint_states|name|J1,J2,J3,J4,J5,J6|pos|-0.000025,0.000050,-0.000088,-0.000025,-0.000228,0.000021|vel|0.000000,-0.000000,0.000000,0.000000,0.000000,0.000000|eff|0.000000,322.265625,-660.644531,96.679688,80.566406,0.000000
cobot_dynamixel_driver/joint_states|name|J1,J2,J3,J4,J5,J6|pos|-0.000025,0.000050,-0.000088,-0.000025,-0.000228,0.000021|vel|0.000000,-0.000000,0.000000,0.000000,0.000000,0.000000|eff|0.000000,225.585938,-644.531250,96.679688,80.566406,12.084961
cobot_dynamixel_driver/joint_states|name|J1,J2,J3,J4,J5,J6|pos|-0.000025,0.000050,-0.000088,-0.000025,-0.000186,0.000021|vel|0.000000,-0.000000,0.000000,0.000000,0.000000,0.000000|eff|-64.453125,193.359375,-660.644531,80.566406,84.594727,0.000000
cobot_dynamixel_driver/joint_states|name|J1,J2,J3,J4,J5,J6|pos|-0.000025,0.000050,-0.000088,-0.000025,-0.000145,0.000021|vel|0.000000,-0.000000,0.000000,0.000000,0.002068,0.000000|eff|0.000000,386.718750,-660.644531,112.792969,80.566406,0.000000
cobot_dynamixel_driver/joint_states|name|J1,J2,J3,J4,J5,J6|pos|-0.000025,0.000050,-0.000088,-0.000025,-0.000083,0.000021|vel|0.000000,-0.000000,0.000000,0.000000,0.002758,0.000000|eff|-80.566406,386.718750,-660.644531,112.792969,80.566406,0.000000
cobot_dynamixel_driver/joint_states|name|J1,J2,J3,J4,J5,J6|pos|-0.000025,0.000050,-0.000088,-0.000025,-0.000062,0.000021|vel|0.000000,-0.000000,0.000000,0.000000,0.002758,0.000000|eff|-145.019531,354.492188,-660.644531,96.679688,72.509766,8.056641
cobot_dynamixel_driver/joint_states|name|J1,J2,J3,J4,J5,J6|pos|-0.000025,0.000050,-0.000088,-0.000025,-0.000062,0.000021|vel|0.000000,-0.000000,0.000000,0.000000,0.002758,0.000000|eff|0.000000,370.605469,-660.644531,96.679688,68.481445,0.000000
cobot_dynamixel_driver/joint_states|name|J1,J2,J3,J4,J5,J6|pos|-0.000025,0.000050,-0.000088,-0.000025,-0.000062,0.000021|vel|0.000000,-0.000000,0.000000,0.000000,0.002758,0.000000|eff|0.000000,418.945312,-660.644531,112.792969,64.453125,8.056641
cobot_dynamixel_driver/joint_states|name|J1,J2,J3,J4,J5,J6|pos|-0.000025,0.000050,-0.000088,-0.000025,-0.000062,0.000021|vel|0.000000,-0.000000,0.000000,0.000000,0.002758,0.000000|eff|0.000000,386.718750,-660.644531,64.453125,56.396484,0.000000
cobot_dynamixel_driver/joint_states|name|J1,J2,J3,J4,J5,J6|pos|-0.000025,0.000050,-0.000088,-0.000025,-0.000062,0.000021|vel|0.000000,-0.000000,0.000000,0.000000,0.002758,0.000000|eff|-80.566406,273.925781,-612.304688,96.679688,56.396484,8.056641
cobot_dynamixel_driver/joint_states|name|J1,J2,J3,J4,J5,J6|pos|-0.000025,0.000050,-0.000088,-0.000025,-0.000062,0.000021|vel|0.000000,-0.000000,0.000000,0.000000,0.002758,0.000000|eff|-145.019531,193.359375,-660.644531,96.679688,48.339844,0.000000
cobot_dynamixel_driver/joint_states|name|J1,J2,J3,J4,J5,J6|pos|-0.000025,0.000050,-0.000088,-0.000025,-0.000062,0.000021|vel|0.000000,-0.000000,0.000000,0.000000,0.000000,0.000000|eff|0.000000,209.472656,-660.644531,96.679688,52.368164,0.000000
cobot_dynamixel_driver/joint_states|name|J1,J2,J3,J4,J5,J6|pos|-0.000025,0.000050,-0.000088,-0.000025,-0.000062,0.000021|vel|0.000000,-0.000000,0.000000,0.000000,0.000000,0.000000|eff|0.000000,386.718750,-660.644531,112.792969,52.368164,0.000000
cobot_dynamixel_driver/joint_states|name|J1,J2,J3,J4,J5,J6|pos|-0.000025,0.000050,-0.000088,-0.000025,-0.000062,0.000021|vel|0.000000,-0.000000,0.000000,0.000000,0.000000,0.000000|eff|-80.566406,386.718750,-612.304688,96.679688,56.396484,8.056641
cobot_dynamixel_driver/joint_states|name|J1,J2,J3,J4,J5,J6|pos|-0.000025,0.000050,-0.000075,-0.000025,-0.000062,0.000021|vel|0.000000,-0.000000,0.000000,0.000000,0.000000,0.000000|eff|-64.453125,338.378906,-644.531250,96.679688,56.396484,0.000000
cobot_dynamixel_driver/joint_states|name|J1,J2,J3,J4,J5,J6|pos|-0.000025,0.000050,-0.000075,-0.000025,-0.000062,0.000021|vel|0.000000,-0.000000,0.000000,0.000000,0.000000,0.000000|eff|0.000000,402.832031,-644.531250,96.679688,56.396484,0.000000
cobot_dynamixel_driver/joint_states|name|J1,J2,J3,J4,J5,J6|pos|-0.000025,0.000050,-0.000075,-0.000025,-0.000062,0.000021|vel|0.000000,-0.000000,0.000000,0.000000,0.000000,0.000000|eff|-80.566406,290.039062,-660.644531,112.792969,56.396484,0.000000
cobot_dynamixel_driver/joint_states|name|J1,J2,J3,J4,J5,J6|pos|-0.000025,0.000050,-0.000075,-0.000025,-0.000062,0.000021|vel|0.000000,-0.000000,0.000000,0.000000,0.000000,0.000000|eff|-64.453125,273.925781,-628.417969,96.679688,56.396484,8.056641
cobot_dynamixel_driver/joint_states|name|J1,J2,J3,J4,J5,J6|pos|-0.000025,0.000050,-0.000075,-0.000025,-0.000062,0.000021|vel|0.000000,-0.000000,0.000000,0.000000,0.000000,0.000000|eff|0.000000,370.605469,-644.531250,96.679688,56.396484,0.000000
cobot_dynamixel_driver/joint_states|name|J1,J2,J3,J4,J5,J6|pos|-0.000025,0.000050,-0.000075,-0.000025,-0.000062,0.000021|vel|0.000000,-0.000000,0.000000,0.000000,0.000000,0.000000|eff|0.000000,418.945312,-644.531250,96.679688,56.396484,12.084961
cobot_dynamixel_driver/joint_states|name|J1,J2,J3,J4,J5,J6|pos|-0.000025,0.000050,-0.000075,-0.000025,-0.000062,0.000021|vel|0.000000,-0.000000,0.000000,0.000000,0.000000,0.000000|eff|-80.566406,322.265625,-644.531250,96.679688,60.424805,12.084961
cobot_dynamixel_driver/joint_states|name|J1,J2,J3,J4,J5,J6|pos|-0.000025,0.000050,-0.000075,-0.000025,-0.000062,0.000021|vel|0.000000,-0.000000,0.000000,0.000000,0.000000,0.000000|eff|-64.453125,290.039062,-644.531250,96.679688,56.396484,0.000000
cobot_dynamixel_driver/joint_states|name|J1,J2,J3,J4,J5,J6|pos|-0.000025,0.000050,-0.000075,-0.000025,-0.000062,0.000021|vel|0.000000,-0.000000,0.000000,0.000000,0.000000,0.000000|eff|-32.226562,338.378906,-580.078125,96.679688,64.453125,16.113281
cobot_dynamixel_driver/joint_states|name|J1,J2,J3,J4,J5,J6|pos|-0.000025,0.000050,-0.000075,-0.000025,-0.000062,0.000021|vel|0.000000,-0.000000,0.000000,0.000000,0.000000,0.000000|eff|0.000000,338.378906,-563.964844,112.792969,56.396484,0.000000
cobot_dynamixel_driver/joint_states|name|J1,J2,J3,J4,J5,J6|pos|-0.000025,0.000050,-0.000075,-0.000025,-0.000062,0.000021|vel|0.000000,-0.000000,0.000000,0.000000,0.000000,0.000000|eff|-80.566406,386.718750,-580.078125,96.679688,64.453125,16.113281
cobot_dynamixel_driver/joint_states|name|J1,J2,J3,J4,J5,J6|pos|-0.000025,0.000050,-0.000075,-0.000025,-0.000062,0.000021|vel|0.000000,-0.000000,0.000000,0.000000,0.000000,0.000000|eff|-112.792969,225.585938,-596.191406,96.679688,68.481445,16.113281
cobot_dynamixel_driver/joint_states|name|J1,J2,J3,J4,J5,J6|pos|-0.000025,0.000050,-0.000075,-0.000025,-0.000062,0.000021|vel|0.000000,-0.000000,0.000000,0.000000,0.000000,0.000000|eff|-32.226562,386.718750,-644.531250,96.679688,60.424805,16.113281
cobot_dynamixel_driver/joint_states|name|J1,J2,J3,J4,J5,J6|pos|-0.000025,0.000050,-0.000075,-0.000025,-0.000062,0.000021|vel|0.000000,-0.000000,0.000000,0.000000,0.000000,0.000000|eff|0.000000,338.378906,-628.417969,96.679688,64.453125,0.000000
cobot_dynamixel_driver/joint_states|name|J1,J2,J3,J4,J5,J6|pos|-0.000025,0.000050,-0.000063,-0.000025,-0.000062,0.000021|vel|0.000000,-0.000000,0.000000,0.000000,0.000000,0.000000|eff|-64.453125,209.472656,-563.964844,96.679688,64.453125,0.000000
cobot_dynamixel_driver/joint_states|name|J1,J2,J3,J4,J5,J6|pos|-0.000025,0.000050,-0.000063,-0.000025,-0.000062,0.000021|vel|0.000000,-0.000000,0.000000,0.000000,0.000000,0.000000|eff|0.000000,338.378906,-563.964844,96.679688,64.453125,0.000000
cobot_dynamixel_driver/joint_states|name|J1,J2,J3,J4,J5,J6|pos|-0.000025,0.000050,-0.000063,-0.000025,-0.000062,0.000021|vel|0.000000,-0.000000,0.000000,0.000000,0.000000,0.000000|eff|0.000000,386.718750,-563.964844,96.679688,60.424805,0.000000
cobot_dynamixel_driver/joint_states|name|J1,J2,J3,J4,J5,J6|pos|-0.000025,0.000050,-0.000063,-0.000025,-0.000062,0.000021|vel|0.000000,-0.000000,0.000000,0.000000,0.000000,0.000000|eff|-64.453125,290.039062,-563.964844,96.679688,68.481445,0.000000
cobot_dynamixel_driver/joint_states|name|J1,J2,J3,J4,J5,J6|pos|-0.000025,0.000050,-0.000063,-0.000025,-0.000062,0.000021|vel|0.000000,-0.000000,0.000000,0.000000,0.000000,0.000000|eff|0.000000,225.585938,-563.964844,112.792969,68.481445,0.000000
cobot_dynamixel_driver/joint_states|name|J1,J2,J3,J4,J5,J6|pos|-0.000025,0.000050,-0.000063,-0.000025,-0.000062,0.000021|vel|0.000000,-0.000000,0.000000,0.000000,0.000000,0.000000|eff|0.000000,225.585938,-628.417969,112.792969,68.481445,8.056641
cobot_dynamixel_driver/joint_states|name|J1,J2,J3,J4,J5,J6|pos|-0.000025,0.000050,-0.000063,-0.000025,-0.000062,0.000021|vel|0.000000,-0.000000,0.000000,0.000000,0.000000,0.000000|eff|-80.566406,370.605469,-612.304688,96.679688,68.481445,0.000000
cobot_dynamixel_driver/joint_states|name|J1,J2,J3,J4,J5,J6|pos|-0.000025,0.000050,-0.000063,-0.000025,-0.000062,0.000021|vel|0.000000,-0.000000,0.000000,0.000000,0.000000,0.000000|eff|-32.226562,386.718750,-596.191406,96.679688,68.481445,16.113281
cobot_dynamixel_driver/joint_states|name|J1,J2,J3,J4,J5,J6|pos|-0.000025,0.000050,-0.000050,-0.000025,-0.000062,0.000021|vel|0.000000,-0.000000,0.000000,0.000000,0.000000,0.000000|eff|0.000000,370.605469,-547.851562,96.679688,68.481445,8.056641
cobot_dynamixel_driver/joint_states|name|J1,J2,J3,J4,J5,J6|pos|-0.000025,0.000050,-0.000050,-0.000025,-0.000062,0.000021|vel|0.000000,-0.000000,0.000000,0.000000,0.000000,0.000000|eff|-112.792969,338.378906,-596.191406,80.566406,68.481445,8.056641
cobot_dynamixel_driver/joint_states|name|J1,J2,J3,J4,J5,J6|pos|-0.000025,0.000050,-0.000050,-0.000025,-0.000062,0.000021|vel|0.000000,-0.000000,0.000000,0.000000,0.000000,0.000000|eff|-64.453125,338.378906,-563.964844,96.679688,76.538086,0.000000
cobot_dynamixel_driver/joint_states|name|J1,J2,J3,J4,J5,J6|pos|-0.000025,0.000050,-0.000050,-0.000025,-0.000062,0.000021|vel|0.000000,-0.000000,0.000000,0.000000,0.000000,0.000000|eff|0.000000,338.378906,-580.078125,96.679688,76.538086,8.056641
cobot_dynamixel_driver/joint_states|name|J1,J2,J3,J4,J5,J6|pos|-0.000025,0.000050,-0.000050,-0.000025,-0.000062,0.000021|vel|0.000000,-0.000000,0.000000,0.000000,0.000000,0.000000|eff|0.000000,257.812500,-547.851562,64.453125,76.538086,0.000000
cobot_dynamixel_driver/joint_states|name|J1,J2,J3,J4,J5,J6|pos|-0.000025,0.000050,-0.000050,-0.000025,-0.000062,0.000021|vel|0.000000,-0.000000,0.000000,0.000000,0.000000,0.000000|eff|-145.019531,290.039062,-547.851562,96.679688,72.509766,16.113281
cobot_dynamixel_driver/joint_states|name|J1,J2,J3,J4,J5,J6|pos|-0.000025,0.000050,-0.000050,-0.000025,-0.000062,0.000021|vel|0.000000,-0.000000,0.000000,0.000000,0.000000,0.000000|eff|0.000000,338.378906,-547.851562,64.453125,76.538086,0.000000
