surachairobotic/cobot/cobot_dynamixel_driver/log/2018-12-19T11:00:05.074074_driver_log.txt
cobot_dynamixel_driver/joint_states|name|J1,J2,J3,J4,J5,J6|pos|-0.000075,-1.268785,1.296250,0.002216,-1.080894,-0.000083|vel|0.000000,-0.000000,0.000000,0.000000,0.000000,0.000000|eff|0.000000,0.000000,0.000000,0.000000,0.000000,0.000000
cobot_dynamixel_driver/joint_states|name|J1,J2,J3,J4,J5,J6|pos|-0.000075,-1.268785,1.296250,0.002216,-1.080894,-0.000083|vel|0.000000,-0.000000,0.000000,0.000000,0.000000,0.000000|eff|0.000000,0.000000,0.000000,0.000000,0.000000,0.000000
cobot_dynamixel_driver/joint_states|name|J1,J2,J3,J4,J5,J6|pos|-0.000075,-1.268785,1.296250,0.002216,-1.080894,-0.000083|vel|0.000000,-0.000000,0.000000,0.000000,0.000000,0.000000|eff|0.000000,0.000000,0.000000,0.000000,0.000000,0.000000
cobot_dynamixel_driver/joint_states|name|J1,J2,J3,J4,J5,J6|pos|-0.000075,-1.268785,1.296250,0.002216,-1.080894,-0.000083|vel|0.000000,-0.000000,0.000000,0.000000,0.000000,0.000000|eff|0.000000,0.000000,-48.339844,0.000000,0.000000,0.000000
cobot_dynamixel_driver/joint_states|name|J1,J2,J3,J4,J5,J6|pos|-0.000075,-1.268785,1.296250,0.002216,-1.080894,-0.000083|vel|0.000000,-0.000000,0.000000,0.000000,0.000000,0.000000|eff|0.000000,0.000000,-48.339844,0.000000,0.000000,0.000000
cobot_dynamixel_driver/joint_states|name|J1,J2,J3,J4,J5,J6|pos|-0.000075,-1.268785,1.296250,0.002216,-1.080894,-0.000083|vel|0.000000,-0.000000,0.000000,0.000000,0.000000,0.000000|eff|0.000000,0.000000,0.000000,0.000000,0.000000,0.000000
cobot_dynamixel_driver/joint_states|name|J1,J2,J3,J4,J5,J6|pos|-0.000075,-1.268785,1.296250,0.002216,-1.080894,-0.000083|vel|0.000000,-0.000000,0.000000,0.000000,0.000000,0.000000|eff|0.000000,0.000000,0.000000,0.000000,0.000000,0.000000
cobot_dynamixel_driver/joint_states|name|J1,J2,J3,J4,J5,J6|pos|-0.000075,-1.268785,1.296250,0.002216,-1.080894,-0.000083|vel|0.000000,-0.000000,0.000000,0.000000,0.000000,0.000000|eff|0.000000,0.000000,0.000000,0.000000,0.000000,0.000000
cobot_dynamixel_driver/joint_states|name|J1,J2,J3,J4,J5,J6|pos|-0.000075,-1.268785,1.296250,0.002216,-1.080894,-0.000083|vel|0.000000,-0.000000,0.000000,0.000000,0.000000,0.000000|eff|0.000000,0.000000,0.000000,0.000000,0.000000,0.000000
cobot_dynamixel_driver/joint_states|name|J1,J2,J3,J4,J5,J6|pos|-0.000075,-1.268785,1.296250,0.002216,-1.080894,-0.000083|vel|0.000000,-0.000000,0.000000,0.000000,0.000000,0.000000|eff|0.000000,0.000000,0.000000,0.000000,0.000000,0.000000
cobot_dynamixel_driver/joint_states|name|J1,J2,J3,J4,J5,J6|pos|-0.000075,-1.268785,1.296250,0.002216,-1.080894,-0.000083|vel|0.000000,-0.000000,0.000000,0.000000,0.000000,0.000000|eff|0.000000,0.000000,-32.226562,0.000000,0.000000,0.000000
cobot_dynamixel_driver/joint_states|name|J1,J2,J3,J4,J5,J6|pos|-0.000075,-1.268785,1.296250,0.002216,-1.080894,-0.000083|vel|0.000000,-0.000000,0.000000,0.000000,0.000000,0.000000|eff|0.000000,0.000000,0.000000,0.000000,0.000000,0.000000
cobot_dynamixel_driver/joint_states|name|J1,J2,J3,J4,J5,J6|pos|-0.000075,-1.268785,1.296250,0.002216,-1.080894,-0.000083|vel|0.000000,-0.000000,0.000000,0.000000,0.000000,0.000000|eff|0.000000,0.000000,-48.339844,0.000000,0.000000,0.000000
cobot_dynamixel_driver/joint_states|name|J1,J2,J3,J4,J5,J6|pos|-0.000075,-1.268785,1.296250,0.002216,-1.080894,-0.000083|vel|0.000000,-0.000000,0.000000,0.000000,0.000000,0.000000|eff|0.000000,0.000000,0.000000,0.000000,0.000000,0.000000
cobot_dynamixel_driver/joint_states|name|J1,J2,J3,J4,J5,J6|pos|-0.000075,-1.268785,1.296250,0.002216,-1.080894,-0.000083|vel|0.000000,-0.000000,0.000000,0.000000,0.000000,0.000000|eff|0.000000,0.000000,0.000000,0.000000,0.000000,0.000000
cobot_dynamixel_driver/joint_states|name|J1,J2,J3,J4,J5,J6|pos|-0.000075,-1.268785,1.296250,0.002216,-1.080894,-0.000083|vel|0.000000,-0.000000,0.000000,0.000000,0.000000,0.000000|eff|0.000000,0.000000,-32.226562,0.000000,0.000000,0.000000
cobot_dynamixel_driver/joint_states|name|J1,J2,J3,J4,J5,J6|pos|-0.000075,-1.268785,1.296250,0.002216,-1.080894,-0.000083|vel|0.000000,-0.000000,0.000000,0.000000,0.000000,0.000000|eff|0.000000,0.000000,0.000000,0.000000,0.000000,0.000000
cobot_dynamixel_driver/joint_states|name|J1,J2,J3,J4,J5,J6|pos|-0.000075,-1.268785,1.296250,0.002216,-1.080894,-0.000083|vel|0.000000,-0.000000,0.000000,0.000000,0.000000,0.000000|eff|0.000000,0.000000,0.000000,0.000000,0.000000,0.000000
cobot_dynamixel_driver/joint_states|name|J1,J2,J3,J4,J5,J6|pos|-0.000075,-1.268785,1.296250,0.002216,-1.080894,-0.000083|vel|0.000000,-0.000000,0.000000,0.000000,0.000000,0.000000|eff|0.000000,0.000000,0.000000,0.000000,0.000000,0.000000
cobot_dynamixel_driver/joint_states|name|J1,J2,J3,J4,J5,J6|pos|-0.000075,-1.268785,1.296250,0.002216,-1.080894,-0.000083|vel|0.000000,-0.000000,0.000000,0.000000,0.000000,0.000000|eff|0.000000,0.000000,0.000000,0.000000,0.000000,0.000000
cobot_dynamixel_driver/joint_states|name|J1,J2,J3,J4,J5,J6|pos|-0.000075,-1.268785,1.296250,0.002216,-1.080894,-0.000083|vel|0.000000,-0.000000,0.000000,0.000000,0.000000,0.000000|eff|0.000000,0.000000,0.000000,0.000000,0.000000,0.000000
cobot_dynamixel_driver/joint_states|name|J1,J2,J3,J4,J5,J6|pos|-0.000075,-1.268785,1.296250,0.002216,-1.080894,-0.000083|vel|0.000000,-0.000000,0.000000,0.000000,0.000000,0.000000|eff|0.000000,0.000000,0.000000,0.000000,0.000000,0.000000
cobot_dynamixel_driver/joint_states|name|J1,J2,J3,J4,J5,J6|pos|-0.000075,-1.268785,1.296250,0.002216,-1.080894,-0.000083|vel|0.000000,-0.000000,0.000000,0.000000,0.000000,0.000000|eff|0.000000,0.000000,0.000000,0.000000,0.000000,0.000000
cobot_dynamixel_driver/joint_states|name|J1,J2,J3,J4,J5,J6|pos|-0.000075,-1.268785,1.296250,0.002216,-1.080894,-0.000083|vel|0.000000,-0.000000,0.000000,0.000000,0.000000,0.000000|eff|0.000000,0.000000,0.000000,0.000000,0.000000,0.000000
cobot_dynamixel_driver/joint_states|name|J1,J2,J3,J4,J5,J6|pos|-0.000075,-1.268785,1.296250,0.002216,-1.080894,-0.000083|vel|0.000000,-0.000000,0.000000,0.000000,0.000000,0.000000|eff|0.000000,0.000000,-32.226562,0.000000,0.000000,0.000000
cobot_dynamixel_driver/joint_states|name|J1,J2,J3,J4,J5,J6|pos|-0.000075,-1.268785,1.296250,0.002216,-1.080894,-0.000083|vel|0.000000,-0.000000,0.000000,0.000000,0.000000,0.000000|eff|0.000000,0.000000,0.000000,0.000000,0.000000,0.000000
cobot_dynamixel_driver/joint_states|name|J1,J2,J3,J4,J5,J6|pos|-0.000075,-1.268785,1.296250,0.002216,-1.080894,-0.000083|vel|0.000000,-0.000000,0.000000,0.000000,0.000000,0.000000|eff|0.000000,0.000000,0.000000,0.000000,0.000000,0.000000
cobot_dynamixel_driver/joint_states|name|J1,J2,J3,J4,J5,J6|pos|-0.000075,-1.268785,1.296250,0.002216,-1.080894,-0.000083|vel|0.000000,-0.000000,0.000000,0.000000,0.000000,0.000000|eff|0.000000,0.000000,0.000000,0.000000,0.000000,0.000000
cobot_dynamixel_driver/joint_states|name|J1,J2,J3,J4,J5,J6|pos|-0.000075,-1.268785,1.296250,0.002216,-1.080894,-0.000083|vel|0.000000,-0.000000,0.000000,0.000000,0.000000,0.000000|eff|0.000000,0.000000,-48.339844,0.000000,0.000000,0.000000
cobot_dynamixel_driver/joint_states|name|J1,J2,J3,J4,J5,J6|pos|-0.000075,-1.268785,1.296250,0.002216,-1.080894,-0.000083|vel|0.000000,-0.000000,0.000000,0.000000,0.000000,0.000000|eff|0.000000,0.000000,0.000000,0.000000,0.000000,0.000000
cobot_dynamixel_driver/joint_states|name|J1,J2,J3,J4,J5,J6|pos|-0.000075,-1.268785,1.296250,0.002216,-1.080894,-0.000083|vel|0.000000,-0.000000,0.000000,0.000000,0.000000,0.000000|eff|0.000000,0.000000,0.000000,0.000000,0.000000,0.000000
cobot_dynamixel_driver/joint_states|name|J1,J2,J3,J4,J5,J6|pos|-0.000075,-1.268785,1.296250,0.002216,-1.080894,-0.000083|vel|0.000000,-0.000000,0.000000,0.000000,0.000000,0.000000|eff|0.000000,0.000000,0.000000,0.000000,0.000000,0.000000
cobot_dynamixel_driver/joint_states|name|J1,J2,J3,J4,J5,J6|pos|-0.000075,-1.268785,1.296250,0.002216,-1.080894,-0.000083|vel|0.000000,-0.000000,0.000000,0.000000,0.000000,0.000000|eff|0.000000,0.000000,-48.339844,0.000000,0.000000,0.000000
cobot_dynamixel_driver/joint_states|name|J1,J2,J3,J4,J5,J6|pos|-0.000075,-1.268785,1.296250,0.002216,-1.080894,-0.000083|vel|0.000000,-0.000000,0.000000,0.000000,0.000000,0.000000|eff|0.000000,0.000000,0.000000,0.000000,0.000000,0.000000
cobot_dynamixel_driver/joint_states|name|J1,J2,J3,J4,J5,J6|pos|-0.000075,-1.268785,1.296250,0.002216,-1.080894,-0.000083|vel|0.000000,-0.000000,0.000000,0.000000,0.000000,0.000000|eff|0.000000,0.000000,-48.339844,0.000000,0.000000,0.000000
cobot_dynamixel_driver/joint_states|name|J1,J2,J3,J4,J5,J6|pos|-0.000075,-1.268785,1.296250,0.002216,-1.080894,-0.000083|vel|0.000000,-0.000000,0.000000,0.000000,0.000000,0.000000|eff|0.000000,0.000000,-32.226562,0.000000,0.000000,0.000000
cobot_dynamixel_driver/joint_states|name|J1,J2,J3,J4,J5,J6|pos|-0.000075,-1.268785,1.296250,0.002216,-1.080894,-0.000083|vel|0.000000,-0.000000,0.000000,0.000000,0.000000,0.000000|eff|0.000000,0.000000,0.000000,0.000000,0.000000,0.000000
cobot_dynamixel_driver/joint_states|name|J1,J2,J3,J4,J5,J6|pos|-0.000075,-1.268785,1.296250,0.002216,-1.080894,-0.000083|vel|0.000000,-0.000000,0.000000,0.000000,0.000000,0.000000|eff|0.000000,0.000000,0.000000,0.000000,0.000000,0.000000
cobot_dynamixel_driver/joint_states|name|J1,J2,J3,J4,J5,J6|pos|-0.000075,-1.268785,1.296250,0.002216,-1.080894,-0.000083|vel|0.000000,-0.000000,0.000000,0.000000,0.000000,0.000000|eff|0.000000,0.000000,0.000000,0.000000,0.000000,0.000000
cobot_dynamixel_driver/joint_states|name|J1,J2,J3,J4,J5,J6|pos|-0.000075,-1.268785,1.296250,0.002216,-1.080894,-0.000083|vel|0.000000,-0.000000,0.000000,0.000000,0.000000,0.000000|eff|0.000000,0.000000,0.000000,0.000000,0.000000,0.000000
cobot_dynamixel_driver/joint_states|name|J1,J2,J3,J4,J5,J6|pos|-0.000075,-1.268785,1.296250,0.002216,-1.080894,-0.000083|vel|0.000000,-0.000000,0.000000,0.000000,0.000000,0.000000|eff|0.000000,0.000000,0.000000,0.000000,0.000000,0.000000
cobot_dynamixel_driver/joint_states|name|J1,J2,J3,J4,J5,J6|pos|-0.000075,-1.268785,1.296250,0.002216,-1.080894,-0.000083|vel|0.000000,-0.000000,0.000000,0.000000,0.000000,0.000000|eff|0.000000,0.000000,0.000000,0.000000,0.000000,0.000000
cobot_dynamixel_driver/joint_states|name|J1,J2,J3,J4,J5,J6|pos|-0.000075,-1.268785,1.296250,0.002216,-1.080894,-0.000083|vel|0.000000,-0.000000,0.000000,0.000000,0.000000,0.000000|eff|0.000000,0.000000,0.000000,0.000000,0.000000,0.000000
cobot_dynamixel_driver/joint_states|name|J1,J2,J3,J4,J5,J6|pos|-0.000075,-1.268785,1.296250,0.002216,-1.080894,-0.000083|vel|0.000000,-0.000000,0.000000,0.000000,0.000000,0.000000|eff|0.000000,0.000000,0.000000,0.000000,0.000000,0.000000
cobot_dynamixel_driver/joint_states|name|J1,J2,J3,J4,J5,J6|pos|-0.000075,-1.268785,1.296250,0.002216,-1.080894,-0.000083|vel|0.000000,-0.000000,0.000000,0.000000,0.000000,0.000000|eff|0.000000,0.000000,0.000000,0.000000,0.000000,0.000000
cobot_dynamixel_driver/joint_states|name|J1,J2,J3,J4,J5,J6|pos|-0.000075,-1.268785,1.296250,0.002216,-1.080894,-0.000083|vel|0.000000,-0.000000,0.000000,0.000000,0.000000,0.000000|eff|0.000000,0.000000,-48.339844,0.000000,0.000000,0.000000
cobot_dynamixel_driver/joint_states|name|J1,J2,J3,J4,J5,J6|pos|-0.000075,-1.268785,1.296250,0.002216,-1.080894,-0.000083|vel|0.000000,-0.000000,0.000000,0.000000,0.000000,0.000000|eff|0.000000,0.000000,0.000000,0.000000,0.000000,0.000000
cobot_dynamixel_driver/joint_states|name|J1,J2,J3,J4,J5,J6|pos|-0.000075,-1.268785,1.296250,0.002216,-1.080894,-0.000083|vel|0.000000,-0.000000,0.000000,0.000000,0.000000,0.000000|eff|0.000000,0.000000,0.000000,0.000000,0.000000,0.000000
cobot_dynamixel_driver/joint_states|name|J1,J2,J3,J4,J5,J6|pos|-0.000075,-1.268785,1.296250,0.002216,-1.080894,-0.000083|vel|0.000000,-0.000000,0.000000,0.000000,0.000000,0.000000|eff|0.000000,0.000000,-32.226562,0.000000,0.000000,0.000000
cobot_dynamixel_driver/joint_states|name|J1,J2,J3,J4,J5,J6|pos|-0.000075,-1.268785,1.296250,0.002216,-1.080894,-0.000083|vel|0.000000,-0.000000,0.000000,0.000000,0.000000,0.000000|eff|0.000000,0.000000,-32.226562,0.000000,0.000000,0.000000
cobot_dynamixel_driver/joint_states|name|J1,J2,J3,J4,J5,J6|pos|-0.000075,-1.268785,1.296250,0.002216,-1.080894,-0.000083|vel|0.000000,-0.000000,0.000000,0.000000,0.000000,0.000000|eff|0.000000,0.000000,0.000000,0.000000,0.000000,0.000000
cobot_dynamixel_driver/joint_states|name|J1,J2,J3,J4,J5,J6|pos|-0.000075,-1.268785,1.296250,0.002216,-1.080894,-0.000083|vel|0.000000,-0.000000,0.000000,0.000000,0.000000,0.000000|eff|0.000000,0.000000,0.000000,0.000000,0.000000,0.000000
cobot_dynamixel_driver/joint_states|name|J1,J2,J3,J4,J5,J6|pos|-0.000075,-1.268785,1.296250,0.002216,-1.080894,-0.000083|vel|0.000000,-0.000000,0.000000,0.000000,0.000000,0.000000|eff|0.000000,0.000000,-48.339844,0.000000,0.000000,0.000000
cobot_dynamixel_driver/joint_states|name|J1,J2,J3,J4,J5,J6|pos|-0.000075,-1.268785,1.296250,0.002216,-1.080894,-0.000083|vel|0.000000,-0.000000,0.000000,0.000000,0.000000,0.000000|eff|0.000000,0.000000,0.000000,0.000000,0.000000,0.000000
cobot_dynamixel_driver/joint_states|name|J1,J2,J3,J4,J5,J6|pos|-0.000075,-1.268785,1.296250,0.002216,-1.080894,-0.000083|vel|0.000000,-0.000000,0.000000,0.000000,0.000000,0.000000|eff|0.000000,0.000000,0.000000,0.000000,0.000000,0.000000
cobot_dynamixel_driver/joint_states|name|J1,J2,J3,J4,J5,J6|pos|-0.000075,-1.268785,1.296250,0.002216,-1.080894,-0.000083|vel|0.000000,-0.000000,0.000000,0.000000,0.000000,0.000000|eff|0.000000,0.000000,0.000000,0.000000,0.000000,0.000000
cobot_dynamixel_driver/joint_states|name|J1,J2,J3,J4,J5,J6|pos|-0.000075,-1.268785,1.296250,0.002216,-1.080894,-0.000083|vel|0.000000,-0.000000,0.000000,0.000000,0.000000,0.000000|eff|0.000000,0.000000,-48.339844,0.000000,0.000000,0.000000
cobot_dynamixel_driver/joint_states|name|J1,J2,J3,J4,J5,J6|pos|-0.000075,-1.268785,1.296250,0.002216,-1.080894,-0.000083|vel|0.000000,-0.000000,0.000000,0.000000,0.000000,0.000000|eff|0.000000,0.000000,0.000000,0.000000,0.000000,0.000000
cobot_dynamixel_driver/joint_states|name|J1,J2,J3,J4,J5,J6|pos|-0.000075,-1.268785,1.296250,0.002216,-1.080894,-0.000083|vel|0.000000,-0.000000,0.000000,0.000000,0.000000,0.000000|eff|0.000000,0.000000,-48.339844,0.000000,0.000000,0.000000
cobot_dynamixel_driver/joint_states|name|J1,J2,J3,J4,J5,J6|pos|-0.000075,-1.268785,1.296250,0.002216,-1.080894,-0.000083|vel|0.000000,-0.000000,0.000000,0.000000,0.000000,0.000000|eff|0.000000,0.000000,-48.339844,0.000000,0.000000,0.000000
cobot_dynamixel_driver/joint_states|name|J1,J2,J3,J4,J5,J6|pos|-0.000075,-1.268785,1.296250,0.002216,-1.080894,-0.000083|vel|0.000000,-0.000000,0.000000,0.000000,0.000000,0.000000|eff|0.000000,0.000000,-32.226562,0.000000,0.000000,0.000000
cobot_dynamixel_driver/joint_states|name|J1,J2,J3,J4,J5,J6|pos|-0.000075,-1.268785,1.296250,0.002216,-1.080894,-0.000083|vel|0.000000,-0.000000,0.000000,0.000000,0.000000,0.000000|eff|0.000000,0.000000,0.000000,0.000000,0.000000,0.000000
cobot_dynamixel_driver/joint_states|name|J1,J2,J3,J4,J5,J6|pos|-0.000075,-1.268785,1.296250,0.002216,-1.080894,-0.000083|vel|0.000000,-0.000000,0.000000,0.000000,0.000000,0.000000|eff|0.000000,0.000000,0.000000,0.000000,0.000000,0.000000
cobot_dynamixel_driver/joint_states|name|J1,J2,J3,J4,J5,J6|pos|-0.000075,-1.268785,1.296250,0.002216,-1.080894,-0.000083|vel|0.000000,-0.000000,0.000000,0.000000,0.000000,0.000000|eff|0.000000,0.000000,0.000000,0.000000,0.000000,0.000000
cobot_dynamixel_driver/joint_states|name|J1,J2,J3,J4,J5,J6|pos|-0.000075,-1.268785,1.296250,0.002216,-1.080894,-0.000083|vel|0.000000,-0.000000,0.000000,0.000000,0.000000,0.000000|eff|0.000000,0.000000,0.000000,0.000000,0.000000,0.000000
cobot_dynamixel_driver/joint_states|name|J1,J2,J3,J4,J5,J6|pos|-0.000075,-1.268785,1.296250,0.002216,-1.080894,-0.000083|vel|0.000000,-0.000000,0.000000,0.000000,0.000000,0.000000|eff|0.000000,0.000000,0.000000,0.000000,0.000000,0.000000
cobot_dynamixel_driver/joint_states|name|J1,J2,J3,J4,J5,J6|pos|-0.000075,-1.268785,1.296250,0.002216,-1.080894,-0.000083|vel|0.000000,-0.000000,0.000000,0.000000,0.000000,0.000000|eff|0.000000,0.000000,0.000000,0.000000,0.000000,0.000000
cobot_dynamixel_driver/joint_states|name|J1,J2,J3,J4,J5,J6|pos|-0.000075,-1.268785,1.296250,0.002216,-1.080894,-0.000083|vel|0.000000,-0.000000,0.000000,0.000000,0.000000,0.000000|eff|0.000000,0.000000,-48.339844,0.000000,0.000000,0.000000
cobot_dynamixel_driver/joint_states|name|J1,J2,J3,J4,J5,J6|pos|-0.000075,-1.268785,1.296250,0.002216,-1.080894,-0.000083|vel|0.000000,-0.000000,0.000000,0.000000,0.000000,0.000000|eff|0.000000,0.000000,-32.226562,0.000000,0.000000,0.000000
cobot_dynamixel_driver/joint_states|name|J1,J2,J3,J4,J5,J6|pos|-0.000075,-1.268785,1.296250,0.002216,-1.080894,-0.000083|vel|0.000000,-0.000000,0.000000,0.000000,0.000000,0.000000|eff|0.000000,0.000000,0.000000,0.000000,0.000000,0.000000
cobot_dynamixel_driver/joint_states|name|J1,J2,J3,J4,J5,J6|pos|-0.000075,-1.268785,1.296250,0.002216,-1.080894,-0.000083|vel|0.000000,-0.000000,0.000000,0.000000,0.000000,0.000000|eff|0.000000,0.000000,0.000000,0.000000,0.000000,0.000000
cobot_dynamixel_driver/joint_states|name|J1,J2,J3,J4,J5,J6|pos|-0.000075,-1.268785,1.296250,0.002216,-1.080894,-0.000083|vel|0.000000,-0.000000,0.000000,0.000000,0.000000,0.000000|eff|0.000000,0.000000,-32.226562,0.000000,0.000000,0.000000
cobot_dynamixel_driver/joint_states|name|J1,J2,J3,J4,J5,J6|pos|-0.000075,-1.268785,1.296250,0.002216,-1.080894,-0.000083|vel|0.000000,-0.000000,0.000000,0.000000,0.000000,0.000000|eff|0.000000,0.000000,-48.339844,0.000000,0.000000,0.000000
cobot_dynamixel_driver/joint_states|name|J1,J2,J3,J4,J5,J6|pos|-0.000075,-1.268785,1.296250,0.002216,-1.080894,-0.000083|vel|0.000000,-0.000000,0.000000,0.000000,0.000000,0.000000|eff|0.000000,0.000000,0.000000,0.000000,0.000000,0.000000
cobot_dynamixel_driver/joint_states|name|J1,J2,J3,J4,J5,J6|pos|-0.000075,-1.268785,1.296250,0.002216,-1.080894,-0.000083|vel|0.000000,-0.000000,0.000000,0.000000,0.000000,0.000000|eff|0.000000,0.000000,0.000000,0.000000,0.000000,0.000000
cobot_dynamixel_driver/joint_states|name|J1,J2,J3,J4,J5,J6|pos|-0.000075,-1.268785,1.296250,0.002216,-1.080894,-0.000083|vel|0.000000,-0.000000,0.000000,0.000000,0.000000,0.000000|eff|0.000000,0.000000,0.000000,0.000000,0.000000,0.000000
cobot_dynamixel_driver/joint_states|name|J1,J2,J3,J4,J5,J6|pos|-0.000075,-1.268785,1.296250,0.002216,-1.080894,-0.000083|vel|0.000000,-0.000000,0.000000,0.000000,0.000000,0.000000|eff|0.000000,0.000000,0.000000,0.000000,0.000000,0.000000
cobot_dynamixel_driver/joint_states|name|J1,J2,J3,J4,J5,J6|pos|-0.000075,-1.268785,1.296250,0.002216,-1.080894,-0.000083|vel|0.000000,-0.000000,0.000000,0.000000,0.000000,0.000000|eff|0.000000,0.000000,0.000000,0.000000,0.000000,0.000000
cobot_dynamixel_driver/joint_states|name|J1,J2,J3,J4,J5,J6|pos|-0.000075,-1.268785,1.296250,0.002216,-1.080894,-0.000083|vel|0.000000,-0.000000,0.000000,0.000000,0.000000,0.000000|eff|0.000000,0.000000,0.000000,0.000000,0.000000,0.000000
cobot_dynamixel_driver/joint_states|name|J1,J2,J3,J4,J5,J6|pos|-0.000075,-1.268785,1.296250,0.002216,-1.080894,-0.000083|vel|0.000000,-0.000000,0.000000,0.000000,0.000000,0.000000|eff|0.000000,0.000000,0.000000,0.000000,0.000000,0.000000
cobot_dynamixel_driver/joint_states|name|J1,J2,J3,J4,J5,J6|pos|-0.000075,-1.268785,1.296250,0.002216,-1.080894,-0.000083|vel|0.000000,-0.000000,0.000000,0.000000,0.000000,0.000000|eff|0.000000,0.000000,0.000000,0.000000,0.000000,0.000000
cobot_dynamixel_driver/joint_states|name|J1,J2,J3,J4,J5,J6|pos|-0.000075,-1.268785,1.296250,0.002216,-1.080894,-0.000083|vel|0.000000,-0.000000,0.000000,0.000000,0.000000,0.000000|eff|0.000000,0.000000,-32.226562,0.000000,0.000000,0.000000
cobot_dynamixel_driver/joint_states|name|J1,J2,J3,J4,J5,J6|pos|-0.000075,-1.268785,1.296250,0.002216,-1.080894,-0.000083|vel|0.000000,-0.000000,0.000000,0.000000,0.000000,0.000000|eff|0.000000,0.000000,-48.339844,0.000000,0.000000,0.000000
cobot_dynamixel_driver/joint_states|name|J1,J2,J3,J4,J5,J6|pos|-0.000075,-1.268785,1.296250,0.002216,-1.080894,-0.000083|vel|0.000000,-0.000000,0.000000,0.000000,0.000000,0.000000|eff|0.000000,0.000000,0.000000,0.000000,0.000000,0.000000
cobot_dynamixel_driver/joint_states|name|J1,J2,J3,J4,J5,J6|pos|-0.000075,-1.268785,1.296250,0.002216,-1.080894,-0.000083|vel|0.000000,-0.000000,0.000000,0.000000,0.000000,0.000000|eff|0.000000,0.000000,0.000000,0.000000,0.000000,0.000000
cobot_dynamixel_driver/joint_states|name|J1,J2,J3,J4,J5,J6|pos|-0.000075,-1.268785,1.296250,0.002216,-1.080894,-0.000083|vel|0.000000,-0.000000,0.000000,0.000000,0.000000,0.000000|eff|0.000000,0.000000,0.000000,0.000000,0.000000,0.000000
cobot_dynamixel_driver/joint_states|name|J1,J2,J3,J4,J5,J6|pos|-0.000075,-1.268785,1.296250,0.002216,-1.080894,-0.000083|vel|0.000000,-0.000000,0.000000,0.000000,0.000000,0.000000|eff|0.000000,0.000000,-64.453125,0.000000,0.000000,0.000000
cobot_dynamixel_driver/joint_states|name|J1,J2,J3,J4,J5,J6|pos|-0.000075,-1.268785,1.296250,0.002216,-1.080894,-0.000083|vel|0.000000,-0.000000,0.000000,0.000000,0.000000,0.000000|eff|0.000000,0.000000,0.000000,0.000000,0.000000,0.000000
cobot_dynamixel_driver/joint_states|name|J1,J2,J3,J4,J5,J6|pos|-0.000075,-1.268785,1.296250,0.002216,-1.080894,-0.000083|vel|0.000000,-0.000000,0.000000,0.000000,0.000000,0.000000|eff|0.000000,0.000000,-48.339844,0.000000,0.000000,0.000000
cobot_dynamixel_driver/joint_states|name|J1,J2,J3,J4,J5,J6|pos|-0.000075,-1.268785,1.296250,0.002216,-1.080894,-0.000083|vel|0.000000,-0.000000,0.000000,0.000000,0.000000,0.000000|eff|0.000000,0.000000,0.000000,0.000000,0.000000,0.000000
cobot_dynamixel_driver/joint_states|name|J1,J2,J3,J4,J5,J6|pos|-0.000075,-1.268785,1.296250,0.002216,-1.080894,-0.000083|vel|0.000000,-0.000000,0.000000,0.000000,0.000000,0.000000|eff|0.000000,0.000000,0.000000,0.000000,0.000000,0.000000
cobot_dynamixel_driver/joint_states|name|J1,J2,J3,J4,J5,J6|pos|-0.000075,-1.268785,1.296250,0.002216,-1.080894,-0.000083|vel|0.000000,-0.000000,0.000000,0.000000,0.000000,0.000000|eff|0.000000,0.000000,0.000000,0.000000,0.000000,0.000000
cobot_dynamixel_driver/joint_states|name|J1,J2,J3,J4,J5,J6|pos|-0.000075,-1.268785,1.296250,0.002216,-1.080894,-0.000083|vel|0.000000,-0.000000,0.000000,0.000000,0.000000,0.000000|eff|0.000000,0.000000,0.000000,0.000000,0.000000,0.000000
cobot_dynamixel_driver/joint_states|name|J1,J2,J3,J4,J5,J6|pos|-0.000075,-1.268785,1.296250,0.002216,-1.080894,-0.000083|vel|0.000000,-0.000000,0.000000,0.000000,0.000000,0.000000|eff|0.000000,0.000000,0.000000,0.000000,0.000000,0.000000
cobot_dynamixel_driver/joint_states|name|J1,J2,J3,J4,J5,J6|pos|-0.000075,-1.268785,1.296250,0.002216,-1.080894,-0.000083|vel|0.000000,-0.000000,0.000000,0.000000,0.000000,0.000000|eff|0.000000,0.000000,-48.339844,0.000000,0.000000,0.000000
cobot_dynamixel_driver/joint_states|name|J1,J2,J3,J4,J5,J6|pos|-0.000075,-1.268785,1.296250,0.002216,-1.080894,-0.000083|vel|0.000000,-0.000000,0.000000,0.000000,0.000000,0.000000|eff|0.000000,0.000000,-32.226562,0.000000,0.000000,0.000000
cobot_dynamixel_driver/joint_states|name|J1,J2,J3,J4,J5,J6|pos|-0.000075,-1.268785,1.296250,0.002216,-1.080894,-0.000083|vel|0.000000,-0.000000,0.000000,0.000000,0.000000,0.000000|eff|0.000000,0.000000,0.000000,0.000000,0.000000,0.000000
cobot_dynamixel_driver/joint_states|name|J1,J2,J3,J4,J5,J6|pos|-0.000075,-1.268785,1.296250,0.002216,-1.080894,-0.000083|vel|0.000000,-0.000000,0.000000,0.000000,0.000000,0.000000|eff|0.000000,0.000000,-32.226562,0.000000,0.000000,0.000000
cobot_dynamixel_driver/joint_states|name|J1,J2,J3,J4,J5,J6|pos|-0.000075,-1.268785,1.296250,0.002216,-1.080894,-0.000083|vel|0.000000,-0.000000,0.000000,0.000000,0.000000,0.000000|eff|0.000000,0.000000,-48.339844,0.000000,0.000000,0.000000
cobot_dynamixel_driver/joint_states|name|J1,J2,J3,J4,J5,J6|pos|-0.000075,-1.268785,1.296250,0.002216,-1.080894,-0.000083|vel|0.000000,-0.000000,0.000000,0.000000,0.000000,0.000000|eff|0.000000,0.000000,0.000000,0.000000,0.000000,0.000000
cobot_dynamixel_driver/joint_states|name|J1,J2,J3,J4,J5,J6|pos|-0.000075,-1.268785,1.296250,0.002216,-1.080894,-0.000083|vel|0.000000,-0.000000,0.000000,0.000000,0.000000,0.000000|eff|0.000000,0.000000,-64.453125,0.000000,0.000000,0.000000
cobot_dynamixel_driver/joint_states|name|J1,J2,J3,J4,J5,J6|pos|-0.000075,-1.268785,1.296250,0.002216,-1.080894,-0.000083|vel|0.000000,-0.000000,0.000000,0.000000,0.000000,0.000000|eff|0.000000,0.000000,0.000000,0.000000,0.000000,0.000000
cobot_dynamixel_driver/joint_states|name|J1,J2,J3,J4,J5,J6|pos|-0.000075,-1.268785,1.296250,0.002216,-1.080894,-0.000083|vel|0.000000,-0.000000,0.000000,0.000000,0.000000,0.000000|eff|0.000000,0.000000,-48.339844,0.000000,0.000000,0.000000
cobot_dynamixel_driver/joint_states|name|J1,J2,J3,J4,J5,J6|pos|-0.000075,-1.268785,1.296250,0.002216,-1.080894,-0.000083|vel|0.000000,-0.000000,0.000000,0.000000,0.000000,0.000000|eff|0.000000,0.000000,0.000000,0.000000,0.000000,0.000000
cobot_dynamixel_driver/joint_states|name|J1,J2,J3,J4,J5,J6|pos|-0.000075,-1.268785,1.296250,0.002216,-1.080894,-0.000083|vel|0.000000,-0.000000,0.000000,0.000000,0.000000,0.000000|eff|0.000000,0.000000,0.000000,0.000000,0.000000,0.000000
cobot_dynamixel_driver/joint_states|name|J1,J2,J3,J4,J5,J6|pos|-0.000075,-1.268785,1.296250,0.002216,-1.080894,-0.000083|vel|0.000000,-0.000000,0.000000,0.000000,0.000000,0.000000|eff|0.000000,0.000000,-48.339844,0.000000,0.000000,0.000000
cobot_dynamixel_driver/joint_states|name|J1,J2,J3,J4,J5,J6|pos|-0.000075,-1.268785,1.296250,0.002216,-1.080894,-0.000083|vel|0.000000,-0.000000,0.000000,0.000000,0.000000,0.000000|eff|0.000000,0.000000,-48.339844,0.000000,0.000000,0.000000
cobot_dynamixel_driver/joint_states|name|J1,J2,J3,J4,J5,J6|pos|-0.000075,-1.268785,1.296250,0.002216,-1.080894,-0.000083|vel|0.000000,-0.000000,0.000000,0.000000,0.000000,0.000000|eff|0.000000,0.000000,0.000000,0.000000,0.000000,0.000000
cobot_dynamixel_driver/joint_states|name|J1,J2,J3,J4,J5,J6|pos|-0.000075,-1.268785,1.296250,0.002216,-1.080894,-0.000083|vel|0.000000,-0.000000,0.000000,0.000000,0.000000,0.000000|eff|0.000000,0.000000,-32.226562,0.000000,0.000000,0.000000
cobot_dynamixel_driver/joint_states|name|J1,J2,J3,J4,J5,J6|pos|-0.000075,-1.268785,1.296250,0.002216,-1.080894,-0.000083|vel|0.000000,-0.000000,0.000000,0.000000,0.000000,0.000000|eff|0.000000,0.000000,-32.226562,0.000000,0.000000,0.000000
cobot_dynamixel_driver/joint_states|name|J1,J2,J3,J4,J5,J6|pos|-0.000075,-1.268785,1.296250,0.002216,-1.080894,-0.000083|vel|0.000000,-0.000000,0.000000,0.000000,0.000000,0.000000|eff|0.000000,0.000000,-32.226562,0.000000,0.000000,0.000000
cobot_dynamixel_driver/joint_states|name|J1,J2,J3,J4,J5,J6|pos|-0.000075,-1.268785,1.296250,0.002216,-1.080894,-0.000083|vel|0.000000,-0.000000,0.000000,0.000000,0.000000,0.000000|eff|0.000000,0.000000,0.000000,0.000000,0.000000,0.000000
cobot_dynamixel_driver/joint_states|name|J1,J2,J3,J4,J5,J6|pos|-0.000075,-1.268785,1.296250,0.002216,-1.080894,-0.000083|vel|0.000000,-0.000000,0.000000,0.000000,0.000000,0.000000|eff|0.000000,0.000000,0.000000,0.000000,0.000000,0.000000
cobot_dynamixel_driver/joint_states|name|J1,J2,J3,J4,J5,J6|pos|-0.000075,-1.268785,1.296250,0.002216,-1.080894,-0.000083|vel|0.000000,-0.000000,0.000000,0.000000,0.000000,0.000000|eff|0.000000,0.000000,-64.453125,0.000000,0.000000,0.000000
cobot_dynamixel_driver/joint_states|name|J1,J2,J3,J4,J5,J6|pos|-0.000075,-1.268785,1.296250,0.002216,-1.080894,-0.000083|vel|0.000000,-0.000000,0.000000,0.000000,0.000000,0.000000|eff|0.000000,0.000000,-32.226562,0.000000,0.000000,0.000000
cobot_dynamixel_driver/joint_states|name|J1,J2,J3,J4,J5,J6|pos|-0.000075,-1.268785,1.296250,0.002216,-1.080894,-0.000083|vel|0.000000,-0.000000,0.000000,0.000000,0.000000,0.000000|eff|0.000000,0.000000,-32.226562,0.000000,0.000000,0.000000
cobot_dynamixel_driver/joint_states|name|J1,J2,J3,J4,J5,J6|pos|-0.000075,-1.268785,1.296250,0.002216,-1.080894,-0.000083|vel|0.000000,-0.000000,0.000000,0.000000,0.000000,0.000000|eff|0.000000,0.000000,0.000000,0.000000,0.000000,0.000000
cobot_dynamixel_driver/joint_states|name|J1,J2,J3,J4,J5,J6|pos|-0.000075,-1.268785,1.296250,0.002216,-1.080894,-0.000083|vel|0.000000,-0.000000,0.000000,0.000000,0.000000,0.000000|eff|0.000000,0.000000,0.000000,0.000000,0.000000,0.000000
cobot_dynamixel_driver/joint_states|name|J1,J2,J3,J4,J5,J6|pos|-0.000075,-1.268785,1.296250,0.002216,-1.080894,-0.000083|vel|0.000000,-0.000000,0.000000,0.000000,0.000000,0.000000|eff|0.000000,0.000000,0.000000,0.000000,0.000000,0.000000
cobot_dynamixel_driver/joint_states|name|J1,J2,J3,J4,J5,J6|pos|-0.000075,-1.268785,1.296250,0.002216,-1.080894,-0.000083|vel|0.000000,-0.000000,0.000000,0.000000,0.000000,0.000000|eff|0.000000,0.000000,-32.226562,0.000000,0.000000,0.000000
cobot_dynamixel_driver/joint_states|name|J1,J2,J3,J4,J5,J6|pos|-0.000075,-1.268785,1.296250,0.002216,-1.080894,-0.000083|vel|0.000000,-0.000000,0.000000,0.000000,0.000000,0.000000|eff|0.000000,0.000000,-32.226562,0.000000,0.000000,0.000000
cobot_dynamixel_driver/joint_states|name|J1,J2,J3,J4,J5,J6|pos|-0.000075,-1.268785,1.296250,0.002216,-1.080894,-0.000083|vel|0.000000,-0.000000,0.000000,0.000000,0.000000,0.000000|eff|0.000000,0.000000,0.000000,0.000000,0.000000,0.000000
cobot_dynamixel_driver/joint_states|name|J1,J2,J3,J4,J5,J6|pos|-0.000075,-1.268785,1.296250,0.002216,-1.080894,-0.000083|vel|0.000000,-0.000000,0.000000,0.000000,0.000000,0.000000|eff|0.000000,0.000000,0.000000,0.000000,0.000000,0.000000
cobot_dynamixel_driver/joint_states|name|J1,J2,J3,J4,J5,J6|pos|-0.000075,-1.268785,1.296250,0.002216,-1.080894,-0.000083|vel|0.000000,-0.000000,0.000000,0.000000,0.000000,0.000000|eff|0.000000,0.000000,0.000000,0.000000,0.000000,0.000000
cobot_dynamixel_driver/joint_states|name|J1,J2,J3,J4,J5,J6|pos|-0.000075,-1.268785,1.296250,0.002216,-1.080894,-0.000083|vel|0.000000,-0.000000,0.000000,0.000000,0.000000,0.000000|eff|0.000000,0.000000,-48.339844,0.000000,0.000000,0.000000
cobot_dynamixel_driver/joint_states|name|J1,J2,J3,J4,J5,J6|pos|-0.000075,-1.268785,1.296250,0.002216,-1.080894,-0.000083|vel|0.000000,-0.000000,0.000000,0.000000,0.000000,0.000000|eff|0.000000,0.000000,0.000000,0.000000,0.000000,0.000000
cobot_dynamixel_driver/joint_states|name|J1,J2,J3,J4,J5,J6|pos|-0.000075,-1.268785,1.296250,0.002216,-1.080894,-0.000083|vel|0.000000,-0.000000,0.000000,0.000000,0.000000,0.000000|eff|0.000000,0.000000,0.000000,0.000000,0.000000,0.000000
cobot_dynamixel_driver/joint_states|name|J1,J2,J3,J4,J5,J6|pos|-0.000075,-1.268785,1.296250,0.002216,-1.080894,-0.000083|vel|0.000000,-0.000000,0.000000,0.000000,0.000000,0.000000|eff|0.000000,0.000000,0.000000,0.000000,0.000000,0.000000
cobot_dynamixel_driver/joint_states|name|J1,J2,J3,J4,J5,J6|pos|-0.000075,-1.268785,1.296250,0.002216,-1.080894,-0.000083|vel|0.000000,-0.000000,0.000000,0.000000,0.000000,0.000000|eff|0.000000,0.000000,0.000000,0.000000,0.000000,0.000000
cobot_dynamixel_driver/joint_states|name|J1,J2,J3,J4,J5,J6|pos|-0.000075,-1.268785,1.296250,0.002216,-1.080894,-0.000083|vel|0.000000,-0.000000,0.000000,0.000000,0.000000,0.000000|eff|0.000000,0.000000,0.000000,0.000000,0.000000,0.000000
cobot_dynamixel_driver/joint_states|name|J1,J2,J3,J4,J5,J6|pos|-0.000075,-1.268785,1.296250,0.002216,-1.080894,-0.000083|vel|0.000000,-0.000000,0.000000,0.000000,0.000000,0.000000|eff|0.000000,0.000000,0.000000,0.000000,0.000000,0.000000
cobot_dynamixel_driver/joint_states|name|J1,J2,J3,J4,J5,J6|pos|-0.000075,-1.268785,1.296250,0.002216,-1.080894,-0.000083|vel|0.000000,-0.000000,0.000000,0.000000,0.000000,0.000000|eff|0.000000,0.000000,0.000000,0.000000,0.000000,0.000000
cobot_dynamixel_driver/joint_states|name|J1,J2,J3,J4,J5,J6|pos|-0.000075,-1.268785,1.296250,0.002216,-1.080894,-0.000083|vel|0.000000,-0.000000,0.000000,0.000000,0.000000,0.000000|eff|0.000000,0.000000,0.000000,0.000000,0.000000,0.000000
cobot_dynamixel_driver/joint_states|name|J1,J2,J3,J4,J5,J6|pos|-0.000075,-1.268785,1.296250,0.002216,-1.080894,-0.000083|vel|0.000000,-0.000000,0.000000,0.000000,0.000000,0.000000|eff|0.000000,0.000000,0.000000,0.000000,0.000000,0.000000
cobot_dynamixel_driver/joint_states|name|J1,J2,J3,J4,J5,J6|pos|-0.000075,-1.268785,1.296250,0.002216,-1.080894,-0.000083|vel|0.000000,-0.000000,0.000000,0.000000,0.000000,0.000000|eff|0.000000,0.000000,-64.453125,0.000000,0.000000,0.000000
cobot_dynamixel_driver/joint_states|name|J1,J2,J3,J4,J5,J6|pos|-0.000075,-1.268785,1.296250,0.002216,-1.080894,-0.000083|vel|0.000000,-0.000000,0.000000,0.000000,0.000000,0.000000|eff|0.000000,0.000000,0.000000,0.000000,0.000000,0.000000
cobot_dynamixel_driver/joint_states|name|J1,J2,J3,J4,J5,J6|pos|-0.000075,-1.268785,1.296250,0.002216,-1.080894,-0.000083|vel|0.000000,-0.000000,0.000000,0.000000,0.000000,0.000000|eff|0.000000,0.000000,0.000000,0.000000,0.000000,0.000000
cobot_dynamixel_driver/joint_states|name|J1,J2,J3,J4,J5,J6|pos|-0.000075,-1.268785,1.296250,0.002216,-1.080894,-0.000083|vel|0.000000,-0.000000,0.000000,0.000000,0.000000,0.000000|eff|0.000000,0.000000,0.000000,0.000000,0.000000,0.000000
cobot_dynamixel_driver/joint_states|name|J1,J2,J3,J4,J5,J6|pos|-0.000075,-1.268785,1.296250,0.002216,-1.080894,-0.000083|vel|0.000000,-0.000000,0.000000,0.000000,0.000000,0.000000|eff|0.000000,0.000000,-32.226562,0.000000,0.000000,0.000000
cobot_dynamixel_driver/joint_states|name|J1,J2,J3,J4,J5,J6|pos|-0.000075,-1.268785,1.296250,0.002216,-1.080894,-0.000083|vel|0.000000,-0.000000,0.000000,0.000000,0.000000,0.000000|eff|0.000000,0.000000,0.000000,0.000000,0.000000,0.000000
cobot_dynamixel_driver/joint_states|name|J1,J2,J3,J4,J5,J6|pos|-0.000075,-1.268785,1.296250,0.002216,-1.080894,-0.000083|vel|0.000000,-0.000000,0.000000,0.000000,0.000000,0.000000|eff|0.000000,0.000000,0.000000,0.000000,0.000000,0.000000
cobot_dynamixel_driver/joint_states|name|J1,J2,J3,J4,J5,J6|pos|-0.000075,-1.268785,1.296250,0.002216,-1.080894,-0.000083|vel|0.000000,-0.000000,0.000000,0.000000,0.000000,0.000000|eff|0.000000,0.000000,0.000000,0.000000,0.000000,0.000000
cobot_dynamixel_driver/joint_states|name|J1,J2,J3,J4,J5,J6|pos|-0.000075,-1.268785,1.296250,0.002216,-1.080894,-0.000083|vel|0.000000,-0.000000,0.000000,0.000000,0.000000,0.000000|eff|0.000000,0.000000,-32.226562,0.000000,0.000000,0.000000
cobot_dynamixel_driver/joint_states|name|J1,J2,J3,J4,J5,J6|pos|-0.000075,-1.268785,1.296250,0.002216,-1.080894,-0.000083|vel|0.000000,-0.000000,0.000000,0.000000,0.000000,0.000000|eff|0.000000,0.000000,0.000000,0.000000,0.000000,0.000000
cobot_dynamixel_driver/joint_states|name|J1,J2,J3,J4,J5,J6|pos|-0.000075,-1.268785,1.296250,0.002216,-1.080894,-0.000083|vel|0.000000,-0.000000,0.000000,0.000000,0.000000,0.000000|eff|0.000000,0.000000,0.000000,0.000000,0.000000,0.000000
cobot_dynamixel_driver/joint_states|name|J1,J2,J3,J4,J5,J6|pos|-0.000075,-1.268785,1.296250,0.002216,-1.080894,-0.000083|vel|0.000000,-0.000000,0.000000,0.000000,0.000000,0.000000|eff|0.000000,0.000000,0.000000,0.000000,0.000000,0.000000
cobot_dynamixel_driver/joint_states|name|J1,J2,J3,J4,J5,J6|pos|-0.000075,-1.268785,1.296250,0.002216,-1.080894,-0.000083|vel|0.000000,-0.000000,0.000000,0.000000,0.000000,0.000000|eff|0.000000,0.000000,0.000000,0.000000,0.000000,0.000000
cobot_dynamixel_driver/joint_states|name|J1,J2,J3,J4,J5,J6|pos|-0.000075,-1.268785,1.296250,0.002216,-1.080894,-0.000083|vel|0.000000,-0.000000,0.000000,0.000000,0.000000,0.000000|eff|0.000000,0.000000,0.000000,0.000000,0.000000,0.000000
cobot_dynamixel_driver/joint_states|name|J1,J2,J3,J4,J5,J6|pos|-0.000075,-1.268785,1.296250,0.002216,-1.080894,-0.000083|vel|0.000000,-0.000000,0.000000,0.000000,0.000000,0.000000|eff|0.000000,0.000000,-32.226562,0.000000,0.000000,0.000000
cobot_dynamixel_driver/joint_states|name|J1,J2,J3,J4,J5,J6|pos|-0.000075,-1.268785,1.296250,0.002216,-1.080894,-0.000083|vel|0.000000,-0.000000,0.000000,0.000000,0.000000,0.000000|eff|0.000000,0.000000,0.000000,0.000000,0.000000,0.000000
cobot_dynamixel_driver/joint_states|name|J1,J2,J3,J4,J5,J6|pos|-0.000075,-1.268785,1.296250,0.002216,-1.080894,-0.000083|vel|0.000000,-0.000000,0.000000,0.000000,0.000000,0.000000|eff|0.000000,0.000000,0.000000,0.000000,0.000000,0.000000
cobot_dynamixel_driver/joint_states|name|J1,J2,J3,J4,J5,J6|pos|-0.000075,-1.268785,1.296250,0.002216,-1.080894,-0.000083|vel|0.000000,-0.000000,0.000000,0.000000,0.000000,0.000000|eff|0.000000,0.000000,0.000000,0.000000,0.000000,0.000000
cobot_dynamixel_driver/joint_states|name|J1,J2,J3,J4,J5,J6|pos|-0.000075,-1.268785,1.296250,0.002216,-1.080894,-0.000083|vel|0.000000,-0.000000,0.000000,0.000000,0.000000,0.000000|eff|0.000000,0.000000,-32.226562,0.000000,0.000000,0.000000
cobot_dynamixel_driver/joint_states|name|J1,J2,J3,J4,J5,J6|pos|-0.000075,-1.268785,1.296250,0.002216,-1.080894,-0.000083|vel|0.000000,-0.000000,0.000000,0.000000,0.000000,0.000000|eff|0.000000,0.000000,0.000000,0.000000,0.000000,0.000000
cobot_dynamixel_driver/joint_states|name|J1,J2,J3,J4,J5,J6|pos|-0.000075,-1.268785,1.296250,0.002216,-1.080894,-0.000083|vel|0.000000,-0.000000,0.000000,0.000000,0.000000,0.000000|eff|0.000000,0.000000,0.000000,0.000000,0.000000,0.000000
cobot_dynamixel_driver/joint_states|name|J1,J2,J3,J4,J5,J6|pos|-0.000075,-1.268785,1.296250,0.002216,-1.080894,-0.000083|vel|0.000000,-0.000000,0.000000,0.000000,0.000000,0.000000|eff|0.000000,0.000000,-48.339844,0.000000,0.000000,0.000000
cobot_dynamixel_driver/joint_states|name|J1,J2,J3,J4,J5,J6|pos|-0.000075,-1.268785,1.296250,0.002216,-1.080894,-0.000083|vel|0.000000,-0.000000,0.000000,0.000000,0.000000,0.000000|eff|0.000000,0.000000,0.000000,0.000000,0.000000,0.000000
cobot_dynamixel_driver/joint_states|name|J1,J2,J3,J4,J5,J6|pos|-0.000075,-1.268785,1.296250,0.002216,-1.080894,-0.000083|vel|0.000000,-0.000000,0.000000,0.000000,0.000000,0.000000|eff|0.000000,0.000000,-48.339844,0.000000,0.000000,0.000000
cobot_dynamixel_driver/joint_states|name|J1,J2,J3,J4,J5,J6|pos|-0.000075,-1.268785,1.296250,0.002216,-1.080894,-0.000083|vel|0.000000,-0.000000,0.000000,0.000000,0.000000,0.000000|eff|0.000000,0.000000,0.000000,0.000000,0.000000,0.000000
cobot_dynamixel_driver/joint_states|name|J1,J2,J3,J4,J5,J6|pos|-0.000075,-1.268785,1.296250,0.002216,-1.080894,-0.000083|vel|0.000000,-0.000000,0.000000,0.000000,0.000000,0.000000|eff|0.000000,0.000000,0.000000,0.000000,0.000000,0.000000
cobot_dynamixel_driver/joint_states|name|J1,J2,J3,J4,J5,J6|pos|-0.000075,-1.268785,1.296250,0.002216,-1.080894,-0.000083|vel|0.000000,-0.000000,0.000000,0.000000,0.000000,0.000000|eff|0.000000,0.000000,-64.453125,0.000000,0.000000,0.000000
cobot_dynamixel_driver/joint_states|name|J1,J2,J3,J4,J5,J6|pos|-0.000075,-1.268785,1.296250,0.002216,-1.080894,-0.000083|vel|0.000000,-0.000000,0.000000,0.000000,0.000000,0.000000|eff|0.000000,0.000000,0.000000,0.000000,0.000000,0.000000
cobot_dynamixel_driver/joint_states|name|J1,J2,J3,J4,J5,J6|pos|-0.000075,-1.268785,1.296250,0.002216,-1.080894,-0.000083|vel|0.000000,-0.000000,0.000000,0.000000,0.000000,0.000000|eff|0.000000,0.000000,0.000000,0.000000,0.000000,0.000000
cobot_dynamixel_driver/joint_states|name|J1,J2,J3,J4,J5,J6|pos|-0.000075,-1.268785,1.296250,0.002216,-1.080894,-0.000083|vel|0.000000,-0.000000,0.000000,0.000000,0.000000,0.000000|eff|0.000000,0.000000,0.000000,0.000000,0.000000,0.000000
cobot_dynamixel_driver/joint_states|name|J1,J2,J3,J4,J5,J6|pos|-0.000075,-1.268785,1.296250,0.002216,-1.080894,-0.000083|vel|0.000000,-0.000000,0.000000,0.000000,0.000000,0.000000|eff|0.000000,0.000000,0.000000,0.000000,0.000000,0.000000
cobot_dynamixel_driver/joint_states|name|J1,J2,J3,J4,J5,J6|pos|-0.000075,-1.268785,1.296250,0.002216,-1.080894,-0.000083|vel|0.000000,-0.000000,0.000000,0.000000,0.000000,0.000000|eff|0.000000,0.000000,-32.226562,0.000000,0.000000,0.000000
cobot_dynamixel_driver/joint_states|name|J1,J2,J3,J4,J5,J6|pos|-0.000075,-1.268785,1.296250,0.002216,-1.080894,-0.000083|vel|0.000000,-0.000000,0.000000,0.000000,0.000000,0.000000|eff|0.000000,0.000000,0.000000,0.000000,0.000000,0.000000
cobot_dynamixel_driver/joint_states|name|J1,J2,J3,J4,J5,J6|pos|-0.000075,-1.268785,1.296250,0.002216,-1.080894,-0.000083|vel|0.000000,-0.000000,0.000000,0.000000,0.000000,0.000000|eff|0.000000,0.000000,-32.226562,0.000000,0.000000,0.000000
cobot_dynamixel_driver/joint_states|name|J1,J2,J3,J4,J5,J6|pos|-0.000075,-1.268785,1.296250,0.002216,-1.080894,-0.000083|vel|0.000000,-0.000000,0.000000,0.000000,0.000000,0.000000|eff|0.000000,0.000000,-32.226562,0.000000,0.000000,0.000000
cobot_dynamixel_driver/joint_states|name|J1,J2,J3,J4,J5,J6|pos|-0.000075,-1.268785,1.296250,0.002216,-1.080894,-0.000083|vel|0.000000,-0.000000,0.000000,0.000000,0.000000,0.000000|eff|0.000000,0.000000,0.000000,0.000000,0.000000,0.000000
cobot_dynamixel_driver/joint_states|name|J1,J2,J3,J4,J5,J6|pos|-0.000075,-1.268785,1.296250,0.002216,-1.080894,-0.000083|vel|0.000000,-0.000000,0.000000,0.000000,0.000000,0.000000|eff|0.000000,0.000000,0.000000,0.000000,0.000000,0.000000
cobot_dynamixel_driver/joint_states|name|J1,J2,J3,J4,J5,J6|pos|-0.000075,-1.268785,1.296250,0.002216,-1.080894,-0.000083|vel|0.000000,-0.000000,0.000000,0.000000,0.000000,0.000000|eff|0.000000,0.000000,0.000000,0.000000,0.000000,0.000000
cobot_dynamixel_driver/joint_states|name|J1,J2,J3,J4,J5,J6|pos|-0.000075,-1.268785,1.296250,0.002216,-1.080894,-0.000083|vel|0.000000,-0.000000,0.000000,0.000000,0.000000,0.000000|eff|0.000000,0.000000,-64.453125,0.000000,0.000000,0.000000
cobot_dynamixel_driver/joint_states|name|J1,J2,J3,J4,J5,J6|pos|-0.000075,-1.268785,1.296250,0.002216,-1.080894,-0.000083|vel|0.000000,-0.000000,0.000000,0.000000,0.000000,0.000000|eff|0.000000,0.000000,0.000000,0.000000,0.000000,0.000000
cobot_dynamixel_driver/joint_states|name|J1,J2,J3,J4,J5,J6|pos|-0.000075,-1.268785,1.296250,0.002216,-1.080894,-0.000083|vel|0.000000,-0.000000,0.000000,0.000000,0.000000,0.000000|eff|0.000000,0.000000,0.000000,0.000000,0.000000,0.000000
cobot_dynamixel_driver/joint_states|name|J1,J2,J3,J4,J5,J6|pos|-0.000075,-1.268785,1.296250,0.002216,-1.080894,-0.000083|vel|0.000000,-0.000000,0.000000,0.000000,0.000000,0.000000|eff|0.000000,0.000000,0.000000,0.000000,0.000000,0.000000
cobot_dynamixel_driver/joint_states|name|J1,J2,J3,J4,J5,J6|pos|-0.000075,-1.268785,1.296250,0.002216,-1.080894,-0.000083|vel|0.000000,-0.000000,0.000000,0.000000,0.000000,0.000000|eff|0.000000,0.000000,-48.339844,0.000000,0.000000,0.000000
cobot_dynamixel_driver/joint_states|name|J1,J2,J3,J4,J5,J6|pos|-0.000075,-1.268785,1.296250,0.002216,-1.080894,-0.000083|vel|0.000000,-0.000000,0.000000,0.000000,0.000000,0.000000|eff|0.000000,0.000000,-32.226562,0.000000,0.000000,0.000000
cobot_dynamixel_driver/joint_states|name|J1,J2,J3,J4,J5,J6|pos|-0.000075,-1.268785,1.296250,0.002216,-1.080894,-0.000083|vel|0.000000,-0.000000,0.000000,0.000000,0.000000,0.000000|eff|0.000000,0.000000,-48.339844,0.000000,0.000000,0.000000
cobot_dynamixel_driver/joint_states|name|J1,J2,J3,J4,J5,J6|pos|-0.000075,-1.268785,1.296250,0.002216,-1.080894,-0.000083|vel|0.000000,-0.000000,0.000000,0.000000,0.000000,0.000000|eff|0.000000,0.000000,0.000000,0.000000,0.000000,0.000000
cobot_dynamixel_driver/joint_states|name|J1,J2,J3,J4,J5,J6|pos|-0.000075,-1.268785,1.296250,0.002216,-1.080894,-0.000083|vel|0.000000,-0.000000,0.000000,0.000000,0.000000,0.000000|eff|0.000000,0.000000,0.000000,0.000000,0.000000,0.000000
cobot_dynamixel_driver/joint_states|name|J1,J2,J3,J4,J5,J6|pos|-0.000075,-1.268785,1.296250,0.002216,-1.080894,-0.000083|vel|0.000000,-0.000000,0.000000,0.000000,0.000000,0.000000|eff|0.000000,0.000000,0.000000,0.000000,0.000000,0.000000
cobot_dynamixel_driver/joint_states|name|J1,J2,J3,J4,J5,J6|pos|-0.000075,-1.268785,1.296250,0.002216,-1.080894,-0.000083|vel|0.000000,-0.000000,0.000000,0.000000,0.000000,0.000000|eff|0.000000,0.000000,0.000000,0.000000,0.000000,0.000000
cobot_dynamixel_driver/joint_states|name|J1,J2,J3,J4,J5,J6|pos|-0.000075,-1.268785,1.296250,0.002216,-1.080894,-0.000083|vel|0.000000,-0.000000,0.000000,0.000000,0.000000,0.000000|eff|0.000000,0.000000,0.000000,0.000000,0.000000,0.000000
cobot_dynamixel_driver/joint_states|name|J1,J2,J3,J4,J5,J6|pos|-0.000075,-1.268785,1.296250,0.002216,-1.080894,-0.000083|vel|0.000000,-0.000000,0.000000,0.000000,0.000000,0.000000|eff|0.000000,0.000000,0.000000,0.000000,0.000000,0.000000
cobot_dynamixel_driver/joint_states|name|J1,J2,J3,J4,J5,J6|pos|-0.000075,-1.268785,1.296250,0.002216,-1.080894,-0.000083|vel|0.000000,-0.000000,0.000000,0.000000,0.000000,0.000000|eff|0.000000,0.000000,0.000000,0.000000,0.000000,0.000000
cobot_dynamixel_driver/joint_states|name|J1,J2,J3,J4,J5,J6|pos|-0.000075,-1.268785,1.296250,0.002216,-1.080894,-0.000083|vel|0.000000,-0.000000,0.000000,0.000000,0.000000,0.000000|eff|0.000000,0.000000,0.000000,0.000000,0.000000,0.000000
cobot_dynamixel_driver/joint_states|name|J1,J2,J3,J4,J5,J6|pos|-0.000075,-1.268785,1.296250,0.002216,-1.080894,-0.000083|vel|0.000000,-0.000000,0.000000,0.000000,0.000000,0.000000|eff|0.000000,0.000000,0.000000,0.000000,0.000000,0.000000
cobot_dynamixel_driver/joint_states|name|J1,J2,J3,J4,J5,J6|pos|-0.000075,-1.268785,1.296250,0.002216,-1.080894,-0.000083|vel|0.000000,-0.000000,0.000000,0.000000,0.000000,0.000000|eff|0.000000,0.000000,0.000000,0.000000,0.000000,0.000000
cobot_dynamixel_driver/joint_states|name|J1,J2,J3,J4,J5,J6|pos|-0.000075,-1.268785,1.296250,0.002216,-1.080894,-0.000083|vel|0.000000,-0.000000,0.000000,0.000000,0.000000,0.000000|eff|0.000000,0.000000,0.000000,0.000000,0.000000,0.000000
cobot_dynamixel_driver/joint_states|name|J1,J2,J3,J4,J5,J6|pos|-0.000075,-1.268785,1.296250,0.002216,-1.080894,-0.000083|vel|0.000000,-0.000000,0.000000,0.000000,0.000000,0.000000|eff|0.000000,0.000000,-48.339844,0.000000,0.000000,0.000000
cobot_dynamixel_driver/joint_states|name|J1,J2,J3,J4,J5,J6|pos|-0.000075,-1.268785,1.296250,0.002216,-1.080894,-0.000083|vel|0.000000,-0.000000,0.000000,0.000000,0.000000,0.000000|eff|0.000000,0.000000,0.000000,0.000000,0.000000,0.000000
cobot_dynamixel_driver/joint_states|name|J1,J2,J3,J4,J5,J6|pos|-0.000075,-1.268785,1.296250,0.002216,-1.080894,-0.000083|vel|0.000000,-0.000000,0.000000,0.000000,0.000000,0.000000|eff|0.000000,0.000000,0.000000,0.000000,0.000000,0.000000
cobot_dynamixel_driver/joint_states|name|J1,J2,J3,J4,J5,J6|pos|-0.000075,-1.268785,1.296250,0.002216,-1.080894,-0.000083|vel|0.000000,-0.000000,0.000000,0.000000,0.000000,0.000000|eff|0.000000,0.000000,-48.339844,0.000000,0.000000,0.000000
cobot_dynamixel_driver/joint_states|name|J1,J2,J3,J4,J5,J6|pos|-0.000075,-1.268785,1.296250,0.002216,-1.080894,-0.000083|vel|0.000000,-0.000000,0.000000,0.000000,0.000000,0.000000|eff|0.000000,0.000000,-48.339844,0.000000,0.000000,0.000000
cobot_dynamixel_driver/joint_states|name|J1,J2,J3,J4,J5,J6|pos|-0.000075,-1.268785,1.296250,0.002216,-1.080894,-0.000083|vel|0.000000,-0.000000,0.000000,0.000000,0.000000,0.000000|eff|0.000000,0.000000,-32.226562,0.000000,0.000000,0.000000
cobot_dynamixel_driver/joint_states|name|J1,J2,J3,J4,J5,J6|pos|-0.000075,-1.268785,1.296250,0.002216,-1.080894,-0.000083|vel|0.000000,-0.000000,0.000000,0.000000,0.000000,0.000000|eff|0.000000,0.000000,0.000000,0.000000,0.000000,0.000000
cobot_dynamixel_driver/joint_states|name|J1,J2,J3,J4,J5,J6|pos|-0.000075,-1.268785,1.296250,0.002216,-1.080894,-0.000083|vel|0.000000,-0.000000,0.000000,0.000000,0.000000,0.000000|eff|0.000000,0.000000,-32.226562,0.000000,0.000000,0.000000
cobot_dynamixel_driver/joint_states|name|J1,J2,J3,J4,J5,J6|pos|-0.000075,-1.268785,1.296250,0.002216,-1.080894,-0.000083|vel|0.000000,-0.000000,0.000000,0.000000,0.000000,0.000000|eff|0.000000,0.000000,0.000000,0.000000,0.000000,0.000000
cobot_dynamixel_driver/joint_states|name|J1,J2,J3,J4,J5,J6|pos|-0.000075,-1.268785,1.296250,0.002216,-1.080894,-0.000083|vel|0.000000,-0.000000,0.000000,0.000000,0.000000,0.000000|eff|0.000000,0.000000,0.000000,0.000000,0.000000,0.000000
cobot_dynamixel_driver/joint_states|name|J1,J2,J3,J4,J5,J6|pos|-0.000075,-1.268785,1.296250,0.002216,-1.080894,-0.000083|vel|0.000000,-0.000000,0.000000,0.000000,0.000000,0.000000|eff|0.000000,0.000000,-48.339844,0.000000,0.000000,0.000000
cobot_dynamixel_driver/joint_states|name|J1,J2,J3,J4,J5,J6|pos|-0.000075,-1.268785,1.296250,0.002216,-1.080894,-0.000083|vel|0.000000,-0.000000,0.000000,0.000000,0.000000,0.000000|eff|0.000000,0.000000,0.000000,0.000000,0.000000,0.000000
cobot_dynamixel_driver/joint_states|name|J1,J2,J3,J4,J5,J6|pos|-0.000075,-1.268785,1.296250,0.002216,-1.080894,-0.000083|vel|0.000000,-0.000000,0.000000,0.000000,0.000000,0.000000|eff|0.000000,0.000000,0.000000,0.000000,0.000000,0.000000
cobot_dynamixel_driver/goal|-:J1,J2,J3,J4,J5,J6:0.000000,0.000000,0.000000,0.000000,0.000000,0.000000:0.700000,0.700000,0.700000,0.700000,0.700000,0.700000:pos_vel_
cobot_dynamixel_driver/joint_states|name|J1,J2,J3,J4,J5,J6|pos|-0.000075,-1.268785,1.296275,0.002216,-1.079591,-0.000083|vel|0.000000,-0.000000,0.000000,0.000000,0.000000,0.000000|eff|0.000000,0.000000,0.000000,0.000000,0.000000,0.000000
cobot_dynamixel_driver/joint_states|name|J1,J2,J3,J4,J5,J6|pos|-0.000075,-1.268772,1.296262,0.002203,-1.079529,-0.000083|vel|0.000000,-0.000000,0.000000,0.000000,0.000000,0.000000|eff|0.000000,-241.699219,-161.132812,-209.472656,80.566406,0.000000
cobot_dynamixel_driver/joint_states|name|J1,J2,J3,J4,J5,J6|pos|-0.000075,-1.268347,1.295837,0.002078,-1.078412,-0.000083|vel|0.000000,0.037139,-0.036096,-0.010850,0.104099,0.000000|eff|0.000000,-644.531250,-515.625000,-96.679688,153.076172,0.000000
cobot_dynamixel_driver/joint_states|name|J1,J2,J3,J4,J5,J6|pos|-0.000075,-1.267020,1.294347,0.002078,-1.075474,-0.000083|vel|0.000000,0.099942,-0.093891,-0.010850,0.168213,0.000000|eff|0.000000,-1160.156250,-886.230469,-96.679688,120.849609,0.000000
cobot_dynamixel_driver/joint_states|name|J1,J2,J3,J4,J5,J6|pos|-0.000075,-1.264428,1.291881,0.002066,-1.071006,-0.000083|vel|0.000000,0.156902,-0.136246,-0.000417,0.264729,0.000000|eff|0.000000,-1820.800781,-1772.460938,-96.679688,116.821289,0.000000
cobot_dynamixel_driver/joint_states|name|J1,J2,J3,J4,J5,J6|pos|-0.000075,-1.260585,1.287975,0.001953,-1.065545,-0.000083|vel|0.000000,0.253088,-0.257887,-0.009806,0.271279,0.000000|eff|0.000000,-1998.046875,-1788.574219,-161.132812,60.424805,0.000000
cobot_dynamixel_driver/joint_states|name|J1,J2,J3,J4,J5,J6|pos|-0.000075,-1.255115,1.282029,0.001753,-1.058988,-0.000083|vel|0.000000,0.329036,-0.348440,-0.009598,0.347457,0.000000|eff|0.000000,-2094.726562,-1305.175781,-177.246094,88.623047,0.000000
cobot_dynamixel_driver/joint_states|name|J1,J2,J3,J4,J5,J6|pos|-0.000075,-1.248380,1.274693,0.001590,-1.051645,-0.000083|vel|0.000000,0.395177,-0.412703,-0.008137,0.426738,0.000000|eff|0.000000,-1724.121094,-1224.609375,-193.359375,92.651367,0.000000
cobot_dynamixel_driver/joint_states|name|J1,J2,J3,J4,J5,J6|pos|-0.000075,-1.240506,1.266657,0.001427,-1.043474,-0.000083|vel|0.000000,0.424179,-0.436906,-0.008137,0.429840,0.000000|eff|0.000000,-2110.839844,-1434.082031,-193.359375,48.339844,0.000000
cobot_dynamixel_driver/joint_states|name|J1,J2,J3,J4,J5,J6|pos|-0.000075,-1.231856,1.257856,0.001264,-1.034683,-0.000083|vel|0.000000,0.412703,-0.471333,-0.008972,0.483958,0.000000|eff|0.000000,-1820.800781,-1240.722656,-225.585938,76.538086,0.000000
cobot_dynamixel_driver/joint_states|name|J1,J2,J3,J4,J5,J6|pos|-0.000075,-1.222517,1.248393,0.001077,-1.025250,-0.000083|vel|0.000000,0.517652,-0.512853,-0.010432,0.437769,0.000000|eff|0.000000,-3158.203125,-1256.835938,-161.132812,80.566406,0.000000
cobot_dynamixel_driver/joint_states|name|J1,J2,J3,J4,J5,J6|pos|-0.000075,-1.212478,1.238453,0.000951,-1.015301,-0.000083|vel|0.000000,0.540395,-0.512019,-0.006051,0.444318,0.000000|eff|0.000000,-1321.289062,-1724.121094,-225.585938,32.226562,0.000000
cobot_dynamixel_driver/joint_states|name|J1,J2,J3,J4,J5,J6|pos|-0.000075,-1.201862,1.228526,0.000851,-1.005041,-0.000083|vel|0.000000,0.542064,-0.555000,-0.004590,0.547038,0.000000|eff|32.226562,-1756.347656,-1853.027344,-257.812500,64.453125,16.113281
cobot_dynamixel_driver/joint_states|name|J1,J2,J3,J4,J5,J6|pos|-0.000075,-1.191009,1.217698,0.000751,-0.994326,-0.000083|vel|0.000000,0.577117,-0.548949,-0.005633,0.552898,0.000000|eff|96.679688,-2529.785156,-934.570312,-193.359375,72.509766,28.198242
cobot_dynamixel_driver/joint_states|name|J1,J2,J3,J4,J5,J6|pos|-0.000075,-1.179668,1.206507,0.000663,-0.983135,-0.000083|vel|0.000000,0.561677,-0.556878,-0.004173,0.665270,0.000000|eff|0.000000,-2819.824219,-1256.835938,-161.132812,40.283203,0.000000
cobot_dynamixel_driver/joint_states|name|J1,J2,J3,J4,J5,J6|pos|-0.000075,-1.168689,1.195090,0.000576,-0.971717,-0.000083|vel|0.000000,0.584211,-0.590887,-0.004173,0.593573,0.000000|eff|0.000000,-3045.410156,-886.230469,-161.132812,52.368164,0.000000
cobot_dynamixel_driver/joint_states|name|J1,J2,J3,J4,J5,J6|pos|-0.000075,-1.156934,1.183385,0.000501,-0.960112,-0.000083|vel|0.000000,0.618011,-0.621767,-0.004382,0.600811,0.000000|eff|0.000000,-1643.554688,-982.910156,-241.699219,40.283203,32.226562
cobot_dynamixel_driver/joint_states|name|J1,J2,J3,J4,J5,J6|pos|-0.000075,-1.144917,1.171493,0.000413,-0.948342,-0.000083|vel|0.000000,0.630739,-0.630322,-0.004382,0.605293,0.000000|eff|0.000000,-1740.234375,-1240.722656,-257.812500,64.453125,32.226562
cobot_dynamixel_driver/joint_states|name|J1,J2,J3,J4,J5,J6|pos|-0.000075,-1.132599,1.159400,0.000363,-0.936882,-0.000083|vel|0.000000,0.672260,-0.628861,-0.002504,0.520152,0.000000|eff|64.453125,-805.664062,-1256.835938,-193.359375,64.453125,28.198242
cobot_dynamixel_driver/joint_states|name|J1,J2,J3,J4,J5,J6|pos|-0.000075,-1.120168,1.147032,0.000325,-0.924699,-0.000083|vel|0.000000,0.665583,-0.635538,-0.001878,0.654929,0.000000|eff|0.000000,-918.457031,-2014.160156,-193.359375,64.453125,20.141602
cobot_dynamixel_driver/joint_states|name|J1,J2,J3,J4,J5,J6|pos|-0.000075,-1.107500,1.134639,0.000288,-0.912287,-0.000083|vel|0.000000,0.618637,-0.646179,-0.001669,0.656308,0.000000|eff|0.000000,-531.738281,-1611.328125,-193.359375,64.453125,0.000000
cobot_dynamixel_driver/joint_states|name|J1,J2,J3,J4,J5,J6|pos|-0.000075,-1.094857,1.122046,0.000250,-0.899856,-0.000083|vel|0.000000,0.650143,-0.562303,-0.001669,0.636316,0.000000|eff|128.906250,-886.230469,-1788.574219,-193.359375,52.368164,0.000000
cobot_dynamixel_driver/joint_states|name|J1,J2,J3,J4,J5,J6|pos|-0.000075,-1.081975,1.109453,0.000225,-0.887175,-0.000083|vel|0.000000,0.665166,-0.654525,-0.001669,0.640107,0.000000|eff|0.000000,-2046.386719,-2046.386719,-209.472656,36.254883,0.000000
cobot_dynamixel_driver/joint_states|name|J1,J2,J3,J4,J5,J6|pos|-0.000075,-1.069056,1.096471,0.000200,-0.874537,-0.000083|vel|0.000000,0.675181,-0.680397,-0.001252,0.636660,0.000000|eff|0.000000,-2610.351562,-644.531250,-177.246094,76.538086,8.056641
cobot_dynamixel_driver/joint_states|name|J1,J2,J3,J4,J5,J6|pos|-0.000063,-1.056100,1.084191,0.000175,-0.861670,-0.000083|vel|0.000000,0.706895,-0.713154,-0.001043,0.711460,0.000000|eff|0.000000,-563.964844,-1127.929688,-177.246094,96.679688,32.226562
cobot_dynamixel_driver/joint_states|name|J1,J2,J3,J4,J5,J6|pos|-0.000063,-1.043056,1.071109,0.000150,-0.848763,-0.000083|vel|0.000000,0.669547,-0.653064,-0.001043,0.706634,0.000000|eff|0.000000,-1917.480469,-1675.781250,-209.472656,28.198242,12.084961
cobot_dynamixel_driver/joint_states|name|J1,J2,J3,J4,J5,J6|pos|-0.000063,-1.030050,1.058053,0.000113,-0.835834,-0.000083|vel|0.000000,0.674555,-0.688951,-0.001461,0.702153,0.000000|eff|0.000000,-354.492188,-805.664062,-209.472656,92.651367,12.084961
cobot_dynamixel_driver/joint_states|name|J1,J2,J3,J4,J5,J6|pos|-0.000063,-1.016906,1.044971,0.000100,-0.822823,-0.000083|vel|0.000000,0.669130,-0.602572,-0.001252,0.751101,0.000000|eff|128.906250,-2739.257812,-1756.347656,-225.585938,36.254883,20.141602
cobot_dynamixel_driver/joint_states|name|J1,J2,J3,J4,J5,J6|pos|-0.000063,-1.004250,1.031815,0.000088,-0.809874,-0.000083|vel|0.000000,0.689577,-0.721083,-0.001252,0.591160,0.000000|eff|145.019531,-1482.421875,-1160.156250,-225.585938,76.538086,12.084961
cobot_dynamixel_driver/joint_states|name|J1,J2,J3,J4,J5,J6|pos|-0.000050,-0.990855,1.018696,0.000088,-0.796801,-0.000083|vel|0.000000,0.657863,-0.619055,-0.000417,0.780055,0.000000|eff|0.000000,-370.605469,-1659.667969,-225.585938,28.198242,0.000000
cobot_dynamixel_driver/joint_states|name|J1,J2,J3,J4,J5,J6|pos|-0.000050,-0.977498,1.005376,0.000075,-0.783811,-0.000083|vel|0.000000,0.679771,-0.702513,-0.000417,0.764199,0.000000|eff|0.000000,-1772.460938,-2030.273438,-225.585938,40.283203,36.254883
cobot_dynamixel_driver/joint_states|name|J1,J2,J3,J4,J5,J6|pos|-0.000050,-0.964191,0.991932,0.000063,-0.771110,-0.000083|vel|0.000000,0.667252,-0.652647,-0.000417,0.729729,0.000000|eff|64.453125,-3093.750000,-1192.382812,-209.472656,60.424805,32.226562
cobot_dynamixel_driver/joint_states|name|J1,J2,J3,J4,J5,J6|pos|-0.000050,-0.950722,0.978675,0.000063,-0.757623,-0.000083|vel|0.000000,0.626566,-0.722126,-0.000209,0.685263,0.000000|eff|0.000000,-1933.593750,-708.984375,-177.246094,20.141602,16.113281
cobot_dynamixel_driver/joint_states|name|J1,J2,J3,J4,J5,J6|pos|-0.000050,-0.937215,0.965105,0.000050,-0.744488,-0.000083|vel|0.000000,0.706060,-0.688743,-0.000209,0.700085,0.000000|eff|112.792969,-1144.042969,-467.285156,-161.132812,108.764648,36.254883
cobot_dynamixel_driver/joint_states|name|J1,J2,J3,J4,J5,J6|pos|-0.000050,-0.923845,0.951673,0.000050,-0.731146,-0.000083|vel|0.000000,0.681440,-0.678310,-0.000209,0.723869,0.000000|eff|0.000000,-370.605469,-1031.250000,-177.246094,48.339844,20.141602
cobot_dynamixel_driver/joint_states|name|J1,J2,J3,J4,J5,J6|pos|-0.000050,-0.910526,0.938441,0.000038,-0.717804,-0.000083|vel|0.000000,0.690829,-0.670173,-0.000209,0.645622,0.000000|eff|0.000000,-1949.707031,-1595.214844,-145.019531,8.056641,0.000000
cobot_dynamixel_driver/joint_states|name|J1,J2,J3,J4,J5,J6|pos|-0.000050,-0.897319,0.925022,0.000038,-0.704751,-0.000083|vel|0.000000,0.653273,-0.690203,-0.000209,0.734555,0.000000|eff|0.000000,-2046.386719,-870.117188,-209.472656,120.849609,8.056641
cobot_dynamixel_driver/joint_states|name|J1,J2,J3,J4,J5,J6|pos|-0.000050,-0.883787,0.912378,0.000013,-0.691099,-0.000083|vel|0.000000,0.710233,-0.711902,-0.000209,0.752824,0.000000|eff|0.000000,-1079.589844,-580.078125,-209.472656,36.254883,40.283203
cobot_dynamixel_driver/joint_states|name|J1,J2,J3,J4,J5,J6|pos|-0.000050,-0.870280,0.898759,0.000000,-0.677674,-0.000083|vel|0.000000,0.702931,-0.625940,-0.000835,0.685952,0.000000|eff|0.000000,-1047.363281,-644.531250,-145.019531,16.113281,36.254883
cobot_dynamixel_driver/joint_states|name|J1,J2,J3,J4,J5,J6|pos|-0.000050,-0.856772,0.885214,-0.000013,-0.664290,-0.000083|vel|0.000000,0.702513,-0.621141,-0.000835,0.707668,0.000000|eff|64.453125,-418.945312,-805.664062,-225.585938,-8.056641,36.254883
cobot_dynamixel_driver/joint_states|name|J1,J2,J3,J4,J5,J6|pos|-0.000038,-0.843240,0.871606,-0.000013,-0.651259,-0.000083|vel|0.000000,0.716284,-0.696463,-0.000417,0.663892,0.000000|eff|96.679688,-418.945312,-531.738281,-209.472656,92.651367,0.000000
cobot_dynamixel_driver/joint_states|name|J1,J2,J3,J4,J5,J6|pos|-0.000038,-0.830321,0.858325,-0.000025,-0.637792,-0.000083|vel|0.000000,0.693333,-0.724421,-0.000417,0.680437,0.000000|eff|145.019531,-193.359375,-2255.859375,-209.472656,20.141602,36.254883
cobot_dynamixel_driver/joint_states|name|J1,J2,J3,J4,J5,J6|pos|-0.000038,-0.816677,0.844667,-0.000025,-0.624347,-0.000083|vel|0.000000,0.666626,-0.715449,-0.000417,0.685263,0.000000|eff|0.000000,-257.812500,-2352.539062,-225.585938,52.368164,16.113281
cobot_dynamixel_driver/joint_states|name|J1,J2,J3,J4,J5,J6|pos|-0.000038,-0.803144,0.831022,-0.000038,-0.610922,-0.000083|vel|0.000000,0.630947,-0.742573,-0.000417,0.712494,0.000000|eff|0.000000,-306.152344,-1788.574219,-225.585938,140.991211,24.169922
cobot_dynamixel_driver/joint_states|name|J1,J2,J3,J4,J5,J6|pos|-0.000038,-0.789550,0.817453,-0.000050,-0.597311,-0.000062|vel|0.000000,0.723587,-0.718370,-0.000209,0.729384,0.000000|eff|64.453125,-338.378906,-2288.085938,-161.132812,84.594727,40.283203
cobot_dynamixel_driver/joint_states|name|J1,J2,J3,J4,J5,J6|pos|-0.000038,-0.776143,0.803870,-0.000050,-0.584548,-0.000062|vel|0.000000,0.722126,-0.690203,-0.000209,0.682850,0.000000|eff|96.679688,-1691.894531,-1240.722656,-177.246094,64.453125,40.283203
cobot_dynamixel_driver/joint_states|name|J1,J2,J3,J4,J5,J6|pos|-0.000038,-0.762623,0.790551,-0.000050,-0.571020,-0.000062|vel|0.000000,0.719622,-0.715241,-0.000209,0.648035,0.000000|eff|128.906250,-2545.898438,-1353.515625,-161.132812,76.538086,24.169922
cobot_dynamixel_driver/joint_states|name|J1,J2,J3,J4,J5,J6|pos|-0.000025,-0.749116,0.777056,-0.000050,-0.557533,-0.000062|vel|0.000000,0.660158,-0.614047,-0.000209,0.724214,0.000000|eff|145.019531,-2916.503906,-999.023438,-241.699219,-24.169922,40.283203
cobot_dynamixel_driver/joint_states|name|J1,J2,J3,J4,J5,J6|pos|-0.000025,-0.735784,0.763499,-0.000050,-0.544108,-0.000041|vel|0.000000,0.645344,-0.641171,-0.000209,0.680092,0.000000|eff|128.906250,-854.003906,-837.890625,-128.906250,48.339844,40.283203
cobot_dynamixel_driver/joint_states|name|J1,J2,J3,J4,J5,J6|pos|-0.000025,-0.722427,0.749929,-0.000063,-0.530601,-0.000021|vel|0.000000,0.724213,-0.694585,-0.000209,0.688710,0.000000|eff|0.000000,-128.906250,-612.304688,-209.472656,60.424805,0.000000
cobot_dynamixel_driver/joint_states|name|J1,J2,J3,J4,J5,J6|pos|-0.000025,-0.709057,0.737298,-0.000063,-0.517114,-0.000021|vel|0.000000,0.687073,-0.735479,0.000000,0.596330,0.000000|eff|161.132812,-1466.308594,-1450.195312,-193.359375,-16.113281,28.198242
cobot_dynamixel_driver/joint_states|name|J1,J2,J3,J4,J5,J6|pos|-0.000025,-0.695438,0.723604,-0.000063,-0.503999,-0.000021|vel|0.000000,0.687491,-0.735479,0.000000,0.670786,0.000000|eff|145.019531,-966.796875,-1127.929688,-161.132812,173.217773,40.283203
cobot_dynamixel_driver/joint_states|name|J1,J2,J3,J4,J5,J6|pos|-0.000025,-0.681818,0.709946,-0.000063,-0.490471,-0.000021|vel|0.000000,0.717119,-0.648057,0.000000,0.664236,0.000000|eff|0.000000,-1047.363281,-805.664062,-128.906250,92.651367,40.283203
cobot_dynamixel_driver/joint_states|name|J1,J2,J3,J4,J5,J6|pos|-0.000025,-0.668148,0.696289,-0.000063,-0.476943,-0.000021|vel|0.000000,0.744660,-0.717953,0.000000,0.745930,0.000000|eff|145.019531,-934.570312,-644.531250,-128.906250,0.000000,44.311523
cobot_dynamixel_driver/joint_states|name|J1,J2,J3,J4,J5,J6|pos|-0.000025,-0.654528,0.682744,-0.000063,-0.463849,-0.000021|vel|0.000000,0.690829,-0.705852,0.000000,0.656998,0.000000|eff|145.019531,-209.472656,-741.210938,-161.132812,116.821289,44.311523
cobot_dynamixel_driver/joint_states|name|J1,J2,J3,J4,J5,J6|pos|-0.000025,-0.641534,0.669262,-0.000063,-0.450755,-0.000021|vel|0.000000,0.688951,-0.735479,0.000000,0.613565,0.000000|eff|161.132812,-418.945312,-1611.328125,-128.906250,149.047852,20.141602
cobot_dynamixel_driver/joint_states|name|J1,J2,J3,J4,J5,J6|pos|-0.000025,-0.627852,0.655692,-0.000063,-0.437227,-0.000021|vel|0.000000,0.728385,-0.644301,0.000000,0.708013,0.000000|eff|0.000000,-80.566406,-2110.839844,-193.359375,68.481445,44.311523
cobot_dynamixel_driver/joint_states|name|J1,J2,J3,J4,J5,J6|pos|-0.000025,-0.614332,0.642298,-0.000063,-0.424319,-0.000021|vel|0.000000,0.696880,-0.715449,0.000000,0.721456,0.000000|eff|0.000000,-580.078125,-1949.707031,-128.906250,0.000000,44.311523
cobot_dynamixel_driver/joint_states|name|J1,J2,J3,J4,J5,J6|pos|-0.000025,-0.600737,0.629003,-0.000063,-0.410853,-0.000021|vel|0.000000,0.701261,-0.573570,0.000000,0.730419,0.000000|eff|0.000000,-257.812500,-1176.269531,-161.132812,132.934570,40.283203
cobot_dynamixel_driver/joint_states|name|J1,J2,J3,J4,J5,J6|pos|-0.000013,-0.587142,0.615534,-0.000063,-0.397201,-0.000021|vel|0.000000,0.674137,-0.743408,0.000000,0.716286,0.000000|eff|0.000000,-886.230469,-628.417969,-145.019531,64.453125,32.226562
cobot_dynamixel_driver/joint_states|name|J1,J2,J3,J4,J5,J6|pos|-0.000013,-0.573447,0.601914,-0.000063,-0.383735,-0.000021|vel|0.000000,0.713363,-0.706060,0.000000,0.734900,0.000000|eff|0.000000,112.792969,-725.097656,-128.906250,48.339844,44.311523
cobot_dynamixel_driver/joint_states|name|J1,J2,J3,J4,J5,J6|pos|-0.000013,-0.559752,0.588307,-0.000063,-0.370186,-0.000021|vel|0.000000,0.708355,-0.631991,0.000000,0.741449,0.000000|eff|0.000000,-241.699219,-547.851562,-128.906250,44.311523,44.311523
cobot_dynamixel_driver/joint_states|name|J1,J2,J3,J4,J5,J6|pos|-0.000013,-0.546158,0.574662,-0.000063,-0.356906,-0.000021|vel|0.000000,0.686239,-0.679979,0.000000,0.728006,0.000000|eff|32.226562,0.000000,-757.324219,-128.906250,132.934570,20.141602
cobot_dynamixel_driver/joint_states|name|J1,J2,J3,J4,J5,J6|pos|-0.000013,-0.532638,0.560917,-0.000063,-0.343315,-0.000021|vel|0.000000,0.718370,-0.688325,0.000000,0.653895,0.000000|eff|128.906250,-80.566406,-886.230469,-128.906250,84.594727,32.226562
cobot_dynamixel_driver/joint_states|name|J1,J2,J3,J4,J5,J6|pos|-0.000013,-0.519093,0.548035,-0.000063,-0.329808,-0.000021|vel|0.000000,0.710442,-0.727551,0.000000,0.687331,0.000000|eff|145.019531,-225.585938,-1047.363281,-112.792969,8.056641,40.283203
cobot_dynamixel_driver/joint_states|name|J1,J2,J3,J4,J5,J6|pos|-0.000013,-0.505423,0.534391,-0.000063,-0.316383,-0.000021|vel|0.000000,0.744243,-0.725047,0.000000,0.682505,0.000000|eff|96.679688,112.792969,-950.683594,-112.792969,72.509766,44.311523
cobot_dynamixel_driver/joint_states|name|J1,J2,J3,J4,J5,J6|pos|-0.000013,-0.491904,0.520758,-0.000063,-0.302813,-0.000021|vel|0.000000,0.704808,-0.742991,0.000000,0.632179,0.000000|eff|64.453125,-596.191406,-854.003906,-128.906250,44.311523,28.198242
cobot_dynamixel_driver/joint_states|name|J1,J2,J3,J4,J5,J6|pos|-0.000013,-0.479072,0.507151,-0.000063,-0.289326,-0.000021|vel|0.000000,0.687699,-0.695002,0.000000,0.627698,0.000000|eff|80.566406,-1111.816406,-1095.703125,-177.246094,80.566406,24.169922
cobot_dynamixel_driver/joint_states|name|J1,J2,J3,J4,J5,J6|pos|-0.000013,-0.465528,0.493794,-0.000063,-0.275860,-0.000021|vel|0.000000,0.681857,-0.704391,0.000000,0.684574,0.000000|eff|145.019531,-1981.933594,-821.777344,-112.792969,84.594727,0.000000
cobot_dynamixel_driver/joint_states|name|J1,J2,J3,J4,J5,J6|pos|-0.000013,-0.451895,0.480199,-0.000063,-0.262642,-0.000021|vel|0.000000,0.677893,-0.737983,0.000000,0.696293,0.000000|eff|64.453125,-2626.464844,-596.191406,-145.019531,80.566406,36.254883
cobot_dynamixel_driver/joint_states|name|J1,J2,J3,J4,J5,J6|pos|-0.000013,-0.438301,0.466679,-0.000063,-0.249280,-0.000021|vel|0.000000,0.697088,-0.760517,0.000000,0.830726,0.000000|eff|0.000000,-1627.441406,-725.097656,-112.792969,132.934570,12.084961
cobot_dynamixel_driver/joint_states|name|J1,J2,J3,J4,J5,J6|pos|-0.000013,-0.424793,0.453097,-0.000063,-0.235627,-0.000021|vel|0.000000,0.653481,-0.724630,0.000000,0.630111,0.000000|eff|128.906250,-2529.785156,-805.664062,-112.792969,24.169922,8.056641
cobot_dynamixel_driver/joint_states|name|J1,J2,J3,J4,J5,J6|pos|-0.000013,-0.411349,0.439327,-0.000063,-0.222782,-0.000021|vel|0.000000,0.722961,-0.697088,0.000000,0.744207,0.000000|eff|0.000000,-1611.328125,-467.285156,-161.132812,68.481445,20.141602
cobot_dynamixel_driver/joint_states|name|J1,J2,J3,J4,J5,J6|pos|-0.000013,-0.397779,0.425682,-0.000063,-0.209274,-0.000021|vel|0.000000,0.727134,-0.641797,0.000000,0.713184,0.000000|eff|128.906250,-1417.968750,-757.324219,-112.792969,177.246094,12.084961
cobot_dynamixel_driver/joint_states|name|J1,J2,J3,J4,J5,J6|pos|0.000000,-0.384134,0.412113,-0.000063,-0.195725,-0.000021|vel|0.000000,0.676224,-0.708981,0.000000,0.683884,0.000000|eff|145.019531,-2384.765625,-692.871094,-161.132812,112.792969,44.311523
cobot_dynamixel_driver/joint_states|name|J1,J2,J3,J4,J5,J6|pos|0.000000,-0.370527,0.398505,-0.000063,-0.182507,-0.000021|vel|0.000000,0.672468,-0.634286,0.000000,0.689399,0.000000|eff|0.000000,-1337.402344,-644.531250,-112.792969,116.821289,40.283203
cobot_dynamixel_driver/joint_states|name|J1,J2,J3,J4,J5,J6|pos|0.000000,-0.356982,0.384873,-0.000063,-0.169372,-0.000021|vel|0.000000,0.701053,-0.648057,0.000000,0.837275,0.000000|eff|0.000000,-982.910156,-435.058594,-161.132812,157.104492,28.198242
cobot_dynamixel_driver/joint_states|name|J1,J2,J3,J4,J5,J6|pos|0.000000,-0.343425,0.371604,-0.000063,-0.155720,-0.000021|vel|0.000000,0.699384,-0.679979,0.000000,0.618391,0.000000|eff|0.000000,-612.304688,-1369.628906,-112.792969,56.396484,40.283203
cobot_dynamixel_driver/joint_states|name|J1,J2,J3,J4,J5,J6|pos|0.000000,-0.329918,0.358735,-0.000063,-0.142377,-0.000021|vel|0.000000,0.654942,-0.732350,0.000000,0.701464,0.000000|eff|0.000000,-273.925781,-1949.707031,-112.792969,16.113281,36.254883
cobot_dynamixel_driver/joint_states|name|J1,J2,J3,J4,J5,J6|pos|0.000000,-0.316361,0.345140,-0.000063,-0.129035,-0.000021|vel|0.000000,0.721083,-0.693541,0.000000,0.620804,0.000000|eff|0.000000,0.000000,-2143.066406,-112.792969,92.651367,20.141602
cobot_dynamixel_driver/joint_states|name|J1,J2,J3,J4,J5,J6|pos|0.000000,-0.302791,0.331620,-0.000063,-0.115466,-0.000021|vel|0.000000,0.682275,-0.683318,0.000000,0.715252,0.000000|eff|64.453125,467.285156,-1933.593750,-112.792969,100.708008,44.311523
cobot_dynamixel_driver/joint_states|name|J1,J2,J3,J4,J5,J6|pos|0.000000,-0.289885,0.318076,-0.000063,-0.102062,0.000000|vel|0.000000,0.673094,-0.707938,0.000000,0.679748,0.000000|eff|128.906250,161.132812,-1756.347656,-112.792969,124.877930,44.311523
cobot_dynamixel_driver/joint_states|name|J1,J2,J3,J4,J5,J6|pos|0.000000,-0.276277,0.304468,-0.000063,-0.088823,0.000000|vel|0.000000,0.725464,-0.727134,0.000000,0.672854,0.000000|eff|0.000000,290.039062,-1836.914062,-112.792969,-28.198242,28.198242
cobot_dynamixel_driver/joint_states|name|J1,J2,J3,J4,J5,J6|pos|0.000000,-0.262720,0.290873,-0.000063,-0.077405,0.000000|vel|0.000000,0.633243,-0.681857,0.000000,0.494644,0.000000|eff|145.019531,290.039062,-1853.027344,-112.792969,8.056641,12.084961
cobot_dynamixel_driver/joint_states|name|J1,J2,J3,J4,J5,J6|pos|0.000000,-0.247861,0.276528,-0.000063,-0.067227,0.000000|vel|0.000000,0.708355,-0.682900,0.000000,0.450178,0.000000|eff|112.792969,-950.683594,-1208.496094,-112.792969,20.141602,44.311523
cobot_dynamixel_driver/joint_states|name|J1,J2,J3,J4,J5,J6|pos|0.000000,-0.235706,0.263584,-0.000050,-0.059636,0.000000|vel|0.000000,0.713780,-0.674972,0.000000,0.337806,0.000000|eff|96.679688,-177.246094,-1885.253906,-112.792969,24.169922,40.283203
cobot_dynamixel_driver/joint_states|name|J1,J2,J3,J4,J5,J6|pos|0.000000,-0.220095,0.248950,-0.000050,-0.051155,0.000000|vel|0.000000,0.701679,-0.697088,0.000000,0.300578,0.000000|eff|161.132812,-1530.761719,-1176.269531,-112.792969,20.141602,20.141602
cobot_dynamixel_driver/joint_states|name|J1,J2,J3,J4,J5,J6|pos|0.000013,-0.208504,0.236732,-0.000050,-0.045735,0.000000|vel|0.000000,0.698132,-0.736105,0.000000,0.302302,0.000000|eff|0.000000,-692.871094,-854.003906,-64.453125,28.198242,44.311523
cobot_dynamixel_driver/joint_states|name|J1,J2,J3,J4,J5,J6|pos|0.000013,-0.194846,0.223100,-0.000050,-0.040088,0.000000|vel|0.000000,0.679771,-0.719622,0.000000,0.303336,0.000000|eff|0.000000,451.171875,-837.890625,-64.453125,52.368164,44.311523
cobot_dynamixel_driver/joint_states|name|J1,J2,J3,J4,J5,J6|pos|0.000013,-0.181264,0.209455,-0.000050,-0.035103,0.000000|vel|0.000000,0.708981,-0.708981,0.000000,0.276104,0.000000|eff|112.792969,-112.792969,-870.117188,-112.792969,36.254883,24.169922
cobot_dynamixel_driver/joint_states|name|J1,J2,J3,J4,J5,J6|pos|0.000013,-0.167719,0.195835,-0.000050,-0.030738,0.000000|vel|0.000000,0.695837,-0.703557,0.000000,0.228536,0.000000|eff|0.000000,-1240.722656,-1031.250000,-112.792969,60.424805,44.311523
cobot_dynamixel_driver/joint_states|name|J1,J2,J3,J4,J5,J6|pos|0.000013,-0.154200,0.182265,-0.000050,-0.026953,0.000000|vel|0.000000,0.667669,-0.717327,0.000000,0.188551,0.000000|eff|0.000000,-1063.476562,-1144.042969,-112.792969,60.424805,8.056641
cobot_dynamixel_driver/joint_states|name|J1,J2,J3,J4,J5,J6|pos|0.000013,-0.140642,0.169347,-0.000050,-0.023623,0.000000|vel|0.000000,0.687908,-0.720040,0.000000,0.153047,0.000000|eff|64.453125,-1562.988281,-773.437500,-112.792969,72.509766,44.311523
cobot_dynamixel_driver/joint_states|name|J1,J2,J3,J4,J5,J6|pos|0.000025,-0.127022,0.155839,-0.000050,-0.020706,0.000000|vel|0.000000,0.696880,-0.680188,0.000000,0.148221,0.000000|eff|0.000000,-1869.140625,-725.097656,-112.792969,64.453125,44.311523
cobot_dynamixel_driver/joint_states|name|J1,J2,J3,J4,J5,J6|pos|0.000025,-0.113440,0.141531,-0.000050,-0.018162,0.000000|vel|0.000000,0.701053,-0.687908,0.000000,0.129262,0.000000|eff|64.453125,-741.210938,-1031.250000,-112.792969,68.481445,44.311523
cobot_dynamixel_driver/joint_states|name|J1,J2,J3,J4,J5,J6|pos|0.000025,-0.100559,0.128612,-0.000050,-0.015907,0.000000|vel|0.000000,0.712111,-0.709816,0.000000,0.115819,0.000000|eff|161.132812,-2094.726562,-773.437500,-32.226562,64.453125,40.283203
cobot_dynamixel_driver/joint_states|name|J1,J2,J3,J4,J5,J6|pos|0.000025,-0.087565,0.114955,-0.000050,-0.013921,0.000000|vel|0.000000,0.523912,-0.618846,0.000000,0.079626,0.000000|eff|0.000000,1063.476562,-547.851562,-96.679688,68.481445,40.283203
cobot_dynamixel_driver/joint_states|name|J1,J2,J3,J4,J5,J6|pos|0.000038,-0.075735,0.101535,-0.000050,-0.012184,0.000000|vel|0.000000,0.548323,-0.675598,0.000000,0.071008,0.000000|eff|96.679688,837.890625,-531.738281,-112.792969,84.594727,20.141602
cobot_dynamixel_driver/joint_states|name|J1,J2,J3,J4,J5,J6|pos|0.000038,-0.065470,0.088604,-0.000050,-0.010674,0.000000|vel|0.000000,0.503464,-0.701887,0.000000,0.073076,0.000000|eff|128.906250,1208.496094,-902.343750,-96.679688,68.481445,44.311523
cobot_dynamixel_driver/joint_states|name|J1,J2,J3,J4,J5,J6|pos|0.000038,-0.056620,0.076912,-0.000050,-0.009433,0.000000|vel|0.000000,0.398515,-0.553122,0.000000,0.062391,0.000000|eff|96.679688,96.679688,-1144.042969,-64.453125,88.623047,44.311523
cobot_dynamixel_driver/joint_states|name|J1,J2,J3,J4,J5,J6|pos|0.000038,-0.049159,0.066835,-0.000050,-0.008274,0.000000|vel|0.000000,0.365132,-0.471959,0.000000,0.059288,0.000000|eff|145.019531,-80.566406,-338.378906,-112.792969,56.396484,40.283203
cobot_dynamixel_driver/joint_states|name|J1,J2,J3,J4,J5,J6|pos|0.000038,-0.042825,0.058235,-0.000050,-0.007199,0.000000|vel|0.000000,0.297530,-0.408113,0.000000,0.052739,0.000000|eff|0.000000,-32.226562,-708.984375,-32.226562,68.481445,44.311523
cobot_dynamixel_driver/joint_states|name|J1,J2,J3,J4,J5,J6|pos|0.000038,-0.037267,0.050937,-0.000050,-0.006330,0.000000|vel|0.000000,0.267902,-0.363254,0.000000,0.039640,0.000000|eff|64.453125,547.851562,-805.664062,0.000000,88.623047,44.311523
cobot_dynamixel_driver/joint_states|name|J1,J2,J3,J4,J5,J6|pos|0.000050,-0.032447,0.044565,-0.000050,-0.005606,0.000000|vel|0.000000,0.221791,-0.314639,0.000000,0.027921,0.000000|eff|0.000000,209.472656,-805.664062,-32.226562,96.679688,12.084961
cobot_dynamixel_driver/joint_states|name|J1,J2,J3,J4,J5,J6|pos|0.000050,-0.028291,0.038982,-0.000050,-0.004902,0.000000|vel|0.000000,0.198214,-0.229929,0.000000,0.035849,0.000000|eff|0.000000,161.132812,209.472656,-112.792969,80.566406,44.311523
cobot_dynamixel_driver/joint_states|name|J1,J2,J3,J4,J5,J6|pos|0.000050,-0.024686,0.034087,-0.000050,-0.004282,0.000000|vel|0.000000,0.172551,-0.248290,0.000000,0.030678,0.000000|eff|0.000000,418.945312,-773.437500,-112.792969,64.453125,12.084961
cobot_dynamixel_driver/joint_states|name|J1,J2,J3,J4,J5,J6|pos|0.000050,-0.021619,0.029994,-0.000050,-0.003785,0.000000|vel|0.000000,0.144592,-0.211776,0.000000,0.023784,0.000000|eff|128.906250,290.039062,-773.437500,-96.679688,88.623047,12.084961
cobot_dynamixel_driver/joint_states|name|J1,J2,J3,J4,J5,J6|pos|0.000050,-0.018940,0.026163,-0.000050,-0.003310,0.000000|vel|0.000000,0.131865,-0.187365,0.000000,0.020682,0.000000|eff|0.000000,306.152344,-708.984375,0.000000,96.679688,40.283203
cobot_dynamixel_driver/joint_states|name|J1,J2,J3,J4,J5,J6|pos|0.000050,-0.016599,0.022858,-0.000050,-0.002937,0.000000|vel|0.000000,0.110374,-0.162953,0.000000,0.019303,0.000000|eff|64.453125,209.472656,-757.324219,-80.566406,96.679688,12.084961
cobot_dynamixel_driver/joint_states|name|J1,J2,J3,J4,J5,J6|pos|0.000050,-0.014596,0.020042,-0.000050,-0.002544,0.000000|vel|0.000000,0.097438,-0.117259,0.000000,0.016890,0.000000|eff|64.453125,241.699219,-789.550781,-64.453125,92.651367,36.254883
cobot_dynamixel_driver/joint_states|name|J1,J2,J3,J4,J5,J6|pos|0.000050,-0.012744,0.017588,-0.000050,-0.002275,0.000000|vel|0.000000,0.087840,-0.122893,0.000000,0.012064,0.000000|eff|0.000000,257.812500,-789.550781,0.000000,104.736328,36.254883
cobot_dynamixel_driver/joint_states|name|J1,J2,J3,J4,J5,J6|pos|0.000050,-0.011191,0.015385,-0.000050,-0.001965,0.000000|vel|0.000000,0.075321,-0.100150,0.000000,0.014822,0.000000|eff|80.566406,209.472656,-789.550781,-64.453125,92.651367,36.254883
cobot_dynamixel_driver/joint_states|name|J1,J2,J3,J4,J5,J6|pos|0.000050,-0.009839,0.013520,-0.000050,-0.001717,0.000000|vel|0.000000,0.067184,-0.080955,0.000000,0.010686,0.000000|eff|128.906250,290.039062,-837.890625,-32.226562,96.679688,20.141602
cobot_dynamixel_driver/joint_states|name|J1,J2,J3,J4,J5,J6|pos|0.000050,-0.008600,0.011855,-0.000050,-0.001531,0.000000|vel|0.000000,0.056126,-0.080746,0.000000,0.009652,0.000000|eff|0.000000,225.585938,-870.117188,0.000000,96.679688,28.198242
cobot_dynamixel_driver/joint_states|name|J1,J2,J3,J4,J5,J6|pos|0.000050,-0.007511,0.010353,-0.000050,-0.001345,0.000000|vel|0.000000,0.049032,-0.065306,0.000000,0.011375,0.000000|eff|96.679688,225.585938,-837.890625,0.000000,88.623047,36.254883
cobot_dynamixel_driver/joint_states|name|J1,J2,J3,J4,J5,J6|pos|0.000050,-0.006535,0.009088,-0.000050,-0.001138,0.000000|vel|0.000000,0.046320,-0.062385,0.000000,0.010341,0.000000|eff|0.000000,290.039062,-854.003906,-96.679688,88.623047,28.198242
cobot_dynamixel_driver/joint_states|name|J1,J2,J3,J4,J5,J6|pos|0.000050,-0.005733,0.008074,-0.000050,-0.000993,0.000000|vel|0.000000,0.043399,-0.047989,0.000000,0.007239,0.000000|eff|0.000000,257.812500,-950.683594,-80.566406,84.594727,0.000000
cobot_dynamixel_driver/joint_states|name|J1,J2,J3,J4,J5,J6|pos|0.000050,-0.005045,0.007173,-0.000050,-0.000889,0.000000|vel|0.000000,0.032966,-0.046528,0.000000,0.003447,0.000000|eff|0.000000,241.699219,-918.457031,-112.792969,88.623047,20.141602
cobot_dynamixel_driver/joint_states|name|J1,J2,J3,J4,J5,J6|pos|0.000050,-0.004431,0.006272,-0.000050,-0.000786,0.000000|vel|0.000000,0.030880,-0.042773,0.000000,0.005170,0.000000|eff|0.000000,209.472656,-918.457031,-64.453125,88.623047,28.198242
cobot_dynamixel_driver/joint_states|name|J1,J2,J3,J4,J5,J6|pos|0.000050,-0.003893,0.005433,-0.000050,-0.000703,0.000000|vel|0.000000,0.025455,-0.031506,0.000000,0.003447,0.000000|eff|80.566406,177.246094,-918.457031,0.000000,96.679688,12.084961
cobot_dynamixel_driver/joint_states|name|J1,J2,J3,J4,J5,J6|pos|0.000050,-0.003380,0.004719,-0.000050,-0.000641,0.000000|vel|0.000000,0.024620,-0.041729,0.000000,0.003792,0.000000|eff|0.000000,225.585938,-821.777344,0.000000,104.736328,28.198242
cobot_dynamixel_driver/joint_states|name|J1,J2,J3,J4,J5,J6|pos|0.000050,-0.002967,0.004106,-0.000050,-0.000517,0.000000|vel|0.000000,0.018570,-0.029836,0.000000,0.006549,0.000000|eff|64.453125,193.359375,-902.343750,-112.792969,80.566406,44.311523
cobot_dynamixel_driver/joint_states|name|J1,J2,J3,J4,J5,J6|pos|0.000050,-0.002566,0.003518,-0.000050,-0.000455,0.000000|vel|0.000000,0.018987,-0.026498,0.000000,0.003447,0.000000|eff|0.000000,257.812500,-821.777344,0.000000,88.623047,44.311523
cobot_dynamixel_driver/joint_states|name|J1,J2,J3,J4,J5,J6|pos|0.000050,-0.002228,0.003155,-0.000050,-0.000455,0.000000|vel|0.000000,0.015857,-0.014188,0.000000,0.003447,0.000000|eff|0.000000,225.585938,-902.343750,-112.792969,88.623047,28.198242
cobot_dynamixel_driver/joint_states|name|J1,J2,J3,J4,J5,J6|pos|0.000050,-0.001953,0.002779,-0.000050,-0.000434,0.000000|vel|0.000000,0.014188,-0.025038,0.000000,0.003447,0.000000|eff|0.000000,225.585938,-837.890625,-96.679688,92.651367,32.226562
cobot_dynamixel_driver/joint_states|name|J1,J2,J3,J4,J5,J6|pos|0.000050,-0.001677,0.002403,-0.000050,-0.000414,0.000000|vel|0.000000,0.012519,-0.012310,0.000000,0.000689,0.000000|eff|0.000000,386.718750,-886.230469,-112.792969,92.651367,12.084961
cobot_dynamixel_driver/joint_states|name|J1,J2,J3,J4,J5,J6|pos|0.000050,-0.001490,0.002216,-0.000050,-0.000352,0.000000|vel|0.000000,0.007303,-0.010224,0.000000,0.004136,0.000000|eff|96.679688,128.906250,-918.457031,-64.453125,92.651367,44.311523
cobot_dynamixel_driver/joint_states|name|J1,J2,J3,J4,J5,J6|pos|0.000050,-0.001339,0.001965,-0.000050,-0.000290,0.000000|vel|0.000000,0.007511,-0.013145,0.000000,0.003792,0.000000|eff|0.000000,354.492188,-854.003906,-64.453125,92.651367,36.254883
cobot_dynamixel_driver/joint_states|name|J1,J2,J3,J4,J5,J6|pos|0.000050,-0.001202,0.001640,-0.000050,-0.000290,0.000000|vel|0.000000,0.007303,-0.015648,0.000000,0.003792,0.000000|eff|0.000000,273.925781,-870.117188,-96.679688,84.594727,8.056641
cobot_dynamixel_driver/joint_states|name|J1,J2,J3,J4,J5,J6|pos|0.000050,-0.001064,0.001440,-0.000050,-0.000290,0.000000|vel|0.000000,0.006051,-0.005842,0.000000,0.003792,0.000000|eff|0.000000,306.152344,-886.230469,0.000000,76.538086,28.198242
cobot_dynamixel_driver/joint_states|name|J1,J2,J3,J4,J5,J6|pos|0.000050,-0.000964,0.001390,-0.000050,-0.000290,0.000000|vel|0.000000,0.005008,-0.002086,0.000000,0.003792,0.000000|eff|64.453125,290.039062,-950.683594,-64.453125,72.509766,20.141602
cobot_dynamixel_driver/joint_states|name|J1,J2,J3,J4,J5,J6|pos|0.000050,-0.000839,0.001302,-0.000050,-0.000290,0.000000|vel|0.000000,0.006259,-0.005633,0.000000,0.003792,0.000000|eff|0.000000,306.152344,-950.683594,0.000000,68.481445,40.283203
cobot_dynamixel_driver/joint_states|name|J1,J2,J3,J4,J5,J6|pos|0.000050,-0.000689,0.001152,-0.000050,-0.000290,0.000000|vel|0.000000,0.007511,-0.008346,0.000000,0.003792,0.000000|eff|0.000000,338.378906,-934.570312,0.000000,60.424805,44.311523
cobot_dynamixel_driver/joint_states|name|J1,J2,J3,J4,J5,J6|pos|0.000050,-0.000576,0.000914,-0.000050,-0.000290,0.000000|vel|0.000000,0.005008,-0.012102,0.000000,0.000000,0.000000|eff|0.000000,241.699219,-886.230469,-96.679688,72.509766,20.141602
cobot_dynamixel_driver/joint_states|name|J1,J2,J3,J4,J5,J6|pos|0.000050,-0.000501,0.000626,-0.000050,-0.000290,0.000000|vel|0.000000,0.003964,-0.013771,0.000000,0.000000,0.000000|eff|0.000000,225.585938,-773.437500,-32.226562,76.538086,28.198242
cobot_dynamixel_driver/joint_states|name|J1,J2,J3,J4,J5,J6|pos|0.000050,-0.000401,0.000451,-0.000050,-0.000290,0.000000|vel|0.000000,0.005216,-0.006468,0.000000,0.000000,0.000000|eff|96.679688,193.359375,-789.550781,-32.226562,84.594727,44.311523
cobot_dynamixel_driver/joint_states|name|J1,J2,J3,J4,J5,J6|pos|0.000050,-0.000363,0.000401,-0.000050,-0.000290,0.000000|vel|0.000000,0.004173,-0.003756,0.000000,0.000000,0.000000|eff|0.000000,225.585938,-805.664062,0.000000,84.594727,24.169922
cobot_dynamixel_driver/joint_states|name|J1,J2,J3,J4,J5,J6|pos|0.000050,-0.000363,0.000388,-0.000050,-0.000290,0.000000|vel|0.000000,0.004173,-0.003756,0.000000,0.000000,0.000000|eff|0.000000,402.832031,-805.664062,-96.679688,84.594727,44.311523
cobot_dynamixel_driver/joint_states|name|J1,J2,J3,J4,J5,J6|pos|0.000050,-0.000363,0.000388,-0.000050,-0.000290,0.000000|vel|0.000000,0.004173,-0.003756,0.000000,0.000000,0.000000|eff|0.000000,241.699219,-805.664062,-80.566406,80.566406,36.254883
cobot_dynamixel_driver/joint_states|name|J1,J2,J3,J4,J5,J6|pos|0.000038,-0.000363,0.000388,-0.000050,-0.000269,0.000000|vel|0.000000,0.004173,-0.003756,0.000000,0.000000,0.000000|eff|0.000000,225.585938,-805.664062,0.000000,84.594727,36.254883
cobot_dynamixel_driver/joint_states|name|J1,J2,J3,J4,J5,J6|pos|0.000038,-0.000363,0.000388,-0.000050,-0.000228,0.000000|vel|0.000000,0.004173,-0.003756,0.000000,0.001723,0.000000|eff|0.000000,257.812500,-805.664062,0.000000,92.651367,44.311523
cobot_dynamixel_driver/joint_states|name|J1,J2,J3,J4,J5,J6|pos|0.000038,-0.000363,0.000388,-0.000050,-0.000186,0.000000|vel|0.000000,0.004173,-0.003756,0.000000,0.001723,0.000000|eff|0.000000,306.152344,-805.664062,-96.679688,92.651367,44.311523
cobot_dynamixel_driver/joint_states|name|J1,J2,J3,J4,J5,J6|pos|0.000038,-0.000363,0.000388,-0.000050,-0.000165,0.000000|vel|0.000000,-0.000000,0.000000,0.000000,0.001379,0.000000|eff|64.453125,225.585938,-821.777344,-48.339844,84.594727,40.283203
cobot_dynamixel_driver/joint_states|name|J1,J2,J3,J4,J5,J6|pos|0.000038,-0.000363,0.000388,-0.000050,-0.000124,0.000000|vel|0.000000,-0.000000,0.000000,0.000000,0.001723,0.000000|eff|0.000000,241.699219,-805.664062,-80.566406,88.623047,44.311523
cobot_dynamixel_driver/joint_states|name|J1,J2,J3,J4,J5,J6|pos|0.000038,-0.000363,0.000388,-0.000038,-0.000103,0.000000|vel|0.000000,-0.000000,0.000000,0.000000,0.001723,0.000000|eff|0.000000,225.585938,-805.664062,0.000000,92.651367,40.283203
cobot_dynamixel_driver/joint_states|name|J1,J2,J3,J4,J5,J6|pos|0.000038,-0.000363,0.000376,-0.000038,-0.000103,0.000000|vel|0.000000,-0.000000,0.000000,0.000000,0.001723,0.000000|eff|0.000000,225.585938,-854.003906,-64.453125,88.623047,12.084961
cobot_dynamixel_driver/joint_states|name|J1,J2,J3,J4,J5,J6|pos|0.000038,-0.000351,0.000363,-0.000038,-0.000103,0.000000|vel|0.000000,-0.000000,0.000000,0.000000,0.001723,0.000000|eff|64.453125,193.359375,-886.230469,-32.226562,84.594727,44.311523
cobot_dynamixel_driver/joint_states|name|J1,J2,J3,J4,J5,J6|pos|0.000038,-0.000351,0.000363,-0.000038,-0.000103,0.000000|vel|0.000000,-0.000000,-0.000209,0.000000,0.001723,0.000000|eff|0.000000,145.019531,-886.230469,0.000000,84.594727,28.198242
cobot_dynamixel_driver/joint_states|name|J1,J2,J3,J4,J5,J6|pos|0.000038,-0.000325,0.000351,-0.000038,-0.000103,0.000000|vel|0.000000,-0.000000,-0.000209,0.000000,0.001723,0.000000|eff|0.000000,257.812500,-934.570312,-32.226562,80.566406,12.084961
cobot_dynamixel_driver/joint_states|name|J1,J2,J3,J4,J5,J6|pos|0.000038,-0.000325,0.000351,-0.000038,-0.000103,0.000000|vel|0.000000,0.000417,-0.000209,0.000000,0.000000,0.000000|eff|0.000000,177.246094,-950.683594,0.000000,80.566406,28.198242
cobot_dynamixel_driver/joint_states|name|J1,J2,J3,J4,J5,J6|pos|0.000038,-0.000313,0.000338,-0.000038,-0.000103,0.000000|vel|0.000000,0.000417,-0.000209,0.000000,0.000000,0.000000|eff|0.000000,241.699219,-886.230469,-64.453125,84.594727,28.198242
cobot_dynamixel_driver/joint_states|name|J1,J2,J3,J4,J5,J6|pos|0.000038,-0.000288,0.000300,-0.000038,-0.000103,0.000000|vel|0.000000,0.000626,-0.001461,0.000000,0.000000,0.000000|eff|0.000000,32.226562,-902.343750,0.000000,80.566406,20.141602
cobot_dynamixel_driver/joint_states|name|J1,J2,J3,J4,J5,J6|pos|0.000038,-0.000238,0.000225,-0.000038,-0.000103,0.000000|vel|0.000000,0.002295,-0.003964,0.000000,0.000000,0.000000|eff|0.000000,306.152344,-886.230469,-48.339844,88.623047,44.311523
cobot_dynamixel_driver/joint_states|name|J1,J2,J3,J4,J5,J6|pos|0.000038,-0.000200,0.000150,-0.000038,-0.000103,0.000000|vel|0.000000,0.002295,-0.003547,0.000000,0.000000,0.000000|eff|0.000000,290.039062,-886.230469,0.000000,84.594727,36.254883
cobot_dynamixel_driver/joint_states|name|J1,J2,J3,J4,J5,J6|pos|0.000038,-0.000150,0.000075,-0.000038,-0.000103,0.000000|vel|0.000000,0.002504,-0.003547,0.000000,0.000000,0.000000|eff|0.000000,241.699219,-870.117188,0.000000,88.623047,28.198242
cobot_dynamixel_driver/joint_states|name|J1,J2,J3,J4,J5,J6|pos|0.000038,-0.000138,-0.000025,-0.000038,-0.000103,0.000000|vel|0.000000,0.002086,-0.005216,0.000000,0.000000,0.000000|eff|0.000000,48.339844,-821.777344,-80.566406,88.623047,44.311523
cobot_dynamixel_driver/joint_states|name|J1,J2,J3,J4,J5,J6|pos|0.000038,-0.000113,-0.000113,-0.000038,-0.000083,0.000000|vel|0.000000,0.000835,-0.005216,0.000000,0.000000,0.000000|eff|0.000000,209.472656,-821.777344,0.000000,88.623047,44.311523
cobot_dynamixel_driver/joint_states|name|J1,J2,J3,J4,J5,J6|pos|0.000038,-0.000100,-0.000188,-0.000038,-0.000083,0.000000|vel|0.000000,0.000835,-0.003547,0.000000,0.000000,0.000000|eff|0.000000,48.339844,-741.210938,-80.566406,92.651367,44.311523
cobot_dynamixel_driver/joint_states|name|J1,J2,J3,J4,J5,J6|pos|0.000038,-0.000088,-0.000213,-0.000038,-0.000062,0.000000|vel|0.000000,0.000835,-0.003547,0.000000,0.000000,0.000000|eff|0.000000,225.585938,-757.324219,0.000000,80.566406,44.311523
cobot_dynamixel_driver/joint_states|name|J1,J2,J3,J4,J5,J6|pos|0.000038,-0.000088,-0.000213,-0.000038,-0.000062,0.000000|vel|0.000000,0.000835,-0.003547,0.000000,0.000345,0.000000|eff|0.000000,241.699219,-708.984375,0.000000,88.623047,44.311523
cobot_dynamixel_driver/joint_states|name|J1,J2,J3,J4,J5,J6|pos|0.000038,-0.000075,-0.000213,-0.000038,-0.000062,0.000000|vel|0.000000,0.000417,-0.003547,0.000000,0.000345,0.000000|eff|0.000000,225.585938,-676.757812,0.000000,88.623047,44.311523
cobot_dynamixel_driver/joint_states|name|J1,J2,J3,J4,J5,J6|pos|0.000038,-0.000063,-0.000200,-0.000038,-0.000062,0.000000|vel|0.000000,0.000417,0.003547,0.000000,0.000345,0.000000|eff|0.000000,241.699219,-708.984375,-80.566406,88.623047,12.084961
cobot_dynamixel_driver/joint_states|name|J1,J2,J3,J4,J5,J6|pos|0.000038,-0.000050,-0.000213,-0.000038,-0.000041,0.000000|vel|0.000000,0.000626,-0.003547,0.000000,0.000345,0.000000|eff|0.000000,241.699219,-660.644531,0.000000,92.651367,20.141602
cobot_dynamixel_driver/joint_states|name|J1,J2,J3,J4,J5,J6|pos|0.000038,-0.000038,-0.000200,-0.000038,-0.000041,0.000000|vel|0.000000,0.000626,0.003547,0.000000,0.000345,0.000000|eff|0.000000,225.585938,-676.757812,0.000000,88.623047,40.283203
cobot_dynamixel_driver/joint_states|name|J1,J2,J3,J4,J5,J6|pos|0.000038,-0.000025,-0.000200,-0.000038,-0.000041,0.000000|vel|0.000000,0.000626,0.000000,0.000000,0.000345,0.000000|eff|0.000000,193.359375,-660.644531,0.000000,88.623047,20.141602
cobot_dynamixel_driver/joint_states|name|J1,J2,J3,J4,J5,J6|pos|0.000038,-0.000013,-0.000200,-0.000038,-0.000041,0.000000|vel|0.000000,0.000417,0.000000,0.000000,0.000000,0.000000|eff|0.000000,241.699219,-676.757812,-80.566406,88.623047,12.084961
cobot_dynamixel_driver/joint_states|name|J1,J2,J3,J4,J5,J6|pos|0.000038,-0.000013,-0.000200,-0.000025,-0.000041,0.000000|vel|0.000000,0.000417,0.000000,0.000000,0.000000,0.000000|eff|0.000000,128.906250,-660.644531,0.000000,92.651367,44.311523
cobot_dynamixel_driver/joint_states|name|J1,J2,J3,J4,J5,J6|pos|0.000038,-0.000000,-0.000200,-0.000025,-0.000041,0.000000|vel|0.000000,0.000417,0.000000,0.000000,0.000000,0.000000|eff|0.000000,241.699219,-660.644531,0.000000,88.623047,28.198242
cobot_dynamixel_driver/joint_states|name|J1,J2,J3,J4,J5,J6|pos|0.000038,0.000013,-0.000200,-0.000025,-0.000041,0.000000|vel|0.000000,0.000417,0.000000,0.000000,0.000000,0.000000|eff|0.000000,241.699219,-660.644531,-64.453125,88.623047,12.084961
cobot_dynamixel_driver/joint_states|name|J1,J2,J3,J4,J5,J6|pos|0.000038,0.000013,-0.000200,-0.000025,-0.000021,0.000000|vel|0.000000,0.000417,0.000000,0.000000,0.000000,0.000000|eff|0.000000,225.585938,-660.644531,0.000000,88.623047,44.311523
cobot_dynamixel_driver/joint_states|name|J1,J2,J3,J4,J5,J6|pos|0.000038,0.000025,-0.000200,-0.000025,-0.000021,0.000000|vel|0.000000,0.000417,0.000000,0.000000,0.000000,0.000000|eff|0.000000,225.585938,-676.757812,-32.226562,88.623047,12.084961
cobot_dynamixel_driver/joint_states|name|J1,J2,J3,J4,J5,J6|pos|0.000038,0.000025,-0.000200,-0.000025,-0.000021,0.000000|vel|0.000000,0.000209,0.000000,0.000000,0.000000,0.000000|eff|0.000000,225.585938,-644.531250,0.000000,88.623047,12.084961
cobot_dynamixel_driver/joint_states|name|J1,J2,J3,J4,J5,J6|pos|0.000038,0.000025,-0.000200,-0.000025,-0.000021,0.000000|vel|0.000000,0.000209,0.000000,0.000000,0.000000,0.000000|eff|0.000000,225.585938,-612.304688,-48.339844,88.623047,28.198242
cobot_dynamixel_driver/joint_states|name|J1,J2,J3,J4,J5,J6|pos|0.000038,0.000038,-0.000188,-0.000025,-0.000021,0.000000|vel|0.000000,0.000209,0.000000,0.000000,0.000000,0.000000|eff|0.000000,225.585938,-628.417969,0.000000,88.623047,40.283203
cobot_dynamixel_driver/joint_states|name|J1,J2,J3,J4,J5,J6|pos|0.000038,0.000038,-0.000188,-0.000025,-0.000021,0.000000|vel|0.000000,0.000209,0.000000,0.000000,0.000000,0.000000|eff|0.000000,225.585938,-596.191406,0.000000,84.594727,0.000000
cobot_dynamixel_driver/joint_states|name|J1,J2,J3,J4,J5,J6|pos|0.000038,0.000038,-0.000188,-0.000025,-0.000021,0.000000|vel|0.000000,0.000209,0.000000,0.000000,0.000000,0.000000|eff|0.000000,225.585938,-596.191406,-80.566406,88.623047,40.283203
cobot_dynamixel_driver/joint_states|name|J1,J2,J3,J4,J5,J6|pos|0.000038,0.000038,-0.000188,-0.000025,-0.000021,0.000000|vel|0.000000,0.000209,0.000000,0.000000,0.000000,0.000000|eff|0.000000,225.585938,-628.417969,0.000000,88.623047,40.283203
cobot_dynamixel_driver/joint_states|name|J1,J2,J3,J4,J5,J6|pos|0.000038,0.000050,-0.000188,-0.000025,-0.000021,0.000000|vel|0.000000,0.000209,0.000000,0.000000,0.000000,0.000000|eff|0.000000,225.585938,-644.531250,0.000000,88.623047,32.226562
cobot_dynamixel_driver/joint_states|name|J1,J2,J3,J4,J5,J6|pos|0.000038,0.000050,-0.000175,-0.000025,-0.000021,0.000000|vel|0.000000,-0.000000,0.000000,0.000000,0.000000,0.000000|eff|0.000000,225.585938,-628.417969,0.000000,88.623047,8.056641
cobot_dynamixel_driver/joint_states|name|J1,J2,J3,J4,J5,J6|pos|0.000038,0.000050,-0.000175,-0.000025,-0.000021,0.000000|vel|0.000000,-0.000000,0.000000,0.000000,0.000000,0.000000|eff|0.000000,225.585938,-612.304688,-48.339844,88.623047,12.084961
cobot_dynamixel_driver/joint_states|name|J1,J2,J3,J4,J5,J6|pos|0.000038,0.000050,-0.000175,-0.000025,-0.000021,0.000000|vel|0.000000,-0.000000,0.000000,0.000000,0.000000,0.000000|eff|0.000000,225.585938,-580.078125,0.000000,88.623047,0.000000
cobot_dynamixel_driver/joint_states|name|J1,J2,J3,J4,J5,J6|pos|0.000038,0.000050,-0.000175,-0.000025,-0.000021,0.000000|vel|0.000000,-0.000000,0.000000,0.000000,0.000000,0.000000|eff|0.000000,225.585938,-580.078125,-64.453125,92.651367,20.141602
cobot_dynamixel_driver/joint_states|name|J1,J2,J3,J4,J5,J6|pos|0.000038,0.000063,-0.000175,-0.000025,-0.000021,0.000000|vel|0.000000,-0.000000,0.000000,0.000000,0.000000,0.000000|eff|0.000000,225.585938,-563.964844,0.000000,88.623047,44.311523
cobot_dynamixel_driver/joint_states|name|J1,J2,J3,J4,J5,J6|pos|0.000038,0.000063,-0.000163,-0.000025,-0.000021,0.000000|vel|0.000000,-0.000000,0.000000,0.000000,0.000000,0.000000|eff|0.000000,225.585938,-563.964844,-80.566406,88.623047,44.311523
cobot_dynamixel_driver/joint_states|name|J1,J2,J3,J4,J5,J6|pos|0.000038,0.000063,-0.000163,-0.000025,-0.000021,0.000000|vel|0.000000,-0.000000,0.000000,0.000000,0.000000,0.000000|eff|0.000000,225.585938,-563.964844,-80.566406,88.623047,40.283203
cobot_dynamixel_driver/joint_states|name|J1,J2,J3,J4,J5,J6|pos|0.000038,0.000063,-0.000163,-0.000025,-0.000021,0.000000|vel|0.000000,-0.000000,0.000000,0.000000,0.000000,0.000000|eff|0.000000,209.472656,-563.964844,0.000000,84.594727,36.254883
cobot_dynamixel_driver/joint_states|name|J1,J2,J3,J4,J5,J6|pos|0.000038,0.000063,-0.000150,-0.000025,-0.000021,0.000000|vel|0.000000,-0.000000,0.000000,0.000000,0.000000,0.000000|eff|0.000000,209.472656,-515.625000,0.000000,84.594727,8.056641
cobot_dynamixel_driver/joint_states|name|J1,J2,J3,J4,J5,J6|pos|0.000038,0.000063,-0.000150,-0.000025,-0.000021,0.000000|vel|0.000000,-0.000000,0.000000,0.000000,0.000000,0.000000|eff|0.000000,209.472656,-563.964844,0.000000,92.651367,8.056641
cobot_dynamixel_driver/joint_states|name|J1,J2,J3,J4,J5,J6|pos|0.000038,0.000063,-0.000150,-0.000025,0.000000,0.000000|vel|0.000000,-0.000000,0.000000,0.000000,0.000000,0.000000|eff|0.000000,322.265625,-515.625000,0.000000,88.623047,8.056641
cobot_dynamixel_driver/joint_states|name|J1,J2,J3,J4,J5,J6|pos|0.000038,0.000063,-0.000150,-0.000025,0.000000,0.000000|vel|0.000000,-0.000000,0.000000,0.000000,0.000000,0.000000|eff|0.000000,306.152344,-563.964844,0.000000,88.623047,24.169922
cobot_dynamixel_driver/joint_states|name|J1,J2,J3,J4,J5,J6|pos|0.000038,0.000063,-0.000138,-0.000025,0.000000,0.000000|vel|0.000000,-0.000000,0.000000,0.000000,0.000000,0.000000|eff|0.000000,209.472656,-547.851562,0.000000,92.651367,44.311523
cobot_dynamixel_driver/joint_states|name|J1,J2,J3,J4,J5,J6|pos|0.000038,0.000063,-0.000138,-0.000025,0.000000,0.000000|vel|0.000000,-0.000000,0.000000,0.000000,0.000000,0.000000|eff|0.000000,257.812500,-483.398438,0.000000,88.623047,12.084961
cobot_dynamixel_driver/joint_states|name|J1,J2,J3,J4,J5,J6|pos|0.000038,0.000063,-0.000138,-0.000025,0.000000,0.000000|vel|0.000000,-0.000000,0.000000,0.000000,0.000000,0.000000|eff|0.000000,209.472656,-515.625000,0.000000,84.594727,44.311523
cobot_dynamixel_driver/joint_states|name|J1,J2,J3,J4,J5,J6|pos|0.000038,0.000063,-0.000138,-0.000025,0.000000,0.000000|vel|0.000000,-0.000000,0.000000,0.000000,0.000000,0.000000|eff|0.000000,225.585938,-483.398438,0.000000,92.651367,8.056641
cobot_dynamixel_driver/joint_states|name|J1,J2,J3,J4,J5,J6|pos|0.000038,0.000063,-0.000138,-0.000025,0.000000,0.000000|vel|0.000000,-0.000000,0.000000,0.000000,0.000000,0.000000|eff|-96.679688,225.585938,-531.738281,0.000000,88.623047,24.169922
cobot_dynamixel_driver/joint_states|name|J1,J2,J3,J4,J5,J6|pos|0.000038,0.000063,-0.000138,-0.000025,0.000000,0.000000|vel|0.000000,-0.000000,0.000000,0.000000,0.000000,0.000000|eff|0.000000,241.699219,-531.738281,-48.339844,84.594727,40.283203
cobot_dynamixel_driver/joint_states|name|J1,J2,J3,J4,J5,J6|pos|0.000038,0.000063,-0.000125,-0.000025,0.000000,0.000000|vel|0.000000,-0.000000,0.000000,0.000000,0.000000,0.000000|eff|0.000000,225.585938,-547.851562,0.000000,88.623047,36.254883
cobot_dynamixel_driver/joint_states|name|J1,J2,J3,J4,J5,J6|pos|0.000025,0.000063,-0.000125,-0.000025,0.000000,0.000000|vel|0.000000,-0.000000,0.000000,0.000000,0.000000,0.000000|eff|0.000000,273.925781,-451.171875,0.000000,88.623047,8.056641
cobot_dynamixel_driver/joint_states|name|J1,J2,J3,J4,J5,J6|pos|0.000025,0.000063,-0.000125,-0.000025,0.000000,0.000000|vel|0.000000,-0.000000,0.000000,0.000000,0.000000,0.000000|eff|0.000000,257.812500,-547.851562,-64.453125,84.594727,44.311523
cobot_dynamixel_driver/joint_states|name|J1,J2,J3,J4,J5,J6|pos|0.000025,0.000063,-0.000125,-0.000025,0.000000,0.000000|vel|0.000000,-0.000000,0.000000,0.000000,0.000000,0.000000|eff|0.000000,209.472656,-531.738281,-64.453125,88.623047,44.311523
cobot_dynamixel_driver/joint_states|name|J1,J2,J3,J4,J5,J6|pos|0.000025,0.000063,-0.000113,-0.000025,0.000000,0.000000|vel|0.000000,-0.000000,0.000000,0.000000,0.000000,0.000000|eff|-80.566406,225.585938,-483.398438,0.000000,88.623047,28.198242
cobot_dynamixel_driver/joint_states|name|J1,J2,J3,J4,J5,J6|pos|0.000025,0.000063,-0.000113,-0.000025,0.000000,0.000000|vel|0.000000,-0.000000,0.000000,0.000000,0.000000,0.000000|eff|0.000000,402.832031,-467.285156,0.000000,88.623047,40.283203
cobot_dynamixel_driver/joint_states|name|J1,J2,J3,J4,J5,J6|pos|0.000025,0.000063,-0.000113,-0.000025,0.000000,0.000000|vel|0.000000,-0.000000,0.000000,0.000000,0.000000,0.000000|eff|0.000000,225.585938,-451.171875,0.000000,84.594727,32.226562
cobot_dynamixel_driver/joint_states|name|J1,J2,J3,J4,J5,J6|pos|0.000025,0.000063,-0.000113,-0.000025,0.000000,0.000000|vel|0.000000,-0.000000,0.000000,0.000000,0.000000,0.000000|eff|0.000000,225.585938,-547.851562,0.000000,88.623047,40.283203
cobot_dynamixel_driver/joint_states|name|J1,J2,J3,J4,J5,J6|pos|0.000025,0.000063,-0.000113,-0.000025,0.000000,0.000000|vel|0.000000,-0.000000,0.000000,0.000000,0.000000,0.000000|eff|0.000000,354.492188,-483.398438,0.000000,88.623047,0.000000
cobot_dynamixel_driver/joint_states|name|J1,J2,J3,J4,J5,J6|pos|0.000025,0.000063,-0.000100,-0.000025,0.000000,0.000000|vel|0.000000,-0.000000,0.000000,0.000000,0.000000,0.000000|eff|0.000000,225.585938,-451.171875,0.000000,92.651367,20.141602
cobot_dynamixel_driver/joint_states|name|J1,J2,J3,J4,J5,J6|pos|0.000025,0.000063,-0.000100,-0.000025,0.000000,0.000000|vel|0.000000,-0.000000,0.000000,0.000000,0.000000,0.000000|eff|0.000000,225.585938,-451.171875,0.000000,88.623047,20.141602
