surachairobotic/cobot/cobot_dynamixel_driver/log/2018-12-19T09:42:38.181965_driver_log.txt
cobot_dynamixel_driver/joint_states|name|J1,J2,J3,J4,J5,J6|pos|-0.004582,-1.268785,1.296275,0.002216,-1.023761,-0.000083|vel|0.000000,-0.000000,0.000000,0.000000,0.000000,0.000000|eff|0.000000,0.000000,0.000000,0.000000,0.000000,0.000000
cobot_dynamixel_driver/joint_states|name|J1,J2,J3,J4,J5,J6|pos|-0.004582,-1.268785,1.296275,0.002216,-1.023761,-0.000083|vel|0.000000,-0.000000,0.000000,0.000000,0.000000,0.000000|eff|0.000000,0.000000,0.000000,0.000000,0.000000,0.000000
cobot_dynamixel_driver/joint_states|name|J1,J2,J3,J4,J5,J6|pos|-0.004582,-1.268785,1.296275,0.002216,-1.023761,-0.000083|vel|0.000000,-0.000000,0.000000,0.000000,0.000000,0.000000|eff|0.000000,0.000000,0.000000,0.000000,0.000000,0.000000
cobot_dynamixel_driver/joint_states|name|J1,J2,J3,J4,J5,J6|pos|-0.004582,-1.268785,1.296275,0.002216,-1.023761,-0.000083|vel|0.000000,-0.000000,0.000000,0.000000,0.000000,0.000000|eff|0.000000,0.000000,0.000000,0.000000,0.000000,0.000000
cobot_dynamixel_driver/joint_states|name|J1,J2,J3,J4,J5,J6|pos|-0.004582,-1.268785,1.296275,0.002216,-1.023761,-0.000083|vel|0.000000,-0.000000,0.000000,0.000000,0.000000,0.000000|eff|0.000000,0.000000,0.000000,0.000000,0.000000,0.000000
cobot_dynamixel_driver/joint_states|name|J1,J2,J3,J4,J5,J6|pos|-0.004582,-1.268785,1.296275,0.002216,-1.023761,-0.000083|vel|0.000000,-0.000000,0.000000,0.000000,0.000000,0.000000|eff|0.000000,0.000000,0.000000,0.000000,0.000000,0.000000
cobot_dynamixel_driver/joint_states|name|J1,J2,J3,J4,J5,J6|pos|-0.004582,-1.268785,1.296275,0.002216,-1.023761,-0.000083|vel|0.000000,-0.000000,0.000000,0.000000,0.000000,0.000000|eff|0.000000,0.000000,0.000000,0.000000,0.000000,0.000000
cobot_dynamixel_driver/joint_states|name|J1,J2,J3,J4,J5,J6|pos|-0.004582,-1.268785,1.296275,0.002216,-1.023761,-0.000083|vel|0.000000,-0.000000,0.000000,0.000000,0.000000,0.000000|eff|0.000000,0.000000,0.000000,0.000000,0.000000,0.000000
cobot_dynamixel_driver/joint_states|name|J1,J2,J3,J4,J5,J6|pos|-0.004582,-1.268785,1.296275,0.002216,-1.023761,-0.000083|vel|0.000000,-0.000000,0.000000,0.000000,0.000000,0.000000|eff|0.000000,0.000000,0.000000,0.000000,0.000000,0.000000
cobot_dynamixel_driver/joint_states|name|J1,J2,J3,J4,J5,J6|pos|-0.004582,-1.268785,1.296275,0.002216,-1.023761,-0.000083|vel|0.000000,-0.000000,0.000000,0.000000,0.000000,0.000000|eff|0.000000,0.000000,0.000000,0.000000,0.000000,0.000000
cobot_dynamixel_driver/joint_states|name|J1,J2,J3,J4,J5,J6|pos|-0.004582,-1.268785,1.296275,0.002216,-1.023761,-0.000083|vel|0.000000,-0.000000,0.000000,0.000000,0.000000,0.000000|eff|0.000000,0.000000,0.000000,0.000000,0.000000,0.000000
cobot_dynamixel_driver/joint_states|name|J1,J2,J3,J4,J5,J6|pos|-0.004582,-1.268785,1.296275,0.002216,-1.023761,-0.000083|vel|0.000000,-0.000000,0.000000,0.000000,0.000000,0.000000|eff|0.000000,0.000000,0.000000,0.000000,0.000000,0.000000
cobot_dynamixel_driver/joint_states|name|J1,J2,J3,J4,J5,J6|pos|-0.004582,-1.268785,1.296275,0.002216,-1.023761,-0.000083|vel|0.000000,-0.000000,0.000000,0.000000,0.000000,0.000000|eff|0.000000,0.000000,0.000000,0.000000,0.000000,0.000000
cobot_dynamixel_driver/joint_states|name|J1,J2,J3,J4,J5,J6|pos|-0.004582,-1.268785,1.296275,0.002216,-1.023761,-0.000083|vel|0.000000,-0.000000,0.000000,0.000000,0.000000,0.000000|eff|0.000000,0.000000,0.000000,0.000000,0.000000,0.000000
cobot_dynamixel_driver/joint_states|name|J1,J2,J3,J4,J5,J6|pos|-0.004582,-1.268785,1.296275,0.002216,-1.023761,-0.000083|vel|0.000000,-0.000000,0.000000,0.000000,0.000000,0.000000|eff|0.000000,0.000000,0.000000,0.000000,0.000000,0.000000
cobot_dynamixel_driver/joint_states|name|J1,J2,J3,J4,J5,J6|pos|-0.004582,-1.268785,1.296275,0.002216,-1.023761,-0.000083|vel|0.000000,-0.000000,0.000000,0.000000,0.000000,0.000000|eff|0.000000,0.000000,0.000000,0.000000,0.000000,0.000000
cobot_dynamixel_driver/joint_states|name|J1,J2,J3,J4,J5,J6|pos|-0.004582,-1.268785,1.296275,0.002216,-1.023761,-0.000083|vel|0.000000,-0.000000,0.000000,0.000000,0.000000,0.000000|eff|0.000000,0.000000,0.000000,0.000000,0.000000,0.000000
cobot_dynamixel_driver/joint_states|name|J1,J2,J3,J4,J5,J6|pos|-0.004582,-1.268785,1.296275,0.002216,-1.023761,-0.000083|vel|0.000000,-0.000000,0.000000,0.000000,0.000000,0.000000|eff|0.000000,0.000000,0.000000,0.000000,0.000000,0.000000
cobot_dynamixel_driver/joint_states|name|J1,J2,J3,J4,J5,J6|pos|-0.004582,-1.268785,1.296275,0.002216,-1.023761,-0.000083|vel|0.000000,-0.000000,0.000000,0.000000,0.000000,0.000000|eff|0.000000,0.000000,0.000000,0.000000,0.000000,0.000000
cobot_dynamixel_driver/joint_states|name|J1,J2,J3,J4,J5,J6|pos|-0.004582,-1.268785,1.296275,0.002216,-1.023761,-0.000083|vel|0.000000,-0.000000,0.000000,0.000000,0.000000,0.000000|eff|0.000000,0.000000,0.000000,0.000000,0.000000,0.000000
cobot_dynamixel_driver/joint_states|name|J1,J2,J3,J4,J5,J6|pos|-0.004582,-1.268785,1.296275,0.002216,-1.023761,-0.000083|vel|0.000000,-0.000000,0.000000,0.000000,0.000000,0.000000|eff|0.000000,0.000000,0.000000,0.000000,0.000000,0.000000
cobot_dynamixel_driver/joint_states|name|J1,J2,J3,J4,J5,J6|pos|-0.004582,-1.268785,1.296275,0.002216,-1.023761,-0.000083|vel|0.000000,-0.000000,0.000000,0.000000,0.000000,0.000000|eff|0.000000,0.000000,0.000000,0.000000,0.000000,0.000000
cobot_dynamixel_driver/joint_states|name|J1,J2,J3,J4,J5,J6|pos|-0.004582,-1.268785,1.296275,0.002216,-1.023761,-0.000083|vel|0.000000,-0.000000,0.000000,0.000000,0.000000,0.000000|eff|0.000000,0.000000,0.000000,0.000000,0.000000,0.000000
cobot_dynamixel_driver/joint_states|name|J1,J2,J3,J4,J5,J6|pos|-0.004582,-1.268785,1.296275,0.002216,-1.023761,-0.000083|vel|0.000000,-0.000000,0.000000,0.000000,0.000000,0.000000|eff|0.000000,0.000000,0.000000,0.000000,0.000000,0.000000
cobot_dynamixel_driver/joint_states|name|J1,J2,J3,J4,J5,J6|pos|-0.004582,-1.268785,1.296275,0.002216,-1.023761,-0.000083|vel|0.000000,-0.000000,0.000000,0.000000,0.000000,0.000000|eff|0.000000,0.000000,0.000000,0.000000,0.000000,0.000000
cobot_dynamixel_driver/joint_states|name|J1,J2,J3,J4,J5,J6|pos|-0.004582,-1.268785,1.296275,0.002216,-1.023761,-0.000083|vel|0.000000,-0.000000,0.000000,0.000000,0.000000,0.000000|eff|0.000000,0.000000,0.000000,0.000000,0.000000,0.000000
cobot_dynamixel_driver/joint_states|name|J1,J2,J3,J4,J5,J6|pos|-0.004582,-1.268785,1.296275,0.002216,-1.023761,-0.000083|vel|0.000000,-0.000000,0.000000,0.000000,0.000000,0.000000|eff|0.000000,0.000000,0.000000,0.000000,0.000000,0.000000
cobot_dynamixel_driver/joint_states|name|J1,J2,J3,J4,J5,J6|pos|-0.004582,-1.268785,1.296275,0.002216,-1.023761,-0.000083|vel|0.000000,-0.000000,0.000000,0.000000,0.000000,0.000000|eff|0.000000,0.000000,0.000000,0.000000,0.000000,0.000000
cobot_dynamixel_driver/joint_states|name|J1,J2,J3,J4,J5,J6|pos|-0.004582,-1.268785,1.296275,0.002216,-1.023761,-0.000083|vel|0.000000,-0.000000,0.000000,0.000000,0.000000,0.000000|eff|0.000000,0.000000,0.000000,0.000000,0.000000,0.000000
cobot_dynamixel_driver/joint_states|name|J1,J2,J3,J4,J5,J6|pos|-0.004582,-1.268785,1.296275,0.002216,-1.023761,-0.000083|vel|0.000000,-0.000000,0.000000,0.000000,0.000000,0.000000|eff|0.000000,0.000000,0.000000,0.000000,0.000000,0.000000
cobot_dynamixel_driver/joint_states|name|J1,J2,J3,J4,J5,J6|pos|-0.004582,-1.268785,1.296275,0.002216,-1.023761,-0.000083|vel|0.000000,-0.000000,0.000000,0.000000,0.000000,0.000000|eff|0.000000,0.000000,0.000000,0.000000,0.000000,0.000000
cobot_dynamixel_driver/joint_states|name|J1,J2,J3,J4,J5,J6|pos|-0.004582,-1.268785,1.296275,0.002216,-1.023761,-0.000083|vel|0.000000,-0.000000,0.000000,0.000000,0.000000,0.000000|eff|0.000000,0.000000,0.000000,0.000000,0.000000,0.000000
cobot_dynamixel_driver/joint_states|name|J1,J2,J3,J4,J5,J6|pos|-0.004582,-1.268785,1.296275,0.002216,-1.023761,-0.000083|vel|0.000000,-0.000000,0.000000,0.000000,0.000000,0.000000|eff|0.000000,0.000000,0.000000,0.000000,0.000000,0.000000
cobot_dynamixel_driver/joint_states|name|J1,J2,J3,J4,J5,J6|pos|-0.004582,-1.268785,1.296275,0.002216,-1.023761,-0.000083|vel|0.000000,-0.000000,0.000000,0.000000,0.000000,0.000000|eff|0.000000,0.000000,0.000000,0.000000,0.000000,0.000000
cobot_dynamixel_driver/joint_states|name|J1,J2,J3,J4,J5,J6|pos|-0.004582,-1.268785,1.296275,0.002216,-1.023761,-0.000083|vel|0.000000,-0.000000,0.000000,0.000000,0.000000,0.000000|eff|0.000000,0.000000,0.000000,0.000000,0.000000,0.000000
cobot_dynamixel_driver/joint_states|name|J1,J2,J3,J4,J5,J6|pos|-0.004582,-1.268785,1.296275,0.002216,-1.023761,-0.000083|vel|0.000000,-0.000000,0.000000,0.000000,0.000000,0.000000|eff|0.000000,0.000000,0.000000,0.000000,0.000000,0.000000
cobot_dynamixel_driver/joint_states|name|J1,J2,J3,J4,J5,J6|pos|-0.004582,-1.268785,1.296275,0.002216,-1.023761,-0.000083|vel|0.000000,-0.000000,0.000000,0.000000,0.000000,0.000000|eff|0.000000,0.000000,0.000000,0.000000,0.000000,0.000000
cobot_dynamixel_driver/joint_states|name|J1,J2,J3,J4,J5,J6|pos|-0.004582,-1.268785,1.296275,0.002216,-1.023761,-0.000083|vel|0.000000,-0.000000,0.000000,0.000000,0.000000,0.000000|eff|0.000000,0.000000,0.000000,0.000000,0.000000,0.000000
cobot_dynamixel_driver/joint_states|name|J1,J2,J3,J4,J5,J6|pos|-0.004582,-1.268785,1.296275,0.002216,-1.023761,-0.000083|vel|0.000000,-0.000000,0.000000,0.000000,0.000000,0.000000|eff|0.000000,0.000000,0.000000,0.000000,0.000000,0.000000
cobot_dynamixel_driver/joint_states|name|J1,J2,J3,J4,J5,J6|pos|-0.004582,-1.268785,1.296275,0.002216,-1.023761,-0.000083|vel|0.000000,-0.000000,0.000000,0.000000,0.000000,0.000000|eff|0.000000,0.000000,0.000000,0.000000,0.000000,0.000000
cobot_dynamixel_driver/joint_states|name|J1,J2,J3,J4,J5,J6|pos|-0.004582,-1.268785,1.296275,0.002216,-1.023761,-0.000083|vel|0.000000,-0.000000,0.000000,0.000000,0.000000,0.000000|eff|0.000000,0.000000,0.000000,0.000000,0.000000,0.000000
cobot_dynamixel_driver/joint_states|name|J1,J2,J3,J4,J5,J6|pos|-0.004582,-1.268785,1.296275,0.002216,-1.023761,-0.000083|vel|0.000000,-0.000000,0.000000,0.000000,0.000000,0.000000|eff|0.000000,0.000000,0.000000,0.000000,0.000000,0.000000
cobot_dynamixel_driver/joint_states|name|J1,J2,J3,J4,J5,J6|pos|-0.004582,-1.268785,1.296275,0.002216,-1.023761,-0.000083|vel|0.000000,-0.000000,0.000000,0.000000,0.000000,0.000000|eff|0.000000,0.000000,0.000000,0.000000,0.000000,0.000000
cobot_dynamixel_driver/joint_states|name|J1,J2,J3,J4,J5,J6|pos|-0.004582,-1.268785,1.296275,0.002216,-1.023761,-0.000083|vel|0.000000,-0.000000,0.000000,0.000000,0.000000,0.000000|eff|0.000000,0.000000,0.000000,0.000000,0.000000,0.000000
cobot_dynamixel_driver/joint_states|name|J1,J2,J3,J4,J5,J6|pos|-0.004582,-1.268785,1.296275,0.002216,-1.023761,-0.000083|vel|0.000000,-0.000000,0.000000,0.000000,0.000000,0.000000|eff|0.000000,0.000000,0.000000,0.000000,0.000000,0.000000
cobot_dynamixel_driver/joint_states|name|J1,J2,J3,J4,J5,J6|pos|-0.004582,-1.268785,1.296275,0.002216,-1.023761,-0.000083|vel|0.000000,-0.000000,0.000000,0.000000,0.000000,0.000000|eff|0.000000,0.000000,0.000000,0.000000,0.000000,0.000000
cobot_dynamixel_driver/joint_states|name|J1,J2,J3,J4,J5,J6|pos|-0.004582,-1.268785,1.296275,0.002216,-1.023761,-0.000083|vel|0.000000,-0.000000,0.000000,0.000000,0.000000,0.000000|eff|0.000000,0.000000,0.000000,0.000000,0.000000,0.000000
cobot_dynamixel_driver/joint_states|name|J1,J2,J3,J4,J5,J6|pos|-0.004582,-1.268785,1.296275,0.002216,-1.023761,-0.000083|vel|0.000000,-0.000000,0.000000,0.000000,0.000000,0.000000|eff|0.000000,0.000000,0.000000,0.000000,0.000000,0.000000
cobot_dynamixel_driver/joint_states|name|J1,J2,J3,J4,J5,J6|pos|-0.004582,-1.268785,1.296275,0.002216,-1.023761,-0.000083|vel|0.000000,-0.000000,0.000000,0.000000,0.000000,0.000000|eff|0.000000,0.000000,0.000000,0.000000,0.000000,0.000000
cobot_dynamixel_driver/joint_states|name|J1,J2,J3,J4,J5,J6|pos|-0.004582,-1.268785,1.296275,0.002216,-1.023761,-0.000083|vel|0.000000,-0.000000,0.000000,0.000000,0.000000,0.000000|eff|0.000000,0.000000,0.000000,0.000000,0.000000,0.000000
cobot_dynamixel_driver/goal|-:J1,J2,J3,J4,J5,J6:0.000000,0.000000,0.000000,0.000000,0.000000,0.000000:0.700000,0.700000,0.700000,0.700000,0.700000,0.700000:pos_vel_
cobot_dynamixel_driver/joint_states|name|J1,J2,J3,J4,J5,J6|pos|-0.004582,-1.268785,1.296275,0.001014,-1.023761,-0.000083|vel|0.000000,-0.000000,0.000000,0.000000,0.000000,0.000000|eff|0.000000,0.000000,0.000000,0.000000,0.000000,0.000000
cobot_dynamixel_driver/joint_states|name|J1,J2,J3,J4,J5,J6|pos|-0.004582,-1.268772,1.296262,0.001014,-1.023699,-0.000083|vel|0.000000,-0.000000,0.000000,0.000000,0.000000,0.000000|eff|241.699219,-241.699219,-209.472656,-80.566406,80.566406,0.000000
cobot_dynamixel_driver/joint_states|name|J1,J2,J3,J4,J5,J6|pos|-0.004306,-1.268322,1.295837,0.000914,-1.022582,-0.000083|vel|0.019821,0.039643,-0.047363,-0.009180,0.108580,0.000000|eff|209.472656,-708.984375,-483.398438,-48.339844,120.849609,0.000000
cobot_dynamixel_driver/joint_states|name|J1,J2,J3,J4,J5,J6|pos|-0.003906,-1.266882,1.294447,0.000889,-1.019624,-0.000083|vel|0.019613,0.108496,-0.104741,-0.001252,0.206820,0.000000|eff|273.925781,-1224.609375,-1111.816406,-80.566406,112.792969,0.000000
cobot_dynamixel_driver/joint_states|name|J1,J2,J3,J4,J5,J6|pos|-0.003480,-1.264178,1.292006,0.000876,-1.015115,-0.000083|vel|0.021491,0.177767,-0.161910,-0.001252,0.259214,0.000000|eff|225.585938,-1691.894531,-1498.535156,-177.246094,88.623047,0.000000
cobot_dynamixel_driver/joint_states|name|J1,J2,J3,J4,J5,J6|pos|-0.003067,-1.260247,1.287963,0.000814,-1.009426,-0.000083|vel|0.020656,0.240987,-0.247872,-0.003964,0.287480,0.000000|eff|193.359375,-2094.726562,-1482.421875,-80.566406,76.538086,0.000000
cobot_dynamixel_driver/joint_states|name|J1,J2,J3,J4,J5,J6|pos|-0.002716,-1.254627,1.281891,0.000739,-1.002807,-0.000083|vel|0.017944,0.333417,-0.327367,-0.003338,0.328154,0.000000|eff|209.472656,-1772.460938,-1321.289062,-128.906250,84.594727,0.000000
cobot_dynamixel_driver/joint_states|name|J1,J2,J3,J4,J5,J6|pos|-0.002353,-1.247842,1.274593,0.000689,-0.995360,-0.000083|vel|0.017109,0.361585,-0.412703,-0.002712,0.364348,0.000000|eff|177.246094,-2110.839844,-1256.835938,-145.019531,76.538086,0.000000
cobot_dynamixel_driver/joint_states|name|J1,J2,J3,J4,J5,J6|pos|-0.002066,-1.239930,1.266431,0.000613,-0.987127,-0.000083|vel|0.012727,0.406026,-0.437323,-0.003338,0.369518,0.000000|eff|145.019531,-1192.382812,-1788.574219,-161.132812,64.453125,0.000000
cobot_dynamixel_driver/joint_states|name|J1,J2,J3,J4,J5,J6|pos|-0.001828,-1.231255,1.257606,0.000563,-0.978232,-0.000083|vel|0.011684,0.467577,-0.484478,-0.002086,0.453280,0.000000|eff|145.019531,-1804.687500,-1160.156250,-145.019531,72.509766,0.000000
cobot_dynamixel_driver/joint_states|name|J1,J2,J3,J4,J5,J6|pos|-0.001615,-1.221854,1.248192,0.000513,-0.968862,-0.000083|vel|0.011893,0.512019,-0.499917,-0.003130,0.481890,0.000000|eff|177.246094,-1820.800781,-1160.156250,-161.132812,68.481445,0.000000
cobot_dynamixel_driver/joint_states|name|J1,J2,J3,J4,J5,J6|pos|-0.001415,-1.211714,1.238265,0.000451,-0.958933,-0.000083|vel|0.008137,0.545194,-0.512645,-0.002504,0.552209,0.000000|eff|161.132812,-854.003906,-1659.667969,-128.906250,40.283203,0.000000
cobot_dynamixel_driver/joint_states|name|J1,J2,J3,J4,J5,J6|pos|-0.001277,-1.201136,1.227800,0.000413,-0.948652,-0.000083|vel|0.007094,0.563555,-0.609457,-0.002295,0.559792,0.000000|eff|257.812500,-1401.855469,-1337.402344,-177.246094,76.538086,0.000000
cobot_dynamixel_driver/joint_states|name|J1,J2,J3,J4,J5,J6|pos|-0.001139,-1.190270,1.216972,0.000388,-0.937937,-0.000083|vel|0.008137,0.589218,-0.600902,-0.001461,0.619770,0.000000|eff|193.359375,-2078.613281,-966.796875,-177.246094,72.509766,16.113281
cobot_dynamixel_driver/joint_states|name|J1,J2,J3,J4,J5,J6|pos|-0.001001,-1.178916,1.205755,0.000338,-0.926747,-0.000083|vel|0.005842,0.565432,-0.594852,-0.002504,0.523254,0.000000|eff|193.359375,-2352.539062,-708.984375,-128.906250,20.141602,8.056641
cobot_dynamixel_driver/joint_states|name|J1,J2,J3,J4,J5,J6|pos|-0.000864,-1.167337,1.194351,0.000300,-0.915370,-0.000083|vel|0.007720,0.554791,-0.604658,-0.002295,0.580819,0.000000|eff|112.792969,-2884.277344,-870.117188,-128.906250,32.226562,0.000000
cobot_dynamixel_driver/joint_states|name|J1,J2,J3,J4,J5,J6|pos|-0.000739,-1.155520,1.182672,0.000263,-0.903848,-0.000083|vel|0.005216,0.629278,-0.633660,-0.001669,0.618046,0.000000|eff|209.472656,-676.757812,-741.210938,-112.792969,76.538086,0.000000
cobot_dynamixel_driver/joint_states|name|J1,J2,J3,J4,J5,J6|pos|-0.000626,-1.143452,1.170855,0.000238,-0.891954,-0.000083|vel|0.005842,0.665374,-0.628652,-0.001252,0.651138,0.000000|eff|193.359375,-2610.351562,-1659.667969,-177.246094,36.254883,16.113281
cobot_dynamixel_driver/joint_states|name|J1,J2,J3,J4,J5,J6|pos|-0.000526,-1.131134,1.158750,0.000213,-0.879956,-0.000083|vel|0.004382,0.623019,-0.643466,-0.001252,0.604258,0.000000|eff|273.925781,-1272.949219,-692.871094,-209.472656,52.368164,16.113281
cobot_dynamixel_driver/joint_states|name|J1,J2,J3,J4,J5,J6|pos|-0.000476,-1.118754,1.146369,0.000200,-0.867710,-0.000083|vel|0.002712,0.537056,-0.644092,-0.001043,0.661134,0.000000|eff|273.925781,-934.570312,-676.757812,-193.359375,32.226562,28.198242
cobot_dynamixel_driver/joint_states|name|J1,J2,J3,J4,J5,J6|pos|-0.000401,-1.106123,1.133888,0.000188,-0.855237,-0.000083|vel|0.003130,0.608205,-0.696254,-0.000835,0.706634,0.000000|eff|161.132812,-1289.062500,-1111.816406,-193.359375,52.368164,0.000000
cobot_dynamixel_driver/joint_states|name|J1,J2,J3,J4,J5,J6|pos|-0.000363,-1.093442,1.121282,0.000163,-0.842702,-0.000083|vel|0.001669,0.705226,-0.678936,-0.000835,0.640797,0.000000|eff|112.792969,-2304.199219,-773.437500,-193.359375,64.453125,20.141602
cobot_dynamixel_driver/joint_states|name|J1,J2,J3,J4,J5,J6|pos|-0.000325,-1.080573,1.108639,0.000138,-0.830063,-0.000083|vel|0.002295,0.624897,-0.684361,-0.001669,0.641831,0.000000|eff|177.246094,-3174.316406,-773.437500,-161.132812,32.226562,8.056641
cobot_dynamixel_driver/joint_states|name|J1,J2,J3,J4,J5,J6|pos|-0.000288,-1.067667,1.095633,0.000100,-0.817321,-0.000083|vel|0.002295,0.613004,-0.697714,-0.001669,0.671130,0.000000|eff|225.585938,-531.738281,-1933.593750,-161.132812,56.396484,24.169922
cobot_dynamixel_driver/joint_states|name|J1,J2,J3,J4,J5,J6|pos|-0.000250,-1.054723,1.082689,0.000088,-0.804434,-0.000083|vel|0.002295,0.678310,-0.673929,-0.001043,0.655619,0.000000|eff|273.925781,-2513.671875,-918.457031,-161.132812,0.000000,28.198242
cobot_dynamixel_driver/joint_states|name|J1,J2,J3,J4,J5,J6|pos|-0.000225,-1.041629,1.069657,0.000075,-0.791568,-0.000083|vel|0.001043,0.634703,-0.658906,-0.001043,0.771093,0.000000|eff|193.359375,-628.417969,-1675.781250,-128.906250,16.113281,24.169922
cobot_dynamixel_driver/joint_states|name|J1,J2,J3,J4,J5,J6|pos|-0.000163,-1.028673,1.056638,0.000063,-0.778619,-0.000083|vel|0.003338,0.672885,-0.642632,-0.001043,0.698017,0.000000|eff|96.679688,-2690.917969,-741.210938,-112.792969,12.084961,12.084961
cobot_dynamixel_driver/joint_states|name|J1,J2,J3,J4,J5,J6|pos|-0.000138,-1.015566,1.043582,0.000063,-0.765649,-0.000083|vel|0.001669,0.646805,-0.705226,-0.000209,0.706979,0.000000|eff|161.132812,-467.285156,-1659.667969,-145.019531,68.481445,28.198242
cobot_dynamixel_driver/joint_states|name|J1,J2,J3,J4,J5,J6|pos|-0.000113,-1.002247,1.030400,0.000050,-0.752700,-0.000083|vel|0.000835,0.725464,-0.676850,-0.000209,0.680782,0.000000|eff|306.152344,-1724.121094,-531.738281,-112.792969,52.368164,28.198242
cobot_dynamixel_driver/joint_states|name|J1,J2,J3,J4,J5,J6|pos|-0.000075,-0.988840,1.017281,0.000050,-0.739565,-0.000083|vel|0.001669,0.710442,-0.674763,-0.000209,0.685608,0.000000|eff|145.019531,-2320.312500,-2223.632812,-112.792969,0.000000,0.000000
cobot_dynamixel_driver/joint_states|name|J1,J2,J3,J4,J5,J6|pos|-0.000038,-0.974168,1.001934,0.000038,-0.724609,-0.000083|vel|0.002504,0.663705,-0.707938,-0.000209,0.671820,0.000000|eff|177.246094,-837.890625,-886.230469,-128.906250,92.651367,28.198242
cobot_dynamixel_driver/joint_states|name|J1,J2,J3,J4,J5,J6|pos|-0.000038,-0.962151,0.990667,0.000038,-0.713046,-0.000083|vel|0.000626,0.688951,-0.708355,-0.000209,0.691123,0.000000|eff|145.019531,-1289.062500,-1063.476562,-177.246094,-24.169922,32.226562
cobot_dynamixel_driver/joint_states|name|J1,J2,J3,J4,J5,J6|pos|-0.000013,-0.948794,0.977298,0.000038,-0.699683,-0.000083|vel|0.001043,0.684778,-0.711694,-0.000209,0.769370,0.000000|eff|145.019531,-402.832031,-708.984375,-177.246094,-40.283203,0.000000
cobot_dynamixel_driver/joint_states|name|J1,J2,J3,J4,J5,J6|pos|0.000013,-0.935424,0.963841,0.000025,-0.686589,-0.000083|vel|0.001252,0.720040,-0.721291,-0.000209,0.686297,0.000000|eff|145.019531,-854.003906,-660.644531,-177.246094,132.934570,24.169922
cobot_dynamixel_driver/joint_states|name|J1,J2,J3,J4,J5,J6|pos|0.000025,-0.922130,0.950484,0.000025,-0.673433,-0.000083|vel|0.001252,0.714823,-0.702513,-0.000209,0.683539,0.000000|eff|177.246094,-3528.808594,-2288.085938,-128.906250,136.962891,20.141602
cobot_dynamixel_driver/joint_states|name|J1,J2,J3,J4,J5,J6|pos|0.000025,-0.908673,0.937127,0.000025,-0.659884,-0.000083|vel|0.001252,0.694167,-0.635746,-0.000209,0.678024,0.000000|eff|32.226562,-4028.320312,-1998.046875,-145.019531,68.481445,28.198242
cobot_dynamixel_driver/joint_states|name|J1,J2,J3,J4,J5,J6|pos|0.000025,-0.895379,0.923782,0.000013,-0.646398,-0.000083|vel|0.001252,0.707521,-0.756553,-0.000209,0.681127,0.000000|eff|177.246094,-1192.382812,-999.023438,-112.792969,16.113281,32.226562
cobot_dynamixel_driver/joint_states|name|J1,J2,J3,J4,J5,J6|pos|0.000025,-0.881884,0.910476,0.000013,-0.633304,-0.000083|vel|0.001252,0.657654,-0.697923,-0.000209,0.669062,0.000000|eff|112.792969,-1031.250000,-660.644531,-145.019531,92.651367,20.141602
cobot_dynamixel_driver/joint_states|name|J1,J2,J3,J4,J5,J6|pos|0.000025,-0.868414,0.896981,0.000013,-0.620106,-0.000083|vel|0.001252,0.609248,-0.640754,-0.000209,0.777642,0.000000|eff|161.132812,-547.851562,-708.984375,-112.792969,100.708008,28.198242
cobot_dynamixel_driver/joint_states|name|J1,J2,J3,J4,J5,J6|pos|0.000025,-0.854845,0.883411,0.000000,-0.606495,-0.000083|vel|0.001252,0.678102,-0.740696,-0.000209,0.708358,0.000000|eff|48.339844,-725.097656,-451.171875,-177.246094,-8.056641,28.198242
cobot_dynamixel_driver/joint_states|name|J1,J2,J3,J4,J5,J6|pos|0.000025,-0.841287,0.869879,0.000000,-0.593340,-0.000083|vel|0.000000,0.723169,-0.688117,-0.000209,0.581164,0.000000|eff|161.132812,-483.398438,-886.230469,-193.359375,108.764648,16.113281
cobot_dynamixel_driver/joint_states|name|J1,J2,J3,J4,J5,J6|pos|0.000038,-0.827617,0.856484,0.000000,-0.579853,-0.000083|vel|0.000000,0.705434,-0.719831,-0.000209,0.679748,0.000000|eff|112.792969,-950.683594,-773.437500,-112.792969,0.000000,32.226562
cobot_dynamixel_driver/joint_states|name|J1,J2,J3,J4,J5,J6|pos|0.000038,-0.814060,0.842877,0.000000,-0.566614,-0.000083|vel|0.000000,0.678102,-0.703557,-0.000209,0.709737,0.000000|eff|112.792969,-741.210938,-1208.496094,-177.246094,36.254883,28.198242
cobot_dynamixel_driver/joint_states|name|J1,J2,J3,J4,J5,J6|pos|0.000038,-0.800528,0.829220,-0.000013,-0.552982,-0.000083|vel|0.000000,0.809966,-0.739235,-0.000209,0.667339,0.000000|eff|177.246094,-757.324219,-660.644531,-128.906250,24.169922,28.198242
cobot_dynamixel_driver/joint_states|name|J1,J2,J3,J4,J5,J6|pos|0.000050,-0.787021,0.815625,-0.000013,-0.539495,-0.000083|vel|0.000000,0.735688,-0.763438,0.000000,0.749377,0.000000|eff|0.000000,-273.925781,-451.171875,-209.472656,36.254883,28.198242
cobot_dynamixel_driver/joint_states|name|J1,J2,J3,J4,J5,J6|pos|0.000050,-0.773501,0.802105,-0.000013,-0.525988,-0.000083|vel|0.000000,0.711902,-0.734228,0.000000,0.711805,0.000000|eff|96.679688,-370.605469,-612.304688,-177.246094,104.736328,28.198242
cobot_dynamixel_driver/joint_states|name|J1,J2,J3,J4,J5,J6|pos|0.000063,-0.759881,0.788673,-0.000013,-0.512460,-0.000083|vel|0.000000,0.730055,-0.732558,0.000000,0.666994,0.000000|eff|161.132812,-499.511719,-1691.894531,-177.246094,28.198242,28.198242
cobot_dynamixel_driver/joint_states|name|J1,J2,J3,J4,J5,J6|pos|0.000063,-0.746487,0.774991,-0.000013,-0.498931,-0.000083|vel|0.000000,0.652229,-0.633243,0.000000,0.738002,0.000000|eff|96.679688,-257.812500,-547.851562,-209.472656,24.169922,32.226562
cobot_dynamixel_driver/joint_states|name|J1,J2,J3,J4,J5,J6|pos|0.000063,-0.733080,0.761496,-0.000025,-0.485486,-0.000083|vel|0.000209,0.663288,-0.679145,0.000000,0.685263,0.000000|eff|177.246094,-499.511719,-1176.269531,-177.246094,80.566406,32.226562
cobot_dynamixel_driver/joint_states|name|J1,J2,J3,J4,J5,J6|pos|0.000063,-0.719510,0.747989,-0.000025,-0.471958,-0.000083|vel|0.000209,0.697714,-0.627192,0.000000,0.767991,0.000000|eff|0.000000,-612.304688,-1579.101562,-209.472656,-12.084961,32.226562
cobot_dynamixel_driver/joint_states|name|J1,J2,J3,J4,J5,J6|pos|0.000063,-0.705853,0.734357,-0.000025,-0.458492,-0.000083|vel|0.000209,0.747581,-0.761560,0.000000,0.584955,0.000000|eff|128.906250,-580.078125,-1111.816406,-161.132812,72.509766,28.198242
cobot_dynamixel_driver/joint_states|name|J1,J2,J3,J4,J5,J6|pos|0.000063,-0.692245,0.720712,-0.000025,-0.445005,-0.000062|vel|0.000209,0.690829,-0.732767,0.000000,0.641831,0.000000|eff|161.132812,0.000000,-676.757812,-177.246094,16.113281,32.226562
cobot_dynamixel_driver/joint_states|name|J1,J2,J3,J4,J5,J6|pos|0.000063,-0.678613,0.707092,-0.000025,-0.431911,-0.000021|vel|0.000209,0.670799,-0.705643,0.000000,0.723869,0.000000|eff|32.226562,-161.132812,-628.417969,-177.246094,92.651367,28.198242
cobot_dynamixel_driver/joint_states|name|J1,J2,J3,J4,J5,J6|pos|0.000063,-0.665757,0.693472,-0.000038,-0.418796,0.000021|vel|0.000209,0.691246,-0.742365,0.000000,0.673198,0.002758|eff|112.792969,-515.625000,-547.851562,-112.792969,145.019531,32.226562
cobot_dynamixel_driver/joint_states|name|J1,J2,J3,J4,J5,J6|pos|0.000063,-0.651524,0.679902,-0.000038,-0.405144,0.000041|vel|0.000000,0.684152,-0.681649,0.000000,0.801082,0.002758|eff|145.019531,-177.246094,-515.625000,-112.792969,52.368164,16.113281
cobot_dynamixel_driver/joint_states|name|J1,J2,J3,J4,J5,J6|pos|0.000063,-0.637904,0.666370,-0.000038,-0.391533,0.000041|vel|0.000000,0.670799,-0.676432,0.000000,0.747654,0.002758|eff|80.566406,0.000000,-612.304688,-128.906250,36.254883,0.000000
cobot_dynamixel_driver/joint_states|name|J1,J2,J3,J4,J5,J6|pos|0.000063,-0.624359,0.652738,-0.000038,-0.378108,0.000041|vel|0.000000,0.700218,-0.713363,0.000000,0.669407,0.002758|eff|32.226562,-145.019531,-370.605469,-209.472656,76.538086,24.169922
cobot_dynamixel_driver/joint_states|name|J1,J2,J3,J4,J5,J6|pos|0.000063,-0.611528,0.639431,-0.000038,-0.364601,0.000041|vel|0.000000,0.669547,-0.724630,0.000000,0.747309,0.002758|eff|96.679688,-338.378906,-1659.667969,-177.246094,44.311523,0.000000
cobot_dynamixel_driver/joint_states|name|J1,J2,J3,J4,J5,J6|pos|0.000063,-0.597257,0.625924,-0.000038,-0.351465,0.000041|vel|0.000000,0.695419,-0.728385,0.000000,0.687331,0.002758|eff|161.132812,-306.152344,-1820.800781,-128.906250,96.679688,0.000000
cobot_dynamixel_driver/joint_states|name|J1,J2,J3,J4,J5,J6|pos|0.000063,-0.583600,0.612492,-0.000050,-0.337834,0.000041|vel|0.000000,0.680397,-0.679354,0.000000,0.682850,0.000000|eff|0.000000,-306.152344,-1901.367188,-145.019531,92.651367,0.000000
cobot_dynamixel_driver/joint_states|name|J1,J2,J3,J4,J5,J6|pos|0.000063,-0.569967,0.598985,-0.000050,-0.324616,0.000041|vel|0.000000,0.661827,-0.695419,0.000000,0.653895,0.000000|eff|80.566406,-193.359375,-2062.500000,-209.472656,120.849609,0.000000
cobot_dynamixel_driver/joint_states|name|J1,J2,J3,J4,J5,J6|pos|0.000063,-0.556360,0.585352,-0.000050,-0.311170,0.000041|vel|0.000000,0.717119,-0.740070,0.000000,0.606671,0.000000|eff|161.132812,-322.265625,-1772.460938,-209.472656,84.594727,0.000000
cobot_dynamixel_driver/joint_states|name|J1,J2,J3,J4,J5,J6|pos|0.000063,-0.542865,0.571707,-0.000050,-0.297601,0.000041|vel|0.000000,0.653481,-0.685196,0.000000,0.762476,0.000000|eff|0.000000,-209.472656,-1981.933594,-112.792969,68.481445,0.000000
cobot_dynamixel_driver/joint_states|name|J1,J2,J3,J4,J5,J6|pos|0.000063,-0.529421,0.557975,-0.000050,-0.284072,0.000041|vel|0.000000,0.673303,-0.732350,0.000000,0.675267,0.000000|eff|0.000000,-354.492188,-628.417969,-145.019531,36.254883,0.000000
cobot_dynamixel_driver/joint_states|name|J1,J2,J3,J4,J5,J6|pos|0.000063,-0.515763,0.544430,-0.000050,-0.270834,0.000041|vel|0.000000,0.686447,-0.694167,0.000000,0.643899,0.000000|eff|0.000000,-48.339844,-596.191406,-209.472656,80.566406,0.000000
cobot_dynamixel_driver/joint_states|name|J1,J2,J3,J4,J5,J6|pos|0.000063,-0.502131,0.530798,-0.000050,-0.257740,0.000041|vel|0.000000,0.694167,-0.736314,0.000000,0.702153,0.000000|eff|161.132812,-257.812500,-725.097656,-209.472656,189.331055,0.000000
cobot_dynamixel_driver/joint_states|name|J1,J2,J3,J4,J5,J6|pos|0.000063,-0.488624,0.517291,-0.000050,-0.244170,0.000041|vel|0.000000,0.695211,-0.690412,0.000000,0.629422,0.000000|eff|112.792969,-612.304688,-580.078125,-112.792969,96.679688,0.000000
cobot_dynamixel_driver/joint_states|name|J1,J2,J3,J4,J5,J6|pos|0.000063,-0.475117,0.503746,-0.000050,-0.230518,0.000041|vel|0.000000,0.705434,-0.720040,0.000000,0.718699,0.000000|eff|0.000000,-64.453125,-1111.816406,-209.472656,48.339844,0.000000
cobot_dynamixel_driver/joint_states|name|J1,J2,J3,J4,J5,J6|pos|0.000063,-0.461459,0.490226,-0.000050,-0.216969,0.000041|vel|0.000000,0.693124,-0.727551,0.000000,0.676645,0.000000|eff|80.566406,-32.226562,-1305.175781,-112.792969,56.396484,0.000000
cobot_dynamixel_driver/joint_states|name|J1,J2,J3,J4,J5,J6|pos|0.000063,-0.447777,0.476531,-0.000050,-0.203834,0.000041|vel|0.000000,0.668295,-0.705017,0.000000,0.681816,0.000000|eff|80.566406,-435.058594,-660.644531,-145.019531,112.792969,0.000000
cobot_dynamixel_driver/joint_states|name|J1,J2,J3,J4,J5,J6|pos|0.000063,-0.434958,0.462949,-0.000063,-0.190243,0.000041|vel|0.000000,0.725882,-0.735688,0.000000,0.598399,0.000000|eff|128.906250,-499.511719,-435.058594,-145.019531,116.821289,0.000000
cobot_dynamixel_driver/joint_states|name|J1,J2,J3,J4,J5,J6|pos|0.000063,-0.421439,0.449342,-0.000063,-0.176612,0.000041|vel|0.000000,0.709190,-0.635538,0.000000,0.800737,0.000000|eff|64.453125,0.000000,-563.964844,-177.246094,48.339844,0.000000
cobot_dynamixel_driver/joint_states|name|J1,J2,J3,J4,J5,J6|pos|0.000063,-0.407969,0.435747,-0.000063,-0.163104,0.000041|vel|0.000000,0.727551,-0.699175,0.000000,0.692502,0.000000|eff|0.000000,209.472656,-418.945312,-112.792969,56.396484,0.000000
cobot_dynamixel_driver/joint_states|name|J1,J2,J3,J4,J5,J6|pos|0.000063,-0.393623,0.422290,-0.000063,-0.149597,0.000041|vel|0.000000,0.718788,-0.644927,0.000000,0.716631,0.000000|eff|0.000000,0.000000,-966.796875,-177.246094,44.311523,0.000000
cobot_dynamixel_driver/joint_states|name|J1,J2,J3,J4,J5,J6|pos|0.000063,-0.380767,0.408683,-0.000063,-0.136482,0.000041|vel|0.000000,0.723378,-0.720040,0.000000,0.594262,0.000000|eff|0.000000,193.359375,-402.832031,-128.906250,145.019531,0.000000
cobot_dynamixel_driver/joint_states|name|J1,J2,J3,J4,J5,J6|pos|0.000063,-0.366496,0.395138,-0.000063,-0.122768,0.000041|vel|0.000000,0.682692,-0.699175,0.000000,0.731797,0.000000|eff|64.453125,-128.906250,-515.625000,-177.246094,32.226562,0.000000
cobot_dynamixel_driver/joint_states|name|J1,J2,J3,J4,J5,J6|pos|0.000063,-0.352964,0.381581,-0.000063,-0.109322,0.000041|vel|0.000000,0.698340,-0.711694,0.000000,0.662513,0.000000|eff|145.019531,-112.792969,-708.984375,-193.359375,112.792969,0.000000
cobot_dynamixel_driver/joint_states|name|J1,J2,J3,J4,J5,J6|pos|0.000063,-0.339419,0.368161,-0.000063,-0.095959,0.000041|vel|0.000000,0.705226,-0.697923,0.000000,0.659066,0.000000|eff|112.792969,-48.339844,-1047.363281,-112.792969,36.254883,0.000000
cobot_dynamixel_driver/joint_states|name|J1,J2,J3,J4,J5,J6|pos|0.000063,-0.326500,0.354629,-0.000063,-0.083548,0.000041|vel|0.000000,0.672260,-0.638459,0.000000,0.544281,0.000000|eff|64.453125,354.492188,-1466.308594,-193.359375,-32.226562,0.000000
cobot_dynamixel_driver/joint_states|name|J1,J2,J3,J4,J5,J6|pos|0.000063,-0.312292,0.341272,-0.000063,-0.072833,0.000041|vel|0.000000,0.727760,-0.647013,0.000000,0.445007,0.000000|eff|0.000000,-435.058594,-1869.140625,-112.792969,0.000000,0.000000
cobot_dynamixel_driver/joint_states|name|J1,J2,J3,J4,J5,J6|pos|0.000050,-0.299423,0.327852,-0.000063,-0.063670,0.000041|vel|0.000000,0.677684,-0.717744,0.000000,0.359177,0.000000|eff|0.000000,193.359375,-1675.781250,-193.359375,-16.113281,0.000000
cobot_dynamixel_driver/joint_states|name|J1,J2,J3,J4,J5,J6|pos|0.000050,-0.285754,0.314157,-0.000063,-0.055685,0.000041|vel|0.000000,0.717744,-0.595895,0.000000,0.375033,0.000000|eff|0.000000,64.453125,-2030.273438,-96.679688,12.084961,0.000000
cobot_dynamixel_driver/joint_states|name|J1,J2,J3,J4,J5,J6|pos|0.000050,-0.272196,0.300550,-0.000063,-0.048776,0.000041|vel|0.000000,0.678728,-0.671634,0.000000,0.289203,0.000000|eff|0.000000,-32.226562,-1949.707031,-112.792969,20.141602,0.000000
cobot_dynamixel_driver/joint_states|name|J1,J2,J3,J4,J5,J6|pos|0.000050,-0.258664,0.286893,-0.000063,-0.042757,0.000041|vel|0.000000,0.668504,-0.705017,0.000000,0.269900,0.000000|eff|0.000000,-48.339844,-1562.988281,-96.679688,44.311523,0.000000
cobot_dynamixel_driver/joint_states|name|J1,J2,J3,J4,J5,J6|pos|0.000050,-0.245132,0.273223,-0.000063,-0.037441,0.000041|vel|0.000000,0.695628,-0.739235,0.000000,0.255422,0.000000|eff|0.000000,193.359375,-1562.988281,-112.792969,24.169922,0.000000
cobot_dynamixel_driver/joint_states|name|J1,J2,J3,J4,J5,J6|pos|0.000050,-0.229509,0.257625,-0.000063,-0.032311,0.000041|vel|0.000000,0.706060,-0.677476,0.000000,0.199926,0.000000|eff|80.566406,821.777344,-1659.667969,-96.679688,40.283203,0.000000
cobot_dynamixel_driver/joint_states|name|J1,J2,J3,J4,J5,J6|pos|0.000050,-0.217304,0.246346,-0.000063,-0.028670,0.000041|vel|0.000000,0.688743,-0.683318,0.000000,0.198202,0.000000|eff|0.000000,-257.812500,-2126.953125,-96.679688,44.311523,0.000000
cobot_dynamixel_driver/joint_states|name|J1,J2,J3,J4,J5,J6|pos|0.000050,-0.204310,0.232939,-0.000063,-0.025174,0.000041|vel|0.000000,0.672051,-0.687908,0.000000,0.179933,0.000000|eff|0.000000,48.339844,-1562.988281,-112.792969,56.396484,0.000000
cobot_dynamixel_driver/joint_states|name|J1,J2,J3,J4,J5,J6|pos|0.000050,-0.190089,0.219407,-0.000050,-0.022071,0.000041|vel|0.000000,0.715449,-0.694585,0.000000,0.149600,0.000000|eff|0.000000,-290.039062,-1498.535156,-96.679688,68.481445,0.000000
cobot_dynamixel_driver/joint_states|name|J1,J2,J3,J4,J5,J6|pos|0.000050,-0.177208,0.205737,-0.000050,-0.019341,0.000041|vel|0.000000,0.701679,-0.695837,0.000000,0.137535,0.000000|eff|112.792969,-273.925781,-1675.781250,-112.792969,64.453125,0.000000
cobot_dynamixel_driver/joint_states|name|J1,J2,J3,J4,J5,J6|pos|0.000050,-0.163626,0.192017,-0.000050,-0.016983,0.000041|vel|0.000000,0.724838,-0.622393,0.000000,0.117887,0.000000|eff|0.000000,-161.132812,-1611.328125,-96.679688,68.481445,0.000000
cobot_dynamixel_driver/joint_states|name|J1,J2,J3,J4,J5,J6|pos|0.000050,-0.150043,0.178410,-0.000050,-0.014852,0.000041|vel|0.000000,0.726090,-0.720457,0.000000,0.084796,0.000000|eff|0.000000,-273.925781,-2126.953125,-96.679688,64.453125,0.000000
cobot_dynamixel_driver/joint_states|name|J1,J2,J3,J4,J5,J6|pos|0.000050,-0.136524,0.164777,-0.000050,-0.012990,0.000041|vel|0.000000,0.709607,-0.730889,0.000000,0.094448,0.000000|eff|128.906250,0.000000,-1724.121094,-96.679688,68.481445,0.000000
cobot_dynamixel_driver/joint_states|name|J1,J2,J3,J4,J5,J6|pos|0.000050,-0.122979,0.151220,-0.000050,-0.011377,0.000041|vel|0.000000,0.725673,-0.733602,0.000000,0.067561,0.000000|eff|80.566406,-112.792969,-1708.007812,-96.679688,68.481445,0.000000
cobot_dynamixel_driver/joint_states|name|J1,J2,J3,J4,J5,J6|pos|0.000050,-0.109447,0.137500,-0.000050,-0.009970,0.000041|vel|0.000000,0.679562,-0.722961,0.000000,0.067906,0.000000|eff|0.000000,112.792969,-644.531250,-96.679688,64.453125,0.000000
cobot_dynamixel_driver/joint_states|name|J1,J2,J3,J4,J5,J6|pos|0.000050,-0.096115,0.123930,-0.000050,-0.008729,0.000041|vel|0.000000,0.666835,-0.681649,0.000000,0.064459,0.000000|eff|80.566406,821.777344,-854.003906,-96.679688,68.481445,0.000000
cobot_dynamixel_driver/joint_states|name|J1,J2,J3,J4,J5,J6|pos|0.000050,-0.083522,0.110361,-0.000050,-0.007633,0.000041|vel|0.000000,0.620098,-0.602780,0.000000,0.053428,0.000000|eff|0.000000,1240.722656,-725.097656,-96.679688,84.594727,0.000000
cobot_dynamixel_driver/joint_states|name|J1,J2,J3,J4,J5,J6|pos|0.000050,-0.072280,0.096991,-0.000050,-0.006702,0.000041|vel|0.000000,0.518696,-0.666209,0.000000,0.040675,0.000000|eff|0.000000,-1111.816406,-1095.703125,-96.679688,72.509766,0.000000
cobot_dynamixel_driver/joint_states|name|J1,J2,J3,J4,J5,J6|pos|0.000050,-0.062453,0.084548,-0.000050,-0.005937,0.000041|vel|0.000000,0.422092,-0.650143,0.000000,0.036883,0.000000|eff|0.000000,1095.703125,-1530.761719,-96.679688,92.651367,0.000000
cobot_dynamixel_driver/joint_states|name|J1,J2,J3,J4,J5,J6|pos|0.000050,-0.054104,0.073457,-0.000050,-0.005254,0.000041|vel|0.000000,0.383075,-0.521825,0.000000,0.038606,0.000000|eff|0.000000,902.343750,-547.851562,-80.566406,88.623047,0.000000
cobot_dynamixel_driver/joint_states|name|J1,J2,J3,J4,J5,J6|pos|0.000050,-0.047081,0.063968,-0.000050,-0.004551,0.000041|vel|0.000000,0.321733,-0.459440,0.000000,0.035849,0.000000|eff|0.000000,-467.285156,-773.437500,-96.679688,80.566406,0.000000
cobot_dynamixel_driver/joint_states|name|J1,J2,J3,J4,J5,J6|pos|0.000050,-0.041035,0.055806,-0.000050,-0.003972,0.000041|vel|0.000000,0.285429,-0.411451,0.000000,0.027921,0.000000|eff|0.000000,32.226562,-531.738281,-96.679688,76.538086,0.000000
cobot_dynamixel_driver/joint_states|name|J1,J2,J3,J4,J5,J6|pos|0.000050,-0.035714,0.048721,-0.000050,-0.003517,0.000041|vel|0.000000,0.244951,-0.338634,0.000000,0.023095,0.000000|eff|0.000000,48.339844,-531.738281,-96.679688,84.594727,0.000000
cobot_dynamixel_driver/joint_states|name|J1,J2,J3,J4,J5,J6|pos|0.000050,-0.031095,0.042600,-0.000050,-0.003123,0.000041|vel|0.000000,0.247664,-0.269989,0.000000,0.020682,0.000000|eff|0.000000,531.738281,-821.777344,-96.679688,88.623047,0.000000
cobot_dynamixel_driver/joint_states|name|J1,J2,J3,J4,J5,J6|pos|0.000050,-0.027114,0.037317,-0.000050,-0.002710,0.000041|vel|0.000000,0.191538,-0.259765,0.000000,0.019303,0.000000|eff|0.000000,273.925781,-789.550781,0.000000,84.594727,0.000000
cobot_dynamixel_driver/joint_states|name|J1,J2,J3,J4,J5,J6|pos|0.000050,-0.023697,0.032698,-0.000050,-0.002400,0.000041|vel|0.000000,0.166291,-0.230763,0.000000,0.012754,0.000000|eff|0.000000,322.265625,-773.437500,-96.679688,92.651367,0.000000
cobot_dynamixel_driver/joint_states|name|J1,J2,J3,J4,J5,J6|pos|0.000050,-0.020793,0.028529,-0.000050,-0.002089,0.000041|vel|0.000000,0.140211,-0.178184,0.000000,0.017235,0.000000|eff|0.000000,290.039062,-692.871094,-64.453125,88.623047,0.000000
cobot_dynamixel_driver/joint_states|name|J1,J2,J3,J4,J5,J6|pos|0.000050,-0.018101,0.024924,-0.000050,-0.001820,0.000041|vel|0.000000,0.128526,-0.175263,0.000000,0.012754,0.000000|eff|48.339844,257.812500,-1224.609375,-96.679688,88.623047,0.000000
cobot_dynamixel_driver/joint_states|name|J1,J2,J3,J4,J5,J6|pos|0.000050,-0.015961,0.021819,-0.000050,-0.001613,0.000041|vel|0.000000,0.110791,-0.147096,0.000000,0.008962,0.000000|eff|112.792969,209.472656,-837.890625,-32.226562,84.594727,0.000000
cobot_dynamixel_driver/joint_states|name|J1,J2,J3,J4,J5,J6|pos|0.000050,-0.013933,0.019178,-0.000050,-0.001386,0.000041|vel|0.000000,0.096812,-0.136038,0.000000,0.011720,0.000000|eff|0.000000,290.039062,-837.890625,0.000000,84.594727,0.000000
cobot_dynamixel_driver/joint_states|name|J1,J2,J3,J4,J5,J6|pos|0.000050,-0.012205,0.016787,-0.000050,-0.001138,0.000041|vel|0.000000,0.065932,-0.120180,0.000000,0.009652,0.000000|eff|0.000000,273.925781,-789.550781,-96.679688,76.538086,0.000000
cobot_dynamixel_driver/joint_states|name|J1,J2,J3,J4,J5,J6|pos|0.000050,-0.010728,0.014721,-0.000050,-0.001076,0.000041|vel|0.000000,0.066350,-0.097855,0.000000,0.003447,0.000000|eff|0.000000,241.699219,-886.230469,-96.679688,84.594727,0.000000
cobot_dynamixel_driver/joint_states|name|J1,J2,J3,J4,J5,J6|pos|0.000050,-0.009401,0.012931,-0.000050,-0.000931,0.000041|vel|0.000000,0.064889,-0.077408,0.000000,0.007928,0.000000|eff|0.000000,241.699219,-789.550781,-96.679688,84.594727,0.000000
cobot_dynamixel_driver/joint_states|name|J1,J2,J3,J4,J5,J6|pos|0.000050,-0.008212,0.011291,-0.000050,-0.000807,0.000041|vel|0.000000,0.057795,-0.081581,0.000000,0.005515,0.000000|eff|0.000000,257.812500,-805.664062,-80.566406,84.594727,0.000000
cobot_dynamixel_driver/joint_states|name|J1,J2,J3,J4,J5,J6|pos|0.000050,-0.007185,0.009889,-0.000050,-0.000703,0.000041|vel|0.000000,0.046737,-0.059256,0.000000,0.005515,0.000000|eff|0.000000,273.925781,-821.777344,-96.679688,84.594727,0.000000
cobot_dynamixel_driver/joint_states|name|J1,J2,J3,J4,J5,J6|pos|0.000050,-0.006234,0.008750,-0.000050,-0.000600,0.000041|vel|0.000000,0.041312,-0.051536,0.000000,0.004481,0.000000|eff|0.000000,209.472656,-918.457031,0.000000,84.594727,0.000000
cobot_dynamixel_driver/joint_states|name|J1,J2,J3,J4,J5,J6|pos|0.000050,-0.005508,0.007786,-0.000050,-0.000559,0.000041|vel|0.000000,0.033801,-0.048406,0.000000,0.002758,0.000000|eff|0.000000,193.359375,-950.683594,-112.792969,80.566406,0.000000
cobot_dynamixel_driver/joint_states|name|J1,J2,J3,J4,J5,J6|pos|0.000050,-0.004845,0.006810,-0.000050,-0.000496,0.000041|vel|0.000000,0.034635,-0.045068,0.000000,0.002068,0.000000|eff|0.000000,241.699219,-886.230469,-96.679688,80.566406,0.000000
cobot_dynamixel_driver/joint_states|name|J1,J2,J3,J4,J5,J6|pos|0.000050,-0.004244,0.005909,-0.000050,-0.000434,0.000041|vel|0.000000,0.027124,-0.035261,0.000000,0.003102,0.000000|eff|0.000000,241.699219,-837.890625,-64.453125,80.566406,0.000000
cobot_dynamixel_driver/joint_states|name|J1,J2,J3,J4,J5,J6|pos|0.000050,-0.003718,0.005120,-0.000050,-0.000393,0.000041|vel|0.000000,0.026707,-0.041521,0.000000,0.003102,0.000000|eff|0.000000,257.812500,-805.664062,0.000000,76.538086,0.000000
cobot_dynamixel_driver/joint_states|name|J1,J2,J3,J4,J5,J6|pos|0.000050,-0.003255,0.004444,-0.000050,-0.000331,0.000041|vel|0.000000,0.020656,-0.035887,0.000000,0.002413,0.000000|eff|0.000000,209.472656,-854.003906,0.000000,84.594727,0.000000
cobot_dynamixel_driver/joint_states|name|J1,J2,J3,J4,J5,J6|pos|0.000050,-0.002829,0.003856,-0.000050,-0.000290,0.000041|vel|0.000000,0.021908,-0.021908,0.000000,0.001723,0.000000|eff|0.000000,225.585938,-854.003906,-96.679688,80.566406,0.000000
cobot_dynamixel_driver/joint_states|name|J1,J2,J3,J4,J5,J6|pos|0.000050,-0.002466,0.003455,-0.000050,-0.000248,0.000041|vel|0.000000,0.017109,-0.021908,0.000000,0.002413,0.000000|eff|0.000000,209.472656,-902.343750,0.000000,76.538086,0.000000
cobot_dynamixel_driver/joint_states|name|J1,J2,J3,J4,J5,J6|pos|0.000050,-0.002153,0.002967,-0.000050,-0.000165,0.000041|vel|0.000000,0.015231,-0.023994,0.000000,0.003792,0.000000|eff|0.000000,209.472656,-821.777344,-96.679688,72.509766,0.000000
cobot_dynamixel_driver/joint_states|name|J1,J2,J3,J4,J5,J6|pos|0.000050,-0.001840,0.002666,-0.000050,-0.000165,0.000041|vel|0.000000,0.013353,-0.014397,0.000000,0.003792,0.000000|eff|0.000000,193.359375,-886.230469,-48.339844,72.509766,0.000000
cobot_dynamixel_driver/joint_states|name|J1,J2,J3,J4,J5,J6|pos|0.000050,-0.001640,0.002391,-0.000050,-0.000165,0.000041|vel|0.000000,0.008555,-0.013979,0.000000,0.003792,0.000000|eff|0.000000,161.132812,-918.457031,-96.679688,64.453125,0.000000
cobot_dynamixel_driver/joint_states|name|J1,J2,J3,J4,J5,J6|pos|0.000050,-0.001465,0.002015,-0.000050,-0.000165,0.000041|vel|0.000000,0.008555,-0.016483,0.000000,0.003792,0.000000|eff|0.000000,145.019531,-870.117188,-96.679688,60.424805,0.000000
cobot_dynamixel_driver/joint_states|name|J1,J2,J3,J4,J5,J6|pos|0.000050,-0.001302,0.001815,-0.000050,-0.000165,0.000041|vel|0.000000,0.007929,-0.005842,0.000000,0.003792,0.000000|eff|0.000000,241.699219,-950.683594,0.000000,56.396484,0.000000
cobot_dynamixel_driver/joint_states|name|J1,J2,J3,J4,J5,J6|pos|0.000050,-0.001177,0.001690,-0.000050,-0.000165,0.000041|vel|0.000000,0.006259,-0.008555,0.000000,0.003792,0.000000|eff|0.000000,112.792969,-934.570312,-96.679688,52.368164,0.000000
cobot_dynamixel_driver/joint_states|name|J1,J2,J3,J4,J5,J6|pos|0.000050,-0.001026,0.001477,-0.000050,-0.000165,0.000041|vel|0.000000,0.007929,-0.013353,0.000000,0.000000,0.000000|eff|0.000000,354.492188,-902.343750,0.000000,56.396484,0.000000
cobot_dynamixel_driver/joint_states|name|J1,J2,J3,J4,J5,J6|pos|0.000050,-0.000851,0.001152,-0.000050,-0.000165,0.000041|vel|0.000000,0.008346,-0.017735,0.000000,0.000000,0.000000|eff|0.000000,193.359375,-789.550781,-80.566406,52.368164,0.000000
cobot_dynamixel_driver/joint_states|name|J1,J2,J3,J4,J5,J6|pos|0.000050,-0.000739,0.000889,-0.000050,-0.000165,0.000041|vel|0.000000,0.005216,-0.008763,0.000000,0.000000,0.000000|eff|0.000000,273.925781,-773.437500,-64.453125,56.396484,0.000000
cobot_dynamixel_driver/joint_states|name|J1,J2,J3,J4,J5,J6|pos|0.000050,-0.000651,0.000789,-0.000050,-0.000165,0.000041|vel|0.000000,0.003964,-0.006051,0.000000,0.000000,0.000000|eff|0.000000,193.359375,-805.664062,-96.679688,56.396484,0.000000
cobot_dynamixel_driver/joint_states|name|J1,J2,J3,J4,J5,J6|pos|0.000050,-0.000563,0.000789,-0.000050,-0.000165,0.000041|vel|0.000000,0.003964,-0.006051,0.000000,0.000000,0.000000|eff|0.000000,193.359375,-821.777344,-48.339844,60.424805,0.000000
cobot_dynamixel_driver/joint_states|name|J1,J2,J3,J4,J5,J6|pos|0.000050,-0.000488,0.000789,-0.000050,-0.000165,0.000041|vel|0.000000,0.003547,-0.006051,0.000000,0.000000,0.000000|eff|0.000000,241.699219,-805.664062,-96.679688,60.424805,0.000000
cobot_dynamixel_driver/joint_states|name|J1,J2,J3,J4,J5,J6|pos|0.000050,-0.000476,0.000789,-0.000050,-0.000165,0.000041|vel|0.000000,0.003547,-0.006051,0.000000,0.000000,0.000000|eff|0.000000,225.585938,-773.437500,0.000000,60.424805,0.000000
cobot_dynamixel_driver/joint_states|name|J1,J2,J3,J4,J5,J6|pos|0.000050,-0.000476,0.000789,-0.000050,-0.000165,0.000041|vel|0.000000,0.003547,-0.006051,0.000000,0.000000,0.000000|eff|0.000000,225.585938,-837.890625,0.000000,64.453125,0.000000
cobot_dynamixel_driver/joint_states|name|J1,J2,J3,J4,J5,J6|pos|0.000050,-0.000476,0.000789,-0.000050,-0.000165,0.000041|vel|0.000000,0.003547,-0.006051,0.000000,0.000000,0.000000|eff|0.000000,225.585938,-854.003906,0.000000,68.481445,0.000000
cobot_dynamixel_driver/joint_states|name|J1,J2,J3,J4,J5,J6|pos|0.000050,-0.000476,0.000789,-0.000050,-0.000165,0.000041|vel|0.000000,0.003547,0.000000,0.000000,0.000000,0.000000|eff|0.000000,225.585938,-854.003906,-48.339844,68.481445,0.000000
cobot_dynamixel_driver/joint_states|name|J1,J2,J3,J4,J5,J6|pos|0.000050,-0.000476,0.000764,-0.000050,-0.000165,0.000041|vel|0.000000,0.003547,0.000000,0.000000,0.000000,0.000000|eff|0.000000,225.585938,-902.343750,-80.566406,72.509766,0.000000
cobot_dynamixel_driver/joint_states|name|J1,J2,J3,J4,J5,J6|pos|0.000050,-0.000476,0.000714,-0.000050,-0.000165,0.000041|vel|0.000000,0.003547,-0.002921,0.000000,0.000000,0.000000|eff|0.000000,225.585938,-886.230469,-80.566406,72.509766,0.000000
cobot_dynamixel_driver/joint_states|name|J1,J2,J3,J4,J5,J6|pos|0.000050,-0.000451,0.000638,-0.000050,-0.000165,0.000041|vel|0.000000,-0.000000,-0.003756,0.000000,0.000000,0.000000|eff|0.000000,177.246094,-870.117188,-48.339844,80.566406,0.000000
cobot_dynamixel_driver/joint_states|name|J1,J2,J3,J4,J5,J6|pos|0.000050,-0.000426,0.000551,-0.000050,-0.000165,0.000041|vel|0.000000,0.001252,-0.004590,0.000000,0.000000,0.000000|eff|0.000000,128.906250,-886.230469,-64.453125,76.538086,0.000000
cobot_dynamixel_driver/joint_states|name|J1,J2,J3,J4,J5,J6|pos|0.000050,-0.000401,0.000413,-0.000050,-0.000165,0.000041|vel|0.000000,0.001461,-0.007720,0.000000,0.000000,0.000000|eff|0.000000,128.906250,-821.777344,-48.339844,80.566406,0.000000
cobot_dynamixel_driver/joint_states|name|J1,J2,J3,J4,J5,J6|pos|0.000050,-0.000351,0.000238,-0.000050,-0.000145,0.000041|vel|0.000000,0.002504,-0.009180,0.000000,0.000000,0.000000|eff|0.000000,306.152344,-757.324219,-48.339844,80.566406,0.000000
cobot_dynamixel_driver/joint_states|name|J1,J2,J3,J4,J5,J6|pos|0.000050,-0.000288,0.000125,-0.000050,-0.000124,0.000041|vel|0.000000,0.002712,-0.005216,0.000000,0.000345,0.000000|eff|0.000000,161.132812,-789.550781,0.000000,80.566406,0.000000
cobot_dynamixel_driver/joint_states|name|J1,J2,J3,J4,J5,J6|pos|0.000050,-0.000238,0.000063,-0.000050,-0.000103,0.000041|vel|0.000000,0.002504,-0.003338,0.000000,0.000345,0.000000|eff|0.000000,80.566406,-773.437500,0.000000,80.566406,0.000000
cobot_dynamixel_driver/joint_states|name|J1,J2,J3,J4,J5,J6|pos|0.000038,-0.000188,0.000050,-0.000050,-0.000041,0.000041|vel|0.000000,0.002504,-0.002295,0.000000,0.002758,0.000000|eff|0.000000,161.132812,-757.324219,-80.566406,76.538086,0.000000
cobot_dynamixel_driver/joint_states|name|J1,J2,J3,J4,J5,J6|pos|0.000038,-0.000163,0.000050,-0.000050,-0.000021,0.000041|vel|0.000000,0.001669,0.000626,0.000000,0.002758,0.000000|eff|0.000000,257.812500,-757.324219,0.000000,64.453125,0.000000
cobot_dynamixel_driver/joint_states|name|J1,J2,J3,J4,J5,J6|pos|0.000038,-0.000125,0.000050,-0.000050,-0.000021,0.000041|vel|0.000000,0.001461,-0.000626,0.000000,0.002758,0.000000|eff|0.000000,193.359375,-757.324219,0.000000,68.481445,0.000000
cobot_dynamixel_driver/joint_states|name|J1,J2,J3,J4,J5,J6|pos|0.000038,-0.000100,0.000038,-0.000050,-0.000021,0.000041|vel|0.000000,0.001252,-0.000626,0.000000,0.002758,0.000000|eff|0.000000,257.812500,-757.324219,-64.453125,64.453125,0.000000
cobot_dynamixel_driver/joint_states|name|J1,J2,J3,J4,J5,J6|pos|0.000038,-0.000088,0.000038,-0.000050,-0.000021,0.000041|vel|0.000000,0.001043,-0.000626,0.000000,0.002758,0.000000|eff|0.000000,177.246094,-757.324219,-80.566406,56.396484,0.000000
cobot_dynamixel_driver/joint_states|name|J1,J2,J3,J4,J5,J6|pos|0.000038,-0.000075,0.000038,-0.000050,-0.000021,0.000041|vel|0.000000,0.001043,-0.000626,0.000000,0.002758,0.000000|eff|0.000000,225.585938,-757.324219,-80.566406,52.368164,0.000000
cobot_dynamixel_driver/joint_states|name|J1,J2,J3,J4,J5,J6|pos|0.000038,-0.000063,0.000038,-0.000050,-0.000021,0.000041|vel|0.000000,0.001043,-0.000209,0.000000,0.002758,0.000000|eff|0.000000,225.585938,-757.324219,-48.339844,40.283203,0.000000
cobot_dynamixel_driver/joint_states|name|J1,J2,J3,J4,J5,J6|pos|0.000025,-0.000063,0.000038,-0.000050,-0.000021,0.000041|vel|0.000000,0.000417,-0.000209,0.000000,0.000000,0.000000|eff|0.000000,225.585938,-757.324219,-80.566406,48.339844,0.000000
cobot_dynamixel_driver/joint_states|name|J1,J2,J3,J4,J5,J6|pos|0.000025,-0.000063,0.000038,-0.000038,-0.000021,0.000041|vel|0.000000,0.000417,-0.000209,0.000000,0.000000,0.000000|eff|0.000000,225.585938,-757.324219,0.000000,52.368164,0.000000
cobot_dynamixel_driver/joint_states|name|J1,J2,J3,J4,J5,J6|pos|0.000025,-0.000050,0.000038,-0.000038,-0.000021,0.000041|vel|0.000000,0.000417,-0.000209,0.000000,0.000000,0.000000|eff|0.000000,225.585938,-757.324219,0.000000,52.368164,0.000000
cobot_dynamixel_driver/joint_states|name|J1,J2,J3,J4,J5,J6|pos|0.000025,-0.000050,0.000025,-0.000038,-0.000021,0.000041|vel|0.000000,0.000417,-0.000209,0.000000,0.000000,0.000000|eff|-64.453125,225.585938,-757.324219,0.000000,48.339844,0.000000
cobot_dynamixel_driver/joint_states|name|J1,J2,J3,J4,J5,J6|pos|0.000025,-0.000050,0.000025,-0.000038,-0.000021,0.000041|vel|0.000000,0.000417,-0.000209,0.000000,0.000000,0.000000|eff|-96.679688,225.585938,-757.324219,0.000000,52.368164,0.000000
cobot_dynamixel_driver/joint_states|name|J1,J2,J3,J4,J5,J6|pos|0.000025,-0.000050,0.000025,-0.000038,-0.000021,0.000041|vel|0.000000,0.000417,0.000000,0.000000,0.000000,0.000000|eff|0.000000,225.585938,-757.324219,0.000000,36.254883,0.000000
cobot_dynamixel_driver/joint_states|name|J1,J2,J3,J4,J5,J6|pos|0.000025,-0.000038,0.000025,-0.000038,-0.000021,0.000041|vel|0.000000,-0.000000,0.000000,0.000000,0.000000,0.000000|eff|0.000000,225.585938,-757.324219,-80.566406,52.368164,0.000000
cobot_dynamixel_driver/joint_states|name|J1,J2,J3,J4,J5,J6|pos|0.000025,-0.000038,0.000025,-0.000038,-0.000021,0.000041|vel|0.000000,-0.000000,0.000000,0.000000,0.000000,0.000000|eff|0.000000,225.585938,-757.324219,0.000000,44.311523,0.000000
cobot_dynamixel_driver/joint_states|name|J1,J2,J3,J4,J5,J6|pos|0.000025,-0.000038,0.000025,-0.000038,-0.000021,0.000041|vel|0.000000,-0.000000,0.000000,0.000000,0.000000,0.000000|eff|0.000000,209.472656,-757.324219,0.000000,56.396484,0.000000
cobot_dynamixel_driver/joint_states|name|J1,J2,J3,J4,J5,J6|pos|0.000013,-0.000038,0.000025,-0.000038,-0.000021,0.000041|vel|0.000000,-0.000000,0.000000,0.000000,0.000000,0.000000|eff|-32.226562,209.472656,-757.324219,-32.226562,32.226562,0.000000
cobot_dynamixel_driver/joint_states|name|J1,J2,J3,J4,J5,J6|pos|0.000013,-0.000038,0.000025,-0.000038,-0.000021,0.000041|vel|0.000000,-0.000000,0.000000,0.000000,0.000000,0.000000|eff|0.000000,225.585938,-757.324219,0.000000,44.311523,0.000000
cobot_dynamixel_driver/joint_states|name|J1,J2,J3,J4,J5,J6|pos|0.000013,-0.000038,0.000025,-0.000038,-0.000021,0.000041|vel|0.000000,-0.000000,0.000000,0.000000,0.000000,0.000000|eff|0.000000,225.585938,-757.324219,-80.566406,52.368164,0.000000
cobot_dynamixel_driver/joint_states|name|J1,J2,J3,J4,J5,J6|pos|0.000013,-0.000025,0.000025,-0.000038,-0.000021,0.000041|vel|0.000000,-0.000000,0.000000,0.000000,0.000000,0.000000|eff|0.000000,177.246094,-757.324219,-48.339844,36.254883,0.000000
cobot_dynamixel_driver/joint_states|name|J1,J2,J3,J4,J5,J6|pos|0.000013,-0.000013,0.000025,-0.000038,-0.000021,0.000041|vel|0.000000,0.000209,0.000000,0.000000,0.000000,0.000000|eff|-32.226562,241.699219,-757.324219,0.000000,52.368164,0.000000
cobot_dynamixel_driver/joint_states|name|J1,J2,J3,J4,J5,J6|pos|0.000013,0.000013,0.000025,-0.000038,-0.000021,0.000041|vel|0.000000,0.000209,0.000000,0.000000,0.000000,0.000000|eff|0.000000,257.812500,-757.324219,0.000000,32.226562,0.000000
cobot_dynamixel_driver/joint_states|name|J1,J2,J3,J4,J5,J6|pos|0.000013,0.000038,0.000025,-0.000038,-0.000021,0.000041|vel|0.000000,0.000835,0.000000,0.000000,0.000000,0.000000|eff|0.000000,257.812500,-757.324219,-32.226562,48.339844,0.000000
cobot_dynamixel_driver/joint_states|name|J1,J2,J3,J4,J5,J6|pos|0.000013,0.000050,0.000025,-0.000038,-0.000021,0.000041|vel|0.000000,0.001252,0.000000,0.000000,0.000000,0.000000|eff|0.000000,290.039062,-757.324219,0.000000,44.311523,0.000000
cobot_dynamixel_driver/joint_states|name|J1,J2,J3,J4,J5,J6|pos|0.000013,0.000050,0.000025,-0.000038,-0.000021,0.000041|vel|0.000000,0.001252,0.000000,0.000000,0.000000,0.000000|eff|0.000000,225.585938,-757.324219,0.000000,52.368164,0.000000
cobot_dynamixel_driver/joint_states|name|J1,J2,J3,J4,J5,J6|pos|0.000000,0.000050,0.000025,-0.000038,-0.000021,0.000041|vel|0.000000,0.001252,0.000000,0.000000,0.000000,0.000000|eff|0.000000,306.152344,-757.324219,0.000000,56.396484,0.000000
cobot_dynamixel_driver/joint_states|name|J1,J2,J3,J4,J5,J6|pos|0.000000,0.000050,0.000025,-0.000038,-0.000021,0.000041|vel|0.000000,0.001252,0.000000,0.000000,0.000000,0.000000|eff|-96.679688,225.585938,-757.324219,0.000000,32.226562,0.000000
cobot_dynamixel_driver/joint_states|name|J1,J2,J3,J4,J5,J6|pos|0.000000,0.000050,0.000025,-0.000038,-0.000021,0.000041|vel|0.000000,0.001252,0.000000,0.000000,0.000000,0.000000|eff|0.000000,225.585938,-757.324219,-32.226562,32.226562,0.000000
cobot_dynamixel_driver/joint_states|name|J1,J2,J3,J4,J5,J6|pos|0.000000,0.000050,0.000025,-0.000038,-0.000021,0.000041|vel|0.000000,0.001252,0.000000,0.000000,0.000000,0.000000|eff|0.000000,241.699219,-757.324219,0.000000,52.368164,0.000000
cobot_dynamixel_driver/joint_states|name|J1,J2,J3,J4,J5,J6|pos|0.000000,0.000050,0.000025,-0.000038,-0.000021,0.000041|vel|0.000000,-0.000000,0.000000,0.000000,0.000000,0.000000|eff|0.000000,241.699219,-757.324219,0.000000,44.311523,0.000000
cobot_dynamixel_driver/joint_states|name|J1,J2,J3,J4,J5,J6|pos|0.000000,0.000050,0.000013,-0.000038,-0.000021,0.000041|vel|0.000000,-0.000000,0.000000,0.000000,0.000000,0.000000|eff|0.000000,209.472656,-773.437500,0.000000,56.396484,0.000000
cobot_dynamixel_driver/joint_states|name|J1,J2,J3,J4,J5,J6|pos|0.000000,0.000050,0.000013,-0.000025,-0.000021,0.000041|vel|0.000000,-0.000000,0.000000,0.000000,0.000000,0.000000|eff|-96.679688,306.152344,-757.324219,0.000000,44.311523,0.000000
cobot_dynamixel_driver/joint_states|name|J1,J2,J3,J4,J5,J6|pos|0.000000,0.000050,0.000013,-0.000025,-0.000021,0.000041|vel|0.000000,-0.000000,0.000000,0.000000,0.000000,0.000000|eff|-48.339844,306.152344,-757.324219,0.000000,48.339844,0.000000
cobot_dynamixel_driver/joint_states|name|J1,J2,J3,J4,J5,J6|pos|0.000000,0.000063,0.000013,-0.000025,-0.000021,0.000041|vel|0.000000,-0.000000,0.000000,0.000000,0.000000,0.000000|eff|0.000000,338.378906,-757.324219,0.000000,36.254883,0.000000
cobot_dynamixel_driver/joint_states|name|J1,J2,J3,J4,J5,J6|pos|0.000000,0.000063,0.000013,-0.000025,-0.000021,0.000041|vel|0.000000,-0.000000,0.000000,0.000000,0.000000,0.000000|eff|0.000000,209.472656,-757.324219,0.000000,40.283203,0.000000
cobot_dynamixel_driver/joint_states|name|J1,J2,J3,J4,J5,J6|pos|0.000000,0.000063,0.000013,-0.000025,-0.000021,0.000041|vel|0.000000,-0.000000,0.000000,0.000000,0.000000,0.000000|eff|0.000000,209.472656,-757.324219,0.000000,56.396484,0.000000
cobot_dynamixel_driver/joint_states|name|J1,J2,J3,J4,J5,J6|pos|0.000000,0.000063,0.000013,-0.000025,-0.000021,0.000041|vel|0.000000,-0.000000,0.000000,0.000000,0.000000,0.000000|eff|0.000000,306.152344,-757.324219,0.000000,48.339844,0.000000
cobot_dynamixel_driver/joint_states|name|J1,J2,J3,J4,J5,J6|pos|0.000000,0.000063,0.000013,-0.000025,-0.000021,0.000041|vel|0.000000,-0.000000,0.000000,0.000000,0.000000,0.000000|eff|0.000000,306.152344,-757.324219,0.000000,56.396484,0.000000
cobot_dynamixel_driver/joint_states|name|J1,J2,J3,J4,J5,J6|pos|0.000000,0.000063,0.000013,-0.000025,-0.000021,0.000041|vel|0.000000,-0.000000,0.000000,0.000000,0.000000,0.000000|eff|0.000000,354.492188,-757.324219,0.000000,40.283203,0.000000
cobot_dynamixel_driver/joint_states|name|J1,J2,J3,J4,J5,J6|pos|0.000000,0.000063,0.000013,-0.000025,-0.000021,0.000041|vel|0.000000,-0.000000,0.000000,0.000000,0.000000,0.000000|eff|0.000000,257.812500,-757.324219,0.000000,52.368164,0.000000
cobot_dynamixel_driver/joint_states|name|J1,J2,J3,J4,J5,J6|pos|0.000000,0.000063,0.000013,-0.000025,-0.000021,0.000041|vel|0.000000,-0.000000,0.000000,0.000000,0.000000,0.000000|eff|0.000000,241.699219,-757.324219,0.000000,44.311523,0.000000
cobot_dynamixel_driver/joint_states|name|J1,J2,J3,J4,J5,J6|pos|0.000000,0.000063,0.000013,-0.000025,-0.000021,0.000041|vel|0.000000,-0.000000,0.000000,0.000000,0.000000,0.000000|eff|0.000000,225.585938,-757.324219,0.000000,40.283203,0.000000
cobot_dynamixel_driver/joint_states|name|J1,J2,J3,J4,J5,J6|pos|0.000000,0.000063,0.000013,-0.000025,-0.000021,0.000041|vel|0.000000,-0.000000,0.000000,0.000000,0.000000,0.000000|eff|0.000000,257.812500,-757.324219,0.000000,32.226562,0.000000
cobot_dynamixel_driver/joint_states|name|J1,J2,J3,J4,J5,J6|pos|0.000000,0.000063,0.000013,-0.000025,-0.000021,0.000041|vel|0.000000,-0.000000,0.000000,0.000000,0.000000,0.000000|eff|0.000000,257.812500,-757.324219,0.000000,52.368164,0.000000
cobot_dynamixel_driver/joint_states|name|J1,J2,J3,J4,J5,J6|pos|0.000000,0.000063,0.000013,-0.000025,-0.000021,0.000041|vel|0.000000,-0.000000,0.000000,0.000000,0.000000,0.000000|eff|0.000000,306.152344,-757.324219,0.000000,48.339844,0.000000
cobot_dynamixel_driver/joint_states|name|J1,J2,J3,J4,J5,J6|pos|0.000000,0.000063,0.000013,-0.000025,-0.000021,0.000041|vel|0.000000,-0.000000,0.000000,0.000000,0.000000,0.000000|eff|0.000000,435.058594,-757.324219,0.000000,32.226562,0.000000
cobot_dynamixel_driver/joint_states|name|J1,J2,J3,J4,J5,J6|pos|0.000000,0.000063,0.000013,-0.000025,-0.000021,0.000041|vel|0.000000,-0.000000,0.000000,0.000000,0.000000,0.000000|eff|0.000000,225.585938,-757.324219,0.000000,44.311523,0.000000
cobot_dynamixel_driver/joint_states|name|J1,J2,J3,J4,J5,J6|pos|0.000000,0.000063,0.000013,-0.000025,-0.000021,0.000041|vel|0.000000,-0.000000,0.000000,0.000000,0.000000,0.000000|eff|0.000000,241.699219,-757.324219,0.000000,52.368164,0.000000
cobot_dynamixel_driver/joint_states|name|J1,J2,J3,J4,J5,J6|pos|0.000000,0.000063,0.000013,-0.000025,-0.000021,0.000041|vel|0.000000,-0.000000,0.000000,0.000000,0.000000,0.000000|eff|0.000000,402.832031,-757.324219,0.000000,44.311523,0.000000
cobot_dynamixel_driver/joint_states|name|J1,J2,J3,J4,J5,J6|pos|0.000000,0.000063,0.000013,-0.000025,-0.000021,0.000041|vel|0.000000,-0.000000,0.000000,0.000000,0.000000,0.000000|eff|0.000000,435.058594,-757.324219,0.000000,52.368164,0.000000
cobot_dynamixel_driver/joint_states|name|J1,J2,J3,J4,J5,J6|pos|0.000000,0.000063,0.000013,-0.000025,-0.000021,0.000041|vel|0.000000,-0.000000,0.000000,0.000000,0.000000,0.000000|eff|-48.339844,370.605469,-757.324219,0.000000,52.368164,0.000000
cobot_dynamixel_driver/joint_states|name|J1,J2,J3,J4,J5,J6|pos|0.000000,0.000063,0.000013,-0.000025,-0.000021,0.000041|vel|0.000000,-0.000000,0.000000,0.000000,0.000000,0.000000|eff|0.000000,257.812500,-757.324219,0.000000,36.254883,0.000000
cobot_dynamixel_driver/joint_states|name|J1,J2,J3,J4,J5,J6|pos|0.000000,0.000063,0.000013,-0.000025,-0.000021,0.000041|vel|0.000000,-0.000000,0.000000,0.000000,0.000000,0.000000|eff|0.000000,257.812500,-757.324219,0.000000,52.368164,0.000000
cobot_dynamixel_driver/joint_states|name|J1,J2,J3,J4,J5,J6|pos|0.000000,0.000050,0.000013,-0.000025,-0.000021,0.000041|vel|0.000000,-0.000000,0.000000,0.000000,0.000000,0.000000|eff|0.000000,241.699219,-757.324219,0.000000,52.368164,0.000000
cobot_dynamixel_driver/joint_states|name|J1,J2,J3,J4,J5,J6|pos|0.000000,0.000050,0.000013,-0.000025,-0.000021,0.000041|vel|0.000000,-0.000000,0.000000,0.000000,0.000000,0.000000|eff|0.000000,435.058594,-757.324219,0.000000,56.396484,0.000000
cobot_dynamixel_driver/joint_states|name|J1,J2,J3,J4,J5,J6|pos|0.000000,0.000050,0.000013,-0.000025,-0.000021,0.000041|vel|0.000000,-0.000000,0.000000,0.000000,0.000000,0.000000|eff|0.000000,225.585938,-757.324219,0.000000,48.339844,0.000000
cobot_dynamixel_driver/joint_states|name|J1,J2,J3,J4,J5,J6|pos|0.000000,0.000050,0.000013,-0.000025,-0.000021,0.000041|vel|0.000000,-0.000000,0.000000,0.000000,0.000000,0.000000|eff|0.000000,241.699219,-757.324219,0.000000,40.283203,0.000000
cobot_dynamixel_driver/joint_states|name|J1,J2,J3,J4,J5,J6|pos|0.000000,0.000050,0.000013,-0.000025,-0.000021,0.000041|vel|0.000000,-0.000000,0.000000,0.000000,0.000000,0.000000|eff|0.000000,370.605469,-757.324219,0.000000,52.368164,0.000000
cobot_dynamixel_driver/joint_states|name|J1,J2,J3,J4,J5,J6|pos|0.000000,0.000050,0.000013,-0.000025,-0.000021,0.000041|vel|0.000000,-0.000000,0.000000,0.000000,0.000000,0.000000|eff|0.000000,225.585938,-757.324219,0.000000,56.396484,0.000000
cobot_dynamixel_driver/joint_states|name|J1,J2,J3,J4,J5,J6|pos|0.000000,0.000050,0.000013,-0.000025,-0.000021,0.000041|vel|0.000000,-0.000000,0.000000,0.000000,0.000000,0.000000|eff|0.000000,322.265625,-757.324219,0.000000,44.311523,0.000000
cobot_dynamixel_driver/joint_states|name|J1,J2,J3,J4,J5,J6|pos|0.000000,0.000050,0.000013,-0.000025,-0.000021,0.000041|vel|0.000000,-0.000000,0.000000,0.000000,0.000000,0.000000|eff|0.000000,241.699219,-757.324219,0.000000,36.254883,0.000000
cobot_dynamixel_driver/joint_states|name|J1,J2,J3,J4,J5,J6|pos|0.000000,0.000050,0.000013,-0.000025,-0.000021,0.000041|vel|0.000000,-0.000000,0.000000,0.000000,0.000000,0.000000|eff|-64.453125,402.832031,-757.324219,0.000000,44.311523,0.000000
cobot_dynamixel_driver/joint_states|name|J1,J2,J3,J4,J5,J6|pos|0.000000,0.000050,0.000013,-0.000025,-0.000021,0.000041|vel|0.000000,-0.000000,0.000000,0.000000,0.000000,0.000000|eff|0.000000,241.699219,-757.324219,0.000000,36.254883,0.000000
cobot_dynamixel_driver/joint_states|name|J1,J2,J3,J4,J5,J6|pos|0.000000,0.000050,0.000013,-0.000025,-0.000021,0.000041|vel|0.000000,-0.000000,0.000000,0.000000,0.000000,0.000000|eff|0.000000,241.699219,-773.437500,0.000000,56.396484,0.000000
cobot_dynamixel_driver/joint_states|name|J1,J2,J3,J4,J5,J6|pos|0.000000,0.000050,0.000013,-0.000013,-0.000021,0.000041|vel|0.000000,-0.000000,0.000000,0.000000,0.000000,0.000000|eff|0.000000,370.605469,-757.324219,0.000000,48.339844,0.000000
cobot_dynamixel_driver/joint_states|name|J1,J2,J3,J4,J5,J6|pos|0.000000,0.000050,0.000013,-0.000013,-0.000021,0.000041|vel|0.000000,-0.000000,0.000000,0.000000,0.000000,0.000000|eff|0.000000,241.699219,-757.324219,0.000000,52.368164,0.000000
cobot_dynamixel_driver/joint_states|name|J1,J2,J3,J4,J5,J6|pos|0.000000,0.000050,0.000013,-0.000013,-0.000021,0.000041|vel|0.000000,-0.000000,0.000000,0.000000,0.000000,0.000000|eff|0.000000,402.832031,-757.324219,0.000000,56.396484,0.000000
cobot_dynamixel_driver/joint_states|name|J1,J2,J3,J4,J5,J6|pos|0.000000,0.000050,0.000013,-0.000013,-0.000021,0.000041|vel|0.000000,-0.000000,0.000000,0.000000,0.000000,0.000000|eff|0.000000,257.812500,-757.324219,0.000000,56.396484,0.000000
cobot_dynamixel_driver/joint_states|name|J1,J2,J3,J4,J5,J6|pos|0.000000,0.000050,0.000013,-0.000013,-0.000021,0.000041|vel|0.000000,-0.000000,0.000000,0.000000,0.000000,0.000000|eff|0.000000,370.605469,-757.324219,0.000000,48.339844,0.000000
cobot_dynamixel_driver/joint_states|name|J1,J2,J3,J4,J5,J6|pos|0.000000,0.000050,0.000013,-0.000013,-0.000021,0.000041|vel|0.000000,-0.000000,0.000000,0.000000,0.000000,0.000000|eff|0.000000,451.171875,-757.324219,0.000000,52.368164,0.000000
cobot_dynamixel_driver/joint_states|name|J1,J2,J3,J4,J5,J6|pos|0.000000,0.000050,0.000013,-0.000013,-0.000021,0.000041|vel|0.000000,-0.000000,0.000000,0.000000,0.000000,0.000000|eff|0.000000,225.585938,-757.324219,0.000000,52.368164,0.000000
cobot_dynamixel_driver/joint_states|name|J1,J2,J3,J4,J5,J6|pos|0.000000,0.000050,0.000013,-0.000013,-0.000021,0.000041|vel|0.000000,-0.000000,0.000000,0.000000,0.000000,0.000000|eff|0.000000,451.171875,-757.324219,0.000000,40.283203,0.000000
cobot_dynamixel_driver/joint_states|name|J1,J2,J3,J4,J5,J6|pos|0.000000,0.000050,0.000013,-0.000013,-0.000021,0.000041|vel|0.000000,-0.000000,0.000000,0.000000,0.000000,0.000000|eff|0.000000,225.585938,-757.324219,0.000000,52.368164,0.000000
cobot_dynamixel_driver/joint_states|name|J1,J2,J3,J4,J5,J6|pos|0.000000,0.000050,0.000013,-0.000013,-0.000021,0.000041|vel|0.000000,-0.000000,0.000000,0.000000,0.000000,0.000000|eff|0.000000,370.605469,-757.324219,0.000000,52.368164,0.000000
cobot_dynamixel_driver/joint_states|name|J1,J2,J3,J4,J5,J6|pos|0.000000,0.000050,0.000013,-0.000013,-0.000021,0.000041|vel|0.000000,-0.000000,0.000000,0.000000,0.000000,0.000000|eff|-96.679688,241.699219,-741.210938,0.000000,52.368164,0.000000
cobot_dynamixel_driver/joint_states|name|J1,J2,J3,J4,J5,J6|pos|0.000000,0.000050,0.000013,-0.000013,-0.000021,0.000041|vel|0.000000,-0.000000,0.000000,0.000000,0.000000,0.000000|eff|-48.339844,225.585938,-757.324219,0.000000,36.254883,0.000000
cobot_dynamixel_driver/joint_states|name|J1,J2,J3,J4,J5,J6|pos|0.000000,0.000050,0.000013,-0.000013,-0.000021,0.000041|vel|0.000000,-0.000000,0.000000,0.000000,0.000000,0.000000|eff|0.000000,322.265625,-757.324219,0.000000,44.311523,0.000000
cobot_dynamixel_driver/joint_states|name|J1,J2,J3,J4,J5,J6|pos|0.000000,0.000050,0.000013,-0.000013,-0.000021,0.000041|vel|0.000000,-0.000000,0.000000,0.000000,0.000000,0.000000|eff|-48.339844,322.265625,-773.437500,0.000000,36.254883,0.000000
cobot_dynamixel_driver/joint_states|name|J1,J2,J3,J4,J5,J6|pos|0.000000,0.000050,0.000013,-0.000013,-0.000021,0.000041|vel|0.000000,-0.000000,0.000000,0.000000,0.000000,0.000000|eff|-48.339844,290.039062,-757.324219,0.000000,44.311523,0.000000
cobot_dynamixel_driver/joint_states|name|J1,J2,J3,J4,J5,J6|pos|0.000000,0.000050,0.000013,-0.000013,-0.000021,0.000041|vel|0.000000,-0.000000,0.000000,0.000000,0.000000,0.000000|eff|0.000000,257.812500,-757.324219,0.000000,56.396484,0.000000
cobot_dynamixel_driver/joint_states|name|J1,J2,J3,J4,J5,J6|pos|0.000000,0.000050,0.000013,-0.000013,-0.000021,0.000041|vel|0.000000,-0.000000,0.000000,0.000000,0.000000,0.000000|eff|0.000000,241.699219,-757.324219,0.000000,56.396484,0.000000
cobot_dynamixel_driver/joint_states|name|J1,J2,J3,J4,J5,J6|pos|0.000000,0.000050,0.000013,-0.000013,-0.000021,0.000041|vel|0.000000,-0.000000,0.000000,0.000000,0.000000,0.000000|eff|0.000000,225.585938,-757.324219,0.000000,44.311523,0.000000
cobot_dynamixel_driver/joint_states|name|J1,J2,J3,J4,J5,J6|pos|0.000000,0.000050,0.000013,-0.000013,-0.000021,0.000041|vel|0.000000,-0.000000,0.000000,0.000000,0.000000,0.000000|eff|0.000000,241.699219,-757.324219,0.000000,56.396484,0.000000
cobot_dynamixel_driver/joint_states|name|J1,J2,J3,J4,J5,J6|pos|0.000000,0.000050,0.000013,-0.000013,-0.000021,0.000041|vel|0.000000,-0.000000,0.000000,0.000000,0.000000,0.000000|eff|0.000000,435.058594,-757.324219,0.000000,32.226562,0.000000
cobot_dynamixel_driver/joint_states|name|J1,J2,J3,J4,J5,J6|pos|0.000000,0.000050,0.000013,-0.000013,-0.000021,0.000041|vel|0.000000,-0.000000,0.000000,0.000000,0.000000,0.000000|eff|0.000000,290.039062,-757.324219,0.000000,52.368164,0.000000
cobot_dynamixel_driver/joint_states|name|J1,J2,J3,J4,J5,J6|pos|0.000000,0.000050,0.000013,-0.000013,-0.000021,0.000041|vel|0.000000,-0.000000,0.000000,0.000000,0.000000,0.000000|eff|0.000000,322.265625,-757.324219,0.000000,32.226562,0.000000
cobot_dynamixel_driver/joint_states|name|J1,J2,J3,J4,J5,J6|pos|0.000000,0.000050,0.000013,-0.000013,-0.000021,0.000041|vel|0.000000,-0.000000,0.000000,0.000000,0.000000,0.000000|eff|0.000000,306.152344,-757.324219,0.000000,48.339844,0.000000
cobot_dynamixel_driver/joint_states|name|J1,J2,J3,J4,J5,J6|pos|0.000000,0.000050,0.000000,-0.000013,-0.000021,0.000041|vel|0.000000,-0.000000,0.000000,0.000000,0.000000,0.000000|eff|0.000000,435.058594,-757.324219,0.000000,48.339844,0.000000
cobot_dynamixel_driver/joint_states|name|J1,J2,J3,J4,J5,J6|pos|0.000000,0.000050,0.000000,-0.000013,-0.000021,0.000041|vel|0.000000,-0.000000,0.000000,0.000000,0.000000,0.000000|eff|0.000000,290.039062,-757.324219,0.000000,48.339844,0.000000
cobot_dynamixel_driver/joint_states|name|J1,J2,J3,J4,J5,J6|pos|0.000000,0.000050,0.000000,-0.000013,-0.000021,0.000041|vel|0.000000,-0.000000,0.000000,0.000000,0.000000,0.000000|eff|0.000000,435.058594,-757.324219,0.000000,36.254883,0.000000
cobot_dynamixel_driver/joint_states|name|J1,J2,J3,J4,J5,J6|pos|0.000000,0.000050,0.000000,-0.000013,-0.000021,0.000041|vel|0.000000,-0.000000,0.000000,0.000000,0.000000,0.000000|eff|0.000000,225.585938,-757.324219,0.000000,52.368164,0.000000
cobot_dynamixel_driver/joint_states|name|J1,J2,J3,J4,J5,J6|pos|0.000000,0.000050,0.000000,-0.000013,-0.000021,0.000041|vel|0.000000,-0.000000,0.000000,0.000000,0.000000,0.000000|eff|0.000000,386.718750,-757.324219,0.000000,32.226562,0.000000
cobot_dynamixel_driver/joint_states|name|J1,J2,J3,J4,J5,J6|pos|0.000000,0.000050,0.000000,-0.000013,-0.000021,0.000041|vel|0.000000,-0.000000,0.000000,0.000000,0.000000,0.000000|eff|0.000000,290.039062,-757.324219,0.000000,52.368164,0.000000
cobot_dynamixel_driver/joint_states|name|J1,J2,J3,J4,J5,J6|pos|0.000000,0.000050,0.000000,-0.000013,-0.000021,0.000041|vel|0.000000,-0.000000,0.000000,0.000000,0.000000,0.000000|eff|-48.339844,241.699219,-757.324219,0.000000,52.368164,0.000000
cobot_dynamixel_driver/joint_states|name|J1,J2,J3,J4,J5,J6|pos|0.000000,0.000050,0.000000,-0.000013,-0.000021,0.000041|vel|0.000000,-0.000000,0.000000,0.000000,0.000000,0.000000|eff|-48.339844,257.812500,-757.324219,0.000000,52.368164,0.000000
cobot_dynamixel_driver/joint_states|name|J1,J2,J3,J4,J5,J6|pos|0.000000,0.000050,0.000000,-0.000013,-0.000021,0.000041|vel|0.000000,-0.000000,0.000000,0.000000,0.000000,0.000000|eff|0.000000,467.285156,-757.324219,0.000000,32.226562,0.000000
cobot_dynamixel_driver/joint_states|name|J1,J2,J3,J4,J5,J6|pos|0.000000,0.000050,0.000000,-0.000013,-0.000021,0.000041|vel|0.000000,-0.000000,0.000000,0.000000,0.000000,0.000000|eff|0.000000,338.378906,-757.324219,0.000000,52.368164,0.000000
cobot_dynamixel_driver/joint_states|name|J1,J2,J3,J4,J5,J6|pos|0.000000,0.000050,0.000000,-0.000013,-0.000021,0.000041|vel|0.000000,-0.000000,0.000000,0.000000,0.000000,0.000000|eff|0.000000,241.699219,-757.324219,0.000000,52.368164,0.000000
cobot_dynamixel_driver/joint_states|name|J1,J2,J3,J4,J5,J6|pos|0.000000,0.000050,0.000000,-0.000013,-0.000021,0.000041|vel|0.000000,-0.000000,0.000000,0.000000,0.000000,0.000000|eff|0.000000,435.058594,-757.324219,0.000000,56.396484,0.000000
cobot_dynamixel_driver/joint_states|name|J1,J2,J3,J4,J5,J6|pos|0.000000,0.000050,0.000000,-0.000013,-0.000021,0.000041|vel|0.000000,-0.000000,0.000000,0.000000,0.000000,0.000000|eff|0.000000,402.832031,-757.324219,0.000000,44.311523,0.000000
cobot_dynamixel_driver/joint_states|name|J1,J2,J3,J4,J5,J6|pos|0.000000,0.000050,0.000000,-0.000013,-0.000021,0.000041|vel|0.000000,-0.000000,0.000000,0.000000,0.000000,0.000000|eff|0.000000,290.039062,-757.324219,0.000000,32.226562,0.000000
cobot_dynamixel_driver/joint_states|name|J1,J2,J3,J4,J5,J6|pos|0.000000,0.000050,0.000000,-0.000013,-0.000021,0.000041|vel|0.000000,-0.000000,0.000000,0.000000,0.000000,0.000000|eff|0.000000,322.265625,-757.324219,0.000000,32.226562,0.000000
cobot_dynamixel_driver/joint_states|name|J1,J2,J3,J4,J5,J6|pos|0.000000,0.000050,0.000000,-0.000013,-0.000021,0.000041|vel|0.000000,-0.000000,0.000000,0.000000,0.000000,0.000000|eff|0.000000,273.925781,-757.324219,0.000000,40.283203,0.000000
cobot_dynamixel_driver/joint_states|name|J1,J2,J3,J4,J5,J6|pos|0.000000,0.000050,0.000000,-0.000013,-0.000021,0.000041|vel|0.000000,-0.000000,0.000000,0.000000,0.000000,0.000000|eff|0.000000,290.039062,-757.324219,0.000000,52.368164,0.000000
cobot_dynamixel_driver/joint_states|name|J1,J2,J3,J4,J5,J6|pos|0.000000,0.000050,0.000000,-0.000013,-0.000021,0.000041|vel|0.000000,-0.000000,0.000000,0.000000,0.000000,0.000000|eff|0.000000,386.718750,-757.324219,0.000000,44.311523,0.000000
cobot_dynamixel_driver/joint_states|name|J1,J2,J3,J4,J5,J6|pos|0.000000,0.000050,0.000000,-0.000013,-0.000021,0.000041|vel|0.000000,-0.000000,0.000000,0.000000,0.000000,0.000000|eff|0.000000,322.265625,-757.324219,0.000000,48.339844,0.000000
cobot_dynamixel_driver/joint_states|name|J1,J2,J3,J4,J5,J6|pos|0.000000,0.000050,0.000000,-0.000013,-0.000021,0.000041|vel|0.000000,-0.000000,0.000000,0.000000,0.000000,0.000000|eff|0.000000,273.925781,-757.324219,0.000000,48.339844,0.000000
cobot_dynamixel_driver/joint_states|name|J1,J2,J3,J4,J5,J6|pos|0.000000,0.000050,0.000000,-0.000013,-0.000021,0.000041|vel|0.000000,-0.000000,0.000000,0.000000,0.000000,0.000000|eff|-64.453125,322.265625,-757.324219,0.000000,36.254883,0.000000
cobot_dynamixel_driver/joint_states|name|J1,J2,J3,J4,J5,J6|pos|0.000000,0.000050,0.000000,-0.000013,-0.000021,0.000041|vel|0.000000,-0.000000,0.000000,0.000000,0.000000,0.000000|eff|0.000000,338.378906,-757.324219,0.000000,52.368164,0.000000
cobot_dynamixel_driver/joint_states|name|J1,J2,J3,J4,J5,J6|pos|0.000000,0.000050,0.000000,-0.000013,-0.000021,0.000041|vel|0.000000,-0.000000,0.000000,0.000000,0.000000,0.000000|eff|-48.339844,418.945312,-757.324219,0.000000,56.396484,0.000000
cobot_dynamixel_driver/joint_states|name|J1,J2,J3,J4,J5,J6|pos|0.000000,0.000050,0.000000,-0.000013,-0.000021,0.000041|vel|0.000000,-0.000000,0.000000,0.000000,0.000000,0.000000|eff|-96.679688,467.285156,-757.324219,0.000000,52.368164,0.000000
cobot_dynamixel_driver/joint_states|name|J1,J2,J3,J4,J5,J6|pos|0.000000,0.000050,0.000000,-0.000013,-0.000021,0.000041|vel|0.000000,-0.000000,0.000000,0.000000,0.000000,0.000000|eff|0.000000,467.285156,-757.324219,0.000000,40.283203,0.000000
cobot_dynamixel_driver/joint_states|name|J1,J2,J3,J4,J5,J6|pos|0.000000,0.000050,0.000000,-0.000013,-0.000021,0.000041|vel|0.000000,-0.000000,0.000000,0.000000,0.000000,0.000000|eff|0.000000,273.925781,-757.324219,0.000000,48.339844,0.000000
cobot_dynamixel_driver/joint_states|name|J1,J2,J3,J4,J5,J6|pos|0.000000,0.000050,0.000000,-0.000013,-0.000021,0.000041|vel|0.000000,-0.000000,0.000000,0.000000,0.000000,0.000000|eff|0.000000,435.058594,-757.324219,0.000000,52.368164,0.000000
cobot_dynamixel_driver/joint_states|name|J1,J2,J3,J4,J5,J6|pos|0.000000,0.000050,0.000000,-0.000013,-0.000021,0.000041|vel|0.000000,-0.000000,0.000000,0.000000,0.000000,0.000000|eff|0.000000,273.925781,-757.324219,0.000000,44.311523,0.000000
cobot_dynamixel_driver/joint_states|name|J1,J2,J3,J4,J5,J6|pos|0.000000,0.000050,0.000000,-0.000013,-0.000021,0.000041|vel|0.000000,-0.000000,0.000000,0.000000,0.000000,0.000000|eff|0.000000,435.058594,-757.324219,0.000000,32.226562,0.000000
cobot_dynamixel_driver/joint_states|name|J1,J2,J3,J4,J5,J6|pos|0.000000,0.000050,0.000000,-0.000013,-0.000021,0.000041|vel|0.000000,-0.000000,0.000000,0.000000,0.000000,0.000000|eff|0.000000,257.812500,-757.324219,0.000000,32.226562,0.000000
cobot_dynamixel_driver/joint_states|name|J1,J2,J3,J4,J5,J6|pos|0.000000,0.000050,0.000000,-0.000013,-0.000021,0.000041|vel|0.000000,-0.000000,0.000000,0.000000,0.000000,0.000000|eff|0.000000,370.605469,-757.324219,0.000000,40.283203,0.000000
cobot_dynamixel_driver/joint_states|name|J1,J2,J3,J4,J5,J6|pos|0.000000,0.000050,0.000000,-0.000013,-0.000021,0.000041|vel|0.000000,-0.000000,0.000000,0.000000,0.000000,0.000000|eff|0.000000,241.699219,-757.324219,0.000000,52.368164,0.000000
cobot_dynamixel_driver/joint_states|name|J1,J2,J3,J4,J5,J6|pos|0.000000,0.000050,0.000000,-0.000013,-0.000021,0.000041|vel|0.000000,-0.000000,0.000000,0.000000,0.000000,0.000000|eff|0.000000,418.945312,-757.324219,0.000000,56.396484,0.000000
cobot_dynamixel_driver/joint_states|name|J1,J2,J3,J4,J5,J6|pos|0.000000,0.000050,0.000000,-0.000013,-0.000021,0.000041|vel|0.000000,-0.000000,0.000000,0.000000,0.000000,0.000000|eff|-64.453125,451.171875,-757.324219,0.000000,52.368164,0.000000
cobot_dynamixel_driver/joint_states|name|J1,J2,J3,J4,J5,J6|pos|0.000000,0.000050,0.000000,-0.000013,-0.000021,0.000041|vel|0.000000,-0.000000,0.000000,0.000000,0.000000,0.000000|eff|-64.453125,322.265625,-757.324219,0.000000,52.368164,0.000000
cobot_dynamixel_driver/joint_states|name|J1,J2,J3,J4,J5,J6|pos|0.000000,0.000050,0.000000,-0.000013,-0.000021,0.000041|vel|0.000000,-0.000000,0.000000,0.000000,0.000000,0.000000|eff|0.000000,467.285156,-757.324219,0.000000,36.254883,0.000000
cobot_dynamixel_driver/joint_states|name|J1,J2,J3,J4,J5,J6|pos|0.000000,0.000050,0.000000,-0.000013,-0.000021,0.000041|vel|0.000000,-0.000000,0.000000,0.000000,0.000000,0.000000|eff|0.000000,451.171875,-757.324219,0.000000,48.339844,0.000000
cobot_dynamixel_driver/joint_states|name|J1,J2,J3,J4,J5,J6|pos|0.000000,0.000050,0.000000,-0.000013,-0.000021,0.000041|vel|0.000000,-0.000000,0.000000,0.000000,0.000000,0.000000|eff|-96.679688,467.285156,-757.324219,0.000000,48.339844,0.000000
cobot_dynamixel_driver/joint_states|name|J1,J2,J3,J4,J5,J6|pos|0.000000,0.000050,0.000000,-0.000013,-0.000021,0.000041|vel|0.000000,-0.000000,0.000000,0.000000,0.000000,0.000000|eff|-48.339844,338.378906,-757.324219,0.000000,36.254883,0.000000
cobot_dynamixel_driver/joint_states|name|J1,J2,J3,J4,J5,J6|pos|0.000000,0.000050,0.000000,-0.000013,-0.000021,0.000041|vel|0.000000,-0.000000,0.000000,0.000000,0.000000,0.000000|eff|-96.679688,467.285156,-757.324219,0.000000,44.311523,0.000000
cobot_dynamixel_driver/joint_states|name|J1,J2,J3,J4,J5,J6|pos|0.000000,0.000050,0.000000,-0.000013,-0.000021,0.000041|vel|0.000000,-0.000000,0.000000,0.000000,0.000000,0.000000|eff|0.000000,451.171875,-757.324219,0.000000,32.226562,0.000000
cobot_dynamixel_driver/joint_states|name|J1,J2,J3,J4,J5,J6|pos|0.000000,0.000050,0.000000,-0.000013,-0.000021,0.000041|vel|0.000000,-0.000000,0.000000,0.000000,0.000000,0.000000|eff|0.000000,338.378906,-757.324219,0.000000,32.226562,0.000000
cobot_dynamixel_driver/joint_states|name|J1,J2,J3,J4,J5,J6|pos|0.000000,0.000050,0.000000,-0.000013,-0.000021,0.000041|vel|0.000000,-0.000000,0.000000,0.000000,0.000000,0.000000|eff|0.000000,322.265625,-757.324219,0.000000,36.254883,0.000000
cobot_dynamixel_driver/joint_states|name|J1,J2,J3,J4,J5,J6|pos|0.000000,0.000050,0.000000,-0.000013,-0.000021,0.000041|vel|0.000000,-0.000000,0.000000,0.000000,0.000000,0.000000|eff|-96.679688,386.718750,-757.324219,0.000000,44.311523,0.000000
cobot_dynamixel_driver/joint_states|name|J1,J2,J3,J4,J5,J6|pos|0.000000,0.000050,0.000000,-0.000013,-0.000021,0.000041|vel|0.000000,-0.000000,0.000000,0.000000,0.000000,0.000000|eff|0.000000,370.605469,-757.324219,0.000000,36.254883,0.000000
cobot_dynamixel_driver/joint_states|name|J1,J2,J3,J4,J5,J6|pos|0.000000,0.000050,0.000000,-0.000013,-0.000021,0.000041|vel|0.000000,-0.000000,0.000000,0.000000,0.000000,0.000000|eff|0.000000,338.378906,-757.324219,0.000000,32.226562,0.000000
cobot_dynamixel_driver/joint_states|name|J1,J2,J3,J4,J5,J6|pos|0.000000,0.000050,0.000000,-0.000013,-0.000021,0.000041|vel|0.000000,-0.000000,0.000000,0.000000,0.000000,0.000000|eff|-64.453125,467.285156,-741.210938,0.000000,52.368164,0.000000
cobot_dynamixel_driver/joint_states|name|J1,J2,J3,J4,J5,J6|pos|0.000000,0.000050,0.000000,-0.000013,-0.000021,0.000041|vel|0.000000,-0.000000,0.000000,0.000000,0.000000,0.000000|eff|0.000000,451.171875,-757.324219,0.000000,44.311523,0.000000
cobot_dynamixel_driver/joint_states|name|J1,J2,J3,J4,J5,J6|pos|0.000000,0.000050,0.000000,-0.000013,-0.000021,0.000041|vel|0.000000,-0.000000,0.000000,0.000000,0.000000,0.000000|eff|0.000000,273.925781,-757.324219,0.000000,48.339844,0.000000
cobot_dynamixel_driver/joint_states|name|J1,J2,J3,J4,J5,J6|pos|0.000000,0.000050,0.000000,-0.000013,-0.000021,0.000041|vel|0.000000,-0.000000,0.000000,0.000000,0.000000,0.000000|eff|-64.453125,273.925781,-757.324219,0.000000,52.368164,0.000000
cobot_dynamixel_driver/joint_states|name|J1,J2,J3,J4,J5,J6|pos|0.000000,0.000050,0.000000,-0.000013,-0.000021,0.000041|vel|0.000000,-0.000000,0.000000,0.000000,0.000000,0.000000|eff|-64.453125,418.945312,-757.324219,0.000000,52.368164,0.000000
cobot_dynamixel_driver/joint_states|name|J1,J2,J3,J4,J5,J6|pos|0.000000,0.000050,0.000000,-0.000013,-0.000021,0.000041|vel|0.000000,-0.000000,0.000000,0.000000,0.000000,0.000000|eff|-48.339844,338.378906,-757.324219,0.000000,56.396484,0.000000
cobot_dynamixel_driver/joint_states|name|J1,J2,J3,J4,J5,J6|pos|0.000000,0.000050,0.000000,-0.000013,-0.000021,0.000041|vel|0.000000,-0.000000,0.000000,0.000000,0.000000,0.000000|eff|-48.339844,467.285156,-757.324219,0.000000,52.368164,0.000000
cobot_dynamixel_driver/joint_states|name|J1,J2,J3,J4,J5,J6|pos|0.000000,0.000050,0.000000,-0.000013,-0.000021,0.000041|vel|0.000000,-0.000000,0.000000,0.000000,0.000000,0.000000|eff|-48.339844,451.171875,-757.324219,0.000000,52.368164,0.000000
cobot_dynamixel_driver/joint_states|name|J1,J2,J3,J4,J5,J6|pos|0.000000,0.000050,0.000000,-0.000013,-0.000021,0.000041|vel|0.000000,-0.000000,0.000000,0.000000,0.000000,0.000000|eff|0.000000,273.925781,-757.324219,0.000000,44.311523,0.000000
cobot_dynamixel_driver/joint_states|name|J1,J2,J3,J4,J5,J6|pos|0.000000,0.000050,0.000000,-0.000013,-0.000021,0.000041|vel|0.000000,-0.000000,0.000000,0.000000,0.000000,0.000000|eff|0.000000,273.925781,-757.324219,0.000000,56.396484,0.000000
cobot_dynamixel_driver/joint_states|name|J1,J2,J3,J4,J5,J6|pos|0.000000,0.000050,0.000000,-0.000013,-0.000021,0.000041|vel|0.000000,-0.000000,0.000000,0.000000,0.000000,0.000000|eff|0.000000,451.171875,-741.210938,0.000000,36.254883,0.000000
cobot_dynamixel_driver/joint_states|name|J1,J2,J3,J4,J5,J6|pos|0.000000,0.000050,0.000000,-0.000013,-0.000021,0.000041|vel|0.000000,-0.000000,0.000000,0.000000,0.000000,0.000000|eff|0.000000,257.812500,-757.324219,0.000000,52.368164,0.000000
cobot_dynamixel_driver/joint_states|name|J1,J2,J3,J4,J5,J6|pos|0.000000,0.000050,0.000000,-0.000013,-0.000021,0.000041|vel|0.000000,-0.000000,0.000000,0.000000,0.000000,0.000000|eff|0.000000,402.832031,-757.324219,0.000000,36.254883,0.000000
cobot_dynamixel_driver/joint_states|name|J1,J2,J3,J4,J5,J6|pos|0.000000,0.000050,0.000000,-0.000013,-0.000021,0.000041|vel|0.000000,-0.000000,0.000000,0.000000,0.000000,0.000000|eff|0.000000,338.378906,-757.324219,0.000000,52.368164,0.000000
cobot_dynamixel_driver/joint_states|name|J1,J2,J3,J4,J5,J6|pos|0.000000,0.000050,0.000000,-0.000013,-0.000021,0.000041|vel|0.000000,-0.000000,0.000000,0.000000,0.000000,0.000000|eff|0.000000,273.925781,-725.097656,0.000000,56.396484,0.000000
cobot_dynamixel_driver/joint_states|name|J1,J2,J3,J4,J5,J6|pos|0.000000,0.000050,0.000000,-0.000013,-0.000021,0.000041|vel|0.000000,-0.000000,0.000000,0.000000,0.000000,0.000000|eff|0.000000,273.925781,-757.324219,0.000000,36.254883,0.000000
cobot_dynamixel_driver/joint_states|name|J1,J2,J3,J4,J5,J6|pos|0.000000,0.000050,0.000000,-0.000013,-0.000021,0.000041|vel|0.000000,-0.000000,0.000000,0.000000,0.000000,0.000000|eff|-64.453125,306.152344,-757.324219,0.000000,48.339844,0.000000
cobot_dynamixel_driver/joint_states|name|J1,J2,J3,J4,J5,J6|pos|0.000000,0.000050,0.000000,-0.000013,-0.000021,0.000041|vel|0.000000,-0.000000,0.000000,0.000000,0.000000,0.000000|eff|-96.679688,241.699219,-757.324219,0.000000,36.254883,0.000000
cobot_dynamixel_driver/joint_states|name|J1,J2,J3,J4,J5,J6|pos|0.000000,0.000050,0.000000,-0.000013,-0.000021,0.000041|vel|0.000000,-0.000000,0.000000,0.000000,0.000000,0.000000|eff|-32.226562,402.832031,-757.324219,0.000000,44.311523,0.000000
cobot_dynamixel_driver/joint_states|name|J1,J2,J3,J4,J5,J6|pos|0.000000,0.000050,0.000000,-0.000013,-0.000021,0.000041|vel|0.000000,-0.000000,0.000000,0.000000,0.000000,0.000000|eff|0.000000,257.812500,-757.324219,0.000000,52.368164,0.000000
cobot_dynamixel_driver/joint_states|name|J1,J2,J3,J4,J5,J6|pos|0.000000,0.000038,0.000000,-0.000013,-0.000021,0.000041|vel|0.000000,-0.000000,0.000000,0.000000,0.000000,0.000000|eff|0.000000,338.378906,-757.324219,0.000000,44.311523,0.000000
cobot_dynamixel_driver/joint_states|name|J1,J2,J3,J4,J5,J6|pos|0.000000,0.000038,0.000000,-0.000013,-0.000021,0.000041|vel|0.000000,-0.000000,0.000000,0.000000,0.000000,0.000000|eff|0.000000,467.285156,-757.324219,0.000000,52.368164,0.000000
cobot_dynamixel_driver/joint_states|name|J1,J2,J3,J4,J5,J6|pos|0.000000,0.000038,0.000000,-0.000013,-0.000021,0.000041|vel|0.000000,-0.000000,0.000000,0.000000,0.000000,0.000000|eff|0.000000,467.285156,-757.324219,0.000000,52.368164,0.000000
cobot_dynamixel_driver/joint_states|name|J1,J2,J3,J4,J5,J6|pos|0.000000,0.000038,0.000000,-0.000013,-0.000021,0.000041|vel|0.000000,-0.000000,0.000000,0.000000,0.000000,0.000000|eff|0.000000,386.718750,-741.210938,0.000000,52.368164,0.000000
cobot_dynamixel_driver/joint_states|name|J1,J2,J3,J4,J5,J6|pos|0.000000,0.000038,0.000000,-0.000013,-0.000021,0.000041|vel|0.000000,-0.000000,0.000000,0.000000,0.000000,0.000000|eff|-64.453125,402.832031,-757.324219,0.000000,36.254883,0.000000
cobot_dynamixel_driver/joint_states|name|J1,J2,J3,J4,J5,J6|pos|0.000000,0.000038,0.000000,-0.000013,-0.000021,0.000041|vel|0.000000,-0.000000,0.000000,0.000000,0.000000,0.000000|eff|-96.679688,451.171875,-757.324219,0.000000,52.368164,0.000000
cobot_dynamixel_driver/joint_states|name|J1,J2,J3,J4,J5,J6|pos|0.000000,0.000038,0.000000,-0.000013,-0.000021,0.000041|vel|0.000000,-0.000000,0.000000,0.000000,0.000000,0.000000|eff|-96.679688,338.378906,-757.324219,0.000000,52.368164,0.000000
cobot_dynamixel_driver/joint_states|name|J1,J2,J3,J4,J5,J6|pos|0.000000,0.000038,0.000000,-0.000013,-0.000021,0.000041|vel|0.000000,-0.000000,0.000000,0.000000,0.000000,0.000000|eff|0.000000,483.398438,-773.437500,0.000000,48.339844,0.000000
cobot_dynamixel_driver/joint_states|name|J1,J2,J3,J4,J5,J6|pos|0.000000,0.000038,0.000000,-0.000013,-0.000021,0.000041|vel|0.000000,-0.000000,0.000000,0.000000,0.000000,0.000000|eff|0.000000,273.925781,-757.324219,0.000000,52.368164,0.000000
cobot_dynamixel_driver/joint_states|name|J1,J2,J3,J4,J5,J6|pos|0.000000,0.000038,0.000000,-0.000013,-0.000021,0.000041|vel|0.000000,-0.000000,0.000000,0.000000,0.000000,0.000000|eff|0.000000,338.378906,-757.324219,0.000000,56.396484,0.000000
cobot_dynamixel_driver/joint_states|name|J1,J2,J3,J4,J5,J6|pos|0.000000,0.000038,0.000000,-0.000013,-0.000021,0.000041|vel|0.000000,-0.000000,0.000000,0.000000,0.000000,0.000000|eff|0.000000,402.832031,-757.324219,0.000000,36.254883,0.000000
cobot_dynamixel_driver/joint_states|name|J1,J2,J3,J4,J5,J6|pos|0.000000,0.000038,0.000000,-0.000013,-0.000021,0.000041|vel|0.000000,-0.000000,0.000000,0.000000,0.000000,0.000000|eff|0.000000,306.152344,-757.324219,0.000000,44.311523,0.000000
cobot_dynamixel_driver/joint_states|name|J1,J2,J3,J4,J5,J6|pos|0.000000,0.000038,0.000000,-0.000013,-0.000021,0.000041|vel|0.000000,-0.000000,0.000000,0.000000,0.000000,0.000000|eff|-96.679688,338.378906,-757.324219,0.000000,52.368164,0.000000
cobot_dynamixel_driver/joint_states|name|J1,J2,J3,J4,J5,J6|pos|0.000000,0.000038,0.000000,-0.000013,-0.000021,0.000041|vel|0.000000,-0.000000,0.000000,0.000000,0.000000,0.000000|eff|0.000000,451.171875,-757.324219,0.000000,32.226562,0.000000
cobot_dynamixel_driver/joint_states|name|J1,J2,J3,J4,J5,J6|pos|0.000000,0.000038,0.000000,0.000000,-0.000021,0.000041|vel|0.000000,-0.000000,0.000000,0.000000,0.000000,0.000000|eff|0.000000,483.398438,-757.324219,0.000000,52.368164,0.000000
cobot_dynamixel_driver/joint_states|name|J1,J2,J3,J4,J5,J6|pos|0.000000,0.000038,0.000000,0.000000,-0.000021,0.000041|vel|0.000000,-0.000000,0.000000,0.000000,0.000000,0.000000|eff|0.000000,483.398438,-757.324219,0.000000,56.396484,0.000000
cobot_dynamixel_driver/joint_states|name|J1,J2,J3,J4,J5,J6|pos|0.000000,0.000038,0.000000,0.000000,-0.000021,0.000041|vel|0.000000,-0.000000,0.000000,0.000000,0.000000,0.000000|eff|0.000000,467.285156,-757.324219,0.000000,52.368164,0.000000
cobot_dynamixel_driver/joint_states|name|J1,J2,J3,J4,J5,J6|pos|0.000000,0.000038,0.000000,0.000000,-0.000021,0.000041|vel|0.000000,-0.000000,0.000000,0.000000,0.000000,0.000000|eff|0.000000,402.832031,-757.324219,0.000000,56.396484,0.000000
cobot_dynamixel_driver/joint_states|name|J1,J2,J3,J4,J5,J6|pos|0.000000,0.000038,0.000000,0.000000,-0.000021,0.000041|vel|0.000000,-0.000000,0.000000,0.000000,0.000000,0.000000|eff|0.000000,483.398438,-757.324219,0.000000,44.311523,0.000000
cobot_dynamixel_driver/joint_states|name|J1,J2,J3,J4,J5,J6|pos|0.000000,0.000038,0.000000,0.000000,-0.000021,0.000041|vel|0.000000,-0.000000,0.000000,0.000000,0.000000,0.000000|eff|-48.339844,483.398438,-757.324219,0.000000,36.254883,0.000000
cobot_dynamixel_driver/joint_states|name|J1,J2,J3,J4,J5,J6|pos|0.000000,0.000038,0.000000,0.000000,-0.000021,0.000041|vel|0.000000,-0.000000,0.000000,0.000000,0.000000,0.000000|eff|0.000000,386.718750,-773.437500,0.000000,44.311523,0.000000
cobot_dynamixel_driver/joint_states|name|J1,J2,J3,J4,J5,J6|pos|0.000000,0.000038,0.000000,0.000000,-0.000021,0.000041|vel|0.000000,-0.000000,0.000000,0.000000,0.000000,0.000000|eff|0.000000,273.925781,-757.324219,0.000000,32.226562,0.000000
cobot_dynamixel_driver/joint_states|name|J1,J2,J3,J4,J5,J6|pos|0.000000,0.000038,0.000000,0.000000,-0.000021,0.000041|vel|0.000000,-0.000000,0.000000,0.000000,0.000000,0.000000|eff|0.000000,483.398438,-757.324219,0.000000,52.368164,0.000000
cobot_dynamixel_driver/joint_states|name|J1,J2,J3,J4,J5,J6|pos|0.000000,0.000038,0.000000,0.000000,-0.000021,0.000041|vel|0.000000,-0.000000,0.000000,0.000000,0.000000,0.000000|eff|0.000000,483.398438,-757.324219,0.000000,32.226562,0.000000
cobot_dynamixel_driver/joint_states|name|J1,J2,J3,J4,J5,J6|pos|0.000000,0.000038,0.000000,0.000000,-0.000021,0.000041|vel|0.000000,-0.000000,0.000000,0.000000,0.000000,0.000000|eff|0.000000,483.398438,-757.324219,0.000000,48.339844,0.000000
cobot_dynamixel_driver/joint_states|name|J1,J2,J3,J4,J5,J6|pos|0.000000,0.000038,0.000000,0.000000,-0.000021,0.000041|vel|0.000000,-0.000000,0.000000,0.000000,0.000000,0.000000|eff|-64.453125,483.398438,-757.324219,0.000000,52.368164,0.000000
cobot_dynamixel_driver/joint_states|name|J1,J2,J3,J4,J5,J6|pos|0.000000,0.000038,0.000000,0.000000,-0.000021,0.000041|vel|0.000000,-0.000000,0.000000,0.000000,0.000000,0.000000|eff|0.000000,483.398438,-757.324219,0.000000,56.396484,0.000000
cobot_dynamixel_driver/joint_states|name|J1,J2,J3,J4,J5,J6|pos|-0.000013,0.000038,0.000000,0.000000,-0.000021,0.000041|vel|0.000000,-0.000000,0.000000,0.000000,0.000000,0.000000|eff|0.000000,483.398438,-757.324219,0.000000,32.226562,0.000000
cobot_dynamixel_driver/joint_states|name|J1,J2,J3,J4,J5,J6|pos|-0.000013,0.000038,0.000000,0.000000,-0.000021,0.000041|vel|0.000000,-0.000000,0.000000,0.000000,0.000000,0.000000|eff|0.000000,418.945312,-757.324219,0.000000,56.396484,0.000000
cobot_dynamixel_driver/joint_states|name|J1,J2,J3,J4,J5,J6|pos|-0.000013,0.000038,0.000000,0.000000,-0.000021,0.000041|vel|0.000000,-0.000000,0.000000,0.000000,0.000000,0.000000|eff|-48.339844,483.398438,-757.324219,0.000000,36.254883,0.000000
cobot_dynamixel_driver/joint_states|name|J1,J2,J3,J4,J5,J6|pos|-0.000013,0.000038,0.000000,0.000000,-0.000021,0.000041|vel|0.000000,-0.000000,0.000000,0.000000,0.000000,0.000000|eff|0.000000,451.171875,-757.324219,0.000000,48.339844,0.000000
cobot_dynamixel_driver/joint_states|name|J1,J2,J3,J4,J5,J6|pos|-0.000013,0.000038,0.000000,0.000000,-0.000021,0.000041|vel|0.000000,-0.000000,0.000000,0.000000,0.000000,0.000000|eff|0.000000,338.378906,-757.324219,0.000000,56.396484,0.000000
cobot_dynamixel_driver/joint_states|name|J1,J2,J3,J4,J5,J6|pos|-0.000013,0.000038,0.000000,0.000000,-0.000021,0.000041|vel|0.000000,-0.000000,0.000000,0.000000,0.000000,0.000000|eff|0.000000,451.171875,-773.437500,0.000000,48.339844,0.000000
cobot_dynamixel_driver/joint_states|name|J1,J2,J3,J4,J5,J6|pos|-0.000013,0.000038,0.000000,0.000000,-0.000021,0.000041|vel|0.000000,-0.000000,0.000000,0.000000,0.000000,0.000000|eff|-64.453125,354.492188,-757.324219,0.000000,44.311523,0.000000
cobot_dynamixel_driver/joint_states|name|J1,J2,J3,J4,J5,J6|pos|-0.000013,0.000038,0.000000,0.000000,-0.000021,0.000041|vel|0.000000,-0.000000,0.000000,0.000000,0.000000,0.000000|eff|0.000000,467.285156,-757.324219,0.000000,52.368164,0.000000
cobot_dynamixel_driver/joint_states|name|J1,J2,J3,J4,J5,J6|pos|-0.000013,0.000038,0.000000,0.000000,-0.000021,0.000041|vel|0.000000,-0.000000,0.000000,0.000000,0.000000,0.000000|eff|0.000000,306.152344,-773.437500,0.000000,56.396484,0.000000
cobot_dynamixel_driver/joint_states|name|J1,J2,J3,J4,J5,J6|pos|-0.000013,0.000038,0.000000,0.000000,-0.000021,0.000041|vel|0.000000,-0.000000,0.000000,0.000000,0.000000,0.000000|eff|0.000000,467.285156,-757.324219,0.000000,52.368164,0.000000
cobot_dynamixel_driver/joint_states|name|J1,J2,J3,J4,J5,J6|pos|-0.000013,0.000038,0.000000,0.000000,-0.000021,0.000041|vel|0.000000,-0.000000,0.000000,0.000000,0.000000,0.000000|eff|0.000000,483.398438,-757.324219,0.000000,52.368164,0.000000
cobot_dynamixel_driver/joint_states|name|J1,J2,J3,J4,J5,J6|pos|-0.000013,0.000038,0.000000,0.000000,-0.000021,0.000041|vel|0.000000,-0.000000,0.000000,0.000000,0.000000,0.000000|eff|-64.453125,306.152344,-757.324219,0.000000,52.368164,0.000000
cobot_dynamixel_driver/joint_states|name|J1,J2,J3,J4,J5,J6|pos|-0.000013,0.000038,0.000000,0.000000,-0.000021,0.000041|vel|0.000000,-0.000000,0.000000,0.000000,0.000000,0.000000|eff|0.000000,354.492188,-757.324219,0.000000,56.396484,0.000000
cobot_dynamixel_driver/joint_states|name|J1,J2,J3,J4,J5,J6|pos|-0.000013,0.000038,0.000000,0.000000,-0.000021,0.000041|vel|0.000000,-0.000000,0.000000,0.000000,0.000000,0.000000|eff|0.000000,483.398438,-757.324219,0.000000,44.311523,0.000000
cobot_dynamixel_driver/joint_states|name|J1,J2,J3,J4,J5,J6|pos|-0.000013,0.000038,0.000000,0.000000,-0.000021,0.000041|vel|0.000000,-0.000000,0.000000,0.000000,0.000000,0.000000|eff|-96.679688,483.398438,-741.210938,0.000000,56.396484,0.000000
cobot_dynamixel_driver/joint_states|name|J1,J2,J3,J4,J5,J6|pos|-0.000013,0.000038,0.000000,0.000000,-0.000021,0.000041|vel|0.000000,-0.000000,0.000000,0.000000,0.000000,0.000000|eff|0.000000,402.832031,-757.324219,0.000000,48.339844,0.000000
cobot_dynamixel_driver/joint_states|name|J1,J2,J3,J4,J5,J6|pos|-0.000013,0.000038,0.000000,0.000000,-0.000021,0.000041|vel|0.000000,-0.000000,0.000000,0.000000,0.000000,0.000000|eff|0.000000,483.398438,-773.437500,0.000000,36.254883,0.000000
cobot_dynamixel_driver/joint_states|name|J1,J2,J3,J4,J5,J6|pos|-0.000013,0.000038,0.000000,0.000000,-0.000021,0.000041|vel|0.000000,-0.000000,0.000000,0.000000,0.000000,0.000000|eff|-96.679688,370.605469,-757.324219,0.000000,56.396484,0.000000
cobot_dynamixel_driver/joint_states|name|J1,J2,J3,J4,J5,J6|pos|-0.000013,0.000038,0.000000,0.000000,-0.000021,0.000041|vel|0.000000,-0.000000,0.000000,0.000000,0.000000,0.000000|eff|-96.679688,483.398438,-757.324219,0.000000,52.368164,0.000000
cobot_dynamixel_driver/joint_states|name|J1,J2,J3,J4,J5,J6|pos|-0.000013,0.000038,0.000000,0.000000,-0.000021,0.000041|vel|0.000000,-0.000000,0.000000,0.000000,0.000000,0.000000|eff|0.000000,354.492188,-757.324219,0.000000,44.311523,0.000000
cobot_dynamixel_driver/joint_states|name|J1,J2,J3,J4,J5,J6|pos|-0.000013,0.000038,0.000000,0.000000,-0.000021,0.000041|vel|0.000000,-0.000000,0.000000,0.000000,0.000000,0.000000|eff|0.000000,354.492188,-757.324219,0.000000,44.311523,0.000000
cobot_dynamixel_driver/joint_states|name|J1,J2,J3,J4,J5,J6|pos|-0.000013,0.000038,0.000000,0.000000,-0.000021,0.000041|vel|0.000000,-0.000000,0.000000,0.000000,0.000000,0.000000|eff|0.000000,402.832031,-725.097656,0.000000,44.311523,0.000000
cobot_dynamixel_driver/joint_states|name|J1,J2,J3,J4,J5,J6|pos|-0.000013,0.000038,0.000000,0.000000,-0.000021,0.000041|vel|0.000000,-0.000000,0.000000,0.000000,0.000000,0.000000|eff|0.000000,402.832031,-757.324219,0.000000,52.368164,0.000000
cobot_dynamixel_driver/joint_states|name|J1,J2,J3,J4,J5,J6|pos|-0.000013,0.000025,0.000000,0.000000,-0.000021,0.000041|vel|0.000000,-0.000000,0.000000,0.000000,0.000000,0.000000|eff|0.000000,435.058594,-757.324219,0.000000,52.368164,0.000000
cobot_dynamixel_driver/joint_states|name|J1,J2,J3,J4,J5,J6|pos|-0.000013,0.000025,0.000000,0.000000,-0.000021,0.000041|vel|0.000000,-0.000000,0.000000,0.000000,0.000000,0.000000|eff|0.000000,402.832031,-757.324219,0.000000,56.396484,0.000000
cobot_dynamixel_driver/joint_states|name|J1,J2,J3,J4,J5,J6|pos|-0.000013,0.000025,0.000000,0.000000,-0.000021,0.000041|vel|0.000000,-0.000000,0.000000,0.000000,0.000000,0.000000|eff|0.000000,467.285156,-757.324219,0.000000,32.226562,0.000000
cobot_dynamixel_driver/joint_states|name|J1,J2,J3,J4,J5,J6|pos|-0.000013,0.000025,0.000000,0.000000,-0.000021,0.000041|vel|0.000000,-0.000000,0.000000,0.000000,0.000000,0.000000|eff|0.000000,499.511719,-741.210938,0.000000,56.396484,0.000000
cobot_dynamixel_driver/joint_states|name|J1,J2,J3,J4,J5,J6|pos|-0.000013,0.000025,0.000000,0.000000,-0.000021,0.000041|vel|0.000000,-0.000000,0.000000,0.000000,0.000000,0.000000|eff|-48.339844,370.605469,-757.324219,0.000000,44.311523,0.000000
cobot_dynamixel_driver/joint_states|name|J1,J2,J3,J4,J5,J6|pos|-0.000013,0.000025,0.000000,0.000000,-0.000021,0.000041|vel|0.000000,-0.000000,0.000000,0.000000,0.000000,0.000000|eff|0.000000,499.511719,-757.324219,0.000000,56.396484,0.000000
cobot_dynamixel_driver/joint_states|name|J1,J2,J3,J4,J5,J6|pos|-0.000013,0.000025,0.000000,0.000000,-0.000021,0.000041|vel|0.000000,-0.000000,0.000000,0.000000,0.000000,0.000000|eff|0.000000,467.285156,-757.324219,0.000000,48.339844,0.000000
cobot_dynamixel_driver/joint_states|name|J1,J2,J3,J4,J5,J6|pos|-0.000013,0.000025,0.000000,0.000000,-0.000021,0.000041|vel|0.000000,-0.000000,0.000000,0.000000,0.000000,0.000000|eff|0.000000,499.511719,-757.324219,0.000000,56.396484,0.000000
cobot_dynamixel_driver/joint_states|name|J1,J2,J3,J4,J5,J6|pos|-0.000013,0.000025,0.000000,0.000000,-0.000021,0.000041|vel|0.000000,-0.000000,0.000000,0.000000,0.000000,0.000000|eff|0.000000,467.285156,-757.324219,0.000000,32.226562,0.000000
