surachairobotic/cobot/cobot_dynamixel_driver/log/2018-12-19T11:07:49.756969_driver_log.txt
cobot_dynamixel_driver/joint_states|name|J1,J2,J3,J4,J5,J6|pos|0.700595,-1.268785,1.296325,-0.269668,-1.143571,-0.000083|vel|0.000000,-0.000000,0.000000,0.000000,0.000000,0.000000|eff|0.000000,0.000000,0.000000,0.000000,0.000000,0.000000
cobot_dynamixel_driver/joint_states|name|J1,J2,J3,J4,J5,J6|pos|0.700595,-1.268785,1.296325,-0.269668,-1.143571,-0.000083|vel|0.000000,-0.000000,0.000000,0.000000,0.000000,0.000000|eff|0.000000,0.000000,0.000000,0.000000,0.000000,0.000000
cobot_dynamixel_driver/joint_states|name|J1,J2,J3,J4,J5,J6|pos|0.700595,-1.268785,1.296325,-0.269668,-1.143571,-0.000083|vel|0.000000,-0.000000,0.000000,0.000000,0.000000,0.000000|eff|0.000000,0.000000,0.000000,0.000000,0.000000,0.000000
cobot_dynamixel_driver/joint_states|name|J1,J2,J3,J4,J5,J6|pos|0.700595,-1.268785,1.296325,-0.269668,-1.143571,-0.000083|vel|0.000000,-0.000000,0.000000,0.000000,0.000000,0.000000|eff|0.000000,0.000000,0.000000,0.000000,0.000000,0.000000
cobot_dynamixel_driver/joint_states|name|J1,J2,J3,J4,J5,J6|pos|0.700595,-1.268785,1.296325,-0.269668,-1.143571,-0.000083|vel|0.000000,-0.000000,0.000000,0.000000,0.000000,0.000000|eff|0.000000,0.000000,0.000000,0.000000,0.000000,0.000000
cobot_dynamixel_driver/joint_states|name|J1,J2,J3,J4,J5,J6|pos|0.700595,-1.268785,1.296325,-0.269668,-1.143571,-0.000083|vel|0.000000,-0.000000,0.000000,0.000000,0.000000,0.000000|eff|0.000000,0.000000,0.000000,0.000000,0.000000,0.000000
cobot_dynamixel_driver/joint_states|name|J1,J2,J3,J4,J5,J6|pos|0.700595,-1.268785,1.296325,-0.269668,-1.143571,-0.000083|vel|0.000000,-0.000000,0.000000,0.000000,0.000000,0.000000|eff|0.000000,0.000000,0.000000,0.000000,0.000000,0.000000
cobot_dynamixel_driver/joint_states|name|J1,J2,J3,J4,J5,J6|pos|0.700595,-1.268785,1.296325,-0.269668,-1.143571,-0.000083|vel|0.000000,-0.000000,0.000000,0.000000,0.000000,0.000000|eff|0.000000,0.000000,0.000000,0.000000,0.000000,0.000000
cobot_dynamixel_driver/joint_states|name|J1,J2,J3,J4,J5,J6|pos|0.700595,-1.268785,1.296325,-0.269668,-1.143571,-0.000083|vel|0.000000,-0.000000,0.000000,0.000000,0.000000,0.000000|eff|0.000000,0.000000,0.000000,0.000000,0.000000,0.000000
cobot_dynamixel_driver/joint_states|name|J1,J2,J3,J4,J5,J6|pos|0.700595,-1.268785,1.296325,-0.269668,-1.143571,-0.000083|vel|0.000000,-0.000000,0.000000,0.000000,0.000000,0.000000|eff|0.000000,0.000000,0.000000,0.000000,0.000000,0.000000
cobot_dynamixel_driver/joint_states|name|J1,J2,J3,J4,J5,J6|pos|0.700595,-1.268785,1.296325,-0.269668,-1.143571,-0.000083|vel|0.000000,-0.000000,0.000000,0.000000,0.000000,0.000000|eff|0.000000,0.000000,0.000000,0.000000,0.000000,0.000000
cobot_dynamixel_driver/joint_states|name|J1,J2,J3,J4,J5,J6|pos|0.700595,-1.268785,1.296325,-0.269668,-1.143571,-0.000083|vel|0.000000,-0.000000,0.000000,0.000000,0.000000,0.000000|eff|0.000000,0.000000,0.000000,0.000000,0.000000,0.000000
cobot_dynamixel_driver/joint_states|name|J1,J2,J3,J4,J5,J6|pos|0.700595,-1.268785,1.296337,-0.269668,-1.143571,-0.000083|vel|0.000000,-0.000000,0.000000,0.000000,0.000000,0.000000|eff|0.000000,0.000000,0.000000,0.000000,0.000000,0.000000
cobot_dynamixel_driver/joint_states|name|J1,J2,J3,J4,J5,J6|pos|0.700595,-1.268785,1.296337,-0.269668,-1.143571,-0.000083|vel|0.000000,-0.000000,0.000000,0.000000,0.000000,0.000000|eff|0.000000,0.000000,0.000000,0.000000,0.000000,0.000000
cobot_dynamixel_driver/joint_states|name|J1,J2,J3,J4,J5,J6|pos|0.700595,-1.268785,1.296337,-0.269668,-1.143571,-0.000083|vel|0.000000,-0.000000,0.000000,0.000000,0.000000,0.000000|eff|0.000000,0.000000,0.000000,0.000000,0.000000,0.000000
cobot_dynamixel_driver/joint_states|name|J1,J2,J3,J4,J5,J6|pos|0.700595,-1.268785,1.296337,-0.269668,-1.143571,-0.000083|vel|0.000000,-0.000000,0.000000,0.000000,0.000000,0.000000|eff|0.000000,0.000000,0.000000,0.000000,0.000000,0.000000
cobot_dynamixel_driver/joint_states|name|J1,J2,J3,J4,J5,J6|pos|0.700595,-1.268785,1.296337,-0.269668,-1.143571,-0.000083|vel|0.000000,-0.000000,0.000000,0.000000,0.000000,0.000000|eff|0.000000,0.000000,0.000000,0.000000,0.000000,0.000000
cobot_dynamixel_driver/joint_states|name|J1,J2,J3,J4,J5,J6|pos|0.700595,-1.268785,1.296337,-0.269668,-1.143571,-0.000083|vel|0.000000,-0.000000,0.000000,0.000000,0.000000,0.000000|eff|0.000000,0.000000,0.000000,0.000000,0.000000,0.000000
cobot_dynamixel_driver/joint_states|name|J1,J2,J3,J4,J5,J6|pos|0.700595,-1.268785,1.296337,-0.269668,-1.143571,-0.000083|vel|0.000000,-0.000000,0.000000,0.000000,0.000000,0.000000|eff|0.000000,0.000000,0.000000,0.000000,0.000000,0.000000
cobot_dynamixel_driver/joint_states|name|J1,J2,J3,J4,J5,J6|pos|0.700595,-1.268785,1.296337,-0.269668,-1.143571,-0.000083|vel|0.000000,-0.000000,0.000000,0.000000,0.000000,0.000000|eff|0.000000,0.000000,0.000000,0.000000,0.000000,0.000000
cobot_dynamixel_driver/joint_states|name|J1,J2,J3,J4,J5,J6|pos|0.700595,-1.268785,1.296337,-0.269668,-1.143571,-0.000083|vel|0.000000,-0.000000,0.000000,0.000000,0.000000,0.000000|eff|0.000000,0.000000,0.000000,0.000000,0.000000,0.000000
cobot_dynamixel_driver/joint_states|name|J1,J2,J3,J4,J5,J6|pos|0.700595,-1.268785,1.296337,-0.269668,-1.143571,-0.000083|vel|0.000000,-0.000000,0.000000,0.000000,0.000000,0.000000|eff|0.000000,0.000000,0.000000,0.000000,0.000000,0.000000
cobot_dynamixel_driver/joint_states|name|J1,J2,J3,J4,J5,J6|pos|0.700595,-1.268785,1.296337,-0.269668,-1.143571,-0.000083|vel|0.000000,-0.000000,0.000000,0.000000,0.000000,0.000000|eff|0.000000,0.000000,0.000000,0.000000,0.000000,0.000000
cobot_dynamixel_driver/joint_states|name|J1,J2,J3,J4,J5,J6|pos|0.700595,-1.268785,1.296337,-0.269668,-1.143571,-0.000083|vel|0.000000,-0.000000,0.000000,0.000000,0.000000,0.000000|eff|0.000000,0.000000,0.000000,0.000000,0.000000,0.000000
cobot_dynamixel_driver/joint_states|name|J1,J2,J3,J4,J5,J6|pos|0.700595,-1.268785,1.296337,-0.269668,-1.143571,-0.000083|vel|0.000000,-0.000000,0.000000,0.000000,0.000000,0.000000|eff|0.000000,0.000000,0.000000,0.000000,0.000000,0.000000
cobot_dynamixel_driver/joint_states|name|J1,J2,J3,J4,J5,J6|pos|0.700595,-1.268785,1.296337,-0.269668,-1.143571,-0.000083|vel|0.000000,-0.000000,0.000000,0.000000,0.000000,0.000000|eff|0.000000,0.000000,0.000000,0.000000,0.000000,0.000000
cobot_dynamixel_driver/joint_states|name|J1,J2,J3,J4,J5,J6|pos|0.700595,-1.268785,1.296337,-0.269668,-1.143571,-0.000083|vel|0.000000,-0.000000,0.000000,0.000000,0.000000,0.000000|eff|0.000000,0.000000,0.000000,0.000000,0.000000,0.000000
cobot_dynamixel_driver/joint_states|name|J1,J2,J3,J4,J5,J6|pos|0.700595,-1.268785,1.296337,-0.269668,-1.143571,-0.000083|vel|0.000000,-0.000000,0.000000,0.000000,0.000000,0.000000|eff|0.000000,0.000000,0.000000,0.000000,0.000000,0.000000
cobot_dynamixel_driver/joint_states|name|J1,J2,J3,J4,J5,J6|pos|0.700595,-1.268785,1.296337,-0.269668,-1.143571,-0.000083|vel|0.000000,-0.000000,0.000000,0.000000,0.000000,0.000000|eff|0.000000,0.000000,0.000000,0.000000,0.000000,0.000000
cobot_dynamixel_driver/joint_states|name|J1,J2,J3,J4,J5,J6|pos|0.700595,-1.268785,1.296337,-0.269668,-1.143571,-0.000083|vel|0.000000,-0.000000,0.000000,0.000000,0.000000,0.000000|eff|0.000000,0.000000,0.000000,0.000000,0.000000,0.000000
cobot_dynamixel_driver/joint_states|name|J1,J2,J3,J4,J5,J6|pos|0.700595,-1.268785,1.296337,-0.269668,-1.143571,-0.000083|vel|0.000000,-0.000000,0.000000,0.000000,0.000000,0.000000|eff|0.000000,0.000000,0.000000,0.000000,0.000000,0.000000
cobot_dynamixel_driver/joint_states|name|J1,J2,J3,J4,J5,J6|pos|0.700595,-1.268785,1.296337,-0.269668,-1.143571,-0.000083|vel|0.000000,-0.000000,0.000000,0.000000,0.000000,0.000000|eff|0.000000,0.000000,0.000000,0.000000,0.000000,0.000000
cobot_dynamixel_driver/joint_states|name|J1,J2,J3,J4,J5,J6|pos|0.700595,-1.268785,1.296337,-0.269668,-1.143571,-0.000083|vel|0.000000,-0.000000,0.000000,0.000000,0.000000,0.000000|eff|0.000000,0.000000,0.000000,0.000000,0.000000,0.000000
cobot_dynamixel_driver/joint_states|name|J1,J2,J3,J4,J5,J6|pos|0.700595,-1.268785,1.296337,-0.269668,-1.143571,-0.000083|vel|0.000000,-0.000000,0.000000,0.000000,0.000000,0.000000|eff|0.000000,0.000000,0.000000,0.000000,0.000000,0.000000
cobot_dynamixel_driver/joint_states|name|J1,J2,J3,J4,J5,J6|pos|0.700595,-1.268785,1.296337,-0.269668,-1.143571,-0.000083|vel|0.000000,-0.000000,0.000000,0.000000,0.000000,0.000000|eff|0.000000,0.000000,0.000000,0.000000,0.000000,0.000000
cobot_dynamixel_driver/joint_states|name|J1,J2,J3,J4,J5,J6|pos|0.700595,-1.268785,1.296337,-0.269668,-1.143571,-0.000083|vel|0.000000,-0.000000,0.000000,0.000000,0.000000,0.000000|eff|0.000000,0.000000,0.000000,0.000000,0.000000,0.000000
cobot_dynamixel_driver/joint_states|name|J1,J2,J3,J4,J5,J6|pos|0.700595,-1.268785,1.296337,-0.269668,-1.143571,-0.000083|vel|0.000000,-0.000000,0.000000,0.000000,0.000000,0.000000|eff|0.000000,0.000000,0.000000,0.000000,0.000000,0.000000
cobot_dynamixel_driver/joint_states|name|J1,J2,J3,J4,J5,J6|pos|0.700595,-1.268785,1.296337,-0.269668,-1.143571,-0.000083|vel|0.000000,-0.000000,0.000000,0.000000,0.000000,0.000000|eff|0.000000,0.000000,0.000000,0.000000,0.000000,0.000000
cobot_dynamixel_driver/joint_states|name|J1,J2,J3,J4,J5,J6|pos|0.700595,-1.268785,1.296337,-0.269668,-1.143571,-0.000083|vel|0.000000,-0.000000,0.000000,0.000000,0.000000,0.000000|eff|0.000000,0.000000,0.000000,0.000000,0.000000,0.000000
cobot_dynamixel_driver/joint_states|name|J1,J2,J3,J4,J5,J6|pos|0.700595,-1.268785,1.296337,-0.269668,-1.143571,-0.000083|vel|0.000000,-0.000000,0.000000,0.000000,0.000000,0.000000|eff|0.000000,0.000000,0.000000,0.000000,0.000000,0.000000
cobot_dynamixel_driver/joint_states|name|J1,J2,J3,J4,J5,J6|pos|0.700595,-1.268785,1.296337,-0.269668,-1.143571,-0.000083|vel|0.000000,-0.000000,0.000000,0.000000,0.000000,0.000000|eff|0.000000,0.000000,0.000000,0.000000,0.000000,0.000000
cobot_dynamixel_driver/joint_states|name|J1,J2,J3,J4,J5,J6|pos|0.700595,-1.268785,1.296337,-0.269668,-1.143571,-0.000083|vel|0.000000,-0.000000,0.000000,0.000000,0.000000,0.000000|eff|0.000000,0.000000,0.000000,0.000000,0.000000,0.000000
cobot_dynamixel_driver/joint_states|name|J1,J2,J3,J4,J5,J6|pos|0.700595,-1.268785,1.296337,-0.269668,-1.143571,-0.000083|vel|0.000000,-0.000000,0.000000,0.000000,0.000000,0.000000|eff|0.000000,0.000000,0.000000,0.000000,0.000000,0.000000
cobot_dynamixel_driver/joint_states|name|J1,J2,J3,J4,J5,J6|pos|0.700595,-1.268785,1.296337,-0.269668,-1.143571,-0.000083|vel|0.000000,-0.000000,0.000000,0.000000,0.000000,0.000000|eff|0.000000,0.000000,0.000000,0.000000,0.000000,0.000000
cobot_dynamixel_driver/joint_states|name|J1,J2,J3,J4,J5,J6|pos|0.700595,-1.268785,1.296337,-0.269668,-1.143571,-0.000083|vel|0.000000,-0.000000,0.000000,0.000000,0.000000,0.000000|eff|0.000000,0.000000,0.000000,0.000000,0.000000,0.000000
cobot_dynamixel_driver/joint_states|name|J1,J2,J3,J4,J5,J6|pos|0.700595,-1.268785,1.296337,-0.269668,-1.143571,-0.000083|vel|0.000000,-0.000000,0.000000,0.000000,0.000000,0.000000|eff|0.000000,0.000000,0.000000,0.000000,0.000000,0.000000
cobot_dynamixel_driver/joint_states|name|J1,J2,J3,J4,J5,J6|pos|0.700595,-1.268785,1.296337,-0.269668,-1.143571,-0.000083|vel|0.000000,-0.000000,0.000000,0.000000,0.000000,0.000000|eff|0.000000,0.000000,0.000000,0.000000,0.000000,0.000000
cobot_dynamixel_driver/joint_states|name|J1,J2,J3,J4,J5,J6|pos|0.700595,-1.268785,1.296337,-0.269668,-1.143571,-0.000083|vel|0.000000,-0.000000,0.000000,0.000000,0.000000,0.000000|eff|0.000000,0.000000,0.000000,0.000000,0.000000,0.000000
cobot_dynamixel_driver/joint_states|name|J1,J2,J3,J4,J5,J6|pos|0.700595,-1.268785,1.296337,-0.269668,-1.143571,-0.000083|vel|0.000000,-0.000000,0.000000,0.000000,0.000000,0.000000|eff|0.000000,0.000000,0.000000,0.000000,0.000000,0.000000
cobot_dynamixel_driver/joint_states|name|J1,J2,J3,J4,J5,J6|pos|0.700595,-1.268785,1.296337,-0.269668,-1.143571,-0.000083|vel|0.000000,-0.000000,0.000000,0.000000,0.000000,0.000000|eff|0.000000,0.000000,0.000000,0.000000,0.000000,0.000000
cobot_dynamixel_driver/joint_states|name|J1,J2,J3,J4,J5,J6|pos|0.700595,-1.268785,1.296337,-0.269668,-1.143571,-0.000083|vel|0.000000,-0.000000,0.000000,0.000000,0.000000,0.000000|eff|0.000000,0.000000,0.000000,0.000000,0.000000,0.000000
cobot_dynamixel_driver/joint_states|name|J1,J2,J3,J4,J5,J6|pos|0.700595,-1.268785,1.296337,-0.269668,-1.143571,-0.000083|vel|0.000000,-0.000000,0.000000,0.000000,0.000000,0.000000|eff|0.000000,0.000000,0.000000,0.000000,0.000000,0.000000
cobot_dynamixel_driver/joint_states|name|J1,J2,J3,J4,J5,J6|pos|0.700595,-1.268785,1.296337,-0.269668,-1.143571,-0.000083|vel|0.000000,-0.000000,0.000000,0.000000,0.000000,0.000000|eff|0.000000,0.000000,0.000000,0.000000,0.000000,0.000000
cobot_dynamixel_driver/joint_states|name|J1,J2,J3,J4,J5,J6|pos|0.700595,-1.268785,1.296337,-0.269668,-1.143571,-0.000083|vel|0.000000,-0.000000,0.000000,0.000000,0.000000,0.000000|eff|0.000000,0.000000,0.000000,0.000000,0.000000,0.000000
cobot_dynamixel_driver/joint_states|name|J1,J2,J3,J4,J5,J6|pos|0.700595,-1.268785,1.296337,-0.269668,-1.143571,-0.000083|vel|0.000000,-0.000000,0.000000,0.000000,0.000000,0.000000|eff|0.000000,0.000000,0.000000,0.000000,0.000000,0.000000
cobot_dynamixel_driver/joint_states|name|J1,J2,J3,J4,J5,J6|pos|0.700595,-1.268785,1.296337,-0.269668,-1.143571,-0.000083|vel|0.000000,-0.000000,0.000000,0.000000,0.000000,0.000000|eff|0.000000,0.000000,0.000000,0.000000,0.000000,0.000000
cobot_dynamixel_driver/joint_states|name|J1,J2,J3,J4,J5,J6|pos|0.700595,-1.268785,1.296337,-0.269668,-1.143571,-0.000083|vel|0.000000,-0.000000,0.000000,0.000000,0.000000,0.000000|eff|0.000000,0.000000,0.000000,0.000000,0.000000,0.000000
cobot_dynamixel_driver/joint_states|name|J1,J2,J3,J4,J5,J6|pos|0.700595,-1.268785,1.296337,-0.269668,-1.143571,-0.000083|vel|0.000000,-0.000000,0.000000,0.000000,0.000000,0.000000|eff|0.000000,0.000000,0.000000,0.000000,0.000000,0.000000
cobot_dynamixel_driver/joint_states|name|J1,J2,J3,J4,J5,J6|pos|0.700595,-1.268785,1.296337,-0.269668,-1.143571,-0.000083|vel|0.000000,-0.000000,0.000000,0.000000,0.000000,0.000000|eff|0.000000,0.000000,0.000000,0.000000,0.000000,0.000000
cobot_dynamixel_driver/joint_states|name|J1,J2,J3,J4,J5,J6|pos|0.700595,-1.268785,1.296337,-0.269668,-1.143571,-0.000083|vel|0.000000,-0.000000,0.000000,0.000000,0.000000,0.000000|eff|0.000000,0.000000,0.000000,0.000000,0.000000,0.000000
cobot_dynamixel_driver/joint_states|name|J1,J2,J3,J4,J5,J6|pos|0.700595,-1.268785,1.296337,-0.269668,-1.143571,-0.000083|vel|0.000000,-0.000000,0.000000,0.000000,0.000000,0.000000|eff|0.000000,0.000000,0.000000,0.000000,0.000000,0.000000
cobot_dynamixel_driver/joint_states|name|J1,J2,J3,J4,J5,J6|pos|0.700595,-1.268785,1.296337,-0.269668,-1.143571,-0.000083|vel|0.000000,-0.000000,0.000000,0.000000,0.000000,0.000000|eff|0.000000,0.000000,0.000000,0.000000,0.000000,0.000000
cobot_dynamixel_driver/joint_states|name|J1,J2,J3,J4,J5,J6|pos|0.700595,-1.268785,1.296337,-0.269668,-1.143571,-0.000083|vel|0.000000,-0.000000,0.000000,0.000000,0.000000,0.000000|eff|0.000000,0.000000,0.000000,0.000000,0.000000,0.000000
cobot_dynamixel_driver/joint_states|name|J1,J2,J3,J4,J5,J6|pos|0.700595,-1.268785,1.296337,-0.269668,-1.143571,-0.000083|vel|0.000000,-0.000000,0.000000,0.000000,0.000000,0.000000|eff|0.000000,0.000000,0.000000,0.000000,0.000000,0.000000
cobot_dynamixel_driver/joint_states|name|J1,J2,J3,J4,J5,J6|pos|0.700595,-1.268785,1.296337,-0.269668,-1.143571,-0.000083|vel|0.000000,-0.000000,0.000000,0.000000,0.000000,0.000000|eff|0.000000,0.000000,0.000000,0.000000,0.000000,0.000000
cobot_dynamixel_driver/joint_states|name|J1,J2,J3,J4,J5,J6|pos|0.700595,-1.268785,1.296337,-0.269668,-1.143571,-0.000083|vel|0.000000,-0.000000,0.000000,0.000000,0.000000,0.000000|eff|0.000000,0.000000,0.000000,0.000000,0.000000,0.000000
cobot_dynamixel_driver/joint_states|name|J1,J2,J3,J4,J5,J6|pos|0.700595,-1.268785,1.296337,-0.269668,-1.143571,-0.000083|vel|0.000000,-0.000000,0.000000,0.000000,0.000000,0.000000|eff|0.000000,0.000000,0.000000,0.000000,0.000000,0.000000
cobot_dynamixel_driver/joint_states|name|J1,J2,J3,J4,J5,J6|pos|0.700595,-1.268785,1.296337,-0.269668,-1.143571,-0.000083|vel|0.000000,-0.000000,0.000000,0.000000,0.000000,0.000000|eff|0.000000,0.000000,0.000000,0.000000,0.000000,0.000000
cobot_dynamixel_driver/joint_states|name|J1,J2,J3,J4,J5,J6|pos|0.700595,-1.268785,1.296337,-0.269668,-1.143571,-0.000083|vel|0.000000,-0.000000,0.000000,0.000000,0.000000,0.000000|eff|0.000000,0.000000,0.000000,0.000000,0.000000,0.000000
cobot_dynamixel_driver/joint_states|name|J1,J2,J3,J4,J5,J6|pos|0.700595,-1.268785,1.296337,-0.269668,-1.143571,-0.000083|vel|0.000000,-0.000000,0.000000,0.000000,0.000000,0.000000|eff|0.000000,0.000000,0.000000,0.000000,0.000000,0.000000
cobot_dynamixel_driver/joint_states|name|J1,J2,J3,J4,J5,J6|pos|0.700595,-1.268785,1.296337,-0.269668,-1.143571,-0.000083|vel|0.000000,-0.000000,0.000000,0.000000,0.000000,0.000000|eff|0.000000,0.000000,0.000000,0.000000,0.000000,0.000000
cobot_dynamixel_driver/joint_states|name|J1,J2,J3,J4,J5,J6|pos|0.700595,-1.268785,1.296337,-0.269668,-1.143571,-0.000083|vel|0.000000,-0.000000,0.000000,0.000000,0.000000,0.000000|eff|0.000000,0.000000,0.000000,0.000000,0.000000,0.000000
cobot_dynamixel_driver/joint_states|name|J1,J2,J3,J4,J5,J6|pos|0.700595,-1.268785,1.296337,-0.269668,-1.143571,-0.000083|vel|0.000000,-0.000000,0.000000,0.000000,0.000000,0.000000|eff|0.000000,0.000000,0.000000,0.000000,0.000000,0.000000
cobot_dynamixel_driver/joint_states|name|J1,J2,J3,J4,J5,J6|pos|0.700595,-1.268785,1.296337,-0.269668,-1.143571,-0.000083|vel|0.000000,-0.000000,0.000000,0.000000,0.000000,0.000000|eff|0.000000,0.000000,0.000000,0.000000,0.000000,0.000000
cobot_dynamixel_driver/joint_states|name|J1,J2,J3,J4,J5,J6|pos|0.700595,-1.268785,1.296337,-0.269668,-1.143571,-0.000083|vel|0.000000,-0.000000,0.000000,0.000000,0.000000,0.000000|eff|0.000000,0.000000,0.000000,0.000000,0.000000,0.000000
cobot_dynamixel_driver/joint_states|name|J1,J2,J3,J4,J5,J6|pos|0.700595,-1.268785,1.296337,-0.269668,-1.143571,-0.000083|vel|0.000000,-0.000000,0.000000,0.000000,0.000000,0.000000|eff|0.000000,0.000000,0.000000,0.000000,0.000000,0.000000
cobot_dynamixel_driver/joint_states|name|J1,J2,J3,J4,J5,J6|pos|0.700595,-1.268785,1.296337,-0.269668,-1.143571,-0.000083|vel|0.000000,-0.000000,0.000000,0.000000,0.000000,0.000000|eff|0.000000,0.000000,0.000000,0.000000,0.000000,0.000000
cobot_dynamixel_driver/joint_states|name|J1,J2,J3,J4,J5,J6|pos|0.700595,-1.268785,1.296337,-0.269668,-1.143571,-0.000083|vel|0.000000,-0.000000,0.000000,0.000000,0.000000,0.000000|eff|0.000000,0.000000,0.000000,0.000000,0.000000,0.000000
cobot_dynamixel_driver/joint_states|name|J1,J2,J3,J4,J5,J6|pos|0.700595,-1.268785,1.296337,-0.269668,-1.143571,-0.000083|vel|0.000000,-0.000000,0.000000,0.000000,0.000000,0.000000|eff|0.000000,0.000000,0.000000,0.000000,0.000000,0.000000
cobot_dynamixel_driver/joint_states|name|J1,J2,J3,J4,J5,J6|pos|0.700595,-1.268785,1.296337,-0.269668,-1.143571,-0.000083|vel|0.000000,-0.000000,0.000000,0.000000,0.000000,0.000000|eff|0.000000,0.000000,0.000000,0.000000,0.000000,0.000000
cobot_dynamixel_driver/joint_states|name|J1,J2,J3,J4,J5,J6|pos|0.700595,-1.268785,1.296337,-0.269668,-1.143571,-0.000083|vel|0.000000,-0.000000,0.000000,0.000000,0.000000,0.000000|eff|0.000000,0.000000,0.000000,0.000000,0.000000,0.000000
cobot_dynamixel_driver/joint_states|name|J1,J2,J3,J4,J5,J6|pos|0.700595,-1.268785,1.296337,-0.269668,-1.143571,-0.000083|vel|0.000000,-0.000000,0.000000,0.000000,0.000000,0.000000|eff|0.000000,0.000000,0.000000,0.000000,0.000000,0.000000
cobot_dynamixel_driver/joint_states|name|J1,J2,J3,J4,J5,J6|pos|0.700595,-1.268785,1.296337,-0.269668,-1.143571,-0.000083|vel|0.000000,-0.000000,0.000000,0.000000,0.000000,0.000000|eff|0.000000,0.000000,0.000000,0.000000,0.000000,0.000000
cobot_dynamixel_driver/joint_states|name|J1,J2,J3,J4,J5,J6|pos|0.700595,-1.268785,1.296337,-0.269668,-1.143571,-0.000083|vel|0.000000,-0.000000,0.000000,0.000000,0.000000,0.000000|eff|0.000000,0.000000,0.000000,0.000000,0.000000,0.000000
cobot_dynamixel_driver/joint_states|name|J1,J2,J3,J4,J5,J6|pos|0.700595,-1.268785,1.296337,-0.269668,-1.143571,-0.000083|vel|0.000000,-0.000000,0.000000,0.000000,0.000000,0.000000|eff|0.000000,0.000000,0.000000,0.000000,0.000000,0.000000
cobot_dynamixel_driver/joint_states|name|J1,J2,J3,J4,J5,J6|pos|0.700595,-1.268785,1.296337,-0.269668,-1.143571,-0.000083|vel|0.000000,-0.000000,0.000000,0.000000,0.000000,0.000000|eff|0.000000,0.000000,0.000000,0.000000,0.000000,0.000000
cobot_dynamixel_driver/joint_states|name|J1,J2,J3,J4,J5,J6|pos|0.700595,-1.268785,1.296337,-0.269668,-1.143571,-0.000083|vel|0.000000,-0.000000,0.000000,0.000000,0.000000,0.000000|eff|0.000000,0.000000,0.000000,0.000000,0.000000,0.000000
cobot_dynamixel_driver/joint_states|name|J1,J2,J3,J4,J5,J6|pos|0.700595,-1.268785,1.296337,-0.269668,-1.143571,-0.000083|vel|0.000000,-0.000000,0.000000,0.000000,0.000000,0.000000|eff|0.000000,0.000000,0.000000,0.000000,0.000000,0.000000
cobot_dynamixel_driver/joint_states|name|J1,J2,J3,J4,J5,J6|pos|0.700595,-1.268785,1.296337,-0.269668,-1.143571,-0.000083|vel|0.000000,-0.000000,0.000000,0.000000,0.000000,0.000000|eff|0.000000,0.000000,0.000000,0.000000,0.000000,0.000000
cobot_dynamixel_driver/joint_states|name|J1,J2,J3,J4,J5,J6|pos|0.700595,-1.268785,1.296337,-0.269668,-1.143571,-0.000083|vel|0.000000,-0.000000,0.000000,0.000000,0.000000,0.000000|eff|0.000000,0.000000,0.000000,0.000000,0.000000,0.000000
cobot_dynamixel_driver/joint_states|name|J1,J2,J3,J4,J5,J6|pos|0.700595,-1.268785,1.296337,-0.269668,-1.143571,-0.000083|vel|0.000000,-0.000000,0.000000,0.000000,0.000000,0.000000|eff|0.000000,0.000000,0.000000,0.000000,0.000000,0.000000
cobot_dynamixel_driver/joint_states|name|J1,J2,J3,J4,J5,J6|pos|0.700595,-1.268785,1.296337,-0.269668,-1.143571,-0.000083|vel|0.000000,-0.000000,0.000000,0.000000,0.000000,0.000000|eff|0.000000,0.000000,0.000000,0.000000,0.000000,0.000000
cobot_dynamixel_driver/joint_states|name|J1,J2,J3,J4,J5,J6|pos|0.700595,-1.268785,1.296337,-0.269668,-1.143571,-0.000083|vel|0.000000,-0.000000,0.000000,0.000000,0.000000,0.000000|eff|0.000000,0.000000,0.000000,0.000000,0.000000,0.000000
cobot_dynamixel_driver/joint_states|name|J1,J2,J3,J4,J5,J6|pos|0.700595,-1.268785,1.296337,-0.269668,-1.143571,-0.000083|vel|0.000000,-0.000000,0.000000,0.000000,0.000000,0.000000|eff|0.000000,0.000000,0.000000,0.000000,0.000000,0.000000
cobot_dynamixel_driver/joint_states|name|J1,J2,J3,J4,J5,J6|pos|0.700595,-1.268785,1.296337,-0.269668,-1.143571,-0.000083|vel|0.000000,-0.000000,0.000000,0.000000,0.000000,0.000000|eff|0.000000,0.000000,0.000000,0.000000,0.000000,0.000000
cobot_dynamixel_driver/joint_states|name|J1,J2,J3,J4,J5,J6|pos|0.700595,-1.268785,1.296337,-0.269668,-1.143571,-0.000083|vel|0.000000,-0.000000,0.000000,0.000000,0.000000,0.000000|eff|0.000000,0.000000,0.000000,0.000000,0.000000,0.000000
cobot_dynamixel_driver/joint_states|name|J1,J2,J3,J4,J5,J6|pos|0.700595,-1.268785,1.296337,-0.269668,-1.143571,-0.000083|vel|0.000000,-0.000000,0.000000,0.000000,0.000000,0.000000|eff|0.000000,0.000000,0.000000,0.000000,0.000000,0.000000
cobot_dynamixel_driver/joint_states|name|J1,J2,J3,J4,J5,J6|pos|0.700595,-1.268785,1.296337,-0.269668,-1.143571,-0.000083|vel|0.000000,-0.000000,0.000000,0.000000,0.000000,0.000000|eff|0.000000,0.000000,0.000000,0.000000,0.000000,0.000000
cobot_dynamixel_driver/joint_states|name|J1,J2,J3,J4,J5,J6|pos|0.700595,-1.268785,1.296337,-0.269668,-1.143571,-0.000083|vel|0.000000,-0.000000,0.000000,0.000000,0.000000,0.000000|eff|0.000000,0.000000,0.000000,0.000000,0.000000,0.000000
cobot_dynamixel_driver/joint_states|name|J1,J2,J3,J4,J5,J6|pos|0.700595,-1.268785,1.296337,-0.269668,-1.143571,-0.000083|vel|0.000000,-0.000000,0.000000,0.000000,0.000000,0.000000|eff|0.000000,0.000000,0.000000,0.000000,0.000000,0.000000
cobot_dynamixel_driver/joint_states|name|J1,J2,J3,J4,J5,J6|pos|0.700595,-1.268785,1.296337,-0.269668,-1.143571,-0.000083|vel|0.000000,-0.000000,0.000000,0.000000,0.000000,0.000000|eff|0.000000,0.000000,0.000000,0.000000,0.000000,0.000000
cobot_dynamixel_driver/joint_states|name|J1,J2,J3,J4,J5,J6|pos|0.700595,-1.268785,1.296337,-0.269668,-1.143571,-0.000083|vel|0.000000,-0.000000,0.000000,0.000000,0.000000,0.000000|eff|0.000000,0.000000,0.000000,0.000000,0.000000,0.000000
cobot_dynamixel_driver/joint_states|name|J1,J2,J3,J4,J5,J6|pos|0.700595,-1.268785,1.296337,-0.269668,-1.143571,-0.000083|vel|0.000000,-0.000000,0.000000,0.000000,0.000000,0.000000|eff|0.000000,0.000000,0.000000,0.000000,0.000000,0.000000
cobot_dynamixel_driver/joint_states|name|J1,J2,J3,J4,J5,J6|pos|0.700595,-1.268785,1.296337,-0.269668,-1.143571,-0.000083|vel|0.000000,-0.000000,0.000000,0.000000,0.000000,0.000000|eff|0.000000,0.000000,0.000000,0.000000,0.000000,0.000000
cobot_dynamixel_driver/joint_states|name|J1,J2,J3,J4,J5,J6|pos|0.700595,-1.268785,1.296337,-0.269668,-1.143571,-0.000083|vel|0.000000,-0.000000,0.000000,0.000000,0.000000,0.000000|eff|0.000000,0.000000,0.000000,0.000000,0.000000,0.000000
cobot_dynamixel_driver/joint_states|name|J1,J2,J3,J4,J5,J6|pos|0.700595,-1.268785,1.296337,-0.269668,-1.143571,-0.000083|vel|0.000000,-0.000000,0.000000,0.000000,0.000000,0.000000|eff|0.000000,0.000000,0.000000,0.000000,0.000000,0.000000
cobot_dynamixel_driver/joint_states|name|J1,J2,J3,J4,J5,J6|pos|0.700595,-1.268785,1.296337,-0.269668,-1.143571,-0.000083|vel|0.000000,-0.000000,0.000000,0.000000,0.000000,0.000000|eff|0.000000,0.000000,0.000000,0.000000,0.000000,0.000000
cobot_dynamixel_driver/joint_states|name|J1,J2,J3,J4,J5,J6|pos|0.700595,-1.268785,1.296337,-0.269668,-1.143571,-0.000083|vel|0.000000,-0.000000,0.000000,0.000000,0.000000,0.000000|eff|0.000000,0.000000,0.000000,0.000000,0.000000,0.000000
cobot_dynamixel_driver/joint_states|name|J1,J2,J3,J4,J5,J6|pos|0.700595,-1.268785,1.296337,-0.269668,-1.143571,-0.000083|vel|0.000000,-0.000000,0.000000,0.000000,0.000000,0.000000|eff|0.000000,0.000000,0.000000,0.000000,0.000000,0.000000
cobot_dynamixel_driver/joint_states|name|J1,J2,J3,J4,J5,J6|pos|0.700595,-1.268785,1.296337,-0.269668,-1.143571,-0.000083|vel|0.000000,-0.000000,0.000000,0.000000,0.000000,0.000000|eff|0.000000,0.000000,0.000000,0.000000,0.000000,0.000000
cobot_dynamixel_driver/joint_states|name|J1,J2,J3,J4,J5,J6|pos|0.700595,-1.268785,1.296337,-0.269668,-1.143571,-0.000083|vel|0.000000,-0.000000,0.000000,0.000000,0.000000,0.000000|eff|0.000000,0.000000,0.000000,0.000000,0.000000,0.000000
cobot_dynamixel_driver/joint_states|name|J1,J2,J3,J4,J5,J6|pos|0.700595,-1.268785,1.296337,-0.269668,-1.143571,-0.000083|vel|0.000000,-0.000000,0.000000,0.000000,0.000000,0.000000|eff|0.000000,0.000000,0.000000,0.000000,0.000000,0.000000
cobot_dynamixel_driver/joint_states|name|J1,J2,J3,J4,J5,J6|pos|0.700595,-1.268785,1.296337,-0.269668,-1.143571,-0.000083|vel|0.000000,-0.000000,0.000000,0.000000,0.000000,0.000000|eff|0.000000,0.000000,0.000000,0.000000,0.000000,0.000000
cobot_dynamixel_driver/joint_states|name|J1,J2,J3,J4,J5,J6|pos|0.700595,-1.268785,1.296337,-0.269668,-1.143571,-0.000083|vel|0.000000,-0.000000,0.000000,0.000000,0.000000,0.000000|eff|0.000000,0.000000,0.000000,0.000000,0.000000,0.000000
cobot_dynamixel_driver/joint_states|name|J1,J2,J3,J4,J5,J6|pos|0.700595,-1.268785,1.296337,-0.269668,-1.143571,-0.000083|vel|0.000000,-0.000000,0.000000,0.000000,0.000000,0.000000|eff|0.000000,0.000000,0.000000,0.000000,0.000000,0.000000
cobot_dynamixel_driver/joint_states|name|J1,J2,J3,J4,J5,J6|pos|0.700595,-1.268785,1.296337,-0.269668,-1.143571,-0.000083|vel|0.000000,-0.000000,0.000000,0.000000,0.000000,0.000000|eff|0.000000,0.000000,0.000000,0.000000,0.000000,0.000000
cobot_dynamixel_driver/joint_states|name|J1,J2,J3,J4,J5,J6|pos|0.700595,-1.268785,1.296337,-0.269668,-1.143571,-0.000083|vel|0.000000,-0.000000,0.000000,0.000000,0.000000,0.000000|eff|0.000000,0.000000,0.000000,0.000000,0.000000,0.000000
cobot_dynamixel_driver/joint_states|name|J1,J2,J3,J4,J5,J6|pos|0.700595,-1.268785,1.296337,-0.269668,-1.143571,-0.000083|vel|0.000000,-0.000000,0.000000,0.000000,0.000000,0.000000|eff|0.000000,0.000000,0.000000,0.000000,0.000000,0.000000
cobot_dynamixel_driver/joint_states|name|J1,J2,J3,J4,J5,J6|pos|0.700595,-1.268785,1.296337,-0.269668,-1.143571,-0.000083|vel|0.000000,-0.000000,0.000000,0.000000,0.000000,0.000000|eff|0.000000,0.000000,0.000000,0.000000,0.000000,0.000000
cobot_dynamixel_driver/joint_states|name|J1,J2,J3,J4,J5,J6|pos|0.700595,-1.268785,1.296337,-0.269668,-1.143571,-0.000083|vel|0.000000,-0.000000,0.000000,0.000000,0.000000,0.000000|eff|0.000000,0.000000,0.000000,0.000000,0.000000,0.000000
cobot_dynamixel_driver/joint_states|name|J1,J2,J3,J4,J5,J6|pos|0.700595,-1.268785,1.296337,-0.269668,-1.143571,-0.000083|vel|0.000000,-0.000000,0.000000,0.000000,0.000000,0.000000|eff|0.000000,0.000000,0.000000,0.000000,0.000000,0.000000
cobot_dynamixel_driver/joint_states|name|J1,J2,J3,J4,J5,J6|pos|0.700595,-1.268785,1.296337,-0.269668,-1.143571,-0.000083|vel|0.000000,-0.000000,0.000000,0.000000,0.000000,0.000000|eff|0.000000,0.000000,0.000000,0.000000,0.000000,0.000000
cobot_dynamixel_driver/joint_states|name|J1,J2,J3,J4,J5,J6|pos|0.700595,-1.268785,1.296337,-0.269668,-1.143571,-0.000083|vel|0.000000,-0.000000,0.000000,0.000000,0.000000,0.000000|eff|0.000000,0.000000,0.000000,0.000000,0.000000,0.000000
cobot_dynamixel_driver/joint_states|name|J1,J2,J3,J4,J5,J6|pos|0.700595,-1.268785,1.296337,-0.269668,-1.143571,-0.000083|vel|0.000000,-0.000000,0.000000,0.000000,0.000000,0.000000|eff|0.000000,0.000000,0.000000,0.000000,0.000000,0.000000
cobot_dynamixel_driver/joint_states|name|J1,J2,J3,J4,J5,J6|pos|0.700595,-1.268785,1.296337,-0.269668,-1.143571,-0.000083|vel|0.000000,-0.000000,0.000000,0.000000,0.000000,0.000000|eff|0.000000,0.000000,0.000000,0.000000,0.000000,0.000000
cobot_dynamixel_driver/joint_states|name|J1,J2,J3,J4,J5,J6|pos|0.700595,-1.268785,1.296337,-0.269668,-1.143571,-0.000083|vel|0.000000,-0.000000,0.000000,0.000000,0.000000,0.000000|eff|0.000000,0.000000,0.000000,0.000000,0.000000,0.000000
cobot_dynamixel_driver/joint_states|name|J1,J2,J3,J4,J5,J6|pos|0.700595,-1.268785,1.296337,-0.269668,-1.143571,-0.000083|vel|0.000000,-0.000000,0.000000,0.000000,0.000000,0.000000|eff|0.000000,0.000000,0.000000,0.000000,0.000000,0.000000
cobot_dynamixel_driver/joint_states|name|J1,J2,J3,J4,J5,J6|pos|0.700595,-1.268785,1.296337,-0.269668,-1.143571,-0.000083|vel|0.000000,-0.000000,0.000000,0.000000,0.000000,0.000000|eff|0.000000,0.000000,0.000000,0.000000,0.000000,0.000000
cobot_dynamixel_driver/joint_states|name|J1,J2,J3,J4,J5,J6|pos|0.700595,-1.268785,1.296337,-0.269668,-1.143571,-0.000083|vel|0.000000,-0.000000,0.000000,0.000000,0.000000,0.000000|eff|0.000000,0.000000,0.000000,0.000000,0.000000,0.000000
cobot_dynamixel_driver/joint_states|name|J1,J2,J3,J4,J5,J6|pos|0.700595,-1.268785,1.296337,-0.269668,-1.143571,-0.000083|vel|0.000000,-0.000000,0.000000,0.000000,0.000000,0.000000|eff|0.000000,0.000000,0.000000,0.000000,0.000000,0.000000
cobot_dynamixel_driver/joint_states|name|J1,J2,J3,J4,J5,J6|pos|0.700595,-1.268785,1.296337,-0.269668,-1.143571,-0.000083|vel|0.000000,-0.000000,0.000000,0.000000,0.000000,0.000000|eff|0.000000,0.000000,0.000000,0.000000,0.000000,0.000000
cobot_dynamixel_driver/joint_states|name|J1,J2,J3,J4,J5,J6|pos|0.700595,-1.268785,1.296337,-0.269668,-1.143571,-0.000083|vel|0.000000,-0.000000,0.000000,0.000000,0.000000,0.000000|eff|0.000000,0.000000,0.000000,0.000000,0.000000,0.000000
cobot_dynamixel_driver/joint_states|name|J1,J2,J3,J4,J5,J6|pos|0.700595,-1.268785,1.296337,-0.269668,-1.143571,-0.000083|vel|0.000000,-0.000000,0.000000,0.000000,0.000000,0.000000|eff|0.000000,0.000000,0.000000,0.000000,0.000000,0.000000
cobot_dynamixel_driver/joint_states|name|J1,J2,J3,J4,J5,J6|pos|0.700595,-1.268785,1.296337,-0.269668,-1.143571,-0.000083|vel|0.000000,-0.000000,0.000000,0.000000,0.000000,0.000000|eff|0.000000,0.000000,0.000000,0.000000,0.000000,0.000000
cobot_dynamixel_driver/joint_states|name|J1,J2,J3,J4,J5,J6|pos|0.700595,-1.268785,1.296337,-0.269668,-1.143571,-0.000083|vel|0.000000,-0.000000,0.000000,0.000000,0.000000,0.000000|eff|0.000000,0.000000,0.000000,0.000000,0.000000,0.000000
cobot_dynamixel_driver/joint_states|name|J1,J2,J3,J4,J5,J6|pos|0.700595,-1.268785,1.296337,-0.269668,-1.143571,-0.000083|vel|0.000000,-0.000000,0.000000,0.000000,0.000000,0.000000|eff|0.000000,0.000000,0.000000,0.000000,0.000000,0.000000
cobot_dynamixel_driver/joint_states|name|J1,J2,J3,J4,J5,J6|pos|0.700595,-1.268785,1.296337,-0.269668,-1.143571,-0.000083|vel|0.000000,-0.000000,0.000000,0.000000,0.000000,0.000000|eff|0.000000,0.000000,0.000000,0.000000,0.000000,0.000000
cobot_dynamixel_driver/joint_states|name|J1,J2,J3,J4,J5,J6|pos|0.700595,-1.268785,1.296337,-0.269668,-1.143571,-0.000083|vel|0.000000,-0.000000,0.000000,0.000000,0.000000,0.000000|eff|0.000000,0.000000,0.000000,0.000000,0.000000,0.000000
cobot_dynamixel_driver/joint_states|name|J1,J2,J3,J4,J5,J6|pos|0.700595,-1.268785,1.296337,-0.269668,-1.143571,-0.000083|vel|0.000000,-0.000000,0.000000,0.000000,0.000000,0.000000|eff|0.000000,0.000000,0.000000,0.000000,0.000000,0.000000
cobot_dynamixel_driver/joint_states|name|J1,J2,J3,J4,J5,J6|pos|0.700595,-1.268785,1.296337,-0.269668,-1.143571,-0.000083|vel|0.000000,-0.000000,0.000000,0.000000,0.000000,0.000000|eff|0.000000,0.000000,0.000000,0.000000,0.000000,0.000000
cobot_dynamixel_driver/joint_states|name|J1,J2,J3,J4,J5,J6|pos|0.700595,-1.268785,1.296337,-0.269668,-1.143571,-0.000083|vel|0.000000,-0.000000,0.000000,0.000000,0.000000,0.000000|eff|0.000000,0.000000,0.000000,0.000000,0.000000,0.000000
cobot_dynamixel_driver/joint_states|name|J1,J2,J3,J4,J5,J6|pos|0.700595,-1.268785,1.296337,-0.269668,-1.143571,-0.000083|vel|0.000000,-0.000000,0.000000,0.000000,0.000000,0.000000|eff|0.000000,0.000000,0.000000,0.000000,0.000000,0.000000
cobot_dynamixel_driver/joint_states|name|J1,J2,J3,J4,J5,J6|pos|0.700595,-1.268785,1.296337,-0.269668,-1.143571,-0.000083|vel|0.000000,-0.000000,0.000000,0.000000,0.000000,0.000000|eff|0.000000,0.000000,0.000000,0.000000,0.000000,0.000000
cobot_dynamixel_driver/joint_states|name|J1,J2,J3,J4,J5,J6|pos|0.700595,-1.268785,1.296337,-0.269668,-1.143571,-0.000083|vel|0.000000,-0.000000,0.000000,0.000000,0.000000,0.000000|eff|0.000000,0.000000,0.000000,0.000000,0.000000,0.000000
cobot_dynamixel_driver/joint_states|name|J1,J2,J3,J4,J5,J6|pos|0.700595,-1.268785,1.296337,-0.269668,-1.143571,-0.000083|vel|0.000000,-0.000000,0.000000,0.000000,0.000000,0.000000|eff|0.000000,0.000000,0.000000,0.000000,0.000000,0.000000
cobot_dynamixel_driver/joint_states|name|J1,J2,J3,J4,J5,J6|pos|0.700595,-1.268785,1.296337,-0.269668,-1.143571,-0.000083|vel|0.000000,-0.000000,0.000000,0.000000,0.000000,0.000000|eff|0.000000,0.000000,0.000000,0.000000,0.000000,0.000000
cobot_dynamixel_driver/joint_states|name|J1,J2,J3,J4,J5,J6|pos|0.700595,-1.268785,1.296337,-0.269668,-1.143571,-0.000083|vel|0.000000,-0.000000,0.000000,0.000000,0.000000,0.000000|eff|0.000000,0.000000,0.000000,0.000000,0.000000,0.000000
cobot_dynamixel_driver/joint_states|name|J1,J2,J3,J4,J5,J6|pos|0.700595,-1.268785,1.296337,-0.269668,-1.143571,-0.000083|vel|0.000000,-0.000000,0.000000,0.000000,0.000000,0.000000|eff|0.000000,0.000000,0.000000,0.000000,0.000000,0.000000
cobot_dynamixel_driver/joint_states|name|J1,J2,J3,J4,J5,J6|pos|0.700595,-1.268785,1.296337,-0.269668,-1.143571,-0.000083|vel|0.000000,-0.000000,0.000000,0.000000,0.000000,0.000000|eff|0.000000,0.000000,0.000000,0.000000,0.000000,0.000000
cobot_dynamixel_driver/joint_states|name|J1,J2,J3,J4,J5,J6|pos|0.700595,-1.268785,1.296337,-0.269668,-1.143571,-0.000083|vel|0.000000,-0.000000,0.000000,0.000000,0.000000,0.000000|eff|0.000000,0.000000,0.000000,0.000000,0.000000,0.000000
cobot_dynamixel_driver/joint_states|name|J1,J2,J3,J4,J5,J6|pos|0.700595,-1.268785,1.296337,-0.269668,-1.143571,-0.000083|vel|0.000000,-0.000000,0.000000,0.000000,0.000000,0.000000|eff|0.000000,0.000000,0.000000,0.000000,0.000000,0.000000
cobot_dynamixel_driver/joint_states|name|J1,J2,J3,J4,J5,J6|pos|0.700595,-1.268785,1.296337,-0.269668,-1.143571,-0.000083|vel|0.000000,-0.000000,0.000000,0.000000,0.000000,0.000000|eff|0.000000,0.000000,0.000000,0.000000,0.000000,0.000000
cobot_dynamixel_driver/joint_states|name|J1,J2,J3,J4,J5,J6|pos|0.700595,-1.268785,1.296337,-0.269668,-1.143571,-0.000083|vel|0.000000,-0.000000,0.000000,0.000000,0.000000,0.000000|eff|0.000000,0.000000,0.000000,0.000000,0.000000,0.000000
cobot_dynamixel_driver/joint_states|name|J1,J2,J3,J4,J5,J6|pos|0.700595,-1.268785,1.296337,-0.269668,-1.143571,-0.000083|vel|0.000000,-0.000000,0.000000,0.000000,0.000000,0.000000|eff|0.000000,0.000000,0.000000,0.000000,0.000000,0.000000
cobot_dynamixel_driver/joint_states|name|J1,J2,J3,J4,J5,J6|pos|0.700595,-1.268785,1.296337,-0.269668,-1.143571,-0.000083|vel|0.000000,-0.000000,0.000000,0.000000,0.000000,0.000000|eff|0.000000,0.000000,0.000000,0.000000,0.000000,0.000000
cobot_dynamixel_driver/joint_states|name|J1,J2,J3,J4,J5,J6|pos|0.700595,-1.268785,1.296337,-0.269668,-1.143571,-0.000083|vel|0.000000,-0.000000,0.000000,0.000000,0.000000,0.000000|eff|0.000000,0.000000,0.000000,0.000000,0.000000,0.000000
cobot_dynamixel_driver/joint_states|name|J1,J2,J3,J4,J5,J6|pos|0.700595,-1.268785,1.296337,-0.269668,-1.143571,-0.000083|vel|0.000000,-0.000000,0.000000,0.000000,0.000000,0.000000|eff|0.000000,0.000000,0.000000,0.000000,0.000000,0.000000
cobot_dynamixel_driver/joint_states|name|J1,J2,J3,J4,J5,J6|pos|0.700595,-1.268785,1.296337,-0.269668,-1.143571,-0.000083|vel|0.000000,-0.000000,0.000000,0.000000,0.000000,0.000000|eff|0.000000,0.000000,0.000000,0.000000,0.000000,0.000000
cobot_dynamixel_driver/joint_states|name|J1,J2,J3,J4,J5,J6|pos|0.700595,-1.268785,1.296337,-0.269668,-1.143571,-0.000083|vel|0.000000,-0.000000,0.000000,0.000000,0.000000,0.000000|eff|0.000000,0.000000,0.000000,0.000000,0.000000,0.000000
cobot_dynamixel_driver/joint_states|name|J1,J2,J3,J4,J5,J6|pos|0.700595,-1.268785,1.296337,-0.269668,-1.143571,-0.000083|vel|0.000000,-0.000000,0.000000,0.000000,0.000000,0.000000|eff|0.000000,0.000000,0.000000,0.000000,0.000000,0.000000
cobot_dynamixel_driver/joint_states|name|J1,J2,J3,J4,J5,J6|pos|0.700595,-1.268785,1.296337,-0.269668,-1.143571,-0.000083|vel|0.000000,-0.000000,0.000000,0.000000,0.000000,0.000000|eff|0.000000,0.000000,0.000000,0.000000,0.000000,0.000000
cobot_dynamixel_driver/joint_states|name|J1,J2,J3,J4,J5,J6|pos|0.700595,-1.268785,1.296337,-0.269668,-1.143571,-0.000083|vel|0.000000,-0.000000,0.000000,0.000000,0.000000,0.000000|eff|0.000000,0.000000,0.000000,0.000000,0.000000,0.000000
cobot_dynamixel_driver/joint_states|name|J1,J2,J3,J4,J5,J6|pos|0.700595,-1.268785,1.296337,-0.269668,-1.143571,-0.000083|vel|0.000000,-0.000000,0.000000,0.000000,0.000000,0.000000|eff|0.000000,0.000000,0.000000,0.000000,0.000000,0.000000
cobot_dynamixel_driver/joint_states|name|J1,J2,J3,J4,J5,J6|pos|0.700595,-1.268785,1.296337,-0.269668,-1.143571,-0.000083|vel|0.000000,-0.000000,0.000000,0.000000,0.000000,0.000000|eff|0.000000,0.000000,0.000000,0.000000,0.000000,0.000000
cobot_dynamixel_driver/joint_states|name|J1,J2,J3,J4,J5,J6|pos|0.700595,-1.268785,1.296337,-0.269668,-1.143571,-0.000083|vel|0.000000,-0.000000,0.000000,0.000000,0.000000,0.000000|eff|0.000000,0.000000,0.000000,0.000000,0.000000,0.000000
cobot_dynamixel_driver/joint_states|name|J1,J2,J3,J4,J5,J6|pos|0.700595,-1.268785,1.296337,-0.269668,-1.143571,-0.000083|vel|0.000000,-0.000000,0.000000,0.000000,0.000000,0.000000|eff|0.000000,0.000000,0.000000,0.000000,0.000000,0.000000
cobot_dynamixel_driver/joint_states|name|J1,J2,J3,J4,J5,J6|pos|0.700595,-1.268785,1.296337,-0.269668,-1.143571,-0.000083|vel|0.000000,-0.000000,0.000000,0.000000,0.000000,0.000000|eff|0.000000,0.000000,0.000000,0.000000,0.000000,0.000000
cobot_dynamixel_driver/joint_states|name|J1,J2,J3,J4,J5,J6|pos|0.700595,-1.268785,1.296337,-0.269668,-1.143571,-0.000083|vel|0.000000,-0.000000,0.000000,0.000000,0.000000,0.000000|eff|0.000000,0.000000,0.000000,0.000000,0.000000,0.000000
cobot_dynamixel_driver/joint_states|name|J1,J2,J3,J4,J5,J6|pos|0.700595,-1.268785,1.296337,-0.269668,-1.143571,-0.000083|vel|0.000000,-0.000000,0.000000,0.000000,0.000000,0.000000|eff|0.000000,0.000000,0.000000,0.000000,0.000000,0.000000
cobot_dynamixel_driver/joint_states|name|J1,J2,J3,J4,J5,J6|pos|0.700595,-1.268785,1.296337,-0.269668,-1.143571,-0.000083|vel|0.000000,-0.000000,0.000000,0.000000,0.000000,0.000000|eff|0.000000,0.000000,0.000000,0.000000,0.000000,0.000000
cobot_dynamixel_driver/joint_states|name|J1,J2,J3,J4,J5,J6|pos|0.700595,-1.268785,1.296337,-0.269668,-1.143571,-0.000083|vel|0.000000,-0.000000,0.000000,0.000000,0.000000,0.000000|eff|0.000000,0.000000,0.000000,0.000000,0.000000,0.000000
cobot_dynamixel_driver/joint_states|name|J1,J2,J3,J4,J5,J6|pos|0.700595,-1.268785,1.296337,-0.269668,-1.143571,-0.000083|vel|0.000000,-0.000000,0.000000,0.000000,0.000000,0.000000|eff|0.000000,0.000000,0.000000,0.000000,0.000000,0.000000
cobot_dynamixel_driver/joint_states|name|J1,J2,J3,J4,J5,J6|pos|0.700595,-1.268785,1.296337,-0.269668,-1.143571,-0.000083|vel|0.000000,-0.000000,0.000000,0.000000,0.000000,0.000000|eff|0.000000,0.000000,0.000000,0.000000,0.000000,0.000000
cobot_dynamixel_driver/joint_states|name|J1,J2,J3,J4,J5,J6|pos|0.700595,-1.268785,1.296337,-0.269668,-1.143571,-0.000083|vel|0.000000,-0.000000,0.000000,0.000000,0.000000,0.000000|eff|0.000000,0.000000,0.000000,0.000000,0.000000,0.000000
cobot_dynamixel_driver/joint_states|name|J1,J2,J3,J4,J5,J6|pos|0.700595,-1.268785,1.296337,-0.269668,-1.143571,-0.000083|vel|0.000000,-0.000000,0.000000,0.000000,0.000000,0.000000|eff|0.000000,0.000000,0.000000,0.000000,0.000000,0.000000
cobot_dynamixel_driver/joint_states|name|J1,J2,J3,J4,J5,J6|pos|0.700595,-1.268785,1.296337,-0.269668,-1.143571,-0.000083|vel|0.000000,-0.000000,0.000000,0.000000,0.000000,0.000000|eff|0.000000,0.000000,0.000000,0.000000,0.000000,0.000000
cobot_dynamixel_driver/goal|-:J1,J2,J3,J4,J5,J6:0.000000,0.000000,0.000000,0.000000,0.000000,0.000000:0.250000,0.250000,0.250000,0.250000,0.250000,0.250000:pos_vel_
cobot_dynamixel_driver/goal|-:J1,J2,J3,J4,J5,J6:0.000000,0.000000,0.000000,0.000000,0.000000,0.000000:0.250000,0.250000,0.250000,0.250000,0.250000,0.250000:pos_vel_
cobot_dynamixel_driver/joint_states|name|J1,J2,J3,J4,J5,J6|pos|0.700595,-1.268785,1.296287,-0.269668,-1.143571,-0.000083|vel|0.000000,-0.000000,0.000626,0.000000,0.000000,0.000000|eff|0.000000,0.000000,-32.226562,0.000000,0.000000,0.000000
cobot_dynamixel_driver/goal|-:J1,J2,J3,J4,J5,J6:0.000000,0.000000,0.000000,0.000000,0.000000,0.000000:0.250000,0.250000,0.250000,0.250000,0.250000,0.250000:pos_vel_
cobot_dynamixel_driver/goal|-:J1,J2,J3,J4,J5,J6:0.000000,0.000000,0.000000,0.000000,0.000000,0.000000:0.250000,0.250000,0.250000,0.250000,0.250000,0.250000:pos_vel_
cobot_dynamixel_driver/goal|-:J1,J2,J3,J4,J5,J6:0.000000,0.000000,0.000000,0.000000,0.000000,0.000000:0.250000,0.250000,0.250000,0.250000,0.250000,0.250000:pos_vel_
cobot_dynamixel_driver/goal|-:J1,J2,J3,J4,J5,J6:0.000000,0.000000,0.000000,0.000000,0.000000,0.000000:0.250000,0.250000,0.250000,0.250000,0.250000,0.250000:pos_vel_
cobot_dynamixel_driver/goal|-:J1,J2,J3,J4,J5,J6:0.000000,0.000000,0.000000,0.000000,0.000000,0.000000:0.250000,0.250000,0.250000,0.250000,0.250000,0.250000:pos_vel_
cobot_dynamixel_driver/goal|-:J1,J2,J3,J4,J5,J6:0.000000,0.000000,0.000000,0.000000,0.000000,0.000000:0.250000,0.250000,0.250000,0.250000,0.250000,0.250000:pos_vel_
cobot_dynamixel_driver/goal|-:J1,J2,J3,J4,J5,J6:0.000000,0.000000,0.000000,0.000000,0.000000,0.000000:0.250000,0.250000,0.250000,0.250000,0.250000,0.250000:pos_vel_
cobot_dynamixel_driver/goal|-:J1,J2,J3,J4,J5,J6:0.000000,0.000000,0.000000,0.000000,0.000000,0.000000:0.250000,0.250000,0.250000,0.250000,0.250000,0.250000:pos_vel_
cobot_dynamixel_driver/goal|-:J1,J2,J3,J4,J5,J6:0.000000,0.000000,0.000000,0.000000,0.000000,0.000000:0.250000,0.250000,0.250000,0.250000,0.250000,0.250000:pos_vel_
cobot_dynamixel_driver/goal|-:J1,J2,J3,J4,J5,J6:0.000000,0.000000,0.000000,0.000000,0.000000,0.000000:0.250000,0.250000,0.250000,0.250000,0.250000,0.250000:pos_vel_
cobot_dynamixel_driver/goal|-:J1,J2,J3,J4,J5,J6:0.000000,0.000000,0.000000,0.000000,0.000000,0.000000:0.250000,0.250000,0.250000,0.250000,0.250000,0.250000:pos_vel_
cobot_dynamixel_driver/goal|-:J1,J2,J3,J4,J5,J6:0.000000,0.000000,0.000000,0.000000,0.000000,0.000000:0.250000,0.250000,0.250000,0.250000,0.250000,0.250000:pos_vel_
cobot_dynamixel_driver/goal|-:J1,J2,J3,J4,J5,J6:0.000000,0.000000,0.000000,0.000000,0.000000,0.000000:0.250000,0.250000,0.250000,0.250000,0.250000,0.250000:pos_vel_
cobot_dynamixel_driver/goal|-:J1,J2,J3,J4,J5,J6:0.000000,0.000000,0.000000,0.000000,0.000000,0.000000:0.250000,0.250000,0.250000,0.250000,0.250000,0.250000:pos_vel_
cobot_dynamixel_driver/goal|-:J1,J2,J3,J4,J5,J6:0.000000,0.000000,0.000000,0.000000,0.000000,0.000000:0.250000,0.250000,0.250000,0.250000,0.250000,0.250000:pos_vel_
cobot_dynamixel_driver/goal|-:J1,J2,J3,J4,J5,J6:0.000000,0.000000,0.000000,0.000000,0.000000,0.000000:0.250000,0.250000,0.250000,0.250000,0.250000,0.250000:pos_vel_
cobot_dynamixel_driver/goal|-:J1,J2,J3,J4,J5,J6:0.000000,0.000000,0.000000,0.000000,0.000000,0.000000:0.250000,0.250000,0.250000,0.250000,0.250000,0.250000:pos_vel_
cobot_dynamixel_driver/goal|-:J1,J2,J3,J4,J5,J6:0.000000,0.000000,0.000000,0.000000,0.000000,0.000000:0.250000,0.250000,0.250000,0.250000,0.250000,0.250000:pos_vel_
cobot_dynamixel_driver/goal|-:J1,J2,J3,J4,J5,J6:0.000000,0.000000,0.000000,0.000000,0.000000,0.000000:0.250000,0.250000,0.250000,0.250000,0.250000,0.250000:pos_vel_
cobot_dynamixel_driver/goal|-:J1,J2,J3,J4,J5,J6:0.000000,0.000000,0.000000,0.000000,0.000000,0.000000:0.250000,0.250000,0.250000,0.250000,0.250000,0.250000:pos_vel_
cobot_dynamixel_driver/goal|-:J1,J2,J3,J4,J5,J6:0.000000,0.000000,0.000000,0.000000,0.000000,0.000000:0.250000,0.250000,0.250000,0.250000,0.250000,0.250000:pos_vel_
cobot_dynamixel_driver/goal|-:J1,J2,J3,J4,J5,J6:0.000000,0.000000,0.000000,0.000000,0.000000,0.000000:0.250000,0.250000,0.250000,0.250000,0.250000,0.250000:pos_vel_
cobot_dynamixel_driver/goal|-:J1,J2,J3,J4,J5,J6:0.000000,0.000000,0.000000,0.000000,0.000000,0.000000:0.250000,0.250000,0.250000,0.250000,0.250000,0.250000:pos_vel_
cobot_dynamixel_driver/goal|-:J1,J2,J3,J4,J5,J6:0.000000,0.000000,0.000000,0.000000,0.000000,0.000000:0.250000,0.250000,0.250000,0.250000,0.250000,0.250000:pos_vel_
cobot_dynamixel_driver/goal|-:J1,J2,J3,J4,J5,J6:0.000000,0.000000,0.000000,0.000000,0.000000,0.000000:0.250000,0.250000,0.250000,0.250000,0.250000,0.250000:pos_vel_
cobot_dynamixel_driver/goal|-:J1,J2,J3,J4,J5,J6:0.000000,0.000000,0.000000,0.000000,0.000000,0.000000:0.250000,0.250000,0.250000,0.250000,0.250000,0.250000:pos_vel_
cobot_dynamixel_driver/goal|-:J1,J2,J3,J4,J5,J6:0.000000,0.000000,0.000000,0.000000,0.000000,0.000000:0.250000,0.250000,0.250000,0.250000,0.250000,0.250000:pos_vel_
cobot_dynamixel_driver/goal|-:J1,J2,J3,J4,J5,J6:0.000000,0.000000,0.000000,0.000000,0.000000,0.000000:0.250000,0.250000,0.250000,0.250000,0.250000,0.250000:pos_vel_
cobot_dynamixel_driver/goal|-:J1,J2,J3,J4,J5,J6:0.000000,0.000000,0.000000,0.000000,0.000000,0.000000:0.250000,0.250000,0.250000,0.250000,0.250000,0.250000:pos_vel_
cobot_dynamixel_driver/joint_states|name|J1,J2,J3,J4,J5,J6|pos|0.700507,-1.268672,1.296100,-0.269567,-1.143281,-0.000083|vel|-0.013771,0.016692,-0.022742,0.018778,0.034470,0.000000|eff|-467.285156,-435.058594,-209.472656,273.925781,60.424805,0.000000
cobot_dynamixel_driver/joint_states|name|J1,J2,J3,J4,J5,J6|pos|0.700057,-1.268184,1.295574,-0.269129,-1.142371,-0.000083|vel|-0.038182,0.040686,-0.040686,0.039434,0.067216,0.000000|eff|-580.078125,-451.171875,-322.265625,402.832031,52.368164,0.000000
cobot_dynamixel_driver/joint_states|name|J1,J2,J3,J4,J5,J6|pos|0.699168,-1.267320,1.294748,-0.268140,-1.141047,-0.000083|vel|-0.064055,0.060090,-0.053205,0.072818,0.095137,0.000000|eff|-644.531250,-644.531250,-580.078125,418.945312,64.453125,0.000000
cobot_dynamixel_driver/joint_states|name|J1,J2,J3,J4,J5,J6|pos|0.697929,-1.266244,1.293821,-0.266763,-1.139454,-0.000083|vel|-0.086588,0.073861,-0.059882,0.097855,0.107891,0.000000|eff|-676.757812,-854.003906,-886.230469,483.398438,60.424805,0.000000
cobot_dynamixel_driver/joint_states|name|J1,J2,J3,J4,J5,J6|pos|0.696038,-1.264704,1.292457,-0.264786,-1.137138,-0.000083|vel|-0.108914,0.088466,-0.085545,0.117885,0.112372,0.000000|eff|-741.210938,-1127.929688,-1192.382812,531.738281,40.283203,0.000000
cobot_dynamixel_driver/joint_states|name|J1,J2,J3,J4,J5,J6|pos|0.693685,-1.262789,1.290466,-0.262382,-1.134511,-0.000083|vel|-0.142088,0.113504,-0.110374,0.119555,0.140982,0.000000|eff|-692.871094,-1385.742188,-1224.609375,515.625000,44.311523,0.000000
cobot_dynamixel_driver/joint_states|name|J1,J2,J3,J4,J5,J6|pos|0.690943,-1.260347,1.287687,-0.259578,-1.131759,-0.000083|vel|-0.153981,0.133117,-0.157737,0.155442,0.149600,0.000000|eff|-628.417969,-1321.289062,-1031.250000,499.511719,36.254883,0.000000
cobot_dynamixel_driver/joint_states|name|J1,J2,J3,J4,J5,J6|pos|0.687839,-1.257543,1.284420,-0.256423,-1.128677,-0.000083|vel|-0.168378,0.156276,-0.158154,0.164205,0.170626,0.000000|eff|-612.304688,-1579.101562,-966.796875,451.171875,52.368164,0.000000
cobot_dynamixel_driver/joint_states|name|J1,J2,J3,J4,J5,J6|pos|0.684509,-1.254401,1.280902,-0.253056,-1.125326,-0.000083|vel|-0.176306,0.169212,-0.183609,0.177558,0.174418,0.000000|eff|-692.871094,-1546.875000,-1015.136719,515.625000,40.283203,28.198242
cobot_dynamixel_driver/joint_states|name|J1,J2,J3,J4,J5,J6|pos|0.681004,-1.250896,1.277197,-0.249513,-1.121789,-0.000083|vel|-0.179019,0.168586,-0.191329,0.189868,0.180623,0.000000|eff|-563.964844,-1321.289062,-934.570312,418.945312,36.254883,0.000000
cobot_dynamixel_driver/joint_states|name|J1,J2,J3,J4,J5,J6|pos|0.677424,-1.247153,1.273354,-0.245870,-1.118107,-0.000083|vel|-0.195085,0.201344,-0.185487,0.183192,0.197513,0.000000|eff|-725.097656,-1530.761719,-1031.250000,467.285156,40.283203,0.000000
cobot_dynamixel_driver/joint_states|name|J1,J2,J3,J4,J5,J6|pos|0.673593,-1.243160,1.269473,-0.242077,-1.114198,-0.000083|vel|-0.203013,0.214071,-0.210107,0.195502,0.183036,0.000000|eff|-483.398438,-1385.742188,-1015.136719,402.832031,32.226562,0.000000
cobot_dynamixel_driver/joint_states|name|J1,J2,J3,J4,J5,J6|pos|0.669575,-1.239129,1.265568,-0.238184,-1.110122,-0.000083|vel|-0.206352,0.212820,-0.202596,0.207812,0.174763,0.000000|eff|-580.078125,-1401.855469,-999.023438,370.605469,24.169922,0.000000
cobot_dynamixel_driver/joint_states|name|J1,J2,J3,J4,J5,J6|pos|0.665506,-1.234898,1.261424,-0.234166,-1.106047,-0.000083|vel|-0.208438,0.210524,-0.220122,0.205308,0.191308,0.000000|eff|-580.078125,-1401.855469,-966.796875,402.832031,28.198242,20.141602
cobot_dynamixel_driver/joint_states|name|J1,J2,J3,J4,J5,J6|pos|0.661338,-1.230567,1.257205,-0.230047,-1.101848,-0.000083|vel|-0.214697,0.220122,-0.220957,0.217618,0.191653,0.000000|eff|-708.984375,-1466.308594,-950.683594,418.945312,28.198242,0.000000
cobot_dynamixel_driver/joint_states|name|J1,J2,J3,J4,J5,J6|pos|0.657057,-1.226273,1.252924,-0.225866,-1.097566,-0.000083|vel|-0.218036,0.233267,-0.196754,0.218662,0.197168,0.000000|eff|-596.191406,-1627.441406,-966.796875,451.171875,36.254883,0.000000
cobot_dynamixel_driver/joint_states|name|J1,J2,J3,J4,J5,J6|pos|0.652788,-1.221929,1.248580,-0.221635,-1.093223,-0.000083|vel|-0.222835,0.239109,-0.237649,0.214489,0.260248,0.000000|eff|-435.058594,-1272.949219,-1015.136719,435.058594,40.283203,28.198242
cobot_dynamixel_driver/joint_states|name|J1,J2,J3,J4,J5,J6|pos|0.648457,-1.217422,1.244211,-0.217316,-1.088713,-0.000083|vel|-0.214489,0.240152,-0.242447,0.221374,0.224744,0.000000|eff|-547.851562,-1305.175781,-1063.476562,386.718750,16.113281,0.000000
cobot_dynamixel_driver/joint_states|name|J1,J2,J3,J4,J5,J6|pos|0.644025,-1.212853,1.239793,-0.212872,-1.084286,-0.000083|vel|-0.234519,0.224504,-0.232224,0.217827,0.234051,0.000000|eff|-708.984375,-1498.535156,-1111.816406,402.832031,32.226562,32.226562
cobot_dynamixel_driver/joint_states|name|J1,J2,J3,J4,J5,J6|pos|0.639544,-1.208259,1.235361,-0.208416,-1.079756,-0.000083|vel|-0.233267,0.239318,-0.235353,0.232432,0.289892,0.000000|eff|-886.230469,-1144.042969,-982.910156,515.625000,40.283203,12.084961
cobot_dynamixel_driver/joint_states|name|J1,J2,J3,J4,J5,J6|pos|0.635000,-1.203665,1.230804,-0.203934,-1.075144,-0.000083|vel|-0.239735,0.230763,-0.248081,0.230972,0.242324,0.000000|eff|-418.945312,-1337.402344,-1031.250000,338.378906,24.169922,20.141602
cobot_dynamixel_driver/joint_states|name|J1,J2,J3,J4,J5,J6|pos|0.630430,-1.199021,1.226210,-0.199390,-1.070489,-0.000083|vel|-0.224295,0.240361,-0.238066,0.225756,0.228881,0.000000|eff|-660.644531,-1321.289062,-999.023438,418.945312,32.226562,28.198242
cobot_dynamixel_driver/joint_states|name|J1,J2,J3,J4,J5,J6|pos|0.625836,-1.194364,1.221604,-0.194871,-1.065876,-0.000083|vel|-0.225547,0.247038,-0.250585,0.240152,0.264040,0.000000|eff|-580.078125,-1224.609375,-966.796875,531.738281,28.198242,32.226562
cobot_dynamixel_driver/joint_states|name|J1,J2,J3,J4,J5,J6|pos|0.621280,-1.189720,1.216922,-0.190265,-1.061160,-0.000083|vel|-0.226382,0.231598,-0.214280,0.218244,0.219229,0.000000|eff|-580.078125,-1450.195312,-1095.703125,306.152344,40.283203,0.000000
cobot_dynamixel_driver/joint_states|name|J1,J2,J3,J4,J5,J6|pos|0.616685,-1.185063,1.212277,-0.185658,-1.056382,-0.000083|vel|-0.253088,0.235562,-0.245786,0.226382,0.211301,0.000000|eff|-837.890625,-1272.949219,-902.343750,483.398438,24.169922,24.169922
cobot_dynamixel_driver/joint_states|name|J1,J2,J3,J4,J5,J6|pos|0.612016,-1.180343,1.207633,-0.181014,-1.051707,-0.000083|vel|-0.240570,0.226382,-0.233267,0.245577,0.240945,0.000000|eff|-467.285156,-1482.421875,-1047.363281,451.171875,36.254883,0.000000
cobot_dynamixel_driver/joint_states|name|J1,J2,J3,J4,J5,J6|pos|0.607322,-1.175674,1.203014,-0.176332,-1.046929,-0.000083|vel|-0.219496,0.279795,-0.239526,0.231806,0.276104,0.000000|eff|-773.437500,-1224.609375,-950.683594,386.718750,44.311523,32.226562
cobot_dynamixel_driver/joint_states|name|J1,J2,J3,J4,J5,J6|pos|0.602652,-1.170992,1.198382,-0.171700,-1.042109,-0.000083|vel|-0.237857,0.242447,-0.206977,0.232850,0.232672,0.000000|eff|-402.832031,-1562.988281,-1015.136719,531.738281,24.169922,0.000000
cobot_dynamixel_driver/joint_states|name|J1,J2,J3,J4,J5,J6|pos|0.597996,-1.166298,1.193751,-0.167018,-1.037289,-0.000083|vel|-0.243282,0.240361,-0.242447,0.240361,0.215093,0.000000|eff|-789.550781,-1224.609375,-966.796875,402.832031,20.141602,36.254883
cobot_dynamixel_driver/joint_states|name|J1,J2,J3,J4,J5,J6|pos|0.593289,-1.161579,1.189106,-0.162299,-1.032490,-0.000083|vel|-0.227425,0.255175,-0.237231,0.247455,0.241979,0.000000|eff|-435.058594,-1401.855469,-1031.250000,563.964844,24.169922,24.169922
cobot_dynamixel_driver/joint_states|name|J1,J2,J3,J4,J5,J6|pos|0.588645,-1.156872,1.184399,-0.157592,-1.027671,-0.000083|vel|-0.236188,0.227633,-0.216575,0.234936,0.285067,0.000000|eff|-821.777344,-1289.062500,-999.023438,402.832031,36.254883,24.169922
cobot_dynamixel_driver/joint_states|name|J1,J2,J3,J4,J5,J6|pos|0.583925,-1.151902,1.179655,-0.152610,-1.022582,-0.000083|vel|-0.249750,0.245577,-0.248498,0.224921,0.263695,0.000000|eff|-499.511719,-1160.156250,-1063.476562,257.812500,32.226562,36.254883
cobot_dynamixel_driver/joint_states|name|J1,J2,J3,J4,J5,J6|pos|0.579193,-1.147383,1.174961,-0.148103,-1.018010,-0.000083|vel|-0.239944,0.224504,-0.242030,0.230346,0.244737,0.000000|eff|-789.550781,-1272.949219,-966.796875,451.171875,40.283203,40.283203
cobot_dynamixel_driver/joint_states|name|J1,J2,J3,J4,J5,J6|pos|0.574461,-1.142563,1.170304,-0.143371,-1.013149,-0.000083|vel|-0.243073,0.259974,-0.242239,0.250376,0.238532,0.000000|eff|-483.398438,-1063.476562,-1095.703125,241.699219,28.198242,8.056641
cobot_dynamixel_driver/joint_states|name|J1,J2,J3,J4,J5,J6|pos|0.569729,-1.137794,1.165509,-0.138639,-1.008288,-0.000083|vel|-0.219288,0.250376,-0.251211,0.232850,0.262661,0.000000|eff|-870.117188,-1385.742188,-982.910156,435.058594,36.254883,24.169922
cobot_dynamixel_driver/joint_states|name|J1,J2,J3,J4,J5,J6|pos|0.565010,-1.133087,1.160665,-0.133958,-1.003427,-0.000083|vel|-0.246829,0.244743,-0.258722,0.243699,0.211646,0.000000|eff|-515.625000,-1127.929688,-1047.363281,290.039062,36.254883,24.169922
cobot_dynamixel_driver/joint_states|name|J1,J2,J3,J4,J5,J6|pos|0.560241,-1.128393,1.155820,-0.129238,-0.998546,-0.000083|vel|-0.248915,0.230137,-0.221165,0.246412,0.247494,0.000000|eff|-886.230469,-1401.855469,-918.457031,499.511719,16.113281,36.254883
cobot_dynamixel_driver/joint_states|name|J1,J2,J3,J4,J5,J6|pos|0.555421,-1.123623,1.151038,-0.124481,-0.993643,-0.000083|vel|-0.245160,0.238274,-0.242447,0.243699,0.264729,0.000000|eff|-612.304688,-1160.156250,-918.457031,306.152344,28.198242,16.113281
cobot_dynamixel_driver/joint_states|name|J1,J2,J3,J4,J5,J6|pos|0.550752,-1.118854,1.146281,-0.119749,-0.988761,-0.000083|vel|-0.245994,0.220331,-0.219705,0.238274,0.273002,0.000000|eff|-854.003906,-1482.421875,-999.023438,515.625000,40.283203,40.283203
cobot_dynamixel_driver/joint_states|name|J1,J2,J3,J4,J5,J6|pos|0.546045,-1.114110,1.141587,-0.115005,-0.983859,-0.000083|vel|-0.242239,0.240987,-0.262477,0.240361,0.248184,0.000000|eff|-676.757812,-1208.496094,-950.683594,370.605469,36.254883,40.283203
cobot_dynamixel_driver/joint_states|name|J1,J2,J3,J4,J5,J6|pos|0.541200,-1.109278,1.136843,-0.110261,-0.979019,-0.000083|vel|-0.218453,0.251002,-0.259348,0.247872,0.293339,0.000000|eff|-241.699219,-1079.589844,-1015.136719,531.738281,40.283203,44.311523
cobot_dynamixel_driver/joint_states|name|J1,J2,J3,J4,J5,J6|pos|0.536406,-1.104521,1.132073,-0.105516,-0.974178,-0.000083|vel|-0.241404,0.252671,-0.244117,0.242030,0.248873,0.000000|eff|-854.003906,-1321.289062,-902.343750,370.605469,40.283203,12.084961
cobot_dynamixel_driver/joint_states|name|J1,J2,J3,J4,J5,J6|pos|0.531637,-1.099814,1.127341,-0.100809,-0.969296,-0.000083|vel|-0.249750,0.232850,-0.260391,0.250585,0.251975,0.000000|eff|-483.398438,-1144.042969,-1063.476562,580.078125,36.254883,28.198242
cobot_dynamixel_driver/joint_states|name|J1,J2,J3,J4,J5,J6|pos|0.526930,-1.095007,1.122547,-0.096052,-0.964373,-0.000083|vel|-0.265399,0.252462,-0.244951,0.256218,0.244392,0.000000|eff|-918.457031,-1321.289062,-950.683594,467.285156,24.169922,28.198242
cobot_dynamixel_driver/joint_states|name|J1,J2,J3,J4,J5,J6|pos|0.522173,-1.090200,1.117802,-0.091258,-0.959512,-0.000083|vel|-0.228468,0.233267,-0.219288,0.245368,0.224399,0.000000|eff|-612.304688,-1144.042969,-1176.269531,402.832031,32.226562,40.283203
cobot_dynamixel_driver/joint_states|name|J1,J2,J3,J4,J5,J6|pos|0.517353,-1.085405,1.113133,-0.086438,-0.954424,-0.000083|vel|-0.249750,0.252671,-0.249541,0.246620,0.209922,0.000000|eff|-563.964844,-1272.949219,-1047.363281,531.738281,28.198242,20.141602
cobot_dynamixel_driver/joint_states|name|J1,J2,J3,J4,J5,J6|pos|0.512559,-1.080611,1.108301,-0.081644,-0.949852,-0.000083|vel|-0.237023,0.246203,-0.262060,0.250167,0.259904,0.000000|eff|-660.644531,-1208.496094,-966.796875,370.605469,36.254883,12.084961
cobot_dynamixel_driver/joint_states|name|J1,J2,J3,J4,J5,J6|pos|0.507752,-1.075791,1.103469,-0.076849,-0.944950,-0.000083|vel|-0.244534,0.218662,-0.247455,0.259139,0.291961,0.000000|eff|-370.605469,-918.457031,-999.023438,563.964844,40.283203,44.311523
cobot_dynamixel_driver/joint_states|name|J1,J2,J3,J4,J5,J6|pos|0.502957,-1.071009,1.098675,-0.072092,-0.940027,-0.000083|vel|-0.251837,0.249333,-0.247246,0.226382,0.252320,0.000000|eff|-870.117188,-1385.742188,-950.683594,435.058594,32.226562,44.311523
cobot_dynamixel_driver/joint_states|name|J1,J2,J3,J4,J5,J6|pos|0.498200,-1.066227,1.093868,-0.067323,-0.935124,-0.000083|vel|-0.245994,0.250585,-0.259139,0.245577,0.272313,0.000000|eff|-596.191406,-1095.703125,-1144.042969,273.925781,28.198242,44.311523
cobot_dynamixel_driver/joint_states|name|J1,J2,J3,J4,J5,J6|pos|0.493456,-1.061483,1.089048,-0.062516,-0.930242,-0.000083|vel|-0.249541,0.249124,-0.254132,0.258305,0.279207,0.000000|eff|-902.343750,-1434.082031,-934.570312,418.945312,32.226562,40.283203
cobot_dynamixel_driver/joint_states|name|J1,J2,J3,J4,J5,J6|pos|0.488674,-1.056676,1.084241,-0.057747,-0.925361,-0.000083|vel|-0.254966,0.251837,-0.217410,0.253088,0.251975,0.000000|eff|-596.191406,-1160.156250,-886.230469,306.152344,28.198242,24.169922
cobot_dynamixel_driver/joint_states|name|J1,J2,J3,J4,J5,J6|pos|0.483867,-1.051944,1.079497,-0.052965,-0.920272,-0.000083|vel|-0.266859,0.242865,-0.261226,0.235145,0.240600,0.000000|eff|-273.925781,-1079.589844,-982.910156,515.625000,36.254883,40.283203
cobot_dynamixel_driver/joint_states|name|J1,J2,J3,J4,J5,J6|pos|0.479047,-1.047187,1.074727,-0.048195,-0.915639,-0.000083|vel|-0.241821,0.254758,-0.226590,0.249750,0.263006,0.000000|eff|-821.777344,-1208.496094,-886.230469,402.832031,36.254883,44.311523
cobot_dynamixel_driver/joint_states|name|J1,J2,J3,J4,J5,J6|pos|0.474303,-1.042405,1.069958,-0.043438,-0.910777,-0.000083|vel|-0.245368,0.255801,-0.259139,0.245786,0.218195,0.000000|eff|-467.285156,-1015.136719,-1031.250000,338.378906,36.254883,28.198242
cobot_dynamixel_driver/joint_states|name|J1,J2,J3,J4,J5,J6|pos|0.469534,-1.037636,1.065251,-0.038669,-0.905875,-0.000083|vel|-0.251419,0.253088,-0.254132,0.248915,0.248528,0.000000|eff|-870.117188,-1321.289062,-950.683594,435.058594,20.141602,44.311523
cobot_dynamixel_driver/joint_states|name|J1,J2,J3,J4,J5,J6|pos|0.464777,-1.032916,1.060519,-0.033912,-0.900973,-0.000083|vel|-0.248915,0.254758,-0.252045,0.241404,0.249218,0.000000|eff|-628.417969,-1095.703125,-1079.589844,257.812500,16.113281,40.283203
cobot_dynamixel_driver/joint_states|name|J1,J2,J3,J4,J5,J6|pos|0.460045,-1.028147,1.055775,-0.029343,-0.896091,-0.000083|vel|-0.247038,0.254758,-0.245368,0.217618,0.274036,0.000000|eff|-418.945312,-1353.515625,-950.683594,161.132812,20.141602,40.283203
cobot_dynamixel_driver/joint_states|name|J1,J2,J3,J4,J5,J6|pos|0.455238,-1.023377,1.051068,-0.025450,-0.891230,-0.000062|vel|-0.252045,0.255384,-0.232432,0.179436,0.246116,0.000000|eff|-692.871094,-1095.703125,-1176.269531,145.019531,28.198242,44.311523
cobot_dynamixel_driver/joint_states|name|J1,J2,J3,J4,J5,J6|pos|0.450431,-1.018558,1.046323,-0.022145,-0.886348,0.000000|vel|-0.245994,0.248290,-0.235771,0.160032,0.283688,0.002068|eff|-370.605469,-1047.363281,-1015.136719,193.359375,36.254883,36.254883
cobot_dynamixel_driver/joint_states|name|J1,J2,J3,J4,J5,J6|pos|0.445674,-1.013763,1.041529,-0.019303,-0.881446,0.000000|vel|-0.242656,0.230972,-0.253297,0.135412,0.256801,0.002068|eff|-854.003906,-1240.722656,-999.023438,193.359375,28.198242,40.283203
cobot_dynamixel_driver/joint_states|name|J1,J2,J3,J4,J5,J6|pos|0.440917,-1.009007,1.036684,-0.016824,-0.876585,0.000000|vel|-0.236397,0.243282,-0.224295,0.119763,0.251286,0.002068|eff|-547.851562,-1015.136719,-1031.250000,193.359375,32.226562,8.056641
cobot_dynamixel_driver/joint_states|name|J1,J2,J3,J4,J5,J6|pos|0.436097,-1.004250,1.031827,-0.014709,-0.871703,0.000000|vel|-0.256844,0.246412,-0.255384,0.104115,0.243013,0.002068|eff|-966.796875,-1337.402344,-918.457031,225.585938,32.226562,36.254883
cobot_dynamixel_driver/joint_states|name|J1,J2,J3,J4,J5,J6|pos|0.431290,-0.999455,1.026983,-0.012844,-0.866842,0.000000|vel|-0.272493,0.247664,-0.256009,0.089509,0.227157,0.002068|eff|-692.871094,-1095.703125,-999.023438,177.246094,24.169922,8.056641
cobot_dynamixel_driver/joint_states|name|J1,J2,J3,J4,J5,J6|pos|0.425945,-0.993985,1.021512,-0.011029,-0.861236,0.000000|vel|-0.243908,0.245994,-0.242447,0.072609,0.246116,0.002068|eff|-805.664062,-1224.609375,-950.683594,241.699219,20.141602,28.198242
cobot_dynamixel_driver/joint_states|name|J1,J2,J3,J4,J5,J6|pos|0.421877,-0.989929,1.017456,-0.009852,-0.856871,0.000000|vel|-0.252880,0.250585,-0.257887,0.068436,0.241634,0.000000|eff|-676.757812,-1095.703125,-918.457031,209.472656,36.254883,32.226562
cobot_dynamixel_driver/joint_states|name|J1,J2,J3,J4,J5,J6|pos|0.417020,-0.985109,1.012699,-0.008613,-0.852238,0.000000|vel|-0.240778,0.240570,-0.255175,0.060716,0.309196,0.000000|eff|-338.378906,-999.023438,-1015.136719,209.472656,32.226562,20.141602
cobot_dynamixel_driver/joint_states|name|J1,J2,J3,J4,J5,J6|pos|0.412225,-0.980340,1.007880,-0.007511,-0.847170,0.000000|vel|-0.233267,0.257679,-0.239526,0.051327,0.248528,0.000000|eff|-902.343750,-1305.175781,-918.457031,193.359375,36.254883,20.141602
cobot_dynamixel_driver/joint_states|name|J1,J2,J3,J4,J5,J6|pos|0.407468,-0.975570,1.003135,-0.006509,-0.842267,0.000000|vel|-0.245577,0.237231,-0.224921,0.044442,0.261282,0.000000|eff|-612.304688,-1015.136719,-1127.929688,177.246094,36.254883,0.000000
cobot_dynamixel_driver/joint_states|name|J1,J2,J3,J4,J5,J6|pos|0.402686,-0.970738,0.998379,-0.005671,-0.837613,0.000000|vel|-0.252045,0.238483,-0.248707,0.039852,0.256112,0.000000|eff|-999.023438,-1385.742188,-982.910156,177.246094,36.254883,0.000000
cobot_dynamixel_driver/joint_states|name|J1,J2,J3,J4,J5,J6|pos|0.397917,-0.965944,0.993622,-0.004970,-0.832752,0.000000|vel|-0.247038,0.244117,-0.224295,0.032758,0.243358,0.000000|eff|-676.757812,-1111.816406,-1031.250000,161.132812,44.311523,20.141602
cobot_dynamixel_driver/joint_states|name|J1,J2,J3,J4,J5,J6|pos|0.393110,-0.961162,0.988927,-0.004369,-0.827643,0.000000|vel|-0.245577,0.234102,-0.253297,0.029836,0.214748,0.000000|eff|-290.039062,-1015.136719,-1031.250000,209.472656,44.311523,0.000000
cobot_dynamixel_driver/joint_states|name|J1,J2,J3,J4,J5,J6|pos|0.388315,-0.956355,0.984083,-0.003793,-0.822968,0.000000|vel|-0.241613,0.259556,-0.213863,0.026081,0.263695,0.000000|eff|-789.550781,-1192.382812,-966.796875,177.246094,20.141602,0.000000
cobot_dynamixel_driver/joint_states|name|J1,J2,J3,J4,J5,J6|pos|0.383508,-0.951560,0.979201,-0.003317,-0.818107,0.000000|vel|-0.255592,0.256635,-0.261017,0.022325,0.227157,0.000000|eff|-483.398438,-934.570312,-982.910156,225.585938,24.169922,20.141602
cobot_dynamixel_driver/joint_states|name|J1,J2,J3,J4,J5,J6|pos|0.378676,-0.946741,0.974381,-0.002917,-0.813225,0.000000|vel|-0.245786,0.246829,-0.256844,0.018778,0.265419,0.000000|eff|-499.511719,-1305.175781,-934.570312,193.359375,20.141602,8.056641
cobot_dynamixel_driver/joint_states|name|J1,J2,J3,J4,J5,J6|pos|0.373919,-0.941959,0.969549,-0.002529,-0.808116,0.000000|vel|-0.237440,0.241196,-0.214906,0.018152,0.263351,0.000000|eff|-660.644531,-1063.476562,-918.457031,209.472656,24.169922,28.198242
cobot_dynamixel_driver/joint_states|name|J1,J2,J3,J4,J5,J6|pos|0.369175,-0.937189,0.964730,-0.002203,-0.803524,0.000000|vel|-0.256427,0.252880,-0.251419,0.016692,0.244737,0.000000|eff|-499.511719,-934.570312,-934.570312,193.359375,48.339844,32.226562
cobot_dynamixel_driver/joint_states|name|J1,J2,J3,J4,J5,J6|pos|0.364381,-0.932370,0.959948,-0.001878,-0.798621,0.000000|vel|-0.250376,0.248290,-0.232224,0.014397,0.261627,0.000000|eff|-741.210938,-1160.156250,-886.230469,193.359375,24.169922,12.084961
cobot_dynamixel_driver/joint_states|name|J1,J2,J3,J4,J5,J6|pos|0.359574,-0.927613,0.955203,-0.001615,-0.793740,0.000000|vel|-0.236814,0.247246,-0.249750,0.012519,0.266108,0.000000|eff|-418.945312,-918.457031,-1015.136719,128.906250,36.254883,0.000000
cobot_dynamixel_driver/joint_states|name|J1,J2,J3,J4,J5,J6|pos|0.354779,-0.922856,0.950459,-0.001402,-0.788858,0.000000|vel|-0.243491,0.248915,-0.244534,0.010224,0.251975,0.000000|eff|-886.230469,-1256.835938,-934.570312,177.246094,36.254883,0.000000
cobot_dynamixel_driver/joint_states|name|J1,J2,J3,J4,J5,J6|pos|0.350035,-0.918062,0.945714,-0.001214,-0.784038,0.000000|vel|-0.238066,0.256635,-0.239318,0.009598,0.261972,0.000000|eff|-644.531250,-934.570312,-1144.042969,145.019531,40.283203,28.198242
cobot_dynamixel_driver/joint_states|name|J1,J2,J3,J4,J5,J6|pos|0.345240,-0.913317,0.940982,-0.001039,-0.779177,0.000000|vel|-0.252045,0.282090,-0.217827,0.007720,0.207854,0.000000|eff|-370.605469,-1176.269531,-950.683594,96.679688,48.339844,0.000000
cobot_dynamixel_driver/joint_states|name|J1,J2,J3,J4,J5,J6|pos|0.340458,-0.908360,0.936188,-0.000914,-0.774088,0.000000|vel|-0.245994,0.251211,-0.258722,0.006468,0.215437,0.000000|eff|-773.437500,-1111.816406,-966.796875,145.019531,44.311523,8.056641
cobot_dynamixel_driver/joint_states|name|J1,J2,J3,J4,J5,J6|pos|0.335726,-0.903816,0.931456,-0.000814,-0.769434,0.000000|vel|-0.241821,0.247038,-0.247246,0.005216,0.259904,0.000000|eff|-354.492188,-1015.136719,-999.023438,145.019531,40.283203,0.000000
cobot_dynamixel_driver/joint_states|name|J1,J2,J3,J4,J5,J6|pos|0.330957,-0.899021,0.926749,-0.000739,-0.764490,0.000000|vel|-0.254966,0.232224,-0.263938,0.003756,0.253354,0.000000|eff|-757.324219,-1111.816406,-999.023438,177.246094,24.169922,20.141602
cobot_dynamixel_driver/joint_states|name|J1,J2,J3,J4,J5,J6|pos|0.326187,-0.894177,0.921980,-0.000663,-0.759319,0.000000|vel|-0.248290,0.232432,-0.211776,0.003756,0.243703,0.000000|eff|-547.851562,-854.003906,-1031.250000,161.132812,28.198242,8.056641
cobot_dynamixel_driver/joint_states|name|J1,J2,J3,J4,J5,J6|pos|0.321418,-0.889407,0.917173,-0.000601,-0.754727,0.000000|vel|-0.252880,0.235562,-0.256844,0.002712,0.246116,0.000000|eff|-902.343750,-950.683594,-934.570312,145.019531,36.254883,0.000000
cobot_dynamixel_driver/joint_states|name|J1,J2,J3,J4,J5,J6|pos|0.316636,-0.884638,0.912353,-0.000563,-0.749618,0.000000|vel|-0.238900,0.243699,-0.257053,0.002295,0.261627,0.000000|eff|-612.304688,-1031.250000,-1240.722656,128.906250,44.311523,20.141602
cobot_dynamixel_driver/joint_states|name|J1,J2,J3,J4,J5,J6|pos|0.311816,-0.879906,0.907496,-0.000526,-0.744777,0.000000|vel|-0.254132,0.234936,-0.233476,0.002295,0.249907,0.000000|eff|-338.378906,-1111.816406,-966.796875,193.359375,48.339844,0.000000
cobot_dynamixel_driver/joint_states|name|J1,J2,J3,J4,J5,J6|pos|0.307035,-0.875112,0.902639,-0.000463,-0.740144,0.000000|vel|-0.245786,0.238274,-0.251419,0.002712,0.248873,0.000000|eff|-789.550781,-1015.136719,-886.230469,193.359375,32.226562,0.000000
cobot_dynamixel_driver/joint_states|name|J1,J2,J3,J4,J5,J6|pos|0.302365,-0.870367,0.897907,-0.000413,-0.735241,0.000000|vel|-0.233893,0.238274,-0.246412,0.002921,0.260938,0.000000|eff|-322.265625,-918.457031,-1047.363281,193.359375,28.198242,32.226562
cobot_dynamixel_driver/joint_states|name|J1,J2,J3,J4,J5,J6|pos|0.297558,-0.865573,0.893150,-0.000325,-0.730132,0.000000|vel|-0.250793,0.251002,-0.242656,0.005008,0.225434,0.000000|eff|-837.890625,-1127.929688,-918.457031,128.906250,32.226562,0.000000
cobot_dynamixel_driver/joint_states|name|J1,J2,J3,J4,J5,J6|pos|0.292714,-0.860803,0.888381,-0.000263,-0.725478,0.000000|vel|-0.246203,0.245160,-0.253297,0.003338,0.244737,0.000000|eff|-547.851562,-886.230469,-1047.363281,161.132812,24.169922,0.000000
cobot_dynamixel_driver/joint_states|name|J1,J2,J3,J4,J5,J6|pos|0.287919,-0.856071,0.883561,-0.000200,-0.720368,0.000000|vel|-0.250376,0.250376,-0.241196,0.002504,0.267142,0.000000|eff|-596.191406,-1305.175781,-950.683594,161.132812,32.226562,32.226562
cobot_dynamixel_driver/joint_states|name|J1,J2,J3,J4,J5,J6|pos|0.283150,-0.851264,0.878804,-0.000150,-0.715735,0.000000|vel|-0.249959,0.251837,-0.250793,0.002712,0.274036,0.000000|eff|-676.757812,-950.683594,-966.796875,161.132812,44.311523,20.141602
cobot_dynamixel_driver/joint_states|name|J1,J2,J3,J4,J5,J6|pos|0.278330,-0.846445,0.874035,-0.000125,-0.710646,0.000000|vel|-0.222626,0.259139,-0.251002,0.002712,0.246116,0.000000|eff|-322.265625,-966.796875,-999.023438,112.792969,28.198242,0.000000
cobot_dynamixel_driver/joint_states|name|J1,J2,J3,J4,J5,J6|pos|0.272860,-0.840949,0.868640,-0.000125,-0.705330,0.000000|vel|-0.238274,0.248081,-0.249541,0.002712,0.219918,0.000000|eff|-531.738281,-854.003906,-1111.816406,112.792969,36.254883,0.000000
cobot_dynamixel_driver/joint_states|name|J1,J2,J3,J4,J5,J6|pos|0.268804,-0.836856,0.864596,-0.000125,-0.700986,0.000000|vel|-0.216993,0.236605,-0.253923,0.002712,0.253010,0.000000|eff|-483.398438,-773.437500,-1047.363281,112.792969,52.368164,12.084961
cobot_dynamixel_driver/joint_states|name|J1,J2,J3,J4,J5,J6|pos|0.263997,-0.831799,0.859777,-0.000125,-0.696084,0.000000|vel|-0.241196,0.245368,-0.253714,0.002712,0.212680,0.000000|eff|-676.757812,-1289.062500,-982.910156,96.679688,40.283203,20.141602
cobot_dynamixel_driver/joint_states|name|J1,J2,J3,J4,J5,J6|pos|0.259202,-0.827229,0.854945,-0.000125,-0.691430,0.000000|vel|-0.248290,0.246829,-0.264564,0.002712,0.226812,0.000000|eff|-644.531250,-950.683594,-467.285156,112.792969,36.254883,20.141602
cobot_dynamixel_driver/joint_states|name|J1,J2,J3,J4,J5,J6|pos|0.254395,-0.822447,0.850138,-0.000125,-0.686300,0.000000|vel|-0.245577,0.241404,-0.252045,0.002712,0.224055,0.000000|eff|-354.492188,-773.437500,-950.683594,48.339844,24.169922,8.056641
cobot_dynamixel_driver/joint_states|name|J1,J2,J3,J4,J5,J6|pos|0.249638,-0.817678,0.845318,-0.000125,-0.681708,0.000000|vel|-0.244743,0.241404,-0.250585,0.000000,0.262316,0.000000|eff|-773.437500,-999.023438,-902.343750,96.679688,36.254883,0.000000
cobot_dynamixel_driver/joint_states|name|J1,J2,J3,J4,J5,J6|pos|0.244856,-0.812909,0.840474,-0.000125,-0.676826,0.000000|vel|-0.232850,0.260391,-0.245577,0.000000,0.267487,0.000000|eff|-338.378906,-708.984375,-999.023438,96.679688,40.283203,0.000000
cobot_dynamixel_driver/joint_states|name|J1,J2,J3,J4,J5,J6|pos|0.240075,-0.808127,0.835692,-0.000125,-0.671696,0.000000|vel|-0.248290,0.258096,-0.253297,0.000000,0.267142,0.000000|eff|-854.003906,-1111.816406,-918.457031,112.792969,52.368164,32.226562
cobot_dynamixel_driver/joint_states|name|J1,J2,J3,J4,J5,J6|pos|0.235280,-0.803370,0.830910,-0.000125,-0.666855,0.000000|vel|-0.237023,0.251211,-0.220122,0.000000,0.259214,0.000000|eff|-612.304688,-934.570312,-966.796875,177.246094,44.311523,0.000000
cobot_dynamixel_driver/joint_states|name|J1,J2,J3,J4,J5,J6|pos|0.230523,-0.798588,0.826165,-0.000125,-0.662284,0.000000|vel|-0.248707,0.242239,-0.255384,0.000000,0.251975,0.000000|eff|-563.964844,-1063.476562,-950.683594,96.679688,64.453125,0.000000
cobot_dynamixel_driver/joint_states|name|J1,J2,J3,J4,J5,J6|pos|0.225754,-0.793793,0.821371,-0.000125,-0.657402,0.000000|vel|-0.252880,0.236814,-0.217410,0.000000,0.250941,0.000000|eff|-692.871094,-999.023438,-886.230469,112.792969,44.311523,32.226562
cobot_dynamixel_driver/joint_states|name|J1,J2,J3,J4,J5,J6|pos|0.220947,-0.789049,0.816626,-0.000125,-0.652479,0.000000|vel|-0.251419,0.243073,-0.255175,0.000000,0.246116,0.000000|eff|-306.152344,-805.664062,-966.796875,177.246094,36.254883,0.000000
cobot_dynamixel_driver/joint_states|name|J1,J2,J3,J4,J5,J6|pos|0.216165,-0.784317,0.811882,-0.000125,-0.647577,0.000000|vel|-0.238692,0.252880,-0.257053,0.000000,0.226812,0.000000|eff|-805.664062,-982.910156,-918.457031,112.792969,32.226562,0.000000
cobot_dynamixel_driver/joint_states|name|J1,J2,J3,J4,J5,J6|pos|0.211420,-0.779522,0.807175,-0.000125,-0.642488,0.000000|vel|-0.234727,0.235771,-0.252671,0.000000,0.207854,0.000000|eff|-499.511719,-741.210938,-1063.476562,112.792969,40.283203,8.056641
cobot_dynamixel_driver/joint_states|name|J1,J2,J3,J4,J5,J6|pos|0.206638,-0.774678,0.802443,-0.000125,-0.637854,0.000000|vel|-0.248915,0.252462,-0.246412,0.000000,0.244737,0.000000|eff|-902.343750,-1095.703125,-950.683594,145.019531,44.311523,0.000000
cobot_dynamixel_driver/joint_states|name|J1,J2,J3,J4,J5,J6|pos|0.201869,-0.769858,0.797686,-0.000125,-0.632745,0.000000|vel|-0.239318,0.240987,-0.243073,0.000000,0.247494,0.000000|eff|-612.304688,-854.003906,-1063.476562,145.019531,40.283203,28.198242
cobot_dynamixel_driver/joint_states|name|J1,J2,J3,J4,J5,J6|pos|0.197137,-0.765089,0.792892,-0.000125,-0.628112,0.000000|vel|-0.245994,0.258305,-0.247872,0.000000,0.247150,0.000000|eff|-644.531250,-886.230469,-966.796875,128.906250,40.283203,20.141602
cobot_dynamixel_driver/joint_states|name|J1,J2,J3,J4,J5,J6|pos|0.192343,-0.760319,0.788072,-0.000113,-0.622982,0.000000|vel|-0.235562,0.252254,-0.250793,0.000000,0.260593,0.000000|eff|-708.984375,-950.683594,-1031.250000,177.246094,36.254883,20.141602
cobot_dynamixel_driver/joint_states|name|J1,J2,J3,J4,J5,J6|pos|0.187273,-0.755312,0.782952,-0.000113,-0.618141,0.000000|vel|-0.237649,0.251419,-0.246620,0.000000,0.245771,0.000000|eff|-531.738281,-805.664062,-1063.476562,145.019531,40.283203,0.000000
cobot_dynamixel_driver/joint_states|name|J1,J2,J3,J4,J5,J6|pos|0.182754,-0.750768,0.778308,-0.000100,-0.613301,0.000000|vel|-0.227425,0.240987,-0.261852,0.000000,0.228881,0.000000|eff|-854.003906,-1047.363281,-918.457031,193.359375,52.368164,0.000000
cobot_dynamixel_driver/joint_states|name|J1,J2,J3,J4,J5,J6|pos|0.178034,-0.745999,0.773601,-0.000075,-0.608481,0.000000|vel|-0.251211,0.234519,-0.254549,0.000209,0.262316,0.000000|eff|-483.398438,-789.550781,-1144.042969,112.792969,44.311523,28.198242
cobot_dynamixel_driver/joint_states|name|J1,J2,J3,J4,J5,J6|pos|0.173215,-0.741204,0.768794,-0.000050,-0.603620,0.000000|vel|-0.255384,0.243491,-0.222835,0.001252,0.227157,0.000000|eff|-870.117188,-918.457031,-966.796875,161.132812,52.368164,0.000000
cobot_dynamixel_driver/joint_states|name|J1,J2,J3,J4,J5,J6|pos|0.168383,-0.736460,0.764050,-0.000025,-0.598945,0.000000|vel|-0.254758,0.230972,-0.254966,0.001252,0.265074,0.000000|eff|-644.531250,-902.343750,-950.683594,193.359375,40.283203,0.000000
cobot_dynamixel_driver/joint_states|name|J1,J2,J3,J4,J5,J6|pos|0.163588,-0.731728,0.759255,-0.000025,-0.593753,0.000000|vel|-0.252462,0.252462,-0.220331,0.001252,0.249218,0.000000|eff|-306.152344,-821.777344,-999.023438,145.019531,36.254883,32.226562
cobot_dynamixel_driver/joint_states|name|J1,J2,J3,J4,J5,J6|pos|0.158831,-0.726883,0.754473,-0.000025,-0.589120,0.000000|vel|-0.246620,0.253714,-0.243282,0.001252,0.268176,0.000000|eff|-821.777344,-950.683594,-934.570312,112.792969,44.311523,20.141602
cobot_dynamixel_driver/joint_states|name|J1,J2,J3,J4,J5,J6|pos|0.154024,-0.722076,0.749742,-0.000025,-0.583969,0.000000|vel|-0.233684,0.258305,-0.223461,0.001252,0.267832,0.000000|eff|-531.738281,-725.097656,-1031.250000,193.359375,36.254883,0.000000
cobot_dynamixel_driver/joint_states|name|J1,J2,J3,J4,J5,J6|pos|0.149255,-0.717319,0.745060,-0.000025,-0.579377,0.000000|vel|-0.236397,0.220957,-0.246412,0.001252,0.284377,0.000000|eff|-918.457031,-1289.062500,-1031.250000,128.906250,56.396484,16.113281
cobot_dynamixel_driver/joint_states|name|J1,J2,J3,J4,J5,J6|pos|0.144485,-0.712512,0.740265,-0.000025,-0.574206,0.000000|vel|-0.250376,0.246620,-0.261643,0.001252,0.278517,0.000000|eff|-612.304688,-773.437500,-531.738281,177.246094,40.283203,0.000000
cobot_dynamixel_driver/joint_states|name|J1,J2,J3,J4,J5,J6|pos|0.139678,-0.707693,0.735458,-0.000025,-0.569303,0.000000|vel|-0.233058,0.242239,-0.252254,0.001252,0.276794,0.000000|eff|-273.925781,-580.078125,-982.910156,112.792969,40.283203,20.141602
cobot_dynamixel_driver/joint_states|name|J1,J2,J3,J4,J5,J6|pos|0.134884,-0.702923,0.730614,-0.000025,-0.564442,0.000000|vel|-0.248707,0.240987,-0.251419,0.000000,0.253354,0.000000|eff|-821.777344,-966.796875,-918.457031,112.792969,40.283203,0.000000
cobot_dynamixel_driver/joint_states|name|J1,J2,J3,J4,J5,J6|pos|0.130077,-0.698129,0.725769,-0.000025,-0.559829,0.000000|vel|-0.236605,0.235979,-0.256635,0.000000,0.265074,0.000000|eff|-467.285156,-580.078125,-999.023438,112.792969,44.311523,20.141602
cobot_dynamixel_driver/joint_states|name|J1,J2,J3,J4,J5,J6|pos|0.125095,-0.693109,0.720712,-0.000025,-0.554720,0.000000|vel|-0.252045,0.251419,-0.253923,0.000000,0.252665,0.000000|eff|-515.625000,-821.777344,-950.683594,112.792969,44.311523,0.000000
cobot_dynamixel_driver/joint_states|name|J1,J2,J3,J4,J5,J6|pos|0.120538,-0.688578,0.716118,-0.000025,-0.549838,0.000000|vel|-0.235562,0.247038,-0.249959,0.000000,0.216127,0.000000|eff|-612.304688,-741.210938,-950.683594,112.792969,36.254883,20.141602
cobot_dynamixel_driver/joint_states|name|J1,J2,J3,J4,J5,J6|pos|0.115731,-0.683821,0.711323,-0.000025,-0.544915,0.000000|vel|-0.228885,0.248081,-0.253923,0.000000,0.218540,0.000000|eff|-306.152344,-950.683594,-918.457031,112.792969,36.254883,0.000000
cobot_dynamixel_driver/joint_states|name|J1,J2,J3,J4,J5,J6|pos|0.110962,-0.679051,0.706541,-0.000025,-0.540282,0.000000|vel|-0.236397,0.245160,-0.249959,0.000000,0.268176,0.000000|eff|-741.210938,-789.550781,-870.117188,112.792969,60.424805,0.000000
cobot_dynamixel_driver/joint_states|name|J1,J2,J3,J4,J5,J6|pos|0.106205,-0.674269,0.701759,-0.000025,-0.535193,0.000000|vel|-0.232224,0.235145,-0.235771,0.000000,0.249218,0.000000|eff|-338.378906,-596.191406,-982.910156,112.792969,48.339844,32.226562
cobot_dynamixel_driver/joint_states|name|J1,J2,J3,J4,J5,J6|pos|0.101448,-0.669512,0.697040,-0.000025,-0.530580,0.000000|vel|-0.250585,0.253714,-0.245368,0.000000,0.281620,0.000000|eff|-773.437500,-918.457031,-886.230469,112.792969,44.311523,8.056641
cobot_dynamixel_driver/joint_states|name|J1,J2,J3,J4,J5,J6|pos|0.096628,-0.664730,0.692308,-0.000025,-0.525471,0.000000|vel|-0.229720,0.220122,-0.248290,0.000000,0.292995,0.000000|eff|-435.058594,-644.531250,-1015.136719,112.792969,48.339844,32.226562
cobot_dynamixel_driver/joint_states|name|J1,J2,J3,J4,J5,J6|pos|0.091859,-0.659973,0.687564,-0.000025,-0.520796,0.000000|vel|-0.249124,0.245994,-0.245786,0.000000,0.252665,0.000000|eff|-950.683594,-1031.250000,-950.683594,112.792969,40.283203,8.056641
cobot_dynamixel_driver/joint_states|name|J1,J2,J3,J4,J5,J6|pos|0.087077,-0.655154,0.682844,-0.000025,-0.515707,0.000000|vel|-0.239318,0.253506,-0.239735,0.000000,0.245081,0.000000|eff|-644.531250,-676.757812,-1289.062500,96.679688,48.339844,20.141602
cobot_dynamixel_driver/joint_states|name|J1,J2,J3,J4,J5,J6|pos|0.081794,-0.649596,0.677624,-0.000025,-0.510329,0.000000|vel|-0.244534,0.253714,-0.244117,0.000000,0.288169,0.000000|eff|-676.757812,-757.324219,-1079.589844,128.906250,44.311523,0.000000
cobot_dynamixel_driver/joint_states|name|J1,J2,J3,J4,J5,J6|pos|0.077538,-0.645540,0.673343,-0.000025,-0.505964,0.000000|vel|-0.245368,0.245577,-0.248290,0.000000,0.218884,0.000000|eff|-773.437500,-854.003906,-1015.136719,112.792969,52.368164,0.000000
cobot_dynamixel_driver/joint_states|name|J1,J2,J3,J4,J5,J6|pos|0.072806,-0.640783,0.668573,-0.000025,-0.501310,0.000000|vel|-0.244117,0.245160,-0.248081,0.000000,0.265419,0.000000|eff|-418.945312,-580.078125,-1031.250000,112.792969,36.254883,0.000000
cobot_dynamixel_driver/joint_states|name|J1,J2,J3,J4,J5,J6|pos|0.067986,-0.636026,0.663779,-0.000025,-0.496201,0.000000|vel|-0.251419,0.246829,-0.251628,0.000000,0.248873,0.000000|eff|-886.230469,-950.683594,-966.796875,112.792969,52.368164,28.198242
cobot_dynamixel_driver/joint_states|name|J1,J2,J3,J4,J5,J6|pos|0.063154,-0.631244,0.658947,-0.000025,-0.491547,0.000000|vel|-0.236188,0.251419,-0.257261,0.000000,0.248873,0.000000|eff|-580.078125,-692.871094,-1031.250000,96.679688,44.311523,20.141602
cobot_dynamixel_driver/joint_states|name|J1,J2,J3,J4,J5,J6|pos|0.058460,-0.626462,0.654090,-0.000025,-0.486437,0.000000|vel|-0.230137,0.238900,-0.208855,0.000000,0.247494,0.000000|eff|-1031.250000,-870.117188,-950.683594,112.792969,44.311523,0.000000
cobot_dynamixel_driver/joint_states|name|J1,J2,J3,J4,J5,J6|pos|0.053666,-0.621693,0.649308,-0.000025,-0.481825,0.000000|vel|-0.249333,0.226382,-0.245994,0.000000,0.257491,0.000000|eff|-580.078125,-741.210938,-934.570312,96.679688,48.339844,0.000000
cobot_dynamixel_driver/joint_states|name|J1,J2,J3,J4,J5,J6|pos|0.048859,-0.616861,0.644513,-0.000025,-0.476695,0.000000|vel|-0.249124,0.251211,-0.246620,0.000000,0.264040,0.000000|eff|-386.718750,-418.945312,-999.023438,145.019531,44.311523,32.226562
cobot_dynamixel_driver/joint_states|name|J1,J2,J3,J4,J5,J6|pos|0.044089,-0.611891,0.639719,-0.000025,-0.471772,0.000000|vel|-0.223043,0.223043,-0.250793,0.000000,0.254044,0.000000|eff|-854.003906,-934.570312,-902.343750,112.792969,44.311523,20.141602
cobot_dynamixel_driver/joint_states|name|J1,J2,J3,J4,J5,J6|pos|0.039307,-0.607397,0.634974,-0.000025,-0.466910,0.000000|vel|-0.248915,0.251211,-0.227842,0.000000,0.219229,0.000000|eff|-499.511719,-563.964844,-1031.250000,112.792969,52.368164,0.000000
cobot_dynamixel_driver/joint_states|name|J1,J2,J3,J4,J5,J6|pos|0.034525,-0.602515,0.630218,-0.000025,-0.462298,0.000000|vel|-0.258096,0.253088,-0.243908,0.000000,0.215093,0.000000|eff|-854.003906,-999.023438,-950.683594,112.792969,52.368164,28.198242
cobot_dynamixel_driver/joint_states|name|J1,J2,J3,J4,J5,J6|pos|0.029919,-0.597720,0.625486,-0.000025,-0.457168,0.000000|vel|-0.222417,0.243908,-0.246203,0.000000,0.217505,0.000000|eff|-273.925781,-757.324219,-1111.816406,112.792969,48.339844,0.000000
cobot_dynamixel_driver/joint_states|name|J1,J2,J3,J4,J5,J6|pos|0.025925,-0.593001,0.620791,-0.000025,-0.452307,0.000000|vel|-0.196962,0.249124,-0.256009,0.000000,0.266798,0.000000|eff|-177.246094,-660.644531,-1063.476562,96.679688,44.311523,0.000000
cobot_dynamixel_driver/joint_states|name|J1,J2,J3,J4,J5,J6|pos|0.022445,-0.588231,0.615934,-0.000025,-0.447466,0.000000|vel|-0.153981,0.238692,-0.256218,0.000000,0.274726,0.000000|eff|-273.925781,-741.210938,-966.796875,96.679688,52.368164,8.056641
cobot_dynamixel_driver/joint_states|name|J1,J2,J3,J4,J5,J6|pos|0.019428,-0.583374,0.611065,-0.000025,-0.442874,0.000000|vel|-0.135620,0.248290,-0.228051,0.000000,0.284722,0.000000|eff|-193.359375,-435.058594,-999.023438,112.792969,56.396484,0.000000
cobot_dynamixel_driver/joint_states|name|J1,J2,J3,J4,J5,J6|pos|0.016850,-0.578567,0.606245,-0.000025,-0.437765,0.000000|vel|-0.123310,0.251002,-0.241821,0.000000,0.275070,0.000000|eff|-354.492188,-982.910156,-934.570312,112.792969,64.453125,32.226562
cobot_dynamixel_driver/joint_states|name|J1,J2,J3,J4,J5,J6|pos|0.014634,-0.573848,0.601451,-0.000025,-0.432904,0.000000|vel|-0.105992,0.253297,-0.252880,0.000000,0.255078,0.000000|eff|-306.152344,-708.984375,-1015.136719,96.679688,68.481445,0.000000
cobot_dynamixel_driver/joint_states|name|J1,J2,J3,J4,J5,J6|pos|0.012693,-0.569079,0.596656,-0.000025,-0.428022,0.000000|vel|-0.094517,0.245994,-0.252880,0.000000,0.223021,0.000000|eff|-257.812500,-596.191406,-950.683594,112.792969,64.453125,28.198242
cobot_dynamixel_driver/joint_states|name|J1,J2,J3,J4,J5,J6|pos|0.011016,-0.564272,0.591862,-0.000025,-0.423140,0.000000|vel|-0.075321,0.256844,-0.250167,0.000000,0.264040,0.000000|eff|-209.472656,-725.097656,-902.343750,112.792969,56.396484,20.141602
cobot_dynamixel_driver/joint_states|name|J1,J2,J3,J4,J5,J6|pos|0.009514,-0.559289,0.587042,-0.000025,-0.418217,0.000000|vel|-0.068436,0.246412,-0.252254,0.000000,0.215093,0.000000|eff|-257.812500,-499.511719,-1160.156250,112.792969,52.368164,20.141602
cobot_dynamixel_driver/joint_states|name|J1,J2,J3,J4,J5,J6|pos|0.008312,-0.554720,0.582260,-0.000025,-0.413315,0.000000|vel|-0.061968,0.259556,-0.256427,0.000000,0.213714,0.000000|eff|-209.472656,-805.664062,-886.230469,96.679688,44.311523,28.198242
cobot_dynamixel_driver/joint_states|name|J1,J2,J3,J4,J5,J6|pos|0.007198,-0.549926,0.577466,-0.000025,-0.408392,0.000000|vel|-0.053414,0.233684,-0.243699,0.000000,0.242324,0.000000|eff|-145.019531,-499.511719,-1031.250000,145.019531,40.283203,0.000000
cobot_dynamixel_driver/joint_states|name|J1,J2,J3,J4,J5,J6|pos|0.006259,-0.545181,0.572734,-0.000025,-0.403489,0.000000|vel|-0.047571,0.243699,-0.266859,0.000000,0.265763,0.000000|eff|-177.246094,-1111.816406,-918.457031,112.792969,52.368164,20.141602
cobot_dynamixel_driver/joint_states|name|J1,J2,J3,J4,J5,J6|pos|0.005433,-0.540437,0.568014,-0.000025,-0.398607,0.000000|vel|-0.040269,0.243699,-0.258305,0.000000,0.267487,0.000000|eff|-225.585938,-628.417969,-999.023438,112.792969,44.311523,8.056641
cobot_dynamixel_driver/joint_states|name|J1,J2,J3,J4,J5,J6|pos|0.004719,-0.535667,0.563295,-0.000025,-0.393746,0.000000|vel|-0.034218,0.234102,-0.247038,0.000000,0.246460,0.000000|eff|-145.019531,-531.738281,-999.023438,112.792969,40.283203,28.198242
cobot_dynamixel_driver/joint_states|name|J1,J2,J3,J4,J5,J6|pos|0.004106,-0.530873,0.558563,-0.000025,-0.388885,0.000000|vel|-0.028793,0.249959,-0.236605,0.000000,0.278173,0.000000|eff|-177.246094,-676.757812,-999.023438,96.679688,56.396484,28.198242
cobot_dynamixel_driver/joint_states|name|J1,J2,J3,J4,J5,J6|pos|0.003405,-0.524338,0.552166,-0.000025,-0.382618,0.000000|vel|-0.025872,0.254758,-0.247664,0.000000,0.223710,0.000000|eff|-209.472656,-821.777344,-982.910156,112.792969,64.453125,0.000000
cobot_dynamixel_driver/joint_states|name|J1,J2,J3,J4,J5,J6|pos|0.003017,-0.520295,0.548336,-0.000025,-0.378460,0.000000|vel|-0.020656,0.242030,-0.253088,0.000000,0.243013,0.000000|eff|-225.585938,-692.871094,-1079.589844,112.792969,60.424805,28.198242
cobot_dynamixel_driver/joint_states|name|J1,J2,J3,J4,J5,J6|pos|0.002704,-0.516264,0.544005,-0.000025,-0.374302,0.000000|vel|-0.018987,0.233893,-0.249333,0.000000,0.243013,0.000000|eff|-145.019531,-644.531250,-1079.589844,112.792969,52.368164,20.141602
cobot_dynamixel_driver/joint_states|name|J1,J2,J3,J4,J5,J6|pos|0.002353,-0.511758,0.539398,-0.000025,-0.369462,0.000000|vel|-0.016692,0.255801,-0.229303,0.000000,0.214748,0.000000|eff|-161.132812,-870.117188,-950.683594,96.679688,48.339844,0.000000
cobot_dynamixel_driver/joint_states|name|J1,J2,J3,J4,J5,J6|pos|0.002028,-0.506901,0.534566,-0.000025,-0.364601,0.000000|vel|-0.015648,0.243908,-0.254966,0.000000,0.261627,0.000000|eff|-177.246094,-644.531250,-934.570312,112.792969,52.368164,8.056641
cobot_dynamixel_driver/joint_states|name|J1,J2,J3,J4,J5,J6|pos|0.001753,-0.502094,0.529759,-0.000025,-0.359740,0.000000|vel|-0.013145,0.230763,-0.257053,0.000000,0.278517,0.000000|eff|-193.359375,-322.265625,-999.023438,112.792969,52.368164,0.000000
cobot_dynamixel_driver/joint_states|name|J1,J2,J3,J4,J5,J6|pos|0.001502,-0.497374,0.524989,-0.000025,-0.354837,0.000000|vel|-0.011058,0.248081,-0.234102,0.000000,0.249563,0.000000|eff|-145.019531,-821.777344,-902.343750,112.792969,56.396484,0.000000
cobot_dynamixel_driver/joint_states|name|J1,J2,J3,J4,J5,J6|pos|0.001289,-0.492555,0.520195,-0.000025,-0.349935,0.000000|vel|-0.010850,0.252462,-0.253297,0.000000,0.260593,0.000000|eff|-145.019531,-402.832031,-1047.363281,112.792969,52.368164,20.141602
cobot_dynamixel_driver/joint_states|name|J1,J2,J3,J4,J5,J6|pos|0.001114,-0.487785,0.515413,-0.000025,-0.345074,0.000000|vel|-0.008346,0.246620,-0.213446,0.000000,0.288169,0.000000|eff|-193.359375,-902.343750,-934.570312,112.792969,68.481445,0.000000
cobot_dynamixel_driver/joint_states|name|J1,J2,J3,J4,J5,J6|pos|0.000976,-0.483028,0.510681,-0.000025,-0.340213,0.000000|vel|-0.006468,0.249959,-0.257887,0.000000,0.247494,0.000000|eff|-145.019531,-531.738281,-1160.156250,96.679688,56.396484,32.226562
cobot_dynamixel_driver/joint_states|name|J1,J2,J3,J4,J5,J6|pos|0.000864,-0.478184,0.505937,-0.000025,-0.335331,0.000000|vel|-0.005008,0.254549,-0.259139,0.000000,0.213714,0.000000|eff|-80.566406,-161.132812,-1015.136719,145.019531,56.396484,20.141602
cobot_dynamixel_driver/joint_states|name|J1,J2,J3,J4,J5,J6|pos|0.000751,-0.473139,0.501142,-0.000025,-0.330470,0.000000|vel|-0.005008,0.235979,-0.238483,0.000000,0.245081,0.000000|eff|-177.246094,-741.210938,-966.796875,96.679688,72.509766,12.084961
cobot_dynamixel_driver/joint_states|name|J1,J2,J3,J4,J5,J6|pos|0.000651,-0.468607,0.496410,-0.000025,-0.325567,0.000000|vel|-0.005216,0.246412,-0.261226,0.000000,0.210956,0.000000|eff|-193.359375,-354.492188,-1031.250000,96.679688,64.453125,12.084961
cobot_dynamixel_driver/joint_states|name|J1,J2,J3,J4,J5,J6|pos|0.000551,-0.463825,0.491578,-0.000025,-0.320706,0.000000|vel|-0.004590,0.242030,-0.254340,0.000000,0.245771,0.000000|eff|-193.359375,-902.343750,-950.683594,96.679688,60.424805,28.198242
cobot_dynamixel_driver/joint_states|name|J1,J2,J3,J4,J5,J6|pos|0.000463,-0.459006,0.486746,-0.000025,-0.315866,0.000000|vel|-0.003964,0.250585,-0.259139,0.000000,0.265763,0.000000|eff|-128.906250,-515.625000,-1015.136719,112.792969,64.453125,32.226562
cobot_dynamixel_driver/joint_states|name|J1,J2,J3,J4,J5,J6|pos|0.000388,-0.454224,0.481927,-0.000025,-0.311005,0.000000|vel|-0.004590,0.237649,-0.256218,0.000000,0.247150,0.000000|eff|-80.566406,-161.132812,-966.796875,96.679688,56.396484,20.141602
cobot_dynamixel_driver/joint_states|name|J1,J2,J3,J4,J5,J6|pos|0.000363,-0.449492,0.477082,-0.000025,-0.306102,0.000000|vel|-0.001461,0.247455,-0.249124,0.000000,0.263695,0.000000|eff|-96.679688,-660.644531,-870.117188,112.792969,68.481445,0.000000
cobot_dynamixel_driver/joint_states|name|J1,J2,J3,J4,J5,J6|pos|0.000325,-0.444735,0.472300,-0.000025,-0.301221,0.000000|vel|-0.001669,0.248707,-0.228885,0.000000,0.274381,0.000000|eff|-96.679688,-241.699219,-982.910156,112.792969,64.453125,20.141602
cobot_dynamixel_driver/joint_states|name|J1,J2,J3,J4,J5,J6|pos|0.000288,-0.439966,0.467543,-0.000025,-0.296359,0.000000|vel|-0.001669,0.247664,-0.245577,0.000000,0.245771,0.000000|eff|-112.792969,-708.984375,-886.230469,112.792969,52.368164,28.198242
cobot_dynamixel_driver/joint_states|name|J1,J2,J3,J4,J5,J6|pos|0.000250,-0.435209,0.462724,-0.000025,-0.291498,0.000000|vel|-0.001878,0.247246,-0.238692,0.000000,0.219918,0.000000|eff|-257.812500,-354.492188,-1063.476562,112.792969,48.339844,12.084961
cobot_dynamixel_driver/joint_states|name|J1,J2,J3,J4,J5,J6|pos|0.000200,-0.430402,0.457917,-0.000025,-0.286658,0.000000|vel|-0.002712,0.221165,-0.260391,0.000000,0.223710,0.000000|eff|-112.792969,-338.378906,-902.343750,128.906250,52.368164,0.000000
cobot_dynamixel_driver/joint_states|name|J1,J2,J3,J4,J5,J6|pos|0.000175,-0.425632,0.453135,-0.000025,-0.281797,0.000000|vel|-0.001878,0.245577,-0.251211,0.000000,0.221987,0.000000|eff|-128.906250,-483.398438,-870.117188,96.679688,64.453125,8.056641
cobot_dynamixel_driver/joint_states|name|J1,J2,J3,J4,J5,J6|pos|0.000150,-0.420900,0.448390,-0.000025,-0.276936,0.000000|vel|-0.001043,0.260808,-0.219288,0.000000,0.246116,0.000000|eff|-128.906250,-322.265625,-934.570312,112.792969,60.424805,0.000000
cobot_dynamixel_driver/joint_states|name|J1,J2,J3,J4,J5,J6|pos|0.000125,-0.416118,0.443683,-0.000025,-0.272075,0.000000|vel|-0.001043,0.248707,-0.232015,0.000000,0.268866,0.000000|eff|-128.906250,-515.625000,-886.230469,112.792969,60.424805,28.198242
cobot_dynamixel_driver/joint_states|name|J1,J2,J3,J4,J5,J6|pos|0.000100,-0.411286,0.438939,-0.000025,-0.267234,0.000000|vel|-0.001043,0.256218,-0.234310,0.000000,0.277139,0.000000|eff|-128.906250,-290.039062,-1015.136719,112.792969,72.509766,0.000000
cobot_dynamixel_driver/joint_states|name|J1,J2,J3,J4,J5,J6|pos|0.000075,-0.406479,0.434220,-0.000025,-0.262394,0.000000|vel|-0.001043,0.240152,-0.244951,0.000000,0.249218,0.000000|eff|-128.906250,-789.550781,-934.570312,96.679688,76.538086,0.000000
cobot_dynamixel_driver/joint_states|name|J1,J2,J3,J4,J5,J6|pos|0.000063,-0.401672,0.429500,-0.000025,-0.257533,0.000000|vel|-0.001043,0.247246,-0.253297,0.000000,0.259904,0.000000|eff|-145.019531,-386.718750,-1063.476562,112.792969,68.481445,8.056641
cobot_dynamixel_driver/joint_states|name|J1,J2,J3,J4,J5,J6|pos|0.000038,-0.396878,0.424718,-0.000025,-0.252651,0.000000|vel|-0.001043,0.229094,-0.239318,0.000000,0.243703,0.000000|eff|-128.906250,-306.152344,-918.457031,112.792969,76.538086,28.198242
cobot_dynamixel_driver/joint_states|name|J1,J2,J3,J4,J5,J6|pos|0.000025,-0.392133,0.419911,-0.000025,-0.247770,0.000000|vel|-0.001043,0.241196,-0.240987,0.000000,0.223710,0.000000|eff|-145.019531,-563.964844,-982.910156,96.679688,64.453125,28.198242
cobot_dynamixel_driver/joint_states|name|J1,J2,J3,J4,J5,J6|pos|0.000013,-0.387414,0.415079,-0.000025,-0.242888,0.000000|vel|-0.001043,0.245368,-0.253714,0.000000,0.215782,0.000000|eff|-80.566406,-112.792969,-966.796875,112.792969,64.453125,0.000000
cobot_dynamixel_driver/joint_states|name|J1,J2,J3,J4,J5,J6|pos|0.000013,-0.382645,0.410285,-0.000025,-0.238006,0.000000|vel|-0.000417,0.249541,-0.224921,0.000000,0.264729,0.000000|eff|-161.132812,-660.644531,-918.457031,96.679688,72.509766,0.000000
cobot_dynamixel_driver/joint_states|name|J1,J2,J3,J4,J5,J6|pos|0.000013,-0.377587,0.405265,-0.000025,-0.233104,0.000000|vel|-0.000417,0.245368,-0.247872,0.000000,0.222331,0.000000|eff|0.000000,-386.718750,-1240.722656,112.792969,52.368164,20.141602
cobot_dynamixel_driver/joint_states|name|J1,J2,J3,J4,J5,J6|pos|0.000000,-0.373056,0.400683,-0.000025,-0.228180,0.000000|vel|-0.000417,0.248290,-0.253297,0.000000,0.279551,0.000000|eff|-145.019531,692.871094,-886.230469,112.792969,52.368164,20.141602
cobot_dynamixel_driver/joint_states|name|J1,J2,J3,J4,J5,J6|pos|0.000000,-0.368236,0.395889,-0.000025,-0.223299,0.000000|vel|-0.000417,0.254340,-0.248290,0.000000,0.250252,0.000000|eff|0.000000,-467.285156,-999.023438,112.792969,56.396484,0.000000
cobot_dynamixel_driver/joint_states|name|J1,J2,J3,J4,J5,J6|pos|0.000000,-0.363191,0.390907,-0.000025,-0.218438,0.000000|vel|-0.000417,0.237023,-0.277500,0.000000,0.247494,0.000000|eff|0.000000,-145.019531,-1047.363281,112.792969,68.481445,8.056641
cobot_dynamixel_driver/joint_states|name|J1,J2,J3,J4,J5,J6|pos|-0.000013,-0.358672,0.386413,-0.000025,-0.213639,0.000000|vel|-0.000417,0.239109,-0.253088,0.000000,0.254733,0.000000|eff|-161.132812,-563.964844,-902.343750,112.792969,84.594727,12.084961
cobot_dynamixel_driver/joint_states|name|J1,J2,J3,J4,J5,J6|pos|-0.000013,-0.353853,0.381656,-0.000025,-0.208757,0.000000|vel|-0.000417,0.248290,-0.245994,0.000000,0.221297,0.000000|eff|-112.792969,-177.246094,-1015.136719,112.792969,60.424805,20.141602
cobot_dynamixel_driver/joint_states|name|J1,J2,J3,J4,J5,J6|pos|-0.000013,-0.349046,0.376899,-0.000025,-0.203875,0.000000|vel|0.000000,0.243491,-0.235562,0.000000,0.265763,0.000000|eff|-80.566406,-193.359375,-982.910156,96.679688,60.424805,0.000000
cobot_dynamixel_driver/joint_states|name|J1,J2,J3,J4,J5,J6|pos|-0.000013,-0.344276,0.372154,-0.000025,-0.199014,0.000000|vel|0.000000,0.240361,-0.232432,0.000000,0.219918,0.000000|eff|0.000000,-386.718750,-1079.589844,112.792969,64.453125,28.198242
cobot_dynamixel_driver/joint_states|name|J1,J2,J3,J4,J5,J6|pos|-0.000013,-0.339494,0.367285,-0.000025,-0.194174,0.000000|vel|0.000000,0.252462,-0.231598,0.000000,0.260248,0.000000|eff|-128.906250,-161.132812,-934.570312,112.792969,72.509766,20.141602
cobot_dynamixel_driver/joint_states|name|J1,J2,J3,J4,J5,J6|pos|-0.000013,-0.334725,0.362403,-0.000025,-0.189313,0.000000|vel|0.000000,0.238274,-0.244743,0.000000,0.270589,0.000000|eff|-80.566406,-515.625000,-934.570312,112.792969,68.481445,0.000000
cobot_dynamixel_driver/joint_states|name|J1,J2,J3,J4,J5,J6|pos|-0.000013,-0.329492,0.357358,-0.000025,-0.184183,0.000000|vel|0.000000,0.238274,-0.252671,0.000000,0.221987,0.000000|eff|-128.906250,-354.492188,-918.457031,112.792969,68.481445,20.141602
cobot_dynamixel_driver/joint_states|name|J1,J2,J3,J4,J5,J6|pos|-0.000013,-0.325211,0.352801,-0.000025,-0.179528,0.000000|vel|0.000000,0.253506,-0.250585,0.000000,0.286101,0.000000|eff|-161.132812,-628.417969,-902.343750,112.792969,72.509766,0.000000
cobot_dynamixel_driver/joint_states|name|J1,J2,J3,J4,J5,J6|pos|-0.000013,-0.320204,0.348019,-0.000025,-0.174688,0.000000|vel|0.000000,0.237440,-0.260600,0.000000,0.261972,0.000000|eff|-161.132812,-241.699219,-1015.136719,112.792969,72.509766,0.000000
cobot_dynamixel_driver/joint_states|name|J1,J2,J3,J4,J5,J6|pos|-0.000013,-0.315660,0.343237,-0.000025,-0.169827,0.000000|vel|0.000000,0.256218,-0.225964,0.000000,0.232672,0.000000|eff|-161.132812,-692.871094,-918.457031,112.792969,72.509766,0.000000
cobot_dynamixel_driver/joint_states|name|J1,J2,J3,J4,J5,J6|pos|-0.000013,-0.310890,0.338430,-0.000025,-0.164966,0.000000|vel|0.000000,0.254549,-0.244951,0.000000,0.265419,0.000000|eff|-161.132812,-370.605469,-918.457031,96.679688,72.509766,28.198242
cobot_dynamixel_driver/joint_states|name|J1,J2,J3,J4,J5,J6|pos|-0.000013,-0.306133,0.333598,-0.000025,-0.160105,0.000000|vel|0.000000,0.243491,-0.246412,0.000000,0.211646,0.000000|eff|-161.132812,48.339844,-950.683594,112.792969,76.538086,0.000000
