surachairobotic/cobot/cobot_dynamixel_driver/log/2018-12-18T03:15:25.713301_driver_log.txt
cobot_dynamixel_driver/joint_states|name|J1,J2,J3,J4,J5,J6|pos|1.076279,-1.266694,1.296287,-0.001715,-1.107351,-0.000083|vel|0.000000,-0.000000,0.000835,0.000000,0.000000,0.000000|eff|0.000000,0.000000,0.000000,0.000000,0.000000,0.000000
cobot_dynamixel_driver/joint_states|name|J1,J2,J3,J4,J5,J6|pos|1.076279,-1.266694,1.296287,-0.001715,-1.107351,-0.000083|vel|0.000000,-0.000000,-0.000835,0.000000,0.000000,0.000000|eff|0.000000,0.000000,0.000000,0.000000,0.000000,0.000000
cobot_dynamixel_driver/joint_states|name|J1,J2,J3,J4,J5,J6|pos|1.076279,-1.266694,1.296287,-0.001715,-1.107351,-0.000083|vel|0.000000,-0.000000,0.000835,0.000000,0.000000,0.000000|eff|0.000000,0.000000,0.000000,0.000000,0.000000,0.000000
cobot_dynamixel_driver/joint_states|name|J1,J2,J3,J4,J5,J6|pos|1.076279,-1.266694,1.296287,-0.001715,-1.107351,-0.000083|vel|0.000000,-0.000000,0.000835,0.000000,0.000000,0.000000|eff|0.000000,0.000000,0.000000,0.000000,0.000000,0.000000
cobot_dynamixel_driver/joint_states|name|J1,J2,J3,J4,J5,J6|pos|1.076279,-1.266694,1.296287,-0.001715,-1.107351,-0.000083|vel|0.000000,-0.000000,0.000835,0.000000,0.000000,0.000000|eff|0.000000,0.000000,0.000000,0.000000,0.000000,0.000000
cobot_dynamixel_driver/joint_states|name|J1,J2,J3,J4,J5,J6|pos|1.076279,-1.266694,1.296287,-0.001715,-1.107351,-0.000083|vel|0.000000,-0.000000,-0.000835,0.000000,0.000000,0.000000|eff|0.000000,0.000000,0.000000,0.000000,0.000000,0.000000
cobot_dynamixel_driver/joint_states|name|J1,J2,J3,J4,J5,J6|pos|1.076279,-1.266694,1.296300,-0.001715,-1.107351,-0.000083|vel|0.000000,-0.000000,0.000835,0.000000,0.000000,0.000000|eff|0.000000,0.000000,0.000000,0.000000,0.000000,0.000000
cobot_dynamixel_driver/joint_states|name|J1,J2,J3,J4,J5,J6|pos|1.076279,-1.266694,1.296287,-0.001715,-1.107351,-0.000083|vel|0.000000,-0.000000,-0.000835,0.000000,0.000000,0.000000|eff|0.000000,0.000000,0.000000,0.000000,0.000000,0.000000
cobot_dynamixel_driver/joint_states|name|J1,J2,J3,J4,J5,J6|pos|1.076279,-1.266694,1.296300,-0.001715,-1.107351,-0.000083|vel|0.000000,-0.000000,0.000626,0.000000,0.000000,0.000000|eff|0.000000,0.000000,0.000000,0.000000,0.000000,0.000000
cobot_dynamixel_driver/joint_states|name|J1,J2,J3,J4,J5,J6|pos|1.076279,-1.266694,1.296300,-0.001715,-1.107351,-0.000083|vel|0.000000,-0.000000,0.000626,0.000000,0.000000,0.000000|eff|0.000000,0.000000,0.000000,0.000000,0.000000,0.000000
cobot_dynamixel_driver/joint_states|name|J1,J2,J3,J4,J5,J6|pos|1.076279,-1.266694,1.296287,-0.001715,-1.107351,-0.000083|vel|0.000000,-0.000000,-0.000626,0.000000,0.000000,0.000000|eff|0.000000,0.000000,0.000000,0.000000,0.000000,0.000000
cobot_dynamixel_driver/joint_states|name|J1,J2,J3,J4,J5,J6|pos|1.076279,-1.266694,1.296287,-0.001715,-1.107351,-0.000083|vel|0.000000,-0.000000,-0.000626,0.000000,0.000000,0.000000|eff|0.000000,0.000000,0.000000,0.000000,0.000000,0.000000
cobot_dynamixel_driver/joint_states|name|J1,J2,J3,J4,J5,J6|pos|1.076279,-1.266694,1.296287,-0.001715,-1.107351,-0.000083|vel|0.000000,-0.000000,-0.000835,0.000000,0.000000,0.000000|eff|0.000000,0.000000,0.000000,0.000000,0.000000,0.000000
cobot_dynamixel_driver/joint_states|name|J1,J2,J3,J4,J5,J6|pos|1.076279,-1.266694,1.296287,-0.001715,-1.107351,-0.000083|vel|0.000000,-0.000000,-0.000835,0.000000,0.000000,0.000000|eff|0.000000,0.000000,0.000000,0.000000,0.000000,0.000000
cobot_dynamixel_driver/joint_states|name|J1,J2,J3,J4,J5,J6|pos|1.076279,-1.266694,1.296287,-0.001715,-1.107351,-0.000083|vel|0.000000,-0.000000,0.000835,0.000000,0.000000,0.000000|eff|0.000000,0.000000,0.000000,0.000000,0.000000,0.000000
cobot_dynamixel_driver/joint_states|name|J1,J2,J3,J4,J5,J6|pos|1.076279,-1.266694,1.296300,-0.001715,-1.107351,-0.000083|vel|0.000000,-0.000000,-0.000417,0.000000,0.000000,0.000000|eff|0.000000,0.000000,0.000000,0.000000,0.000000,0.000000
cobot_dynamixel_driver/joint_states|name|J1,J2,J3,J4,J5,J6|pos|1.076279,-1.266694,1.296300,-0.001715,-1.107351,-0.000083|vel|0.000000,-0.000000,0.000417,0.000000,0.000000,0.000000|eff|0.000000,0.000000,0.000000,0.000000,0.000000,0.000000
cobot_dynamixel_driver/joint_states|name|J1,J2,J3,J4,J5,J6|pos|1.076279,-1.266694,1.296287,-0.001715,-1.107351,-0.000083|vel|0.000000,-0.000000,-0.000417,0.000000,0.000000,0.000000|eff|0.000000,0.000000,-32.226562,0.000000,0.000000,0.000000
cobot_dynamixel_driver/joint_states|name|J1,J2,J3,J4,J5,J6|pos|1.076279,-1.266694,1.296300,-0.001715,-1.107351,-0.000083|vel|0.000000,-0.000000,0.000835,0.000000,0.000000,0.000000|eff|0.000000,0.000000,0.000000,0.000000,0.000000,0.000000
cobot_dynamixel_driver/joint_states|name|J1,J2,J3,J4,J5,J6|pos|1.076279,-1.266694,1.296287,-0.001715,-1.107351,-0.000083|vel|0.000000,-0.000000,-0.000417,0.000000,0.000000,0.000000|eff|0.000000,0.000000,0.000000,0.000000,0.000000,0.000000
cobot_dynamixel_driver/joint_states|name|J1,J2,J3,J4,J5,J6|pos|1.076279,-1.266694,1.296287,-0.001715,-1.107351,-0.000083|vel|0.000000,-0.000000,0.000417,0.000000,0.000000,0.000000|eff|0.000000,0.000000,-32.226562,0.000000,0.000000,0.000000
cobot_dynamixel_driver/joint_states|name|J1,J2,J3,J4,J5,J6|pos|1.076279,-1.266694,1.296287,-0.001715,-1.107351,-0.000083|vel|0.000000,-0.000000,0.000000,0.000000,0.000000,0.000000|eff|0.000000,0.000000,-32.226562,0.000000,0.000000,0.000000
cobot_dynamixel_driver/joint_states|name|J1,J2,J3,J4,J5,J6|pos|1.076279,-1.266694,1.296287,-0.001715,-1.107351,-0.000083|vel|0.000000,-0.000000,0.000000,0.000000,0.000000,0.000000|eff|0.000000,0.000000,-32.226562,0.000000,0.000000,0.000000
cobot_dynamixel_driver/joint_states|name|J1,J2,J3,J4,J5,J6|pos|1.076279,-1.266694,1.296287,-0.001715,-1.107351,-0.000083|vel|0.000000,-0.000000,0.000000,0.000000,0.000000,0.000000|eff|0.000000,0.000000,0.000000,0.000000,0.000000,0.000000
cobot_dynamixel_driver/joint_states|name|J1,J2,J3,J4,J5,J6|pos|1.076279,-1.266694,1.296287,-0.001715,-1.107351,-0.000083|vel|0.000000,-0.000000,0.000000,0.000000,0.000000,0.000000|eff|0.000000,0.000000,0.000000,0.000000,0.000000,0.000000
cobot_dynamixel_driver/joint_states|name|J1,J2,J3,J4,J5,J6|pos|1.076279,-1.266694,1.296287,-0.001715,-1.107351,-0.000083|vel|0.000000,-0.000000,0.000000,0.000000,0.000000,0.000000|eff|0.000000,0.000000,-32.226562,0.000000,0.000000,0.000000
cobot_dynamixel_driver/joint_states|name|J1,J2,J3,J4,J5,J6|pos|1.076279,-1.266694,1.296287,-0.001715,-1.107351,-0.000083|vel|0.000000,-0.000000,0.000000,0.000000,0.000000,0.000000|eff|0.000000,0.000000,0.000000,0.000000,0.000000,0.000000
cobot_dynamixel_driver/joint_states|name|J1,J2,J3,J4,J5,J6|pos|1.076279,-1.266694,1.296287,-0.001715,-1.107351,-0.000083|vel|0.000000,-0.000000,0.000000,0.000000,0.000000,0.000000|eff|0.000000,0.000000,-32.226562,0.000000,0.000000,0.000000
cobot_dynamixel_driver/joint_states|name|J1,J2,J3,J4,J5,J6|pos|1.076279,-1.266694,1.296287,-0.001715,-1.107351,-0.000083|vel|0.000000,-0.000000,0.000000,0.000000,0.000000,0.000000|eff|0.000000,0.000000,-32.226562,0.000000,0.000000,0.000000
cobot_dynamixel_driver/joint_states|name|J1,J2,J3,J4,J5,J6|pos|1.076279,-1.266694,1.296287,-0.001715,-1.107351,-0.000083|vel|0.000000,-0.000000,0.000000,0.000000,0.000000,0.000000|eff|0.000000,0.000000,-32.226562,0.000000,0.000000,0.000000
cobot_dynamixel_driver/joint_states|name|J1,J2,J3,J4,J5,J6|pos|1.076279,-1.266694,1.296287,-0.001715,-1.107351,-0.000083|vel|0.000000,-0.000000,0.000000,0.000000,0.000000,0.000000|eff|0.000000,0.000000,-32.226562,0.000000,0.000000,0.000000
cobot_dynamixel_driver/joint_states|name|J1,J2,J3,J4,J5,J6|pos|1.076279,-1.266694,1.296287,-0.001715,-1.107351,-0.000083|vel|0.000000,-0.000000,0.000000,0.000000,0.000000,0.000000|eff|0.000000,0.000000,-32.226562,0.000000,0.000000,0.000000
cobot_dynamixel_driver/joint_states|name|J1,J2,J3,J4,J5,J6|pos|1.076279,-1.266694,1.296287,-0.001715,-1.107351,-0.000083|vel|0.000000,-0.000000,0.000000,0.000000,0.000000,0.000000|eff|0.000000,0.000000,-32.226562,0.000000,0.000000,0.000000
cobot_dynamixel_driver/joint_states|name|J1,J2,J3,J4,J5,J6|pos|1.076279,-1.266694,1.296287,-0.001715,-1.107351,-0.000083|vel|0.000000,-0.000000,0.000000,0.000000,0.000000,0.000000|eff|0.000000,0.000000,-32.226562,0.000000,0.000000,0.000000
cobot_dynamixel_driver/joint_states|name|J1,J2,J3,J4,J5,J6|pos|1.076279,-1.266694,1.296287,-0.001715,-1.107351,-0.000083|vel|0.000000,-0.000000,0.000000,0.000000,0.000000,0.000000|eff|0.000000,0.000000,0.000000,0.000000,0.000000,0.000000
cobot_dynamixel_driver/goal|-:J1,J2,J3,J4,J5,J6:1.047198,0.000000,0.000000,0.000000,0.000000,0.000000:0.500000,0.500000,0.500000,0.500000,0.500000,0.500000:pos_vel_
cobot_dynamixel_driver/goal|-:J1,J2,J3,J4,J5,J6:1.047198,0.000000,0.000000,0.000000,0.000000,0.000000:0.500000,0.500000,0.500000,0.500000,0.500000,0.500000:pos_vel_
cobot_dynamixel_driver/goal|-:J1,J2,J3,J4,J5,J6:1.047198,0.000000,0.000000,0.000000,0.000000,0.000000:0.500000,0.500000,0.500000,0.500000,0.500000,0.500000:pos_vel_
cobot_dynamixel_driver/goal|-:J1,J2,J3,J4,J5,J6:1.047198,0.000000,0.000000,0.000000,0.000000,0.000000:0.500000,0.500000,0.500000,0.500000,0.500000,0.500000:pos_vel_
cobot_dynamixel_driver/goal|-:J1,J2,J3,J4,J5,J6:1.047198,0.000000,0.000000,0.000000,0.000000,0.000000:0.500000,0.500000,0.500000,0.500000,0.500000,0.500000:pos_vel_
cobot_dynamixel_driver/goal|-:J1,J2,J3,J4,J5,J6:1.047198,0.000000,0.000000,0.000000,0.000000,0.000000:0.500000,0.500000,0.500000,0.500000,0.500000,0.500000:pos_vel_
cobot_dynamixel_driver/goal|-:J1,J2,J3,J4,J5,J6:1.047198,0.000000,0.000000,0.000000,0.000000,0.000000:0.500000,0.500000,0.500000,0.500000,0.500000,0.500000:pos_vel_
cobot_dynamixel_driver/goal|-:J1,J2,J3,J4,J5,J6:1.047198,0.000000,0.000000,0.000000,0.000000,0.000000:0.500000,0.500000,0.500000,0.500000,0.500000,0.500000:pos_vel_
cobot_dynamixel_driver/goal|-:J1,J2,J3,J4,J5,J6:1.047198,0.000000,0.000000,0.000000,0.000000,0.000000:0.500000,0.500000,0.500000,0.500000,0.500000,0.500000:pos_vel_
cobot_dynamixel_driver/goal|-:J1,J2,J3,J4,J5,J6:1.047198,0.000000,0.000000,0.000000,0.000000,0.000000:0.500000,0.500000,0.500000,0.500000,0.500000,0.500000:pos_vel_
cobot_dynamixel_driver/joint_states|name|J1,J2,J3,J4,J5,J6|pos|1.076279,-1.266694,1.294510,-0.001715,-1.107351,-0.000083|vel|0.000000,-0.000000,0.000835,0.000000,0.000000,0.000000|eff|0.000000,0.000000,0.000000,0.000000,0.000000,0.000000
cobot_dynamixel_driver/goal|-:J1,J2,J3,J4,J5,J6:1.047198,0.000000,0.000000,0.000000,0.000000,0.000000:0.500000,0.500000,0.500000,0.500000,0.500000,0.500000:pos_vel_
cobot_dynamixel_driver/goal|-:J1,J2,J3,J4,J5,J6:1.047198,0.000000,0.000000,0.000000,0.000000,0.000000:0.500000,0.500000,0.500000,0.500000,0.500000,0.500000:pos_vel_
cobot_dynamixel_driver/goal|-:J1,J2,J3,J4,J5,J6:1.047198,0.000000,0.000000,0.000000,0.000000,0.000000:0.500000,0.500000,0.500000,0.500000,0.500000,0.500000:pos_vel_
cobot_dynamixel_driver/goal|-:J1,J2,J3,J4,J5,J6:1.047198,0.000000,0.000000,0.000000,0.000000,0.000000:0.500000,0.500000,0.500000,0.500000,0.500000,0.500000:pos_vel_
cobot_dynamixel_driver/goal|-:J1,J2,J3,J4,J5,J6:1.047198,0.000000,0.000000,0.000000,0.000000,0.000000:0.500000,0.500000,0.500000,0.500000,0.500000,0.500000:pos_vel_
cobot_dynamixel_driver/goal|-:J1,J2,J3,J4,J5,J6:1.047198,0.000000,0.000000,0.000000,0.000000,0.000000:0.500000,0.500000,0.500000,0.500000,0.500000,0.500000:pos_vel_
cobot_dynamixel_driver/goal|-:J1,J2,J3,J4,J5,J6:1.047198,0.000000,0.000000,0.000000,0.000000,0.000000:0.500000,0.500000,0.500000,0.500000,0.500000,0.500000:pos_vel_
cobot_dynamixel_driver/goal|-:J1,J2,J3,J4,J5,J6:1.047198,0.000000,0.000000,0.000000,0.000000,0.000000:0.500000,0.500000,0.500000,0.500000,0.500000,0.500000:pos_vel_
cobot_dynamixel_driver/goal|-:J1,J2,J3,J4,J5,J6:1.047198,0.000000,0.000000,0.000000,0.000000,0.000000:0.500000,0.500000,0.500000,0.500000,0.500000,0.500000:pos_vel_
cobot_dynamixel_driver/goal|-:J1,J2,J3,J4,J5,J6:1.047198,0.000000,0.000000,0.000000,0.000000,0.000000:0.500000,0.500000,0.500000,0.500000,0.500000,0.500000:pos_vel_
cobot_dynamixel_driver/goal|-:J1,J2,J3,J4,J5,J6:1.047198,0.000000,0.000000,0.000000,0.000000,0.000000:0.500000,0.500000,0.500000,0.500000,0.500000,0.500000:pos_vel_
cobot_dynamixel_driver/goal|-:J1,J2,J3,J4,J5,J6:1.047198,0.000000,0.000000,0.000000,0.000000,0.000000:0.500000,0.500000,0.500000,0.500000,0.500000,0.500000:pos_vel_
cobot_dynamixel_driver/goal|-:J1,J2,J3,J4,J5,J6:1.047198,0.000000,0.000000,0.000000,0.000000,0.000000:0.500000,0.500000,0.500000,0.500000,0.500000,0.500000:pos_vel_
cobot_dynamixel_driver/goal|-:J1,J2,J3,J4,J5,J6:1.047198,0.000000,0.000000,0.000000,0.000000,0.000000:0.500000,0.500000,0.500000,0.500000,0.500000,0.500000:pos_vel_
cobot_dynamixel_driver/goal|-:J1,J2,J3,J4,J5,J6:1.047198,0.000000,0.000000,0.000000,0.000000,0.000000:0.500000,0.500000,0.500000,0.500000,0.500000,0.500000:pos_vel_
cobot_dynamixel_driver/goal|-:J1,J2,J3,J4,J5,J6:1.047198,0.000000,0.000000,0.000000,0.000000,0.000000:0.500000,0.500000,0.500000,0.500000,0.500000,0.500000:pos_vel_
cobot_dynamixel_driver/goal|-:J1,J2,J3,J4,J5,J6:1.047198,0.000000,0.000000,0.000000,0.000000,0.000000:0.500000,0.500000,0.500000,0.500000,0.500000,0.500000:pos_vel_
cobot_dynamixel_driver/goal|-:J1,J2,J3,J4,J5,J6:1.047198,0.000000,0.000000,0.000000,0.000000,0.000000:0.500000,0.500000,0.500000,0.500000,0.500000,0.500000:pos_vel_
cobot_dynamixel_driver/goal|-:J1,J2,J3,J4,J5,J6:1.047198,0.000000,0.000000,0.000000,0.000000,0.000000:0.500000,0.500000,0.500000,0.500000,0.500000,0.500000:pos_vel_
cobot_dynamixel_driver/goal|-:J1,J2,J3,J4,J5,J6:1.047198,0.000000,0.000000,0.000000,0.000000,0.000000:0.500000,0.500000,0.500000,0.500000,0.500000,0.500000:pos_vel_
cobot_dynamixel_driver/goal|-:J1,J2,J3,J4,J5,J6:1.047198,0.000000,0.000000,0.000000,0.000000,0.000000:0.500000,0.500000,0.500000,0.500000,0.500000,0.500000:pos_vel_
cobot_dynamixel_driver/goal|-:J1,J2,J3,J4,J5,J6:1.047198,0.000000,0.000000,0.000000,0.000000,0.000000:0.500000,0.500000,0.500000,0.500000,0.500000,0.500000:pos_vel_
cobot_dynamixel_driver/goal|-:J1,J2,J3,J4,J5,J6:1.047198,0.000000,0.000000,0.000000,0.000000,0.000000:0.500000,0.500000,0.500000,0.500000,0.500000,0.500000:pos_vel_
cobot_dynamixel_driver/goal|-:J1,J2,J3,J4,J5,J6:1.047198,0.000000,0.000000,0.000000,0.000000,0.000000:0.500000,0.500000,0.500000,0.500000,0.500000,0.500000:pos_vel_
cobot_dynamixel_driver/goal|-:J1,J2,J3,J4,J5,J6:1.047198,0.000000,0.000000,0.000000,0.000000,0.000000:0.500000,0.500000,0.500000,0.500000,0.500000,0.500000:pos_vel_
cobot_dynamixel_driver/goal|-:J1,J2,J3,J4,J5,J6:1.047198,0.000000,0.000000,0.000000,0.000000,0.000000:0.500000,0.500000,0.500000,0.500000,0.500000,0.500000:pos_vel_
cobot_dynamixel_driver/goal|-:J1,J2,J3,J4,J5,J6:1.047198,0.000000,0.000000,0.000000,0.000000,0.000000:0.500000,0.500000,0.500000,0.500000,0.500000,0.500000:pos_vel_
cobot_dynamixel_driver/goal|-:J1,J2,J3,J4,J5,J6:1.047198,0.000000,0.000000,0.000000,0.000000,0.000000:0.500000,0.500000,0.500000,0.500000,0.500000,0.500000:pos_vel_
cobot_dynamixel_driver/goal|-:J1,J2,J3,J4,J5,J6:1.047198,0.000000,0.000000,0.000000,0.000000,0.000000:0.500000,0.500000,0.500000,0.500000,0.500000,0.500000:pos_vel_
cobot_dynamixel_driver/joint_states|name|J1,J2,J3,J4,J5,J6|pos|1.068781,-1.259371,1.286786,-0.001189,-1.095436,-0.000083|vel|-0.160658,0.192372,-0.195502,0.006677,0.270589,0.000000|eff|-515.625000,-1627.441406,-1450.195312,112.792969,72.509766,0.000000
cobot_dynamixel_driver/joint_states|name|J1,J2,J3,J4,J5,J6|pos|1.057615,-1.230617,1.256680,-0.000739,-1.065194,-0.000083|vel|-0.071566,0.361376,-0.397889,0.003756,0.309540,0.000000|eff|-338.378906,-1192.382812,-1047.363281,177.246094,40.283203,0.000000
cobot_dynamixel_driver/joint_states|name|J1,J2,J3,J4,J5,J6|pos|1.052232,-1.190684,1.217235,-0.000363,-1.026367,-0.000083|vel|-0.035679,0.449008,-0.425639,0.002921,0.372276,0.000000|eff|-257.812500,-902.343750,-1579.101562,177.246094,36.254883,0.000000
cobot_dynamixel_driver/joint_states|name|J1,J2,J3,J4,J5,J6|pos|1.049653,-1.146557,1.173496,-0.000175,-0.983714,-0.000083|vel|-0.015857,0.451720,-0.399141,0.002295,0.446731,0.000000|eff|-193.359375,-1546.875000,-1530.761719,96.679688,40.283203,0.000000
cobot_dynamixel_driver/joint_states|name|J1,J2,J3,J4,J5,J6|pos|1.048426,-1.100214,1.127354,-0.000125,-0.937731,-0.000083|vel|-0.008346,0.505551,-0.446921,0.000209,0.432253,0.000000|eff|-273.925781,-1885.253906,-999.023438,112.792969,32.226562,24.169922
cobot_dynamixel_driver/joint_states|name|J1,J2,J3,J4,J5,J6|pos|1.047763,-1.052708,1.080160,-0.000088,-0.890857,-0.000083|vel|-0.005425,0.503256,-0.488650,0.000209,0.518773,0.000000|eff|-225.585938,-1337.402344,-805.664062,177.246094,40.283203,24.169922
cobot_dynamixel_driver/joint_states|name|J1,J2,J3,J4,J5,J6|pos|1.047425,-1.004901,1.032378,-0.000025,-0.843447,-0.000083|vel|-0.001878,0.413120,-0.532049,0.000835,0.414674,0.000000|eff|-306.152344,-966.796875,-854.003906,161.132812,12.084961,24.169922
cobot_dynamixel_driver/joint_states|name|J1,J2,J3,J4,J5,J6|pos|1.047250,-0.956693,0.984258,-0.000025,-0.795663,-0.000083|vel|-0.001252,0.486147,-0.456519,0.000209,0.518428,0.000000|eff|-241.699219,-1498.535156,-789.550781,128.906250,44.311523,24.169922
cobot_dynamixel_driver/joint_states|name|J1,J2,J3,J4,J5,J6|pos|1.047225,-0.908373,0.935888,-0.000013,-0.747797,-0.000083|vel|-0.001878,0.489694,-0.486147,0.000000,0.492576,0.000000|eff|-48.339844,-2223.632812,-1305.175781,128.906250,40.283203,28.198242
cobot_dynamixel_driver/joint_states|name|J1,J2,J3,J4,J5,J6|pos|1.047225,-0.859990,0.887567,-0.000013,-0.699869,-0.000083|vel|0.000000,0.505759,-0.461109,0.000000,0.510500,0.000000|eff|-48.339844,-563.964844,-1756.347656,128.906250,44.311523,36.254883
cobot_dynamixel_driver/joint_states|name|J1,J2,J3,J4,J5,J6|pos|1.047212,-0.811469,0.839172,-0.000013,-0.651796,-0.000083|vel|0.000000,0.473419,-0.505551,0.000000,0.492231,0.000000|eff|-193.359375,-1998.046875,-741.210938,112.792969,60.424805,32.226562
cobot_dynamixel_driver/joint_states|name|J1,J2,J3,J4,J5,J6|pos|1.047200,-0.763048,0.790814,-0.000013,-0.603868,0.000021|vel|0.000000,0.480513,-0.504716,0.000000,0.505330,0.003447|eff|-209.472656,-435.058594,-1385.742188,128.906250,56.396484,28.198242
cobot_dynamixel_driver/joint_states|name|J1,J2,J3,J4,J5,J6|pos|1.047200,-0.714640,0.742393,-0.000013,-0.555754,0.000041|vel|0.000000,0.520782,-0.420840,0.000000,0.547728,0.004136|eff|0.000000,-1434.082031,-805.664062,112.792969,28.198242,-28.198242
cobot_dynamixel_driver/joint_states|name|J1,J2,J3,J4,J5,J6|pos|1.047187,-0.666157,0.693785,-0.000013,-0.507723,0.000041|vel|0.000000,0.518904,-0.505968,0.000000,0.527046,0.000000|eff|-193.359375,-354.492188,-1272.949219,128.906250,24.169922,0.000000
cobot_dynamixel_driver/joint_states|name|J1,J2,J3,J4,J5,J6|pos|1.047175,-0.617762,0.645390,-0.000013,-0.459671,0.000041|vel|0.000000,0.513479,-0.522243,0.000000,0.523254,0.000000|eff|-209.472656,-902.343750,-950.683594,128.906250,52.368164,0.000000
cobot_dynamixel_driver/joint_states|name|J1,J2,J3,J4,J5,J6|pos|1.047175,-0.569204,0.596969,0.000000,-0.411743,0.000041|vel|0.000000,0.519947,-0.489276,0.000000,0.548417,0.000000|eff|-145.019531,-563.964844,-1127.929688,128.906250,32.226562,0.000000
cobot_dynamixel_driver/joint_states|name|J1,J2,J3,J4,J5,J6|pos|1.047162,-0.520783,0.548524,0.000000,-0.363628,0.000041|vel|0.000000,0.504299,-0.516192,0.000000,0.486027,0.000000|eff|-193.359375,-580.078125,-1434.082031,128.906250,76.538086,-16.113281
cobot_dynamixel_driver/joint_states|name|J1,J2,J3,J4,J5,J6|pos|1.047150,-0.472350,0.500003,0.000000,-0.315556,0.000041|vel|0.000000,0.505759,-0.439410,0.000000,0.419844,0.000000|eff|-48.339844,-2207.519531,-982.910156,112.792969,72.509766,-16.113281
cobot_dynamixel_driver/joint_states|name|J1,J2,J3,J4,J5,J6|pos|1.047137,-0.423867,0.451470,0.000000,-0.267545,0.000041|vel|0.000000,0.477175,-0.419380,0.000000,0.432943,0.000000|eff|-193.359375,-193.359375,-1192.382812,128.906250,72.509766,0.000000
cobot_dynamixel_driver/joint_states|name|J1,J2,J3,J4,J5,J6|pos|1.047125,-0.375459,0.403137,0.000000,-0.219410,0.000041|vel|0.000000,0.464656,-0.488233,0.000000,0.444663,0.000000|eff|-96.679688,-1595.214844,-773.437500,128.906250,76.538086,-32.226562
cobot_dynamixel_driver/joint_states|name|J1,J2,J3,J4,J5,J6|pos|1.047125,-0.326913,0.354804,0.000000,-0.171337,0.000041|vel|0.000000,0.475714,-0.457562,0.000000,0.496023,0.000000|eff|0.000000,48.339844,-1385.742188,112.792969,72.509766,-32.226562
cobot_dynamixel_driver/joint_states|name|J1,J2,J3,J4,J5,J6|pos|1.047125,-0.277942,0.306133,0.000000,-0.123306,0.000041|vel|0.000000,0.478635,-0.498874,0.000000,0.521875,0.000000|eff|0.000000,-1224.609375,-982.910156,128.906250,76.538086,-16.113281
cobot_dynamixel_driver/joint_states|name|J1,J2,J3,J4,J5,J6|pos|1.047125,-0.229885,0.257763,0.000000,-0.075336,0.000041|vel|0.000000,0.471959,-0.509932,0.001878,0.491886,0.000000|eff|-193.359375,177.246094,-1401.855469,128.906250,84.594727,-32.226562
cobot_dynamixel_driver/joint_states|name|J1,J2,J3,J4,J5,J6|pos|1.047125,-0.181026,0.209242,0.000000,-0.038247,0.000041|vel|0.000000,0.508889,-0.466951,-0.000835,0.255767,0.000000|eff|-96.679688,-1160.156250,-676.757812,64.453125,40.283203,0.000000
cobot_dynamixel_driver/joint_states|name|J1,J2,J3,J4,J5,J6|pos|1.047125,-0.133069,0.160809,0.000000,-0.019796,0.000041|vel|0.000000,0.518696,-0.493867,0.001252,0.152357,0.000000|eff|-96.679688,451.171875,-1321.289062,112.792969,68.481445,0.000000
cobot_dynamixel_driver/goal|-:J1,J2,J3,J4,J5,J6:1.047198,0.000000,0.000000,0.000000,0.000000,0.000000:0.500000,0.500000,0.500000,0.500000,0.500000,0.500000:pos_vel_
cobot_dynamixel_driver/joint_states|name|J1,J2,J3,J4,J5,J6|pos|1.047125,-0.084661,0.112426,0.000000,-0.010157,0.000041|vel|0.000000,0.475923,-0.512436,0.000626,0.067216,0.000000|eff|0.000000,-370.605469,-1176.269531,128.906250,76.538086,0.000000
cobot_dynamixel_driver/joint_states|name|J1,J2,J3,J4,J5,J6|pos|1.047125,-0.042299,0.064256,0.000000,-0.005337,0.000041|vel|0.000000,0.324863,-0.496579,-0.001043,0.031023,0.000000|eff|0.000000,886.230469,-435.058594,112.792969,88.623047,-16.113281
cobot_dynamixel_driver/joint_states|name|J1,J2,J3,J4,J5,J6|pos|1.047125,-0.021118,0.032360,0.000000,-0.002772,0.000041|vel|0.000000,0.137289,-0.195711,0.001252,0.016890,0.000000|eff|0.000000,306.152344,-837.890625,64.453125,92.651367,0.000000
cobot_dynamixel_driver/joint_states|name|J1,J2,J3,J4,J5,J6|pos|1.047125,-0.010916,0.016649,0.000000,-0.001407,0.000041|vel|0.000000,0.077617,-0.116216,0.000626,0.008617,0.000000|eff|0.000000,177.246094,-886.230469,0.000000,80.566406,0.000000
cobot_dynamixel_driver/joint_states|name|J1,J2,J3,J4,J5,J6|pos|1.047125,-0.005571,0.008575,0.000000,-0.000724,0.000041|vel|0.000000,0.039852,-0.060299,-0.000209,0.005170,0.000000|eff|0.000000,257.812500,-805.664062,112.792969,76.538086,0.000000
cobot_dynamixel_driver/joint_states|name|J1,J2,J3,J4,J5,J6|pos|1.047137,-0.002917,0.004644,0.000000,-0.000476,0.000041|vel|0.000000,0.018778,-0.030045,0.000209,0.005515,0.000000|eff|0.000000,145.019531,-982.910156,112.792969,80.566406,0.000000
cobot_dynamixel_driver/joint_states|name|J1,J2,J3,J4,J5,J6|pos|1.047137,-0.001402,0.002353,0.000000,-0.000476,0.000041|vel|0.000000,0.010850,-0.018152,0.000000,0.005515,0.000000|eff|0.000000,402.832031,-918.457031,112.792969,52.368164,0.000000
cobot_dynamixel_driver/joint_states|name|J1,J2,J3,J4,J5,J6|pos|1.047137,-0.000801,0.001189,0.000000,-0.000434,0.000041|vel|0.000000,0.005633,-0.014188,0.000000,0.000000,0.000000|eff|0.000000,257.812500,-870.117188,80.566406,84.594727,-32.226562
cobot_dynamixel_driver/joint_states|name|J1,J2,J3,J4,J5,J6|pos|1.047137,-0.000338,0.000764,0.000000,-0.000269,0.000041|vel|0.000000,0.004590,-0.000835,0.000000,0.002413,0.000000|eff|0.000000,225.585938,-918.457031,128.906250,96.679688,-12.084961
cobot_dynamixel_driver/joint_states|name|J1,J2,J3,J4,J5,J6|pos|1.047137,-0.000050,0.000689,0.000000,-0.000186,0.000041|vel|0.000000,0.001669,-0.002921,0.000000,0.002758,0.000000|eff|0.000000,273.925781,-1015.136719,128.906250,68.481445,0.000000
cobot_dynamixel_driver/joint_states|name|J1,J2,J3,J4,J5,J6|pos|1.047137,-0.000038,-0.000075,0.000000,-0.000186,0.000041|vel|0.000000,0.001669,-0.003756,0.000000,0.000000,0.000000|eff|0.000000,370.605469,-837.890625,64.453125,72.509766,-12.084961
cobot_dynamixel_driver/joint_states|name|J1,J2,J3,J4,J5,J6|pos|1.047137,-0.000038,-0.000088,0.000000,-0.000165,0.000041|vel|0.000000,-0.000000,-0.000626,0.000000,0.000000,0.000000|eff|0.000000,386.718750,-789.550781,112.792969,80.566406,-12.084961
cobot_dynamixel_driver/joint_states|name|J1,J2,J3,J4,J5,J6|pos|1.047137,-0.000038,-0.000088,0.000000,-0.000062,0.000041|vel|0.000000,-0.000000,0.000000,0.000000,0.001723,0.000000|eff|0.000000,338.378906,-789.550781,64.453125,88.623047,0.000000
cobot_dynamixel_driver/joint_states|name|J1,J2,J3,J4,J5,J6|pos|1.047150,-0.000038,-0.000088,0.000000,-0.000021,0.000041|vel|0.000000,-0.000000,0.000000,0.000000,0.002068,0.000000|eff|0.000000,273.925781,-741.210938,128.906250,64.453125,-16.113281
cobot_dynamixel_driver/joint_states|name|J1,J2,J3,J4,J5,J6|pos|1.047150,-0.000025,-0.000088,0.000000,-0.000021,0.000041|vel|0.000000,-0.000000,0.000000,0.000000,0.000000,0.000000|eff|0.000000,257.812500,-789.550781,64.453125,60.424805,-8.056641
cobot_dynamixel_driver/joint_states|name|J1,J2,J3,J4,J5,J6|pos|1.047150,-0.000025,-0.000088,0.000000,-0.000021,0.000041|vel|0.000000,-0.000000,0.000000,0.000000,0.000000,0.000000|eff|0.000000,257.812500,-757.324219,112.792969,60.424805,-24.169922
cobot_dynamixel_driver/joint_states|name|J1,J2,J3,J4,J5,J6|pos|1.047150,-0.000025,-0.000088,0.000000,-0.000021,0.000041|vel|0.000000,-0.000000,0.000000,0.000000,0.000000,0.000000|eff|0.000000,257.812500,-708.984375,80.566406,60.424805,-24.169922
cobot_dynamixel_driver/joint_states|name|J1,J2,J3,J4,J5,J6|pos|1.047162,-0.000025,-0.000088,0.000000,-0.000021,0.000041|vel|0.000000,-0.000000,0.000000,0.000000,0.000000,0.000000|eff|0.000000,257.812500,-789.550781,112.792969,64.453125,-28.198242
cobot_dynamixel_driver/joint_states|name|J1,J2,J3,J4,J5,J6|pos|1.047187,-0.000025,-0.000075,0.000000,-0.000021,0.000041|vel|0.000000,-0.000000,0.000000,0.000000,0.000000,0.000000|eff|0.000000,257.812500,-692.871094,64.453125,56.396484,0.000000
cobot_dynamixel_driver/joint_states|name|J1,J2,J3,J4,J5,J6|pos|1.047200,-0.000025,-0.000075,0.000000,-0.000021,0.000041|vel|0.000000,-0.000000,0.000000,0.000000,0.000000,0.000000|eff|0.000000,257.812500,-708.984375,112.792969,56.396484,-16.113281
cobot_dynamixel_driver/joint_states|name|J1,J2,J3,J4,J5,J6|pos|1.047200,-0.000025,-0.000075,0.000000,-0.000021,0.000041|vel|0.000000,-0.000000,0.000000,0.000000,0.000000,0.000000|eff|0.000000,257.812500,-692.871094,64.453125,60.424805,-16.113281
cobot_dynamixel_driver/joint_states|name|J1,J2,J3,J4,J5,J6|pos|1.047212,-0.000013,-0.000075,0.000000,-0.000021,0.000041|vel|0.000000,-0.000000,0.000000,0.000000,0.000000,0.000000|eff|96.679688,257.812500,-692.871094,112.792969,64.453125,-12.084961
cobot_dynamixel_driver/joint_states|name|J1,J2,J3,J4,J5,J6|pos|1.047212,-0.000013,-0.000075,0.000000,-0.000021,0.000041|vel|0.000000,-0.000000,0.000000,0.000000,0.000000,0.000000|eff|128.906250,257.812500,-692.871094,128.906250,60.424805,0.000000
cobot_dynamixel_driver/joint_states|name|J1,J2,J3,J4,J5,J6|pos|1.047212,-0.000013,-0.000063,0.000000,-0.000021,0.000041|vel|0.000000,-0.000000,0.000000,0.000000,0.000000,0.000000|eff|0.000000,257.812500,-692.871094,112.792969,60.424805,0.000000
cobot_dynamixel_driver/joint_states|name|J1,J2,J3,J4,J5,J6|pos|1.047212,-0.000013,-0.000063,0.000000,-0.000021,0.000041|vel|0.000000,-0.000000,0.000000,0.000000,0.000000,0.000000|eff|64.453125,257.812500,-628.417969,128.906250,60.424805,0.000000
cobot_dynamixel_driver/goal|-:J1,J2,J3,J4,J5,J6:1.047198,0.000000,0.000000,0.000000,0.000000,0.000000:0.500000,0.500000,0.500000,0.500000,0.500000,0.500000:pos_vel_
cobot_dynamixel_driver/joint_states|name|J1,J2,J3,J4,J5,J6|pos|1.047212,-0.000013,-0.000063,0.000000,-0.000021,0.000041|vel|0.000000,-0.000000,0.000000,0.000000,0.000000,0.000000|eff|96.679688,257.812500,-660.644531,64.453125,60.424805,-16.113281
cobot_dynamixel_driver/joint_states|name|J1,J2,J3,J4,J5,J6|pos|1.047212,-0.000013,-0.000050,0.000000,-0.000021,0.000041|vel|0.000000,-0.000000,0.000000,0.000000,0.000000,0.000000|eff|0.000000,306.152344,-644.531250,64.453125,64.453125,-24.169922
cobot_dynamixel_driver/joint_states|name|J1,J2,J3,J4,J5,J6|pos|1.047212,-0.000013,-0.000050,0.000000,-0.000021,0.000041|vel|0.000000,-0.000000,0.000000,0.000000,0.000000,0.000000|eff|80.566406,257.812500,-676.757812,112.792969,56.396484,-16.113281
cobot_dynamixel_driver/joint_states|name|J1,J2,J3,J4,J5,J6|pos|1.047212,-0.000013,-0.000050,0.000000,-0.000021,0.000041|vel|0.000000,-0.000000,0.000000,0.000000,0.000000,0.000000|eff|0.000000,257.812500,-628.417969,128.906250,60.424805,0.000000
cobot_dynamixel_driver/joint_states|name|J1,J2,J3,J4,J5,J6|pos|1.047212,-0.000013,-0.000038,0.000000,-0.000021,0.000041|vel|0.000000,-0.000000,0.000000,0.000000,0.000000,0.000000|eff|96.679688,257.812500,-596.191406,128.906250,60.424805,-28.198242
cobot_dynamixel_driver/joint_states|name|J1,J2,J3,J4,J5,J6|pos|1.047212,-0.000013,-0.000038,0.000000,-0.000021,0.000041|vel|0.000000,-0.000000,0.000000,0.000000,0.000000,0.000000|eff|0.000000,257.812500,-596.191406,112.792969,60.424805,0.000000
cobot_dynamixel_driver/joint_states|name|J1,J2,J3,J4,J5,J6|pos|1.047212,-0.000013,-0.000038,0.000000,-0.000021,0.000041|vel|0.000000,-0.000000,0.000000,0.000000,0.000000,0.000000|eff|0.000000,257.812500,-580.078125,112.792969,60.424805,-24.169922
cobot_dynamixel_driver/joint_states|name|J1,J2,J3,J4,J5,J6|pos|1.047212,-0.000013,-0.000038,0.000000,-0.000021,0.000041|vel|0.000000,-0.000000,0.000000,0.000000,0.000000,0.000000|eff|0.000000,257.812500,-612.304688,32.226562,64.453125,-20.141602
cobot_dynamixel_driver/joint_states|name|J1,J2,J3,J4,J5,J6|pos|1.047212,-0.000013,-0.000025,0.000000,-0.000021,0.000041|vel|0.000000,-0.000000,0.000000,0.000000,0.000000,0.000000|eff|0.000000,338.378906,-644.531250,128.906250,64.453125,0.000000
cobot_dynamixel_driver/joint_states|name|J1,J2,J3,J4,J5,J6|pos|1.047212,-0.000013,-0.000025,0.000000,-0.000021,0.000041|vel|0.000000,-0.000000,0.000000,0.000000,0.000000,0.000000|eff|0.000000,257.812500,-580.078125,80.566406,56.396484,0.000000
cobot_dynamixel_driver/joint_states|name|J1,J2,J3,J4,J5,J6|pos|1.047212,-0.000013,-0.000025,0.000000,-0.000021,0.000041|vel|0.000000,-0.000000,0.000000,0.000000,0.000000,0.000000|eff|0.000000,257.812500,-580.078125,112.792969,56.396484,-16.113281
cobot_dynamixel_driver/joint_states|name|J1,J2,J3,J4,J5,J6|pos|1.047212,-0.000013,-0.000025,0.000000,-0.000021,0.000041|vel|0.000000,-0.000000,0.000000,0.000000,0.000000,0.000000|eff|0.000000,306.152344,-580.078125,112.792969,56.396484,-24.169922
cobot_dynamixel_driver/joint_states|name|J1,J2,J3,J4,J5,J6|pos|1.047212,-0.000013,-0.000025,0.000000,-0.000021,0.000041|vel|0.000000,-0.000000,0.000000,0.000000,0.000000,0.000000|eff|96.679688,386.718750,-596.191406,112.792969,60.424805,-16.113281
cobot_dynamixel_driver/joint_states|name|J1,J2,J3,J4,J5,J6|pos|1.047212,-0.000013,-0.000025,0.000000,-0.000021,0.000041|vel|0.000000,-0.000000,0.000000,0.000000,0.000000,0.000000|eff|0.000000,257.812500,-628.417969,112.792969,64.453125,0.000000
cobot_dynamixel_driver/joint_states|name|J1,J2,J3,J4,J5,J6|pos|1.047212,-0.000013,-0.000025,0.000000,-0.000021,0.000041|vel|0.000000,-0.000000,0.000000,0.000000,0.000000,0.000000|eff|48.339844,273.925781,-580.078125,64.453125,60.424805,0.000000
cobot_dynamixel_driver/joint_states|name|J1,J2,J3,J4,J5,J6|pos|1.047212,-0.000013,-0.000025,0.000000,-0.000021,0.000041|vel|0.000000,-0.000000,0.000000,0.000000,0.000000,0.000000|eff|96.679688,241.699219,-580.078125,128.906250,60.424805,-20.141602
cobot_dynamixel_driver/joint_states|name|J1,J2,J3,J4,J5,J6|pos|1.047212,-0.000013,-0.000025,0.000000,-0.000021,0.000041|vel|0.000000,-0.000000,0.000000,0.000000,0.000000,0.000000|eff|0.000000,257.812500,-596.191406,32.226562,60.424805,-8.056641
cobot_dynamixel_driver/joint_states|name|J1,J2,J3,J4,J5,J6|pos|1.047212,-0.000013,-0.000025,0.000000,-0.000021,0.000041|vel|0.000000,-0.000000,0.000000,0.000000,0.000000,0.000000|eff|0.000000,257.812500,-580.078125,64.453125,60.424805,-24.169922
cobot_dynamixel_driver/joint_states|name|J1,J2,J3,J4,J5,J6|pos|1.047212,-0.000013,-0.000025,0.000000,-0.000021,0.000041|vel|0.000000,-0.000000,0.000000,0.000000,0.000000,0.000000|eff|0.000000,241.699219,-612.304688,0.000000,60.424805,0.000000
cobot_dynamixel_driver/joint_states|name|J1,J2,J3,J4,J5,J6|pos|1.047212,-0.000013,-0.000025,0.000000,-0.000021,0.000041|vel|0.000000,-0.000000,0.000000,0.000000,0.000000,0.000000|eff|0.000000,257.812500,-596.191406,112.792969,64.453125,0.000000
cobot_dynamixel_driver/joint_states|name|J1,J2,J3,J4,J5,J6|pos|1.047212,-0.000013,-0.000025,0.000000,-0.000021,0.000041|vel|0.000000,-0.000000,0.000000,0.000000,0.000000,0.000000|eff|0.000000,290.039062,-596.191406,64.453125,60.424805,0.000000
cobot_dynamixel_driver/joint_states|name|J1,J2,J3,J4,J5,J6|pos|1.047212,-0.000013,-0.000025,0.000000,-0.000021,0.000041|vel|0.000000,-0.000000,0.000000,0.000000,0.000000,0.000000|eff|0.000000,257.812500,-580.078125,64.453125,64.453125,-12.084961
cobot_dynamixel_driver/joint_states|name|J1,J2,J3,J4,J5,J6|pos|1.047212,-0.000013,-0.000025,0.000000,-0.000021,0.000041|vel|0.000000,-0.000000,0.000000,0.000000,0.000000,0.000000|eff|0.000000,241.699219,-580.078125,128.906250,56.396484,-28.198242
cobot_dynamixel_driver/joint_states|name|J1,J2,J3,J4,J5,J6|pos|1.047212,-0.000013,-0.000025,0.000000,-0.000021,0.000041|vel|0.000000,-0.000000,0.000000,0.000000,0.000000,0.000000|eff|0.000000,257.812500,-628.417969,128.906250,60.424805,-32.226562
cobot_dynamixel_driver/joint_states|name|J1,J2,J3,J4,J5,J6|pos|1.047212,-0.000013,-0.000025,0.000000,-0.000021,0.000041|vel|0.000000,-0.000000,0.000000,0.000000,0.000000,0.000000|eff|0.000000,241.699219,-596.191406,96.679688,64.453125,0.000000
cobot_dynamixel_driver/joint_states|name|J1,J2,J3,J4,J5,J6|pos|1.047212,-0.000013,-0.000025,0.000000,-0.000021,0.000041|vel|0.000000,-0.000000,0.000000,0.000000,0.000000,0.000000|eff|0.000000,257.812500,-580.078125,112.792969,56.396484,-24.169922
cobot_dynamixel_driver/joint_states|name|J1,J2,J3,J4,J5,J6|pos|1.047212,-0.000013,-0.000025,0.000000,-0.000021,0.000041|vel|0.000000,-0.000000,0.000000,0.000000,0.000000,0.000000|eff|96.679688,257.812500,-580.078125,112.792969,64.453125,-16.113281
cobot_dynamixel_driver/joint_states|name|J1,J2,J3,J4,J5,J6|pos|1.047212,-0.000013,-0.000025,0.000000,-0.000021,0.000041|vel|0.000000,-0.000000,0.000000,0.000000,0.000000,0.000000|eff|0.000000,257.812500,-612.304688,32.226562,56.396484,-16.113281
cobot_dynamixel_driver/joint_states|name|J1,J2,J3,J4,J5,J6|pos|1.047212,-0.000013,-0.000025,0.000000,-0.000021,0.000041|vel|0.000000,-0.000000,0.000000,0.000000,0.000000,0.000000|eff|0.000000,257.812500,-644.531250,128.906250,60.424805,-32.226562
cobot_dynamixel_driver/joint_states|name|J1,J2,J3,J4,J5,J6|pos|1.047212,-0.000013,-0.000025,0.000000,-0.000021,0.000041|vel|0.000000,-0.000000,0.000000,0.000000,0.000000,0.000000|eff|0.000000,257.812500,-596.191406,128.906250,64.453125,-32.226562
cobot_dynamixel_driver/joint_states|name|J1,J2,J3,J4,J5,J6|pos|1.047212,-0.000013,-0.000025,0.000000,-0.000021,0.000041|vel|0.000000,-0.000000,0.000000,0.000000,0.000000,0.000000|eff|0.000000,273.925781,-660.644531,80.566406,60.424805,-16.113281
cobot_dynamixel_driver/joint_states|name|J1,J2,J3,J4,J5,J6|pos|1.047212,-0.000013,-0.000025,0.000000,-0.000021,0.000041|vel|0.000000,-0.000000,0.000000,0.000000,0.000000,0.000000|eff|0.000000,306.152344,-612.304688,128.906250,64.453125,-24.169922
cobot_dynamixel_driver/joint_states|name|J1,J2,J3,J4,J5,J6|pos|1.047212,-0.000013,-0.000025,0.000000,-0.000021,0.000041|vel|0.000000,-0.000000,0.000000,0.000000,0.000000,0.000000|eff|0.000000,257.812500,-596.191406,112.792969,56.396484,-8.056641
cobot_dynamixel_driver/joint_states|name|J1,J2,J3,J4,J5,J6|pos|1.047212,-0.000013,-0.000025,0.000000,-0.000021,0.000041|vel|0.000000,-0.000000,0.000000,0.000000,0.000000,0.000000|eff|64.453125,338.378906,-580.078125,112.792969,56.396484,0.000000
cobot_dynamixel_driver/joint_states|name|J1,J2,J3,J4,J5,J6|pos|1.047212,-0.000013,-0.000025,0.000000,-0.000021,0.000041|vel|0.000000,-0.000000,0.000000,0.000000,0.000000,0.000000|eff|0.000000,322.265625,-612.304688,128.906250,60.424805,-8.056641
cobot_dynamixel_driver/joint_states|name|J1,J2,J3,J4,J5,J6|pos|1.047212,-0.000013,-0.000025,0.000000,-0.000021,0.000041|vel|0.000000,-0.000000,0.000000,0.000000,0.000000,0.000000|eff|0.000000,241.699219,-644.531250,112.792969,64.453125,0.000000
cobot_dynamixel_driver/joint_states|name|J1,J2,J3,J4,J5,J6|pos|1.047212,-0.000013,-0.000025,0.000000,-0.000021,0.000041|vel|0.000000,-0.000000,0.000000,0.000000,0.000000,0.000000|eff|0.000000,241.699219,-580.078125,96.679688,64.453125,-8.056641
cobot_dynamixel_driver/joint_states|name|J1,J2,J3,J4,J5,J6|pos|1.047212,-0.000013,-0.000025,0.000000,-0.000021,0.000041|vel|0.000000,-0.000000,0.000000,0.000000,0.000000,0.000000|eff|0.000000,322.265625,-580.078125,112.792969,60.424805,0.000000
cobot_dynamixel_driver/joint_states|name|J1,J2,J3,J4,J5,J6|pos|1.047212,-0.000013,-0.000025,0.000000,-0.000021,0.000041|vel|0.000000,-0.000000,0.000000,0.000000,0.000000,0.000000|eff|0.000000,257.812500,-580.078125,80.566406,60.424805,-16.113281
cobot_dynamixel_driver/joint_states|name|J1,J2,J3,J4,J5,J6|pos|1.047212,-0.000013,-0.000025,0.000000,-0.000021,0.000041|vel|0.000000,-0.000000,0.000000,0.000000,0.000000,0.000000|eff|0.000000,273.925781,-596.191406,128.906250,56.396484,0.000000
cobot_dynamixel_driver/joint_states|name|J1,J2,J3,J4,J5,J6|pos|1.047212,-0.000013,-0.000025,0.000000,-0.000021,0.000041|vel|0.000000,-0.000000,0.000000,0.000000,0.000000,0.000000|eff|0.000000,273.925781,-580.078125,112.792969,60.424805,0.000000
cobot_dynamixel_driver/joint_states|name|J1,J2,J3,J4,J5,J6|pos|1.047212,-0.000013,-0.000025,0.000000,-0.000021,0.000041|vel|0.000000,-0.000000,0.000000,0.000000,0.000000,0.000000|eff|0.000000,241.699219,-644.531250,32.226562,56.396484,-16.113281
cobot_dynamixel_driver/joint_states|name|J1,J2,J3,J4,J5,J6|pos|1.047212,-0.000013,-0.000025,0.000000,-0.000021,0.000041|vel|0.000000,-0.000000,0.000000,0.000000,0.000000,0.000000|eff|0.000000,257.812500,-628.417969,128.906250,60.424805,-32.226562
cobot_dynamixel_driver/joint_states|name|J1,J2,J3,J4,J5,J6|pos|1.047212,-0.000013,-0.000025,0.000000,-0.000021,0.000041|vel|0.000000,-0.000000,0.000000,0.000000,0.000000,0.000000|eff|0.000000,306.152344,-596.191406,96.679688,60.424805,-12.084961
cobot_dynamixel_driver/joint_states|name|J1,J2,J3,J4,J5,J6|pos|1.047212,-0.000013,-0.000025,0.000000,-0.000021,0.000041|vel|0.000000,-0.000000,0.000000,0.000000,0.000000,0.000000|eff|0.000000,241.699219,-580.078125,128.906250,56.396484,0.000000
cobot_dynamixel_driver/joint_states|name|J1,J2,J3,J4,J5,J6|pos|1.047212,-0.000013,-0.000025,0.000000,-0.000021,0.000041|vel|0.000000,-0.000000,0.000000,0.000000,0.000000,0.000000|eff|48.339844,386.718750,-612.304688,128.906250,64.453125,0.000000
cobot_dynamixel_driver/joint_states|name|J1,J2,J3,J4,J5,J6|pos|1.047212,-0.000013,-0.000025,0.000000,-0.000021,0.000041|vel|0.000000,-0.000000,0.000000,0.000000,0.000000,0.000000|eff|0.000000,257.812500,-612.304688,32.226562,64.453125,-20.141602
cobot_dynamixel_driver/joint_states|name|J1,J2,J3,J4,J5,J6|pos|1.047212,-0.000013,-0.000025,0.000000,-0.000021,0.000041|vel|0.000000,-0.000000,0.000000,0.000000,0.000000,0.000000|eff|48.339844,257.812500,-596.191406,96.679688,60.424805,-28.198242
cobot_dynamixel_driver/joint_states|name|J1,J2,J3,J4,J5,J6|pos|1.047212,-0.000013,-0.000025,0.000000,-0.000021,0.000041|vel|0.000000,-0.000000,0.000000,0.000000,0.000000,0.000000|eff|0.000000,322.265625,-580.078125,128.906250,60.424805,0.000000
cobot_dynamixel_driver/joint_states|name|J1,J2,J3,J4,J5,J6|pos|1.047212,-0.000013,-0.000025,0.000000,-0.000021,0.000041|vel|0.000000,-0.000000,0.000000,0.000000,0.000000,0.000000|eff|0.000000,241.699219,-596.191406,112.792969,56.396484,0.000000
cobot_dynamixel_driver/joint_states|name|J1,J2,J3,J4,J5,J6|pos|1.047212,-0.000013,-0.000025,0.000000,-0.000021,0.000041|vel|0.000000,-0.000000,0.000000,0.000000,0.000000,0.000000|eff|0.000000,241.699219,-628.417969,112.792969,56.396484,-24.169922
cobot_dynamixel_driver/joint_states|name|J1,J2,J3,J4,J5,J6|pos|1.047212,-0.000013,-0.000025,0.000000,-0.000021,0.000041|vel|0.000000,-0.000000,0.000000,0.000000,0.000000,0.000000|eff|0.000000,338.378906,-580.078125,112.792969,60.424805,0.000000
cobot_dynamixel_driver/joint_states|name|J1,J2,J3,J4,J5,J6|pos|1.047212,-0.000013,-0.000025,0.000000,-0.000021,0.000041|vel|0.000000,-0.000000,0.000000,0.000000,0.000000,0.000000|eff|0.000000,273.925781,-580.078125,112.792969,60.424805,0.000000
cobot_dynamixel_driver/joint_states|name|J1,J2,J3,J4,J5,J6|pos|1.047212,-0.000013,-0.000025,0.000000,-0.000021,0.000041|vel|0.000000,-0.000000,0.000000,0.000000,0.000000,0.000000|eff|0.000000,338.378906,-580.078125,0.000000,60.424805,-16.113281
cobot_dynamixel_driver/joint_states|name|J1,J2,J3,J4,J5,J6|pos|1.047212,-0.000013,-0.000025,0.000000,-0.000021,0.000041|vel|0.000000,-0.000000,0.000000,0.000000,0.000000,0.000000|eff|96.679688,257.812500,-644.531250,0.000000,56.396484,-24.169922
cobot_dynamixel_driver/joint_states|name|J1,J2,J3,J4,J5,J6|pos|1.047212,-0.000013,-0.000025,0.000000,-0.000021,0.000041|vel|0.000000,-0.000000,0.000000,0.000000,0.000000,0.000000|eff|48.339844,257.812500,-596.191406,128.906250,64.453125,-12.084961
cobot_dynamixel_driver/joint_states|name|J1,J2,J3,J4,J5,J6|pos|1.047212,-0.000013,-0.000025,0.000000,-0.000021,0.000041|vel|0.000000,-0.000000,0.000000,0.000000,0.000000,0.000000|eff|0.000000,306.152344,-580.078125,112.792969,60.424805,0.000000
cobot_dynamixel_driver/joint_states|name|J1,J2,J3,J4,J5,J6|pos|1.047212,-0.000013,-0.000025,0.000000,-0.000021,0.000041|vel|0.000000,-0.000000,0.000000,0.000000,0.000000,0.000000|eff|48.339844,257.812500,-580.078125,96.679688,60.424805,0.000000
cobot_dynamixel_driver/joint_states|name|J1,J2,J3,J4,J5,J6|pos|1.047212,-0.000013,-0.000025,0.000000,-0.000021,0.000041|vel|0.000000,-0.000000,0.000000,0.000000,0.000000,0.000000|eff|0.000000,241.699219,-580.078125,64.453125,60.424805,-28.198242
cobot_dynamixel_driver/joint_states|name|J1,J2,J3,J4,J5,J6|pos|1.047212,-0.000013,-0.000025,0.000000,-0.000021,0.000041|vel|0.000000,-0.000000,0.000000,0.000000,0.000000,0.000000|eff|0.000000,241.699219,-580.078125,112.792969,56.396484,-24.169922
cobot_dynamixel_driver/joint_states|name|J1,J2,J3,J4,J5,J6|pos|1.047212,-0.000013,-0.000025,0.000000,-0.000021,0.000041|vel|0.000000,-0.000000,0.000000,0.000000,0.000000,0.000000|eff|0.000000,257.812500,-580.078125,32.226562,60.424805,0.000000
cobot_dynamixel_driver/joint_states|name|J1,J2,J3,J4,J5,J6|pos|1.047212,-0.000013,-0.000025,0.000000,-0.000021,0.000041|vel|0.000000,-0.000000,0.000000,0.000000,0.000000,0.000000|eff|96.679688,257.812500,-580.078125,0.000000,60.424805,0.000000
cobot_dynamixel_driver/joint_states|name|J1,J2,J3,J4,J5,J6|pos|1.047212,-0.000013,-0.000025,0.000000,-0.000021,0.000041|vel|0.000000,-0.000000,0.000000,0.000000,0.000000,0.000000|eff|0.000000,257.812500,-596.191406,128.906250,56.396484,-8.056641
cobot_dynamixel_driver/joint_states|name|J1,J2,J3,J4,J5,J6|pos|1.047212,-0.000013,-0.000025,0.000000,-0.000021,0.000041|vel|0.000000,-0.000000,0.000000,0.000000,0.000000,0.000000|eff|64.453125,273.925781,-580.078125,0.000000,64.453125,-8.056641
cobot_dynamixel_driver/joint_states|name|J1,J2,J3,J4,J5,J6|pos|1.047212,-0.000013,-0.000025,0.000000,-0.000021,0.000041|vel|0.000000,-0.000000,0.000000,0.000000,0.000000,0.000000|eff|96.679688,257.812500,-580.078125,64.453125,56.396484,-24.169922
cobot_dynamixel_driver/joint_states|name|J1,J2,J3,J4,J5,J6|pos|1.047212,-0.000013,-0.000025,0.000000,-0.000021,0.000041|vel|0.000000,-0.000000,0.000000,0.000000,0.000000,0.000000|eff|0.000000,257.812500,-580.078125,112.792969,56.396484,0.000000
cobot_dynamixel_driver/goal|-:J1,J2,J3,J4,J5,J6:1.047198,0.000000,0.000000,0.000000,0.000000,0.000000:0.500000,0.500000,0.500000,0.500000,0.500000,0.500000:pos_vel_
cobot_dynamixel_driver/goal|-:J1:-0.523599:vel_
cobot_dynamixel_driver/goal|-:J1:-0.523599:vel_
cobot_dynamixel_driver/goal|-:J1:-0.523599:vel_
cobot_dynamixel_driver/joint_states|name|J1,J2,J3,J4,J5,J6|pos|1.047212,0.001227,0.002203,-0.000013,-0.000062,0.000041|vel|0.000000,0.004173,0.001461,0.000000,0.000000,0.000000|eff|0.000000,225.585938,-322.265625,0.000000,0.000000,0.000000
cobot_dynamixel_driver/goal|-:J1:-0.523599:vel_
cobot_dynamixel_driver/goal|-:J1:-0.523599:vel_
cobot_dynamixel_driver/goal|-:J1:-0.523599:vel_
cobot_dynamixel_driver/goal|-:J1:-0.523599:vel_
cobot_dynamixel_driver/goal|-:J1:-0.523599:vel_
cobot_dynamixel_driver/goal|-:J1:-0.523599:vel_
cobot_dynamixel_driver/goal|-:J1:-0.523599:vel_
cobot_dynamixel_driver/goal|-:J1:-0.523599:vel_
cobot_dynamixel_driver/goal|-:J1:-0.523599:vel_
cobot_dynamixel_driver/goal|-:J1:-0.523599:vel_
cobot_dynamixel_driver/goal|-:J1:-0.523599:vel_
cobot_dynamixel_driver/goal|-:J1:-0.523599:vel_
cobot_dynamixel_driver/goal|-:J1:-0.523599:vel_
cobot_dynamixel_driver/goal|-:J1:-0.523599:vel_
cobot_dynamixel_driver/goal|-:J1:-0.523599:vel_
cobot_dynamixel_driver/goal|-:J1:-0.523599:vel_
cobot_dynamixel_driver/goal|-:J1:-0.523599:vel_
cobot_dynamixel_driver/goal|-:J1:-0.523599:vel_
cobot_dynamixel_driver/goal|-:J1:-0.523599:vel_
cobot_dynamixel_driver/goal|-:J1:-0.523599:vel_
cobot_dynamixel_driver/goal|-:J1:-0.523599:vel_
cobot_dynamixel_driver/goal|-:J1:-0.523599:vel_
cobot_dynamixel_driver/goal|-:J1:-0.523599:vel_
cobot_dynamixel_driver/goal|-:J1:-0.523599:vel_
cobot_dynamixel_driver/goal|-:J1:-0.523599:vel_
cobot_dynamixel_driver/goal|-:J1:-0.523599:vel_
cobot_dynamixel_driver/goal|-:J1:-0.523599:vel_
cobot_dynamixel_driver/goal|-:J1:-0.523599:vel_
cobot_dynamixel_driver/goal|-:J1:-0.523599:vel_
cobot_dynamixel_driver/joint_states|name|J1,J2,J3,J4,J5,J6|pos|1.009595,0.001227,0.002203,-0.000013,-0.000062,0.000041|vel|-0.526624,-0.000000,0.000000,0.000000,0.000000,0.000000|eff|-2062.500000,257.812500,-338.378906,0.000000,0.000000,0.000000
cobot_dynamixel_driver/joint_states|name|J1,J2,J3,J4,J5,J6|pos|0.958208,0.001227,0.002216,-0.000013,-0.000062,0.000041|vel|-0.505134,-0.000000,0.000000,0.000000,0.000000,0.000000|eff|-950.683594,225.585938,-370.605469,0.000000,0.000000,0.000000
cobot_dynamixel_driver/joint_states|name|J1,J2,J3,J4,J5,J6|pos|0.905956,0.001239,0.002216,-0.000013,-0.000062,0.000041|vel|-0.523912,-0.000000,0.000000,0.000000,0.000000,0.000000|eff|-644.531250,241.699219,-354.492188,0.000000,0.000000,0.000000
cobot_dynamixel_driver/joint_states|name|J1,J2,J3,J4,J5,J6|pos|0.854457,0.001277,0.002216,-0.000013,-0.000062,0.000041|vel|-0.532049,-0.000835,0.000000,0.000000,0.000000,0.000000|eff|-1111.816406,322.265625,-322.265625,0.000000,0.000000,0.000000
cobot_dynamixel_driver/joint_states|name|J1,J2,J3,J4,J5,J6|pos|0.802806,0.001302,0.002216,-0.000013,-0.000062,0.000041|vel|-0.532675,0.000209,0.000000,0.000000,0.000000,0.000000|eff|-660.644531,290.039062,-354.492188,0.000000,0.000000,0.000000
cobot_dynamixel_driver/joint_states|name|J1,J2,J3,J4,J5,J6|pos|0.751331,0.001302,0.002216,-0.000013,-0.000062,0.000041|vel|-0.547280,-0.000000,0.000000,0.000000,0.000000,0.000000|eff|-628.417969,418.945312,-402.832031,0.000000,0.000000,0.000000
cobot_dynamixel_driver/joint_states|name|J1,J2,J3,J4,J5,J6|pos|0.699806,0.001302,0.002216,-0.000013,-0.000062,0.000041|vel|-0.533718,-0.000000,0.000000,0.000000,0.000000,0.000000|eff|-1772.460938,225.585938,-322.265625,0.000000,0.000000,0.000000
cobot_dynamixel_driver/joint_states|name|J1,J2,J3,J4,J5,J6|pos|0.648369,0.001302,0.002216,-0.000013,-0.000062,0.000041|vel|-0.511393,-0.000000,0.000000,0.000000,0.000000,0.000000|eff|-1482.421875,370.605469,-354.492188,0.000000,0.000000,0.000000
cobot_dynamixel_driver/joint_states|name|J1,J2,J3,J4,J5,J6|pos|0.596969,0.001302,0.002216,-0.000013,-0.000062,0.000041|vel|-0.539769,-0.000209,0.000000,0.000000,0.000000,0.000000|eff|-580.078125,306.152344,-322.265625,0.000000,0.000000,0.000000
cobot_dynamixel_driver/joint_states|name|J1,J2,J3,J4,J5,J6|pos|0.545432,0.001302,0.002216,-0.000013,-0.000062,0.000041|vel|-0.519530,0.000209,0.001043,0.000000,0.000000,0.000000|eff|-1804.687500,225.585938,-322.265625,0.000000,0.000000,0.000000
cobot_dynamixel_driver/joint_states|name|J1,J2,J3,J4,J5,J6|pos|0.493969,0.001302,0.002216,-0.000013,-0.000062,0.000041|vel|-0.544776,-0.000000,0.000209,0.000000,0.000000,0.000000|eff|-789.550781,257.812500,-322.265625,0.000000,0.000000,0.000000
cobot_dynamixel_driver/joint_states|name|J1,J2,J3,J4,J5,J6|pos|0.442507,0.001302,0.002216,-0.000013,-0.000062,0.000041|vel|-0.520573,-0.000000,-0.000835,0.000000,0.000000,0.000000|eff|-725.097656,354.492188,-418.945312,0.000000,0.000000,0.000000
cobot_dynamixel_driver/joint_states|name|J1,J2,J3,J4,J5,J6|pos|0.391069,0.001302,0.002216,-0.000013,-0.000062,0.000041|vel|-0.548741,-0.000000,-0.000835,0.000000,0.000000,0.000000|eff|-1595.214844,225.585938,-322.265625,0.000000,0.000000,0.000000
cobot_dynamixel_driver/joint_states|name|J1,J2,J3,J4,J5,J6|pos|0.339644,0.001302,0.002216,-0.000013,-0.000062,0.000041|vel|-0.532258,-0.000000,-0.000835,0.000000,0.000000,0.000000|eff|-934.570312,306.152344,-322.265625,0.000000,0.000000,0.000000
cobot_dynamixel_driver/joint_states|name|J1,J2,J3,J4,J5,J6|pos|0.288057,0.001302,0.002216,-0.000013,-0.000062,0.000041|vel|-0.524329,-0.000000,-0.001043,0.000000,0.000000,0.000000|eff|-789.550781,306.152344,-338.378906,0.000000,0.000000,0.000000
cobot_dynamixel_driver/joint_states|name|J1,J2,J3,J4,J5,J6|pos|0.236594,0.001302,0.002216,-0.000013,-0.000062,0.000041|vel|-0.522660,-0.000000,0.000835,0.000000,0.000000,0.000000|eff|-2239.746094,225.585938,-322.265625,0.000000,0.000000,0.000000
cobot_dynamixel_driver/joint_states|name|J1,J2,J3,J4,J5,J6|pos|0.184994,0.001302,0.002216,-0.000013,-0.000062,0.000041|vel|-0.539978,-0.000000,0.000835,0.000000,0.000000,0.000000|eff|-322.265625,225.585938,-338.378906,0.000000,0.000000,0.000000
cobot_dynamixel_driver/joint_states|name|J1,J2,J3,J4,J5,J6|pos|0.133557,0.001302,0.002216,-0.000013,-0.000062,0.000041|vel|-0.540186,-0.000000,-0.001252,0.000000,0.000000,0.000000|eff|-1111.816406,225.585938,-402.832031,0.000000,0.000000,0.000000
cobot_dynamixel_driver/joint_states|name|J1,J2,J3,J4,J5,J6|pos|0.082182,0.001302,0.002216,-0.000013,-0.000062,0.000041|vel|-0.537265,-0.000000,0.001043,0.000000,0.000000,0.000000|eff|-2320.312500,225.585938,-322.265625,0.000000,0.000000,0.000000
cobot_dynamixel_driver/joint_states|name|J1,J2,J3,J4,J5,J6|pos|0.030695,0.001302,0.002216,-0.000013,-0.000062,0.000041|vel|-0.521617,-0.000000,-0.001043,0.000000,0.000000,0.000000|eff|-499.511719,322.265625,-418.945312,0.000000,0.000000,0.000000
cobot_dynamixel_driver/joint_states|name|J1,J2,J3,J4,J5,J6|pos|-0.020730,0.001302,0.002216,-0.000013,-0.000062,0.000041|vel|-0.528502,-0.000000,0.001252,0.000000,0.000000,0.000000|eff|-918.457031,402.832031,-322.265625,0.000000,0.000000,0.000000
cobot_dynamixel_driver/joint_states|name|J1,J2,J3,J4,J5,J6|pos|-0.072293,0.001302,0.002216,-0.000013,-0.000062,0.000041|vel|-0.538100,-0.000000,-0.001043,0.000000,0.000000,0.000000|eff|-2304.199219,322.265625,-338.378906,0.000000,0.000000,0.000000
cobot_dynamixel_driver/joint_states|name|J1,J2,J3,J4,J5,J6|pos|-0.123718,0.001302,0.002216,-0.000013,-0.000062,0.000041|vel|-0.543525,-0.000000,0.000626,0.000000,0.000000,0.000000|eff|-322.265625,273.925781,-418.945312,0.000000,0.000000,0.000000
cobot_dynamixel_driver/joint_states|name|J1,J2,J3,J4,J5,J6|pos|-0.175067,0.001302,0.002216,-0.000013,-0.000062,0.000041|vel|-0.544568,-0.000000,-0.001043,0.000000,0.000000,0.000000|eff|-628.417969,354.492188,-354.492188,0.000000,0.000000,0.000000
cobot_dynamixel_driver/joint_states|name|J1,J2,J3,J4,J5,J6|pos|-0.226530,0.001302,0.002216,-0.000013,-0.000062,0.000041|vel|-0.530797,-0.000000,0.001043,0.000000,0.000000,0.000000|eff|-1869.140625,322.265625,-338.378906,0.000000,0.000000,0.000000
cobot_dynamixel_driver/joint_states|name|J1,J2,J3,J4,J5,J6|pos|-0.278005,0.001302,0.002216,-0.000013,-0.000062,0.000041|vel|-0.533092,-0.000000,0.001043,0.000000,0.000000,0.000000|eff|-563.964844,241.699219,-370.605469,0.000000,0.000000,0.000000
cobot_dynamixel_driver/joint_states|name|J1,J2,J3,J4,J5,J6|pos|-0.329567,0.001302,0.002216,-0.000013,-0.000062,0.000041|vel|-0.496996,-0.000000,0.000835,0.000000,0.000000,0.000000|eff|-1176.269531,306.152344,-338.378906,0.000000,0.000000,0.000000
cobot_dynamixel_driver/joint_states|name|J1,J2,J3,J4,J5,J6|pos|-0.380967,0.001302,0.002216,-0.000013,-0.000062,0.000041|vel|-0.542064,-0.000000,0.001043,0.000000,0.000000,0.000000|eff|-2207.519531,402.832031,-386.718750,0.000000,0.000000,0.000000
cobot_dynamixel_driver/joint_states|name|J1,J2,J3,J4,J5,J6|pos|-0.432492,0.001302,0.002216,-0.000013,-0.000062,0.000041|vel|-0.528711,-0.000000,-0.000835,0.000000,0.000000,0.000000|eff|-257.812500,225.585938,-338.378906,0.000000,0.000000,0.000000
cobot_dynamixel_driver/joint_states|name|J1,J2,J3,J4,J5,J6|pos|-0.483967,0.001302,0.002216,-0.000013,-0.000062,0.000041|vel|-0.535596,-0.000000,-0.000835,0.000000,0.000000,0.000000|eff|-1127.929688,306.152344,-354.492188,0.000000,0.000000,0.000000
cobot_dynamixel_driver/joint_states|name|J1,J2,J3,J4,J5,J6|pos|-0.535367,0.001302,0.002216,-0.000013,-0.000062,0.000041|vel|-0.553122,-0.000000,-0.000835,0.000000,0.000000,0.000000|eff|-2416.992188,225.585938,-418.945312,0.000000,0.000000,0.000000
cobot_dynamixel_driver/joint_states|name|J1,J2,J3,J4,J5,J6|pos|-0.586842,0.001302,0.002216,-0.000013,-0.000062,0.000041|vel|-0.497831,-0.000000,-0.000835,0.000000,0.000000,0.000000|eff|-370.605469,241.699219,-338.378906,0.000000,0.000000,0.000000
cobot_dynamixel_driver/joint_states|name|J1,J2,J3,J4,J5,J6|pos|-0.638367,0.001302,0.002216,-0.000013,-0.000062,0.000041|vel|-0.544150,-0.000000,0.001461,0.000000,0.000000,0.000000|eff|-1160.156250,241.699219,-322.265625,0.000000,0.000000,0.000000
cobot_dynamixel_driver/joint_states|name|J1,J2,J3,J4,J5,J6|pos|-0.689929,0.001302,0.002216,-0.000013,-0.000062,0.000041|vel|-0.537682,-0.000000,-0.000835,0.000000,0.000000,0.000000|eff|-982.910156,322.265625,-386.718750,0.000000,0.000000,0.000000
cobot_dynamixel_driver/joint_states|name|J1,J2,J3,J4,J5,J6|pos|-0.741392,0.001302,0.002216,-0.000013,-0.000062,0.000041|vel|-0.546028,-0.000000,-0.000835,0.000000,0.000000,0.000000|eff|-467.285156,225.585938,-338.378906,0.000000,0.000000,0.000000
cobot_dynamixel_driver/joint_states|name|J1,J2,J3,J4,J5,J6|pos|-0.792729,0.001302,0.002216,-0.000013,-0.000062,0.000041|vel|-0.527876,-0.000000,0.000626,0.000000,0.000000,0.000000|eff|-1562.988281,322.265625,-322.265625,0.000000,0.000000,0.000000
cobot_dynamixel_driver/joint_states|name|J1,J2,J3,J4,J5,J6|pos|-0.844167,0.001302,0.002216,-0.000013,-0.000062,0.000041|vel|-0.541229,-0.000000,-0.001461,0.000000,0.000000,0.000000|eff|-1643.554688,225.585938,-338.378906,0.000000,0.000000,0.000000
cobot_dynamixel_driver/joint_states|name|J1,J2,J3,J4,J5,J6|pos|-0.895704,0.001302,0.002216,-0.000013,-0.000062,0.000041|vel|-0.520365,-0.000000,-0.000835,0.000000,0.000000,0.000000|eff|-934.570312,241.699219,-386.718750,0.000000,0.000000,0.000000
cobot_dynamixel_driver/joint_states|name|J1,J2,J3,J4,J5,J6|pos|-0.947279,0.001302,0.002216,-0.000013,-0.000062,0.000041|vel|-0.534135,-0.000000,-0.000835,0.000000,0.000000,0.000000|eff|-1901.367188,370.605469,-338.378906,0.000000,0.000000,0.000000
cobot_dynamixel_driver/joint_states|name|J1,J2,J3,J4,J5,J6|pos|-0.998742,0.001302,0.002216,-0.000013,-0.000062,0.000041|vel|-0.540186,-0.000000,0.001043,0.000000,0.000000,0.000000|eff|-1208.496094,402.832031,-322.265625,0.000000,0.000000,0.000000
cobot_dynamixel_driver/joint_states|name|J1,J2,J3,J4,J5,J6|pos|-1.050242,0.001302,0.002216,-0.000013,-0.000062,0.000041|vel|-0.519322,-0.000000,-0.001043,0.000000,0.000000,0.000000|eff|-644.531250,241.699219,-370.605469,0.000000,0.000000,0.000000
cobot_dynamixel_driver/joint_states|name|J1,J2,J3,J4,J5,J6|pos|-1.101629,0.001302,0.002216,-0.000013,-0.000062,0.000041|vel|-0.543316,-0.000000,-0.000835,0.000000,0.000000,0.000000|eff|-1885.253906,241.699219,-370.605469,0.000000,0.000000,0.000000
cobot_dynamixel_driver/joint_states|name|J1,J2,J3,J4,J5,J6|pos|-1.153079,0.001302,0.002216,-0.000013,-0.000062,0.000041|vel|-0.539352,-0.000000,-0.000835,0.000000,0.000000,0.000000|eff|-1127.929688,306.152344,-338.378906,0.000000,0.000000,0.000000
cobot_dynamixel_driver/joint_states|name|J1,J2,J3,J4,J5,J6|pos|-1.204541,0.001302,0.002216,-0.000013,-0.000062,0.000041|vel|-0.532675,-0.000000,-0.000835,0.000000,0.000000,0.000000|eff|-628.417969,241.699219,-354.492188,0.000000,0.000000,0.000000
cobot_dynamixel_driver/joint_states|name|J1,J2,J3,J4,J5,J6|pos|-1.256129,0.001302,0.002216,-0.000013,-0.000062,0.000041|vel|-0.544568,-0.000000,0.000835,0.000000,0.000000,0.000000|eff|-2239.746094,241.699219,-338.378906,0.000000,0.000000,0.000000
cobot_dynamixel_driver/joint_states|name|J1,J2,J3,J4,J5,J6|pos|-1.307666,0.001302,0.002216,-0.000013,-0.000062,0.000041|vel|-0.538934,-0.000000,-0.001669,0.000000,0.000000,0.000000|eff|-290.039062,370.605469,-386.718750,0.000000,0.000000,0.000000
cobot_dynamixel_driver/joint_states|name|J1,J2,J3,J4,J5,J6|pos|-1.359104,0.001302,0.002216,-0.000013,-0.000062,0.000041|vel|-0.544568,-0.000000,-0.001252,0.000000,0.000000,0.000000|eff|-1160.156250,257.812500,-338.378906,0.000000,0.000000,0.000000
cobot_dynamixel_driver/joint_states|name|J1,J2,J3,J4,J5,J6|pos|-1.410541,0.001302,0.002216,-0.000013,-0.000062,0.000041|vel|-0.524538,-0.000000,0.000835,0.000000,0.000000,0.000000|eff|-2433.105469,370.605469,-402.832031,0.000000,0.000000,0.000000
cobot_dynamixel_driver/joint_states|name|J1,J2,J3,J4,J5,J6|pos|-1.462004,0.001302,0.002216,-0.000013,-0.000062,0.000041|vel|-0.502421,-0.000000,0.000835,0.000000,0.000000,0.000000|eff|-209.472656,354.492188,-322.265625,0.000000,0.000000,0.000000
cobot_dynamixel_driver/joint_states|name|J1,J2,J3,J4,J5,J6|pos|-1.513516,0.001302,0.002216,-0.000013,-0.000062,0.000041|vel|-0.494493,-0.000000,-0.000835,0.000000,0.000000,0.000000|eff|-999.023438,241.699219,-354.492188,0.000000,0.000000,0.000000
cobot_dynamixel_driver/joint_states|name|J1,J2,J3,J4,J5,J6|pos|-1.565041,0.001302,0.002216,-0.000013,-0.000062,0.000041|vel|-0.540186,-0.000000,-0.001252,0.000000,0.000000,0.000000|eff|-1289.062500,273.925781,-338.378906,0.000000,0.000000,0.000000
cobot_dynamixel_driver/joint_states|name|J1,J2,J3,J4,J5,J6|pos|-1.616491,0.001302,0.002216,-0.000013,-0.000062,0.000041|vel|-0.533718,-0.000000,-0.000417,0.000000,0.000000,0.000000|eff|-402.832031,435.058594,-386.718750,0.000000,0.000000,0.000000
cobot_dynamixel_driver/joint_states|name|J1,J2,J3,J4,J5,J6|pos|-1.668016,0.001302,0.002216,-0.000013,-0.000062,0.000041|vel|-0.543107,-0.000000,-0.001043,0.000000,0.000000,0.000000|eff|-1804.687500,435.058594,-322.265625,0.000000,0.000000,0.000000
cobot_dynamixel_driver/joint_states|name|J1,J2,J3,J4,J5,J6|pos|-1.719403,0.001302,0.002216,-0.000013,-0.000062,0.000041|vel|-0.541021,-0.000000,-0.002086,0.000000,0.000000,0.000000|eff|-2529.785156,370.605469,-386.718750,0.000000,0.000000,0.000000
cobot_dynamixel_driver/joint_states|name|J1,J2,J3,J4,J5,J6|pos|-1.770828,0.001302,0.002216,-0.000013,-0.000062,0.000041|vel|-0.499500,-0.000000,-0.000835,0.000000,0.000000,0.000000|eff|-338.378906,225.585938,-354.492188,0.000000,0.000000,0.000000
cobot_dynamixel_driver/joint_states|name|J1,J2,J3,J4,J5,J6|pos|-1.822215,0.001302,0.002216,-0.000025,-0.000062,0.000041|vel|-0.541021,-0.000000,-0.001043,0.000000,0.000000,0.000000|eff|-999.023438,225.585938,-386.718750,0.000000,0.000000,0.000000
cobot_dynamixel_driver/joint_states|name|J1,J2,J3,J4,J5,J6|pos|-1.873478,0.001302,0.002216,-0.000025,-0.000062,0.000041|vel|-0.502421,-0.000000,0.000000,0.000000,0.000000,0.000000|eff|-1482.421875,225.585938,-338.378906,0.000000,0.000000,0.000000
cobot_dynamixel_driver/joint_states|name|J1,J2,J3,J4,J5,J6|pos|-1.924552,0.001302,0.002203,-0.000025,-0.000062,0.000041|vel|-0.514940,-0.000000,0.000000,0.000000,0.000000,0.000000|eff|-1530.761719,370.605469,-354.492188,0.000000,0.000000,0.000000
cobot_dynamixel_driver/joint_states|name|J1,J2,J3,J4,J5,J6|pos|-0.543704,-1.263152,1.296275,0.001014,-1.616625,-0.000083|vel|0.000000,-0.000000,0.000000,0.000000,0.000000,0.000000|eff|-145.019531,-225.585938,0.000000,-273.925781,0.000000,0.000000
cobot_dynamixel_driver/joint_states|name|J1,J2,J3,J4,J5,J6|pos|-0.543704,-1.263152,1.296275,0.001014,-1.616625,-0.000083|vel|0.000000,-0.000000,0.000000,0.000000,0.000000,0.000000|eff|-145.019531,-209.472656,0.000000,-273.925781,0.000000,0.000000
cobot_dynamixel_driver/joint_states|name|J1,J2,J3,J4,J5,J6|pos|-0.543704,-1.263152,1.296275,0.001014,-1.616625,-0.000083|vel|0.000000,-0.000000,0.000000,0.000000,0.000000,0.000000|eff|-145.019531,-209.472656,0.000000,-273.925781,0.000000,0.000000
cobot_dynamixel_driver/joint_states|name|J1,J2,J3,J4,J5,J6|pos|-0.543704,-1.263152,1.296275,0.001014,-1.616625,-0.000083|vel|0.000000,-0.000000,0.000000,0.000000,0.000000,0.000000|eff|-145.019531,-209.472656,0.000000,-273.925781,0.000000,0.000000
cobot_dynamixel_driver/joint_states|name|J1,J2,J3,J4,J5,J6|pos|-0.543704,-1.263152,1.296275,0.001014,-1.616625,-0.000083|vel|0.000000,-0.000000,0.000000,0.000000,0.000000,0.000000|eff|-145.019531,-225.585938,0.000000,-273.925781,0.000000,0.000000
cobot_dynamixel_driver/joint_states|name|J1,J2,J3,J4,J5,J6|pos|-0.543704,-1.263152,1.296275,0.001014,-1.616625,-0.000083|vel|0.000000,-0.000000,0.000000,0.000000,0.000000,0.000000|eff|-145.019531,-209.472656,0.000000,-273.925781,0.000000,0.000000
cobot_dynamixel_driver/joint_states|name|J1,J2,J3,J4,J5,J6|pos|-0.543704,-1.263152,1.296275,0.001014,-1.616625,-0.000083|vel|0.000000,-0.000000,0.000000,0.000000,0.000000,0.000000|eff|-145.019531,-209.472656,0.000000,-273.925781,0.000000,0.000000
cobot_dynamixel_driver/joint_states|name|J1,J2,J3,J4,J5,J6|pos|-0.543704,-1.263152,1.296275,0.001014,-1.616625,-0.000083|vel|0.000000,-0.000000,0.000000,0.000000,0.000000,0.000000|eff|-145.019531,-225.585938,0.000000,-273.925781,0.000000,0.000000
cobot_dynamixel_driver/joint_states|name|J1,J2,J3,J4,J5,J6|pos|-0.543704,-1.263152,1.296275,0.001014,-1.616625,-0.000083|vel|0.000000,-0.000000,0.000000,0.000000,0.000000,0.000000|eff|-145.019531,-209.472656,0.000000,-273.925781,0.000000,0.000000
cobot_dynamixel_driver/joint_states|name|J1,J2,J3,J4,J5,J6|pos|-0.543704,-1.263152,1.296275,0.001014,-1.616625,-0.000083|vel|0.000000,-0.000000,0.000000,0.000000,0.000000,0.000000|eff|-145.019531,-209.472656,0.000000,-273.925781,0.000000,0.000000
cobot_dynamixel_driver/joint_states|name|J1,J2,J3,J4,J5,J6|pos|-0.543704,-1.263152,1.296275,0.001014,-1.616625,-0.000083|vel|0.000000,-0.000000,0.000000,0.000000,0.000000,0.000000|eff|-145.019531,-209.472656,0.000000,-273.925781,0.000000,0.000000
cobot_dynamixel_driver/joint_states|name|J1,J2,J3,J4,J5,J6|pos|-0.543704,-1.263152,1.296275,0.001014,-1.616625,-0.000083|vel|0.000000,-0.000000,0.000000,0.000000,0.000000,0.000000|eff|-145.019531,-225.585938,0.000000,-273.925781,0.000000,0.000000
cobot_dynamixel_driver/joint_states|name|J1,J2,J3,J4,J5,J6|pos|-0.543704,-1.263152,1.296275,0.001014,-1.616625,-0.000083|vel|0.000000,-0.000000,0.000000,0.000000,0.000000,0.000000|eff|-145.019531,-209.472656,0.000000,-273.925781,0.000000,0.000000
cobot_dynamixel_driver/joint_states|name|J1,J2,J3,J4,J5,J6|pos|-0.543704,-1.263152,1.296275,0.001014,-1.616625,-0.000083|vel|0.000000,-0.000000,0.000000,0.000000,0.000000,0.000000|eff|-145.019531,-209.472656,0.000000,-273.925781,0.000000,0.000000
cobot_dynamixel_driver/joint_states|name|J1,J2,J3,J4,J5,J6|pos|-0.543704,-1.263152,1.296275,0.001014,-1.616625,-0.000083|vel|0.000000,-0.000000,0.000000,0.000000,0.000000,0.000000|eff|-145.019531,-225.585938,0.000000,-273.925781,0.000000,0.000000
cobot_dynamixel_driver/joint_states|name|J1,J2,J3,J4,J5,J6|pos|-0.543704,-1.263152,1.296275,0.001014,-1.616625,-0.000083|vel|0.000000,-0.000000,0.000000,0.000000,0.000000,0.000000|eff|-145.019531,-225.585938,0.000000,-273.925781,0.000000,0.000000
cobot_dynamixel_driver/joint_states|name|J1,J2,J3,J4,J5,J6|pos|-0.543704,-1.263152,1.296275,0.001014,-1.616625,-0.000083|vel|0.000000,-0.000000,0.000000,0.000000,0.000000,0.000000|eff|-145.019531,-225.585938,0.000000,-273.925781,0.000000,0.000000
cobot_dynamixel_driver/joint_states|name|J1,J2,J3,J4,J5,J6|pos|-0.543704,-1.263152,1.296275,0.001014,-1.616625,-0.000083|vel|0.000000,-0.000000,0.000000,0.000000,0.000000,0.000000|eff|-145.019531,-209.472656,0.000000,-273.925781,0.000000,0.000000
cobot_dynamixel_driver/joint_states|name|J1,J2,J3,J4,J5,J6|pos|-0.543704,-1.263152,1.296275,0.001014,-1.616625,-0.000083|vel|0.000000,-0.000000,0.000000,0.000000,0.000000,0.000000|eff|-145.019531,-225.585938,0.000000,-273.925781,0.000000,0.000000
cobot_dynamixel_driver/joint_states|name|J1,J2,J3,J4,J5,J6|pos|-0.543704,-1.263152,1.296275,0.001014,-1.616625,-0.000083|vel|0.000000,-0.000000,0.000000,0.000000,0.000000,0.000000|eff|-145.019531,-209.472656,0.000000,-273.925781,0.000000,0.000000
cobot_dynamixel_driver/joint_states|name|J1,J2,J3,J4,J5,J6|pos|-0.543704,-1.263152,1.296275,0.001014,-1.616625,-0.000083|vel|0.000000,-0.000000,0.000000,0.000000,0.000000,0.000000|eff|-145.019531,-225.585938,0.000000,-273.925781,0.000000,0.000000
cobot_dynamixel_driver/joint_states|name|J1,J2,J3,J4,J5,J6|pos|-0.543704,-1.263152,1.296275,0.001014,-1.616625,-0.000083|vel|0.000000,-0.000000,0.000000,0.000000,0.000000,0.000000|eff|-145.019531,-209.472656,0.000000,-273.925781,0.000000,0.000000
cobot_dynamixel_driver/joint_states|name|J1,J2,J3,J4,J5,J6|pos|-0.543704,-1.263152,1.296275,0.001014,-1.616625,-0.000083|vel|0.000000,-0.000000,0.000000,0.000000,0.000000,0.000000|eff|-145.019531,-225.585938,0.000000,-273.925781,0.000000,0.000000
cobot_dynamixel_driver/joint_states|name|J1,J2,J3,J4,J5,J6|pos|-0.543704,-1.263152,1.296275,0.001014,-1.616625,-0.000083|vel|0.000000,-0.000000,0.000000,0.000000,0.000000,0.000000|eff|-145.019531,-209.472656,0.000000,-273.925781,0.000000,0.000000
cobot_dynamixel_driver/joint_states|name|J1,J2,J3,J4,J5,J6|pos|-0.543704,-1.263152,1.296275,0.001014,-1.616625,-0.000083|vel|0.000000,-0.000000,0.000000,0.000000,0.000000,0.000000|eff|-145.019531,-209.472656,0.000000,-273.925781,0.000000,0.000000
cobot_dynamixel_driver/joint_states|name|J1,J2,J3,J4,J5,J6|pos|-0.543704,-1.263152,1.296275,0.001014,-1.616625,-0.000083|vel|0.000000,-0.000000,0.000000,0.000000,0.000000,0.000000|eff|-145.019531,-209.472656,0.000000,-273.925781,0.000000,0.000000
cobot_dynamixel_driver/joint_states|name|J1,J2,J3,J4,J5,J6|pos|-0.543704,-1.263152,1.296275,0.001014,-1.616625,-0.000083|vel|0.000000,-0.000000,0.000000,0.000000,0.000000,0.000000|eff|-145.019531,-225.585938,0.000000,-273.925781,0.000000,0.000000
cobot_dynamixel_driver/joint_states|name|J1,J2,J3,J4,J5,J6|pos|-0.543704,-1.263152,1.296275,0.001014,-1.616625,-0.000083|vel|0.000000,-0.000000,0.000000,0.000000,0.000000,0.000000|eff|-145.019531,-225.585938,0.000000,-273.925781,0.000000,0.000000
cobot_dynamixel_driver/joint_states|name|J1,J2,J3,J4,J5,J6|pos|-0.543704,-1.263152,1.296275,0.001014,-1.616625,-0.000083|vel|0.000000,-0.000000,0.000000,0.000000,0.000000,0.000000|eff|-145.019531,-209.472656,0.000000,-273.925781,0.000000,0.000000
cobot_dynamixel_driver/joint_states|name|J1,J2,J3,J4,J5,J6|pos|-0.543704,-1.263152,1.296275,0.001014,-1.616625,-0.000083|vel|0.000000,-0.000000,0.000000,0.000000,0.000000,0.000000|eff|-145.019531,-225.585938,0.000000,-273.925781,0.000000,0.000000
cobot_dynamixel_driver/joint_states|name|J1,J2,J3,J4,J5,J6|pos|-0.543704,-1.263152,1.296275,0.001014,-1.616625,-0.000083|vel|0.000000,-0.000000,0.000000,0.000000,0.000000,0.000000|eff|-145.019531,-225.585938,0.000000,-273.925781,0.000000,0.000000
cobot_dynamixel_driver/joint_states|name|J1,J2,J3,J4,J5,J6|pos|-0.543704,-1.263152,1.296275,0.001014,-1.616625,-0.000083|vel|0.000000,-0.000000,0.000000,0.000000,0.000000,0.000000|eff|-145.019531,-209.472656,0.000000,-273.925781,0.000000,0.000000
cobot_dynamixel_driver/goal|-:J1,J2,J3,J4,J5,J6:0.000000,0.000000,0.000000,0.000000,0.000000,0.000000:0.700000,0.700000,0.700000,0.700000,0.700000,0.700000:pos_vel_
cobot_dynamixel_driver/joint_states|name|J1,J2,J3,J4,J5,J6|pos|-0.543041,-1.263152,1.296275,0.001014,-1.616625,-0.000083|vel|0.000000,-0.000000,0.000000,0.000000,0.000000,0.000000|eff|0.000000,0.000000,0.000000,0.000000,0.000000,0.000000
cobot_dynamixel_driver/joint_states|name|J1,J2,J3,J4,J5,J6|pos|-0.533827,-1.254652,1.287650,0.000839,-1.602228,-0.000083|vel|0.273744,0.253714,-0.269989,-0.001669,0.275070,0.000000|eff|1530.761719,-1998.046875,-1562.988281,-161.132812,64.453125,0.000000
cobot_dynamixel_driver/joint_states|name|J1,J2,J3,J4,J5,J6|pos|-0.495384,-1.216834,1.247654,0.000513,-1.561705,-0.000083|vel|0.562720,0.479261,-0.508472,-0.002086,0.465345,0.000000|eff|2223.632812,-1401.855469,-1772.460938,-193.359375,36.254883,0.000000
cobot_dynamixel_driver/joint_states|name|J1,J2,J3,J4,J5,J6|pos|-0.441868,-1.162467,1.193813,0.000338,-1.508233,-0.000083|vel|0.598190,0.558547,-0.671008,-0.000835,0.597020,0.000000|eff|580.078125,-902.343750,-1579.101562,-177.246094,32.226562,8.056641
cobot_dynamixel_driver/joint_states|name|J1,J2,J3,J4,J5,J6|pos|-0.381155,-1.101278,1.133438,0.000200,-1.448080,-0.000083|vel|0.641588,0.612795,-0.652855,-0.001252,0.705600,0.000000|eff|660.644531,-3142.089844,-1192.382812,-209.472656,20.141602,0.000000
cobot_dynamixel_driver/joint_states|name|J1,J2,J3,J4,J5,J6|pos|-0.316674,-1.036772,1.069094,0.000063,-1.384514,-0.000083|vel|0.699175,0.650769,-0.654525,-0.001043,0.663547,0.000000|eff|177.246094,-3496.582031,-628.417969,-209.472656,56.396484,0.000000
cobot_dynamixel_driver/joint_states|name|J1,J2,J3,J4,J5,J6|pos|-0.250677,-0.970626,1.003373,0.000013,-1.319024,-0.000083|vel|0.691455,0.705643,-0.754675,-0.000209,0.719388,0.000000|eff|1079.589844,-322.265625,-257.812500,-112.792969,-56.396484,32.226562
cobot_dynamixel_driver/joint_states|name|J1,J2,J3,J4,J5,J6|pos|-0.183868,-0.903716,0.936438,-0.000013,-1.252603,-0.000083|vel|0.684361,0.663496,-0.687908,-0.000209,0.665270,0.000000|eff|1176.269531,-580.078125,-789.550781,-145.019531,76.538086,24.169922
cobot_dynamixel_driver/joint_states|name|J1,J2,J3,J4,J5,J6|pos|-0.116545,-0.836380,0.869341,-0.000025,-1.186183,-0.000083|vel|0.702513,0.684361,-0.675598,0.000000,0.604948,0.000000|eff|982.910156,-1127.929688,-1675.781250,-177.246094,0.000000,20.141602
cobot_dynamixel_driver/joint_states|name|J1,J2,J3,J4,J5,J6|pos|-0.058498,-0.768694,0.801592,-0.000050,-1.118810,-0.000083|vel|0.406235,0.687908,-0.749041,-0.000209,0.797290,0.000000|eff|741.210938,-2707.031250,-1321.289062,-145.019531,28.198242,36.254883
cobot_dynamixel_driver/joint_states|name|J1,J2,J3,J4,J5,J6|pos|-0.028567,-0.700132,0.734081,-0.000063,-1.051231,-0.000083|vel|0.215323,0.658280,-0.732976,0.000000,0.630800,0.000000|eff|80.566406,-161.132812,-1981.933594,-161.132812,28.198242,36.254883
cobot_dynamixel_driver/joint_states|name|J1,J2,J3,J4,J5,J6|pos|-0.014333,-0.633059,0.666020,-0.000063,-0.984417,-0.000083|vel|0.095560,0.663914,-0.679145,0.000000,0.616668,0.000000|eff|306.152344,-2852.050781,-1434.082031,-112.792969,0.000000,36.254883
cobot_dynamixel_driver/joint_states|name|J1,J2,J3,J4,J5,J6|pos|-0.007148,-0.565085,0.598096,-0.000063,-0.917190,0.000000|vel|0.052788,0.726508,-0.639711,0.000000,0.683539,0.001034|eff|209.472656,-982.910156,-1756.347656,-145.019531,40.283203,40.283203
cobot_dynamixel_driver/joint_states|name|J1,J2,J3,J4,J5,J6|pos|-0.003568,-0.497249,0.530184,-0.000063,-0.849714,0.000041|vel|0.027124,0.699384,-0.718370,0.000000,0.760407,0.002758|eff|177.246094,-1289.062500,-2094.726562,-177.246094,-24.169922,16.113281
cobot_dynamixel_driver/joint_states|name|J1,J2,J3,J4,J5,J6|pos|-0.001728,-0.429000,0.462573,-0.000063,-0.782156,0.000041|vel|0.011267,0.692290,-0.685404,0.000000,0.624251,0.000000|eff|209.472656,-676.757812,-2110.839844,-112.792969,72.509766,16.113281
cobot_dynamixel_driver/joint_states|name|J1,J2,J3,J4,J5,J6|pos|-0.000889,-0.361864,0.394800,-0.000063,-0.715239,0.000041|vel|0.007094,0.702722,-0.698340,0.000000,0.716631,0.000000|eff|145.019531,-2562.011719,-1401.855469,-96.679688,88.623047,0.000000
cobot_dynamixel_driver/joint_states|name|J1,J2,J3,J4,J5,J6|pos|-0.000413,-0.293803,0.326888,-0.000063,-0.648301,0.000041|vel|0.003756,0.702513,-0.751545,0.000000,0.676990,0.000000|eff|177.246094,-580.078125,-1611.328125,-96.679688,8.056641,0.000000
cobot_dynamixel_driver/joint_states|name|J1,J2,J3,J4,J5,J6|pos|-0.000150,-0.225966,0.258814,-0.000063,-0.581135,0.000041|vel|0.001878,0.698966,-0.692916,0.000000,0.700774,0.000000|eff|128.906250,-1337.402344,-2223.632812,-32.226562,0.000000,0.000000
cobot_dynamixel_driver/joint_states|name|J1,J2,J3,J4,J5,J6|pos|-0.000038,-0.158068,0.190865,-0.000063,-0.513887,0.000041|vel|0.001461,0.724421,-0.839385,0.000000,0.687331,0.000000|eff|96.679688,644.531250,-886.230469,0.000000,92.651367,24.169922
cobot_dynamixel_driver/joint_states|name|J1,J2,J3,J4,J5,J6|pos|-0.000038,-0.090582,0.123555,-0.000063,-0.446432,0.000041|vel|0.001461,0.686030,-0.736105,0.000000,0.728695,0.000000|eff|0.000000,-2110.839844,-1514.648438,-96.679688,8.056641,0.000000
cobot_dynamixel_driver/joint_states|name|J1,J2,J3,J4,J5,J6|pos|-0.000025,-0.044527,0.063580,-0.000050,-0.378480,0.000041|vel|0.000000,0.309632,-0.444209,0.000000,0.697327,0.000000|eff|96.679688,-257.812500,-354.492188,-80.566406,92.651367,16.113281
cobot_dynamixel_driver/joint_states|name|J1,J2,J3,J4,J5,J6|pos|-0.000025,-0.022395,0.032435,-0.000050,-0.312060,0.000041|vel|0.000000,0.157737,-0.216367,0.000000,0.721456,0.000000|eff|32.226562,290.039062,-902.343750,-80.566406,84.594727,0.000000
cobot_dynamixel_driver/joint_states|name|J1,J2,J3,J4,J5,J6|pos|-0.000013,-0.011467,0.016649,-0.000050,-0.244088,0.000041|vel|0.000000,0.078660,-0.105575,0.000000,0.621149,0.000000|eff|161.132812,225.585938,-773.437500,-48.339844,36.254883,12.084961
cobot_dynamixel_driver/joint_states|name|J1,J2,J3,J4,J5,J6|pos|-0.000013,-0.006009,0.008688,-0.000050,-0.177356,0.000041|vel|0.000000,0.037765,-0.049658,0.000000,0.710771,0.000000|eff|161.132812,161.132812,-950.683594,0.000000,52.368164,24.169922
cobot_dynamixel_driver/joint_states|name|J1,J2,J3,J4,J5,J6|pos|-0.000013,-0.003054,0.004394,-0.000050,-0.110005,0.000041|vel|0.000000,0.019821,-0.032549,0.000000,0.742138,0.000000|eff|0.000000,209.472656,-805.664062,0.000000,16.113281,0.000000
cobot_dynamixel_driver/joint_states|name|J1,J2,J3,J4,J5,J6|pos|-0.000013,-0.001602,0.002291,-0.000050,-0.055726,0.000041|vel|0.000000,0.012936,-0.017526,0.000000,0.443973,0.000000|eff|0.000000,177.246094,-886.230469,0.000000,0.000000,16.113281
cobot_dynamixel_driver/joint_states|name|J1,J2,J3,J4,J5,J6|pos|-0.000013,-0.000914,0.001052,-0.000050,-0.029001,0.000041|vel|0.000000,0.004173,-0.006051,0.000000,0.173729,0.000000|eff|80.566406,112.792969,-854.003906,0.000000,40.283203,0.000000
cobot_dynamixel_driver/joint_states|name|J1,J2,J3,J4,J5,J6|pos|-0.000013,-0.000451,0.000376,-0.000038,-0.014914,0.000041|vel|0.000000,0.004382,-0.007094,0.000000,0.097895,0.000000|eff|80.566406,64.453125,-725.097656,0.000000,48.339844,24.169922
cobot_dynamixel_driver/joint_states|name|J1,J2,J3,J4,J5,J6|pos|0.000000,-0.000125,0.000263,-0.000038,-0.007674,0.000041|vel|0.000000,0.002921,-0.000626,0.000000,0.050671,0.000000|eff|0.000000,354.492188,-837.890625,0.000000,60.424805,0.000000
cobot_dynamixel_driver/joint_states|name|J1,J2,J3,J4,J5,J6|pos|0.000000,-0.000125,0.000213,-0.000038,-0.004034,0.000041|vel|0.000000,0.002921,-0.000417,0.000000,0.023784,0.000000|eff|128.906250,225.585938,-837.890625,0.000000,104.736328,16.113281
cobot_dynamixel_driver/joint_states|name|J1,J2,J3,J4,J5,J6|pos|0.000000,-0.000125,0.000175,-0.000038,-0.002089,0.000041|vel|0.000000,-0.000000,-0.000209,0.000000,0.014477,0.000000|eff|32.226562,193.359375,-854.003906,0.000000,76.538086,0.000000
cobot_dynamixel_driver/joint_states|name|J1,J2,J3,J4,J5,J6|pos|0.000000,-0.000113,0.000138,-0.000038,-0.001034,0.000041|vel|0.000000,-0.000000,-0.000209,0.000000,0.005860,0.000000|eff|32.226562,354.492188,-854.003906,0.000000,76.538086,0.000000
cobot_dynamixel_driver/joint_states|name|J1,J2,J3,J4,J5,J6|pos|0.000000,-0.000100,0.000113,-0.000038,-0.000683,0.000041|vel|0.000000,-0.000000,-0.000209,0.000000,0.004481,0.000000|eff|177.246094,145.019531,-918.457031,0.000000,72.509766,0.000000
cobot_dynamixel_driver/joint_states|name|J1,J2,J3,J4,J5,J6|pos|0.000000,-0.000088,0.000100,-0.000025,-0.000621,0.000041|vel|0.000000,-0.000000,-0.000209,0.000000,0.000000,0.000000|eff|112.792969,128.906250,-934.570312,0.000000,76.538086,0.000000
cobot_dynamixel_driver/joint_states|name|J1,J2,J3,J4,J5,J6|pos|0.000000,-0.000025,0.000088,-0.000013,-0.000476,0.000041|vel|0.000000,0.000626,0.000000,0.000000,0.006894,0.000000|eff|96.679688,257.812500,-950.683594,48.339844,44.311523,0.000000
cobot_dynamixel_driver/joint_states|name|J1,J2,J3,J4,J5,J6|pos|0.000000,-0.000025,0.000075,-0.000013,-0.000476,0.000041|vel|0.000000,0.000626,0.000000,0.000000,0.000000,0.000000|eff|0.000000,161.132812,-918.457031,48.339844,56.396484,0.000000
cobot_dynamixel_driver/joint_states|name|J1,J2,J3,J4,J5,J6|pos|0.000000,-0.000013,0.000063,0.000000,-0.000414,0.000041|vel|0.000000,-0.000000,0.000000,0.000000,0.000000,0.000000|eff|0.000000,145.019531,-982.910156,0.000000,76.538086,8.056641
cobot_dynamixel_driver/joint_states|name|J1,J2,J3,J4,J5,J6|pos|0.000000,-0.000013,0.000050,0.000013,-0.000269,0.000041|vel|0.000000,-0.000000,0.000000,0.000000,0.004481,0.000000|eff|128.906250,273.925781,-966.796875,0.000000,52.368164,0.000000
cobot_dynamixel_driver/joint_states|name|J1,J2,J3,J4,J5,J6|pos|0.000000,-0.000013,0.000050,0.000013,-0.000269,0.000041|vel|0.000000,-0.000000,0.000000,0.000000,0.000000,0.000000|eff|32.226562,338.378906,-966.796875,48.339844,60.424805,24.169922
cobot_dynamixel_driver/joint_states|name|J1,J2,J3,J4,J5,J6|pos|0.000000,-0.000013,0.000050,0.000013,-0.000269,0.000041|vel|0.000000,-0.000000,0.000000,0.000000,0.000000,0.000000|eff|0.000000,145.019531,-982.910156,0.000000,72.509766,0.000000
cobot_dynamixel_driver/joint_states|name|J1,J2,J3,J4,J5,J6|pos|0.000000,-0.000013,0.000038,0.000025,-0.000145,0.000041|vel|0.000000,-0.000000,0.000000,0.000000,0.002068,0.000000|eff|161.132812,145.019531,-999.023438,0.000000,68.481445,0.000000
cobot_dynamixel_driver/joint_states|name|J1,J2,J3,J4,J5,J6|pos|0.000000,-0.000013,0.000038,0.000025,-0.000145,0.000041|vel|0.000000,-0.000000,0.000000,0.000000,0.000000,0.000000|eff|0.000000,145.019531,-982.910156,0.000000,60.424805,0.000000
cobot_dynamixel_driver/joint_states|name|J1,J2,J3,J4,J5,J6|pos|0.000000,-0.000013,0.000025,0.000025,-0.000145,0.000041|vel|0.000000,-0.000000,0.000000,0.000000,0.000000,0.000000|eff|177.246094,145.019531,-966.796875,0.000000,64.453125,0.000000
cobot_dynamixel_driver/joint_states|name|J1,J2,J3,J4,J5,J6|pos|0.000000,-0.000013,0.000013,0.000025,-0.000145,0.000041|vel|0.000000,-0.000000,0.000000,0.000000,0.000000,0.000000|eff|96.679688,161.132812,-1015.136719,80.566406,72.509766,0.000000
cobot_dynamixel_driver/joint_states|name|J1,J2,J3,J4,J5,J6|pos|0.000000,-0.000013,0.000000,0.000038,-0.000103,0.000041|vel|0.000000,-0.000000,0.000000,0.000000,0.000000,0.000000|eff|0.000000,128.906250,-1031.250000,0.000000,80.566406,0.000000
cobot_dynamixel_driver/joint_states|name|J1,J2,J3,J4,J5,J6|pos|0.000000,-0.000013,-0.000013,0.000038,0.000000,0.000041|vel|0.000000,-0.000000,0.000000,0.000000,0.001723,0.000000|eff|0.000000,128.906250,-1015.136719,0.000000,68.481445,0.000000
cobot_dynamixel_driver/joint_states|name|J1,J2,J3,J4,J5,J6|pos|0.000000,-0.000013,-0.000038,0.000038,0.000000,0.000041|vel|0.000000,-0.000000,-0.000209,0.000000,0.001723,0.000000|eff|145.019531,161.132812,-1047.363281,0.000000,48.339844,16.113281
cobot_dynamixel_driver/joint_states|name|J1,J2,J3,J4,J5,J6|pos|0.000013,-0.000013,-0.000050,0.000038,0.000000,0.000041|vel|0.000000,-0.000000,-0.000209,0.000000,0.000000,0.000000|eff|32.226562,145.019531,-966.796875,0.000000,60.424805,0.000000
cobot_dynamixel_driver/joint_states|name|J1,J2,J3,J4,J5,J6|pos|0.000013,-0.000013,-0.000063,0.000038,0.000000,0.000041|vel|0.000000,-0.000000,0.000000,0.000000,0.000000,0.000000|eff|32.226562,128.906250,-966.796875,0.000000,60.424805,16.113281
cobot_dynamixel_driver/joint_states|name|J1,J2,J3,J4,J5,J6|pos|0.000013,-0.000013,-0.000063,0.000038,0.000000,0.000041|vel|0.000000,-0.000000,0.000000,0.000000,0.000000,0.000000|eff|145.019531,145.019531,-966.796875,0.000000,52.368164,24.169922
cobot_dynamixel_driver/joint_states|name|J1,J2,J3,J4,J5,J6|pos|0.000013,-0.000013,-0.000063,0.000038,0.000000,0.000041|vel|0.000000,-0.000000,0.000000,0.000000,0.000000,0.000000|eff|0.000000,145.019531,-902.343750,0.000000,52.368164,0.000000
cobot_dynamixel_driver/joint_states|name|J1,J2,J3,J4,J5,J6|pos|0.000013,-0.000013,-0.000063,0.000038,0.000000,0.000041|vel|0.000000,-0.000000,0.000000,0.000000,0.000000,0.000000|eff|128.906250,145.019531,-966.796875,0.000000,60.424805,0.000000
cobot_dynamixel_driver/joint_states|name|J1,J2,J3,J4,J5,J6|pos|0.000013,-0.000013,-0.000063,0.000038,0.000000,0.000041|vel|0.000000,-0.000000,0.000000,0.000000,0.000000,0.000000|eff|32.226562,354.492188,-950.683594,0.000000,60.424805,0.000000
cobot_dynamixel_driver/joint_states|name|J1,J2,J3,J4,J5,J6|pos|0.000013,-0.000013,-0.000063,0.000025,0.000000,0.000041|vel|0.000000,-0.000000,0.000000,0.000000,0.000000,0.000000|eff|0.000000,209.472656,-886.230469,-64.453125,60.424805,0.000000
cobot_dynamixel_driver/joint_states|name|J1,J2,J3,J4,J5,J6|pos|0.000013,-0.000013,-0.000063,0.000025,0.000000,0.000041|vel|0.000000,-0.000000,0.000000,0.000000,0.000000,0.000000|eff|177.246094,354.492188,-950.683594,-48.339844,52.368164,0.000000
cobot_dynamixel_driver/joint_states|name|J1,J2,J3,J4,J5,J6|pos|0.000013,-0.000013,-0.000063,0.000025,0.000000,0.000041|vel|0.000000,-0.000000,0.000000,0.000000,0.000000,0.000000|eff|80.566406,322.265625,-886.230469,0.000000,60.424805,24.169922
cobot_dynamixel_driver/joint_states|name|J1,J2,J3,J4,J5,J6|pos|0.000013,-0.000013,-0.000063,0.000025,0.000000,0.000041|vel|0.000000,-0.000000,0.000000,0.000000,0.000000,0.000000|eff|80.566406,128.906250,-870.117188,0.000000,60.424805,0.000000
cobot_dynamixel_driver/joint_states|name|J1,J2,J3,J4,J5,J6|pos|0.000013,-0.000013,-0.000063,0.000025,0.000000,0.000041|vel|0.000000,-0.000000,0.000000,0.000000,0.000000,0.000000|eff|32.226562,177.246094,-870.117188,-80.566406,52.368164,0.000000
cobot_dynamixel_driver/joint_states|name|J1,J2,J3,J4,J5,J6|pos|0.000013,-0.000013,-0.000063,0.000025,0.000000,0.000041|vel|0.000000,-0.000000,0.000000,0.000000,0.000000,0.000000|eff|80.566406,257.812500,-870.117188,0.000000,52.368164,0.000000
cobot_dynamixel_driver/joint_states|name|J1,J2,J3,J4,J5,J6|pos|0.000013,-0.000013,-0.000063,0.000025,0.000000,0.000041|vel|0.000000,-0.000000,0.000000,0.000000,0.000000,0.000000|eff|0.000000,257.812500,-870.117188,-64.453125,56.396484,0.000000
cobot_dynamixel_driver/joint_states|name|J1,J2,J3,J4,J5,J6|pos|0.000013,-0.000013,-0.000063,0.000025,0.000000,0.000041|vel|0.000000,-0.000000,0.000000,0.000000,0.000000,0.000000|eff|0.000000,209.472656,-854.003906,-80.566406,56.396484,16.113281
cobot_dynamixel_driver/joint_states|name|J1,J2,J3,J4,J5,J6|pos|0.000013,-0.000013,-0.000063,0.000025,0.000000,0.000041|vel|0.000000,-0.000000,0.000000,0.000000,0.000000,0.000000|eff|96.679688,128.906250,-870.117188,0.000000,56.396484,0.000000
cobot_dynamixel_driver/joint_states|name|J1,J2,J3,J4,J5,J6|pos|0.000013,-0.000013,-0.000063,0.000025,0.000000,0.000041|vel|0.000000,-0.000000,0.000000,0.000000,0.000000,0.000000|eff|0.000000,145.019531,-805.664062,0.000000,56.396484,0.000000
cobot_dynamixel_driver/joint_states|name|J1,J2,J3,J4,J5,J6|pos|0.000013,-0.000013,-0.000063,0.000025,0.000000,0.000041|vel|0.000000,-0.000000,0.000000,0.000000,0.000000,0.000000|eff|0.000000,145.019531,-821.777344,0.000000,52.368164,0.000000
cobot_dynamixel_driver/joint_states|name|J1,J2,J3,J4,J5,J6|pos|0.000013,-0.000013,-0.000063,0.000025,0.000000,0.000041|vel|0.000000,-0.000000,0.000000,0.000000,0.000000,0.000000|eff|0.000000,145.019531,-837.890625,0.000000,52.368164,0.000000
cobot_dynamixel_driver/joint_states|name|J1,J2,J3,J4,J5,J6|pos|0.000013,-0.000013,-0.000063,0.000025,0.000000,0.000041|vel|0.000000,-0.000000,0.000000,0.000000,0.000000,0.000000|eff|32.226562,161.132812,-773.437500,0.000000,56.396484,0.000000
cobot_dynamixel_driver/joint_states|name|J1,J2,J3,J4,J5,J6|pos|0.000013,-0.000013,-0.000063,0.000025,0.000000,0.000041|vel|0.000000,-0.000000,0.000000,0.000000,0.000000,0.000000|eff|0.000000,161.132812,-773.437500,0.000000,60.424805,24.169922
cobot_dynamixel_driver/joint_states|name|J1,J2,J3,J4,J5,J6|pos|0.000013,-0.000013,-0.000063,0.000025,0.000000,0.000041|vel|0.000000,-0.000000,0.000000,0.000000,0.000000,0.000000|eff|161.132812,177.246094,-773.437500,-48.339844,56.396484,0.000000
cobot_dynamixel_driver/joint_states|name|J1,J2,J3,J4,J5,J6|pos|0.000013,-0.000013,-0.000063,0.000025,0.000000,0.000041|vel|0.000000,-0.000000,0.000000,0.000000,0.000000,0.000000|eff|177.246094,209.472656,-773.437500,0.000000,52.368164,0.000000
cobot_dynamixel_driver/joint_states|name|J1,J2,J3,J4,J5,J6|pos|0.000013,-0.000013,-0.000063,0.000025,0.000000,0.000041|vel|0.000000,-0.000000,0.000000,0.000000,0.000000,0.000000|eff|32.226562,161.132812,-757.324219,-48.339844,56.396484,0.000000
cobot_dynamixel_driver/joint_states|name|J1,J2,J3,J4,J5,J6|pos|0.000013,-0.000013,-0.000063,0.000025,0.000000,0.000041|vel|0.000000,-0.000000,0.000000,0.000000,0.000000,0.000000|eff|96.679688,128.906250,-692.871094,-48.339844,52.368164,0.000000
cobot_dynamixel_driver/joint_states|name|J1,J2,J3,J4,J5,J6|pos|0.000013,-0.000013,-0.000063,0.000025,0.000000,0.000041|vel|0.000000,-0.000000,0.000000,0.000000,0.000000,0.000000|eff|128.906250,209.472656,-676.757812,-80.566406,56.396484,0.000000
cobot_dynamixel_driver/joint_states|name|J1,J2,J3,J4,J5,J6|pos|0.000013,-0.000013,-0.000050,0.000025,0.000000,0.000041|vel|0.000000,-0.000000,0.000000,0.000000,0.000000,0.000000|eff|96.679688,209.472656,-676.757812,0.000000,56.396484,0.000000
cobot_dynamixel_driver/joint_states|name|J1,J2,J3,J4,J5,J6|pos|0.000013,-0.000013,-0.000050,0.000025,0.000000,0.000041|vel|0.000000,-0.000000,0.000000,0.000000,0.000000,0.000000|eff|96.679688,193.359375,-708.984375,-80.566406,52.368164,0.000000
cobot_dynamixel_driver/joint_states|name|J1,J2,J3,J4,J5,J6|pos|0.000013,-0.000013,-0.000050,0.000025,0.000000,0.000041|vel|0.000000,-0.000000,0.000000,0.000000,0.000000,0.000000|eff|0.000000,145.019531,-708.984375,-48.339844,52.368164,0.000000
cobot_dynamixel_driver/joint_states|name|J1,J2,J3,J4,J5,J6|pos|0.000013,-0.000013,-0.000050,0.000025,0.000000,0.000041|vel|0.000000,-0.000000,0.000000,0.000000,0.000000,0.000000|eff|80.566406,161.132812,-660.644531,-64.453125,56.396484,0.000000
cobot_dynamixel_driver/joint_states|name|J1,J2,J3,J4,J5,J6|pos|0.000013,-0.000013,-0.000050,0.000025,0.000000,0.000041|vel|0.000000,-0.000000,0.000000,0.000000,0.000000,0.000000|eff|145.019531,193.359375,-676.757812,-96.679688,56.396484,0.000000
cobot_dynamixel_driver/joint_states|name|J1,J2,J3,J4,J5,J6|pos|0.000013,-0.000013,-0.000050,0.000025,0.000000,0.000041|vel|0.000000,-0.000000,0.000000,0.000000,0.000000,0.000000|eff|32.226562,273.925781,-708.984375,-80.566406,56.396484,0.000000
cobot_dynamixel_driver/joint_states|name|J1,J2,J3,J4,J5,J6|pos|0.000013,-0.000013,-0.000050,0.000025,0.000000,0.000041|vel|0.000000,-0.000000,0.000000,0.000000,0.000000,0.000000|eff|96.679688,322.265625,-676.757812,-80.566406,56.396484,0.000000
cobot_dynamixel_driver/joint_states|name|J1,J2,J3,J4,J5,J6|pos|0.000013,-0.000013,-0.000050,0.000025,0.000000,0.000041|vel|0.000000,-0.000000,0.000000,0.000000,0.000000,0.000000|eff|80.566406,128.906250,-660.644531,-64.453125,60.424805,0.000000
cobot_dynamixel_driver/joint_states|name|J1,J2,J3,J4,J5,J6|pos|0.000013,-0.000013,-0.000050,0.000025,0.000000,0.000041|vel|0.000000,-0.000000,0.000000,0.000000,0.000000,0.000000|eff|0.000000,322.265625,-692.871094,-80.566406,56.396484,0.000000
cobot_dynamixel_driver/joint_states|name|J1,J2,J3,J4,J5,J6|pos|0.000013,-0.000013,-0.000050,0.000025,0.000000,0.000041|vel|0.000000,-0.000000,0.000000,0.000000,0.000000,0.000000|eff|161.132812,273.925781,-660.644531,0.000000,56.396484,0.000000
cobot_dynamixel_driver/joint_states|name|J1,J2,J3,J4,J5,J6|pos|0.000013,-0.000013,-0.000050,0.000025,0.000000,0.000041|vel|0.000000,-0.000000,0.000000,0.000000,0.000000,0.000000|eff|96.679688,338.378906,-660.644531,-80.566406,60.424805,0.000000
cobot_dynamixel_driver/joint_states|name|J1,J2,J3,J4,J5,J6|pos|0.000013,-0.000013,-0.000050,0.000025,0.000000,0.000041|vel|0.000000,-0.000000,0.000000,0.000000,0.000000,0.000000|eff|145.019531,177.246094,-660.644531,0.000000,60.424805,0.000000
cobot_dynamixel_driver/joint_states|name|J1,J2,J3,J4,J5,J6|pos|0.000013,-0.000013,-0.000050,0.000025,0.000000,0.000041|vel|0.000000,-0.000000,0.000000,0.000000,0.000000,0.000000|eff|177.246094,161.132812,-660.644531,0.000000,52.368164,0.000000
cobot_dynamixel_driver/joint_states|name|J1,J2,J3,J4,J5,J6|pos|0.000013,-0.000013,-0.000050,0.000025,0.000000,0.000041|vel|0.000000,-0.000000,0.000000,0.000000,0.000000,0.000000|eff|145.019531,128.906250,-644.531250,-48.339844,52.368164,0.000000
cobot_dynamixel_driver/joint_states|name|J1,J2,J3,J4,J5,J6|pos|0.000013,-0.000013,-0.000050,0.000025,0.000000,0.000041|vel|0.000000,-0.000000,0.000000,0.000000,0.000000,0.000000|eff|128.906250,273.925781,-660.644531,0.000000,60.424805,24.169922
cobot_dynamixel_driver/joint_states|name|J1,J2,J3,J4,J5,J6|pos|0.000013,-0.000013,-0.000038,0.000025,0.000000,0.000041|vel|0.000000,-0.000000,0.000000,0.000000,0.000000,0.000000|eff|145.019531,161.132812,-660.644531,-48.339844,60.424805,0.000000
cobot_dynamixel_driver/joint_states|name|J1,J2,J3,J4,J5,J6|pos|0.000013,-0.000013,-0.000038,0.000025,0.000000,0.000041|vel|0.000000,-0.000000,0.000000,0.000000,0.000000,0.000000|eff|145.019531,322.265625,-628.417969,-64.453125,60.424805,0.000000
cobot_dynamixel_driver/joint_states|name|J1,J2,J3,J4,J5,J6|pos|0.000013,-0.000013,-0.000038,0.000025,0.000000,0.000041|vel|0.000000,-0.000000,0.000000,0.000000,0.000000,0.000000|eff|0.000000,128.906250,-660.644531,0.000000,56.396484,0.000000
cobot_dynamixel_driver/joint_states|name|J1,J2,J3,J4,J5,J6|pos|0.000013,-0.000013,-0.000038,0.000025,0.000000,0.000041|vel|0.000000,-0.000000,0.000000,0.000000,0.000000,0.000000|eff|128.906250,145.019531,-596.191406,0.000000,60.424805,0.000000
cobot_dynamixel_driver/joint_states|name|J1,J2,J3,J4,J5,J6|pos|0.000013,-0.000013,-0.000038,0.000025,0.000000,0.000041|vel|0.000000,-0.000000,0.000000,0.000000,0.000000,0.000000|eff|177.246094,257.812500,-580.078125,-48.339844,56.396484,0.000000
cobot_dynamixel_driver/joint_states|name|J1,J2,J3,J4,J5,J6|pos|0.000013,-0.000013,-0.000038,0.000025,0.000000,0.000041|vel|0.000000,-0.000000,0.000000,0.000000,0.000000,0.000000|eff|112.792969,145.019531,-644.531250,0.000000,52.368164,0.000000
cobot_dynamixel_driver/joint_states|name|J1,J2,J3,J4,J5,J6|pos|0.000013,-0.000013,-0.000025,0.000025,0.000000,0.000041|vel|0.000000,-0.000000,0.000000,0.000000,0.000000,0.000000|eff|161.132812,322.265625,-644.531250,0.000000,60.424805,0.000000
cobot_dynamixel_driver/joint_states|name|J1,J2,J3,J4,J5,J6|pos|0.000013,-0.000013,-0.000025,0.000025,0.000000,0.000041|vel|0.000000,-0.000000,0.000000,0.000000,0.000000,0.000000|eff|96.679688,209.472656,-563.964844,0.000000,60.424805,0.000000
cobot_dynamixel_driver/joint_states|name|J1,J2,J3,J4,J5,J6|pos|0.000013,-0.000013,-0.000025,0.000025,0.000000,0.000041|vel|0.000000,-0.000000,0.000000,0.000000,0.000000,0.000000|eff|128.906250,209.472656,-644.531250,0.000000,60.424805,12.084961
cobot_dynamixel_driver/joint_states|name|J1,J2,J3,J4,J5,J6|pos|0.000013,-0.000013,-0.000025,0.000025,0.000000,0.000041|vel|0.000000,-0.000000,0.000000,0.000000,0.000000,0.000000|eff|145.019531,161.132812,-580.078125,0.000000,52.368164,0.000000
cobot_dynamixel_driver/joint_states|name|J1,J2,J3,J4,J5,J6|pos|0.000013,-0.000013,-0.000025,0.000025,0.000000,0.000041|vel|0.000000,-0.000000,0.000000,0.000000,0.000000,0.000000|eff|161.132812,161.132812,-596.191406,-48.339844,60.424805,0.000000
cobot_dynamixel_driver/joint_states|name|J1,J2,J3,J4,J5,J6|pos|0.000013,-0.000013,-0.000025,0.000025,0.000000,0.000041|vel|0.000000,-0.000000,0.000000,0.000000,0.000000,0.000000|eff|96.679688,209.472656,-628.417969,0.000000,52.368164,0.000000
cobot_dynamixel_driver/joint_states|name|J1,J2,J3,J4,J5,J6|pos|0.000013,-0.000013,-0.000025,0.000025,0.000000,0.000041|vel|0.000000,-0.000000,0.000000,0.000000,0.000000,0.000000|eff|0.000000,209.472656,-563.964844,-80.566406,52.368164,0.000000
cobot_dynamixel_driver/joint_states|name|J1,J2,J3,J4,J5,J6|pos|0.000013,-0.000013,-0.000025,0.000025,0.000000,0.000041|vel|0.000000,-0.000000,0.000000,0.000000,0.000000,0.000000|eff|145.019531,338.378906,-563.964844,-80.566406,52.368164,0.000000
cobot_dynamixel_driver/joint_states|name|J1,J2,J3,J4,J5,J6|pos|0.000013,-0.000013,-0.000025,0.000025,0.000000,0.000041|vel|0.000000,-0.000000,0.000000,0.000000,0.000000,0.000000|eff|80.566406,128.906250,-563.964844,-64.453125,56.396484,0.000000
cobot_dynamixel_driver/joint_states|name|J1,J2,J3,J4,J5,J6|pos|0.000013,-0.000013,-0.000025,0.000025,0.000000,0.000041|vel|0.000000,-0.000000,0.000000,0.000000,0.000000,0.000000|eff|145.019531,145.019531,-596.191406,0.000000,56.396484,12.084961
cobot_dynamixel_driver/joint_states|name|J1,J2,J3,J4,J5,J6|pos|0.000013,-0.000013,-0.000025,0.000025,0.000000,0.000041|vel|0.000000,-0.000000,0.000000,0.000000,0.000000,0.000000|eff|32.226562,177.246094,-628.417969,-80.566406,52.368164,0.000000
cobot_dynamixel_driver/joint_states|name|J1,J2,J3,J4,J5,J6|pos|0.000013,-0.000013,-0.000025,0.000025,0.000000,0.000041|vel|0.000000,-0.000000,0.000000,0.000000,0.000000,0.000000|eff|0.000000,145.019531,-596.191406,-48.339844,52.368164,0.000000
cobot_dynamixel_driver/joint_states|name|J1,J2,J3,J4,J5,J6|pos|0.000013,-0.000013,-0.000025,0.000025,0.000000,0.000041|vel|0.000000,-0.000000,0.000000,0.000000,0.000000,0.000000|eff|0.000000,322.265625,-580.078125,-48.339844,52.368164,0.000000
cobot_dynamixel_driver/joint_states|name|J1,J2,J3,J4,J5,J6|pos|0.000013,-0.000013,-0.000025,0.000025,0.000000,0.000041|vel|0.000000,-0.000000,0.000000,0.000000,0.000000,0.000000|eff|161.132812,209.472656,-563.964844,-48.339844,56.396484,0.000000
cobot_dynamixel_driver/joint_states|name|J1,J2,J3,J4,J5,J6|pos|0.000013,-0.000013,-0.000025,0.000025,0.000000,0.000041|vel|0.000000,-0.000000,0.000000,0.000000,0.000000,0.000000|eff|80.566406,161.132812,-628.417969,-48.339844,52.368164,0.000000
cobot_dynamixel_driver/joint_states|name|J1,J2,J3,J4,J5,J6|pos|0.000013,-0.000013,-0.000025,0.000025,0.000000,0.000041|vel|0.000000,-0.000000,0.000000,0.000000,0.000000,0.000000|eff|145.019531,177.246094,-563.964844,-48.339844,52.368164,24.169922
cobot_dynamixel_driver/joint_states|name|J1,J2,J3,J4,J5,J6|pos|0.000013,-0.000013,-0.000025,0.000025,0.000000,0.000041|vel|0.000000,-0.000000,0.000000,0.000000,0.000000,0.000000|eff|177.246094,128.906250,-628.417969,0.000000,56.396484,0.000000
cobot_dynamixel_driver/joint_states|name|J1,J2,J3,J4,J5,J6|pos|0.000013,-0.000013,-0.000025,0.000025,0.000000,0.000041|vel|0.000000,-0.000000,0.000000,0.000000,0.000000,0.000000|eff|161.132812,273.925781,-563.964844,-64.453125,56.396484,0.000000
cobot_dynamixel_driver/joint_states|name|J1,J2,J3,J4,J5,J6|pos|0.000013,-0.000013,-0.000025,0.000025,0.000000,0.000041|vel|0.000000,-0.000000,0.000000,0.000000,0.000000,0.000000|eff|161.132812,209.472656,-612.304688,0.000000,56.396484,0.000000
cobot_dynamixel_driver/joint_states|name|J1,J2,J3,J4,J5,J6|pos|0.000013,-0.000013,-0.000025,0.000025,0.000000,0.000041|vel|0.000000,-0.000000,0.000000,0.000000,0.000000,0.000000|eff|0.000000,145.019531,-563.964844,0.000000,52.368164,0.000000
cobot_dynamixel_driver/joint_states|name|J1,J2,J3,J4,J5,J6|pos|0.000013,-0.000013,-0.000025,0.000025,0.000000,0.000041|vel|0.000000,-0.000000,0.000000,0.000000,0.000000,0.000000|eff|128.906250,273.925781,-596.191406,-80.566406,52.368164,0.000000
cobot_dynamixel_driver/joint_states|name|J1,J2,J3,J4,J5,J6|pos|0.000013,-0.000013,-0.000025,0.000025,0.000000,0.000041|vel|0.000000,-0.000000,0.000000,0.000000,0.000000,0.000000|eff|128.906250,354.492188,-563.964844,-96.679688,56.396484,0.000000
cobot_dynamixel_driver/joint_states|name|J1,J2,J3,J4,J5,J6|pos|0.000013,-0.000013,-0.000025,0.000025,0.000000,0.000041|vel|0.000000,-0.000000,0.000000,0.000000,0.000000,0.000000|eff|161.132812,128.906250,-580.078125,-48.339844,60.424805,0.000000
cobot_dynamixel_driver/joint_states|name|J1,J2,J3,J4,J5,J6|pos|0.000013,-0.000013,-0.000025,0.000025,0.000000,0.000041|vel|0.000000,-0.000000,0.000000,0.000000,0.000000,0.000000|eff|96.679688,273.925781,-628.417969,0.000000,60.424805,0.000000
cobot_dynamixel_driver/joint_states|name|J1,J2,J3,J4,J5,J6|pos|0.000013,-0.000013,-0.000025,0.000025,0.000000,0.000041|vel|0.000000,-0.000000,0.000000,0.000000,0.000000,0.000000|eff|32.226562,193.359375,-596.191406,0.000000,60.424805,0.000000
cobot_dynamixel_driver/joint_states|name|J1,J2,J3,J4,J5,J6|pos|0.000013,-0.000013,-0.000025,0.000025,0.000000,0.000041|vel|0.000000,-0.000000,0.000000,0.000000,0.000000,0.000000|eff|0.000000,128.906250,-596.191406,0.000000,60.424805,0.000000
cobot_dynamixel_driver/joint_states|name|J1,J2,J3,J4,J5,J6|pos|0.000013,-0.000013,-0.000025,0.000025,0.000000,0.000041|vel|0.000000,-0.000000,0.000000,0.000000,0.000000,0.000000|eff|128.906250,209.472656,-628.417969,0.000000,56.396484,0.000000
cobot_dynamixel_driver/joint_states|name|J1,J2,J3,J4,J5,J6|pos|0.000013,-0.000013,-0.000025,0.000025,0.000000,0.000041|vel|0.000000,-0.000000,0.000000,0.000000,0.000000,0.000000|eff|0.000000,145.019531,-628.417969,-80.566406,56.396484,16.113281
cobot_dynamixel_driver/joint_states|name|J1,J2,J3,J4,J5,J6|pos|0.000013,-0.000013,-0.000025,0.000025,0.000000,0.000041|vel|0.000000,-0.000000,0.000000,0.000000,0.000000,0.000000|eff|128.906250,161.132812,-580.078125,0.000000,60.424805,0.000000
cobot_dynamixel_driver/joint_states|name|J1,J2,J3,J4,J5,J6|pos|0.000013,-0.000013,-0.000025,0.000025,0.000000,0.000041|vel|0.000000,-0.000000,0.000000,0.000000,0.000000,0.000000|eff|96.679688,128.906250,-612.304688,0.000000,56.396484,12.084961
cobot_dynamixel_driver/joint_states|name|J1,J2,J3,J4,J5,J6|pos|0.000013,-0.000013,-0.000025,0.000025,0.000000,0.000041|vel|0.000000,-0.000000,0.000000,0.000000,0.000000,0.000000|eff|177.246094,273.925781,-580.078125,-96.679688,52.368164,24.169922
cobot_dynamixel_driver/joint_states|name|J1,J2,J3,J4,J5,J6|pos|0.000013,-0.000013,-0.000025,0.000025,0.000000,0.000041|vel|0.000000,-0.000000,0.000000,0.000000,0.000000,0.000000|eff|0.000000,209.472656,-580.078125,0.000000,56.396484,0.000000
cobot_dynamixel_driver/joint_states|name|J1,J2,J3,J4,J5,J6|pos|0.000013,-0.000013,-0.000025,0.000025,0.000000,0.000041|vel|0.000000,-0.000000,0.000000,0.000000,0.000000,0.000000|eff|96.679688,145.019531,-580.078125,0.000000,56.396484,0.000000
cobot_dynamixel_driver/joint_states|name|J1,J2,J3,J4,J5,J6|pos|0.000013,-0.000013,-0.000025,0.000025,0.000000,0.000041|vel|0.000000,-0.000000,0.000000,0.000000,0.000000,0.000000|eff|161.132812,273.925781,-580.078125,0.000000,52.368164,24.169922
cobot_dynamixel_driver/joint_states|name|J1,J2,J3,J4,J5,J6|pos|0.000013,-0.000013,-0.000025,0.000025,0.000000,0.000041|vel|0.000000,-0.000000,0.000000,0.000000,0.000000,0.000000|eff|0.000000,209.472656,-612.304688,0.000000,60.424805,0.000000
cobot_dynamixel_driver/joint_states|name|J1,J2,J3,J4,J5,J6|pos|0.000013,-0.000013,-0.000025,0.000025,0.000000,0.000041|vel|0.000000,-0.000000,0.000000,0.000000,0.000000,0.000000|eff|32.226562,209.472656,-628.417969,-64.453125,56.396484,8.056641
