surachairobotic/cobot/cobot_dynamixel_driver/log/2018-12-14T10:12:41.792290_driver_log.txt
cobot_dynamixel_driver/joint_states|name|J1,J2,J3,J4,J5,J6|pos|0.007198,-1.266694,1.296275,0.001014,-1.551487,1.893974|vel|0.000000,-0.000000,0.000000,0.000000,0.000000,0.000000|eff|0.000000,0.000000,0.000000,0.000000,8.056641,8.056641
cobot_dynamixel_driver/joint_states|name|J1,J2,J3,J4,J5,J6|pos|0.007198,-1.266694,1.296275,0.001014,-1.551487,1.893974|vel|0.000000,-0.000000,0.000000,0.000000,0.000000,0.000000|eff|0.000000,0.000000,0.000000,0.000000,0.000000,0.000000
cobot_dynamixel_driver/joint_states|name|J1,J2,J3,J4,J5,J6|pos|0.007198,-1.266694,1.296275,0.001014,-1.551487,1.893974|vel|0.000000,-0.000000,0.000000,0.000000,0.000000,0.000000|eff|0.000000,0.000000,0.000000,0.000000,0.000000,8.056641
cobot_dynamixel_driver/joint_states|name|J1,J2,J3,J4,J5,J6|pos|0.007198,-1.266694,1.296275,0.001014,-1.551487,1.893974|vel|0.000000,-0.000000,0.000000,0.000000,0.000000,0.000000|eff|0.000000,0.000000,0.000000,0.000000,8.056641,8.056641
cobot_dynamixel_driver/joint_states|name|J1,J2,J3,J4,J5,J6|pos|0.007198,-1.266694,1.296275,0.001014,-1.551487,1.893974|vel|0.000000,-0.000000,0.000000,0.000000,0.000000,0.000000|eff|0.000000,0.000000,0.000000,0.000000,-8.056641,0.000000
cobot_dynamixel_driver/joint_states|name|J1,J2,J3,J4,J5,J6|pos|0.007198,-1.266694,1.296275,0.001014,-1.551487,1.893974|vel|0.000000,-0.000000,0.000000,0.000000,0.000000,0.000000|eff|0.000000,0.000000,0.000000,0.000000,-8.056641,-8.056641
cobot_dynamixel_driver/joint_states|name|J1,J2,J3,J4,J5,J6|pos|0.007198,-1.266694,1.296275,0.001014,-1.551487,1.893974|vel|0.000000,-0.000000,0.000000,0.000000,0.000000,0.000000|eff|0.000000,0.000000,0.000000,0.000000,-8.056641,0.000000
cobot_dynamixel_driver/joint_states|name|J1,J2,J3,J4,J5,J6|pos|0.007198,-1.266694,1.296275,0.001014,-1.551487,1.893974|vel|0.000000,-0.000000,0.000000,0.000000,0.000000,0.000000|eff|0.000000,0.000000,0.000000,0.000000,0.000000,0.000000
cobot_dynamixel_driver/joint_states|name|J1,J2,J3,J4,J5,J6|pos|0.007198,-1.266694,1.296275,0.001014,-1.551487,1.893974|vel|0.000000,-0.000000,0.000000,0.000000,0.000000,0.000000|eff|0.000000,0.000000,0.000000,0.000000,8.056641,-8.056641
cobot_dynamixel_driver/joint_states|name|J1,J2,J3,J4,J5,J6|pos|0.007198,-1.266694,1.296275,0.001014,-1.551487,1.893974|vel|0.000000,-0.000000,0.000000,0.000000,0.000000,0.000000|eff|0.000000,0.000000,0.000000,0.000000,8.056641,-8.056641
cobot_dynamixel_driver/joint_states|name|J1,J2,J3,J4,J5,J6|pos|0.007198,-1.266694,1.296275,0.001014,-1.551487,1.893974|vel|0.000000,-0.000000,0.000000,0.000000,0.000000,0.000000|eff|0.000000,0.000000,0.000000,0.000000,0.000000,0.000000
cobot_dynamixel_driver/joint_states|name|J1,J2,J3,J4,J5,J6|pos|0.007198,-1.266694,1.296275,0.001014,-1.551487,1.893974|vel|0.000000,-0.000000,0.000000,0.000000,0.000000,0.000000|eff|0.000000,0.000000,0.000000,0.000000,-8.056641,24.169922
cobot_dynamixel_driver/joint_states|name|J1,J2,J3,J4,J5,J6|pos|0.007198,-1.266694,1.296275,0.001014,-1.551487,1.893974|vel|0.000000,-0.000000,0.000000,0.000000,0.000000,0.000000|eff|0.000000,0.000000,0.000000,0.000000,-8.056641,16.113281
cobot_dynamixel_driver/joint_states|name|J1,J2,J3,J4,J5,J6|pos|0.007198,-1.266694,1.296275,0.001014,-1.551487,1.893974|vel|0.000000,-0.000000,0.000000,0.000000,0.000000,0.000000|eff|0.000000,0.000000,0.000000,0.000000,8.056641,-8.056641
cobot_dynamixel_driver/joint_states|name|J1,J2,J3,J4,J5,J6|pos|0.007198,-1.266694,1.296275,0.001014,-1.551487,1.893974|vel|0.000000,-0.000000,0.000000,0.000000,0.000000,0.000000|eff|0.000000,0.000000,0.000000,0.000000,8.056641,-8.056641
cobot_dynamixel_driver/joint_states|name|J1,J2,J3,J4,J5,J6|pos|0.007198,-1.266694,1.296275,0.001014,-1.551487,1.893974|vel|0.000000,-0.000000,0.000000,0.000000,0.000000,0.000000|eff|0.000000,0.000000,0.000000,0.000000,-8.056641,8.056641
cobot_dynamixel_driver/joint_states|name|J1,J2,J3,J4,J5,J6|pos|0.007198,-1.266694,1.296275,0.001014,-1.551487,1.893974|vel|0.000000,-0.000000,0.000000,0.000000,0.000000,0.000000|eff|0.000000,0.000000,0.000000,0.000000,8.056641,16.113281
cobot_dynamixel_driver/joint_states|name|J1,J2,J3,J4,J5,J6|pos|0.007198,-1.266694,1.296275,0.001014,-1.551487,1.893974|vel|0.000000,-0.000000,0.000000,0.000000,0.000000,0.000000|eff|0.000000,0.000000,0.000000,0.000000,8.056641,-8.056641
cobot_dynamixel_driver/joint_states|name|J1,J2,J3,J4,J5,J6|pos|0.007198,-1.266694,1.296275,0.001014,-1.551487,1.893974|vel|0.000000,-0.000000,0.000000,0.000000,0.000000,0.000000|eff|0.000000,0.000000,0.000000,0.000000,8.056641,0.000000
cobot_dynamixel_driver/joint_states|name|J1,J2,J3,J4,J5,J6|pos|0.007198,-1.266694,1.296275,0.001014,-1.551487,1.893974|vel|0.000000,-0.000000,0.000000,0.000000,0.000000,0.000000|eff|0.000000,0.000000,0.000000,0.000000,0.000000,0.000000
cobot_dynamixel_driver/joint_states|name|J1,J2,J3,J4,J5,J6|pos|0.007198,-1.266694,1.296275,0.001014,-1.551487,1.893974|vel|0.000000,-0.000000,0.000000,0.000000,0.000000,0.000000|eff|0.000000,0.000000,0.000000,0.000000,0.000000,-8.056641
cobot_dynamixel_driver/joint_states|name|J1,J2,J3,J4,J5,J6|pos|0.007198,-1.266694,1.296275,0.001014,-1.551487,1.893974|vel|0.000000,-0.000000,0.000000,0.000000,0.000000,0.000000|eff|0.000000,0.000000,0.000000,0.000000,8.056641,-8.056641
cobot_dynamixel_driver/joint_states|name|J1,J2,J3,J4,J5,J6|pos|0.007198,-1.266694,1.296275,0.001014,-1.551487,1.893974|vel|0.000000,-0.000000,0.000000,0.000000,0.000000,0.000000|eff|0.000000,0.000000,0.000000,0.000000,0.000000,-8.056641
cobot_dynamixel_driver/joint_states|name|J1,J2,J3,J4,J5,J6|pos|0.007198,-1.266694,1.296275,0.001014,-1.551487,1.893974|vel|0.000000,-0.000000,0.000000,0.000000,0.000000,0.000000|eff|0.000000,0.000000,0.000000,0.000000,-8.056641,16.113281
cobot_dynamixel_driver/joint_states|name|J1,J2,J3,J4,J5,J6|pos|0.007198,-1.266694,1.296275,0.001014,-1.551487,1.893974|vel|0.000000,-0.000000,0.000000,0.000000,0.000000,0.000000|eff|0.000000,0.000000,0.000000,0.000000,0.000000,-8.056641
cobot_dynamixel_driver/goal|-:J1,J2,J3,J4,J5,J6:0.000000,0.000000,0.000000,0.000000,0.000000,0.000000:0.700000,0.700000,0.700000,0.700000,0.700000,0.700000:pos_vel_
cobot_dynamixel_driver/joint_states|name|J1,J2,J3,J4,J5,J6|pos|0.007198,-1.266694,1.296275,0.001014,-1.551487,1.893954|vel|0.000000,-0.000000,0.000000,0.000000,0.000000,0.000000|eff|0.000000,0.000000,0.000000,0.000000,8.056641,0.000000
cobot_dynamixel_driver/joint_states|name|J1,J2,J3,J4,J5,J6|pos|0.004744,-1.258144,1.287938,0.000926,-1.537089,1.880012|vel|-0.031923,0.243073,-0.275831,-0.002504,0.310919,-0.333325|eff|-225.585938,-2062.500000,-1514.648438,-145.019531,68.481445,-136.962891
cobot_dynamixel_driver/joint_states|name|J1,J2,J3,J4,J5,J6|pos|0.002529,-1.219788,1.247854,0.000551,-1.496484,1.839179|vel|-0.014814,0.508472,-0.446921,-0.003756,0.470515,-0.459140|eff|-225.585938,-2642.578125,-1579.101562,-241.699219,32.226562,-72.509766
cobot_dynamixel_driver/joint_states|name|J1,J2,J3,J4,J5,J6|pos|0.001339,-1.165221,1.194477,0.000200,-1.443012,1.785604|vel|-0.008137,0.586506,-0.621767,-0.003547,0.614255,-0.587368|eff|-225.585938,-741.210938,-725.097656,-128.906250,48.339844,-88.623047
cobot_dynamixel_driver/joint_states|name|J1,J2,J3,J4,J5,J6|pos|0.000651,-1.104120,1.133926,0.000088,-1.382839,1.725389|vel|-0.005425,0.685196,-0.678102,-0.001669,0.707324,-0.631490|eff|-161.132812,-2126.953125,-580.078125,-128.906250,32.226562,-80.566406
cobot_dynamixel_driver/joint_states|name|J1,J2,J3,J4,J5,J6|pos|0.000275,-1.039601,1.069808,0.000075,-1.319334,1.661740|vel|-0.003964,0.691664,-0.707104,-0.000209,0.672164,-0.684574|eff|-225.585938,-1917.480469,-1772.460938,-80.566406,-32.226562,-84.594727
cobot_dynamixel_driver/joint_states|name|J1,J2,J3,J4,J5,J6|pos|0.000100,-0.973580,1.003811,0.000075,-1.253886,1.596560|vel|-0.001252,0.675807,-0.710233,-0.000209,0.683884,-0.638728|eff|-128.906250,-3029.296875,-1337.402344,-145.019531,24.169922,-76.538086
cobot_dynamixel_driver/joint_states|name|J1,J2,J3,J4,J5,J6|pos|0.000013,-0.906620,0.937077,0.000063,-1.187217,1.530119|vel|-0.001252,0.661827,-0.674137,0.000000,0.602190,-0.712839|eff|-257.812500,-966.796875,-1466.308594,-145.019531,20.141602,-88.623047
cobot_dynamixel_driver/joint_states|name|J1,J2,J3,J4,J5,J6|pos|-0.000038,-0.839410,0.868852,0.000038,-1.120300,1.463263|vel|-0.000209,0.703974,-0.699175,0.000000,0.670786,-0.677680|eff|-193.359375,-1369.628906,-2320.312500,-177.246094,36.254883,-92.651367
cobot_dynamixel_driver/joint_states|name|J1,J2,J3,J4,J5,J6|pos|-0.000100,-0.771636,0.801329,0.000025,-1.053217,1.396388|vel|-0.000417,0.686656,-0.605075,0.000000,0.714218,-0.701119|eff|-177.246094,-2271.972656,-2094.726562,-209.472656,-28.198242,-52.368164
cobot_dynamixel_driver/joint_states|name|J1,J2,J3,J4,J5,J6|pos|-0.000125,-0.703687,0.734407,0.000013,-0.986383,1.329119|vel|-0.000626,0.703765,-0.725673,0.000000,0.668373,-0.702153|eff|-48.339844,-1853.027344,-2030.273438,-128.906250,20.141602,-60.424805
cobot_dynamixel_driver/joint_states|name|J1,J2,J3,J4,J5,J6|pos|-0.000125,-0.635838,0.666270,-0.000013,-0.918969,1.261912|vel|0.000000,0.662036,-0.711902,0.000000,0.696983,-0.664926|eff|-96.679688,-2191.406250,-1127.929688,-177.246094,-12.084961,-80.566406
cobot_dynamixel_driver/joint_states|name|J1,J2,J3,J4,J5,J6|pos|-0.000125,-0.567852,0.598922,-0.000025,-0.852258,1.194622|vel|0.000000,0.709399,-0.745912,-0.000209,0.596330,-0.712149|eff|-48.339844,-3399.902344,-1401.855469,-128.906250,96.679688,-44.311523
cobot_dynamixel_driver/joint_states|name|J1,J2,J3,J4,J5,J6|pos|-0.000125,-0.500053,0.531173,-0.000050,-0.785072,1.127457|vel|0.000000,0.717953,-0.709607,0.000000,0.609084,-0.729384|eff|-161.132812,-3754.394531,-402.832031,-128.906250,16.113281,-36.254883
cobot_dynamixel_driver/joint_states|name|J1,J2,J3,J4,J5,J6|pos|-0.000113,-0.432480,0.462223,-0.000063,-0.717617,1.060002|vel|0.000000,0.674972,-0.746329,0.000000,0.706979,-0.705255|eff|-128.906250,-1514.648438,-1385.742188,-161.132812,-24.169922,-84.594727
cobot_dynamixel_driver/joint_states|name|J1,J2,J3,J4,J5,J6|pos|-0.000113,-0.364443,0.395063,-0.000063,-0.650576,0.992940|vel|0.000000,0.642214,-0.668504,0.000000,0.714218,-0.747309|eff|0.000000,-2739.257812,-1595.214844,-112.792969,56.396484,-40.283203
cobot_dynamixel_driver/joint_states|name|J1,J2,J3,J4,J5,J6|pos|-0.000100,-0.296532,0.326438,-0.000063,-0.582231,0.925692|vel|0.000000,0.685822,-0.717119,0.000000,0.747654,-0.705255|eff|0.000000,435.058594,-1015.136719,-128.906250,8.056641,-64.453125
cobot_dynamixel_driver/joint_states|name|J1,J2,J3,J4,J5,J6|pos|-0.000088,-0.228733,0.258802,-0.000063,-0.515976,0.858278|vel|0.000000,0.698758,-0.700844,0.000000,0.666304,-0.707668|eff|-128.906250,-934.570312,-1611.328125,-96.679688,145.019531,-76.538086
cobot_dynamixel_driver/joint_states|name|J1,J2,J3,J4,J5,J6|pos|-0.000038,-0.160847,0.190928,-0.000063,-0.448666,0.791237|vel|0.000417,0.722126,-0.715032,-0.002504,0.652516,-0.690433|eff|0.000000,-241.699219,-1820.800781,-161.132812,76.538086,-84.594727
cobot_dynamixel_driver/joint_states|name|J1,J2,J3,J4,J5,J6|pos|-0.000025,-0.093261,0.123317,-0.000063,-0.381149,0.723864|vel|0.000209,0.699175,-0.608205,0.000626,0.686986,-0.677680|eff|0.000000,-290.039062,-1691.894531,-80.566406,40.283203,-72.509766
cobot_dynamixel_driver/joint_states|name|J1,J2,J3,J4,J5,J6|pos|-0.000013,-0.045692,0.063655,-0.000063,-0.313983,0.656575|vel|0.000000,0.326741,-0.452972,0.000417,0.781089,-0.709047|eff|0.000000,515.625000,-1144.042969,-80.566406,56.396484,-84.594727
cobot_dynamixel_driver/joint_states|name|J1,J2,J3,J4,J5,J6|pos|-0.000013,-0.022996,0.032635,-0.000063,-0.246632,0.589306|vel|0.000000,0.159823,-0.233267,0.001043,0.597365,-0.731108|eff|0.000000,370.605469,-789.550781,-80.566406,52.368164,-52.368164
cobot_dynamixel_driver/joint_states|name|J1,J2,J3,J4,J5,J6|pos|-0.000013,-0.011880,0.016812,-0.000063,-0.179425,0.522120|vel|0.000000,0.077617,-0.117051,0.000417,0.710771,-0.648380|eff|0.000000,241.699219,-870.117188,-80.566406,80.566406,-68.481445
cobot_dynamixel_driver/joint_states|name|J1,J2,J3,J4,J5,J6|pos|-0.000013,-0.006159,0.008750,-0.000063,-0.112073,0.454830|vel|0.000000,0.044859,-0.052579,0.000209,0.708702,-0.645967|eff|0.000000,257.812500,-934.570312,-80.566406,76.538086,-100.708008
cobot_dynamixel_driver/joint_states|name|J1,J2,J3,J4,J5,J6|pos|-0.000013,-0.003242,0.004519,-0.000063,-0.057319,0.387520|vel|0.000000,0.020239,-0.027959,0.000000,0.440181,-0.715941|eff|0.000000,177.246094,-902.343750,-80.566406,12.084961,-76.538086
cobot_dynamixel_driver/joint_states|name|J1,J2,J3,J4,J5,J6|pos|-0.000013,-0.001615,0.002266,-0.000063,-0.029353,0.320313|vel|0.000000,0.012727,-0.022534,0.000000,0.173729,-0.661134|eff|-128.906250,177.246094,-821.777344,0.000000,28.198242,-72.509766
cobot_dynamixel_driver/joint_states|name|J1,J2,J3,J4,J5,J6|pos|-0.000013,-0.000826,0.001026,-0.000063,-0.015183,0.252982|vel|0.000000,0.004590,-0.010224,0.000000,0.091001,-0.704911|eff|-96.679688,80.566406,-805.664062,-80.566406,60.424805,-60.424805
cobot_dynamixel_driver/joint_states|name|J1,J2,J3,J4,J5,J6|pos|-0.000013,-0.000513,0.000739,-0.000063,-0.007840,0.185879|vel|0.000000,0.002921,-0.006259,0.000000,0.048258,-0.671130|eff|-128.906250,209.472656,-902.343750,-80.566406,56.396484,-56.396484
cobot_dynamixel_driver/joint_states|name|J1,J2,J3,J4,J5,J6|pos|-0.000013,-0.000175,0.000163,-0.000063,-0.004075,0.118589|vel|0.000000,0.003547,-0.002921,0.000000,0.031023,-0.669062|eff|-145.019531,177.246094,-757.324219,-80.566406,64.453125,-76.538086
cobot_dynamixel_driver/joint_states|name|J1,J2,J3,J4,J5,J6|pos|-0.000013,0.000100,0.000163,-0.000063,-0.002089,0.061022|vel|0.000000,-0.000835,0.000000,0.000000,0.012754,-0.384340|eff|-128.906250,273.925781,-741.210938,-64.453125,72.509766,0.000000
cobot_dynamixel_driver/joint_states|name|J1,J2,J3,J4,J5,J6|pos|-0.000013,0.000113,0.000150,-0.000050,-0.001117,0.031442|vel|0.000000,0.000835,0.000000,0.000000,0.007583,-0.228881|eff|0.000000,257.812500,-757.324219,0.000000,76.538086,-28.198242
cobot_dynamixel_driver/joint_states|name|J1,J2,J3,J4,J5,J6|pos|-0.000013,0.000113,0.000138,-0.000050,-0.000579,0.016197|vel|0.000000,-0.000000,0.000000,0.000000,0.006205,-0.116508|eff|0.000000,273.925781,-805.664062,0.000000,72.509766,-48.339844
cobot_dynamixel_driver/joint_states|name|J1,J2,J3,J4,J5,J6|pos|-0.000013,0.000100,0.000113,-0.000050,-0.000496,0.008316|vel|0.000000,-0.000000,-0.000209,0.000000,0.004481,-0.058599|eff|0.000000,451.171875,-821.777344,0.000000,60.424805,-52.368164
cobot_dynamixel_driver/joint_states|name|J1,J2,J3,J4,J5,J6|pos|-0.000013,0.000100,0.000088,-0.000038,-0.000393,0.004261|vel|0.000000,-0.000000,-0.000209,0.000000,0.001723,-0.026542|eff|0.000000,290.039062,-854.003906,0.000000,80.566406,-52.368164
cobot_dynamixel_driver/joint_states|name|J1,J2,J3,J4,J5,J6|pos|-0.000013,0.000100,0.000075,-0.000038,-0.000290,0.002172|vel|0.000000,-0.000000,0.000000,0.000000,0.003792,-0.014477|eff|0.000000,370.605469,-854.003906,0.000000,52.368164,-56.396484
cobot_dynamixel_driver/joint_states|name|J1,J2,J3,J4,J5,J6|pos|-0.000013,0.000100,0.000063,-0.000038,-0.000290,0.001158|vel|0.000000,-0.000000,0.000000,0.000000,0.000000,-0.006894|eff|-48.339844,306.152344,-870.117188,0.000000,64.453125,-52.368164
cobot_dynamixel_driver/joint_states|name|J1,J2,J3,J4,J5,J6|pos|-0.000013,0.000088,0.000038,-0.000038,-0.000228,0.000600|vel|0.000000,-0.000000,0.000000,0.000000,0.001723,-0.005170|eff|0.000000,338.378906,-902.343750,0.000000,72.509766,-56.396484
cobot_dynamixel_driver/joint_states|name|J1,J2,J3,J4,J5,J6|pos|-0.000013,0.000088,0.000025,-0.000038,-0.000165,0.000331|vel|0.000000,-0.000000,0.000000,0.000000,0.001723,-0.004136|eff|0.000000,290.039062,-854.003906,0.000000,72.509766,-44.311523
cobot_dynamixel_driver/joint_states|name|J1,J2,J3,J4,J5,J6|pos|-0.000013,0.000088,0.000025,-0.000038,-0.000165,0.000331|vel|0.000000,-0.000000,0.000000,0.000000,0.000000,-0.004136|eff|0.000000,467.285156,-886.230469,0.000000,72.509766,-32.226562
cobot_dynamixel_driver/joint_states|name|J1,J2,J3,J4,J5,J6|pos|-0.000013,0.000075,0.000025,-0.000025,-0.000041,0.000310|vel|0.000000,-0.000000,0.000000,0.000000,0.004136,0.000000|eff|0.000000,483.398438,-870.117188,0.000000,52.368164,-60.424805
cobot_dynamixel_driver/joint_states|name|J1,J2,J3,J4,J5,J6|pos|-0.000013,0.000075,0.000025,-0.000013,-0.000041,0.000165|vel|0.000000,-0.000000,0.000000,0.000000,0.000000,-0.004136|eff|-128.906250,354.492188,-854.003906,64.453125,32.226562,-36.254883
cobot_dynamixel_driver/joint_states|name|J1,J2,J3,J4,J5,J6|pos|-0.000013,0.000063,0.000025,-0.000013,-0.000041,0.000165|vel|0.000000,-0.000000,0.000000,0.000000,0.000000,0.000000|eff|-48.339844,499.511719,-886.230469,0.000000,16.113281,-32.226562
cobot_dynamixel_driver/joint_states|name|J1,J2,J3,J4,J5,J6|pos|-0.000013,0.000050,0.000013,-0.000013,-0.000041,0.000165|vel|0.000000,-0.000000,0.000000,0.000000,0.000000,0.000000|eff|-48.339844,451.171875,-854.003906,0.000000,28.198242,-36.254883
cobot_dynamixel_driver/joint_states|name|J1,J2,J3,J4,J5,J6|pos|-0.000013,0.000050,0.000013,0.000000,-0.000041,0.000165|vel|0.000000,-0.000000,0.000000,0.000000,0.000000,0.000000|eff|0.000000,499.511719,-854.003906,0.000000,16.113281,-40.283203
cobot_dynamixel_driver/joint_states|name|J1,J2,J3,J4,J5,J6|pos|-0.000013,0.000050,0.000013,0.000000,-0.000041,0.000145|vel|0.000000,-0.000000,0.000000,0.000000,0.000000,0.000000|eff|0.000000,499.511719,-854.003906,64.453125,20.141602,-48.339844
cobot_dynamixel_driver/joint_states|name|J1,J2,J3,J4,J5,J6|pos|-0.000013,0.000038,0.000013,0.000000,-0.000041,0.000041|vel|0.000000,-0.000000,0.000000,0.000000,0.000000,-0.002758|eff|-48.339844,483.398438,-886.230469,64.453125,32.226562,-36.254883
cobot_dynamixel_driver/joint_states|name|J1,J2,J3,J4,J5,J6|pos|-0.000013,0.000038,0.000013,0.000000,-0.000041,0.000041|vel|0.000000,-0.000000,0.000000,0.000000,0.000000,0.000000|eff|-48.339844,370.605469,-854.003906,48.339844,44.311523,-32.226562
cobot_dynamixel_driver/joint_states|name|J1,J2,J3,J4,J5,J6|pos|-0.000013,0.000025,0.000013,0.000013,-0.000041,0.000041|vel|0.000000,-0.000000,0.000000,0.000000,0.000000,0.000000|eff|0.000000,322.265625,-902.343750,0.000000,32.226562,-8.056641
cobot_dynamixel_driver/joint_states|name|J1,J2,J3,J4,J5,J6|pos|-0.000013,0.000025,0.000013,0.000013,-0.000041,0.000041|vel|0.000000,-0.000000,0.000000,0.000000,0.000000,0.000000|eff|-80.566406,483.398438,-886.230469,48.339844,40.283203,-36.254883
cobot_dynamixel_driver/joint_states|name|J1,J2,J3,J4,J5,J6|pos|-0.000013,0.000025,0.000013,0.000013,-0.000041,0.000041|vel|0.000000,-0.000000,0.000000,0.000000,0.000000,0.000000|eff|0.000000,499.511719,-854.003906,0.000000,16.113281,0.000000
cobot_dynamixel_driver/joint_states|name|J1,J2,J3,J4,J5,J6|pos|-0.000013,0.000025,0.000013,0.000013,-0.000041,0.000041|vel|0.000000,-0.000000,0.000000,0.000000,0.000000,0.000000|eff|0.000000,483.398438,-854.003906,0.000000,44.311523,0.000000
cobot_dynamixel_driver/joint_states|name|J1,J2,J3,J4,J5,J6|pos|-0.000013,0.000025,0.000013,0.000013,-0.000041,0.000041|vel|0.000000,-0.000000,0.000000,0.000000,0.000000,0.000000|eff|-96.679688,483.398438,-854.003906,80.566406,20.141602,-8.056641
cobot_dynamixel_driver/joint_states|name|J1,J2,J3,J4,J5,J6|pos|-0.000013,0.000025,0.000013,0.000013,-0.000041,0.000041|vel|0.000000,-0.000000,0.000000,0.000000,0.000000,0.000000|eff|-80.566406,483.398438,-854.003906,0.000000,44.311523,0.000000
cobot_dynamixel_driver/joint_states|name|J1,J2,J3,J4,J5,J6|pos|-0.000013,0.000025,0.000013,0.000013,-0.000041,0.000041|vel|0.000000,-0.000000,0.000000,0.000000,0.000000,0.000000|eff|-48.339844,499.511719,-870.117188,0.000000,32.226562,-20.141602
cobot_dynamixel_driver/joint_states|name|J1,J2,J3,J4,J5,J6|pos|-0.000013,0.000025,0.000013,0.000025,-0.000041,0.000041|vel|0.000000,-0.000000,0.000000,0.000000,0.000000,0.000000|eff|0.000000,483.398438,-870.117188,0.000000,32.226562,-32.226562
cobot_dynamixel_driver/joint_states|name|J1,J2,J3,J4,J5,J6|pos|-0.000013,0.000025,0.000013,0.000025,-0.000041,0.000041|vel|0.000000,-0.000000,0.000000,0.000000,0.000000,0.000000|eff|-128.906250,499.511719,-902.343750,0.000000,20.141602,-36.254883
cobot_dynamixel_driver/joint_states|name|J1,J2,J3,J4,J5,J6|pos|-0.000013,0.000025,0.000013,0.000025,-0.000041,0.000041|vel|0.000000,-0.000000,0.000000,0.000000,0.000000,0.000000|eff|0.000000,467.285156,-854.003906,0.000000,40.283203,-36.254883
cobot_dynamixel_driver/joint_states|name|J1,J2,J3,J4,J5,J6|pos|-0.000013,0.000025,0.000013,0.000025,-0.000041,0.000041|vel|0.000000,-0.000000,0.000000,0.000000,0.000000,0.000000|eff|0.000000,499.511719,-854.003906,0.000000,32.226562,-20.141602
cobot_dynamixel_driver/joint_states|name|J1,J2,J3,J4,J5,J6|pos|-0.000013,0.000025,0.000013,0.000025,-0.000041,0.000041|vel|0.000000,-0.000000,0.000000,0.000000,0.000000,0.000000|eff|0.000000,499.511719,-886.230469,0.000000,40.283203,-8.056641
cobot_dynamixel_driver/joint_states|name|J1,J2,J3,J4,J5,J6|pos|-0.000013,0.000025,0.000013,0.000025,-0.000041,0.000041|vel|0.000000,-0.000000,0.000000,0.000000,0.000000,0.000000|eff|0.000000,418.945312,-854.003906,0.000000,16.113281,-32.226562
cobot_dynamixel_driver/joint_states|name|J1,J2,J3,J4,J5,J6|pos|-0.000013,0.000025,0.000013,0.000025,-0.000041,0.000041|vel|0.000000,-0.000000,0.000000,0.000000,0.000000,0.000000|eff|-80.566406,306.152344,-854.003906,0.000000,32.226562,-20.141602
cobot_dynamixel_driver/joint_states|name|J1,J2,J3,J4,J5,J6|pos|-0.000013,0.000025,0.000013,0.000025,-0.000041,0.000041|vel|0.000000,-0.000000,0.000000,0.000000,0.000000,0.000000|eff|0.000000,483.398438,-854.003906,0.000000,32.226562,-16.113281
cobot_dynamixel_driver/joint_states|name|J1,J2,J3,J4,J5,J6|pos|-0.000013,0.000025,0.000013,0.000038,-0.000041,0.000041|vel|0.000000,-0.000000,0.000000,0.000000,0.000000,0.000000|eff|-128.906250,467.285156,-870.117188,64.453125,16.113281,-36.254883
cobot_dynamixel_driver/joint_states|name|J1,J2,J3,J4,J5,J6|pos|-0.000013,0.000025,0.000013,0.000038,-0.000041,0.000041|vel|0.000000,-0.000000,0.000000,0.000000,0.000000,0.000000|eff|0.000000,483.398438,-902.343750,0.000000,44.311523,-32.226562
cobot_dynamixel_driver/joint_states|name|J1,J2,J3,J4,J5,J6|pos|-0.000013,0.000025,0.000013,0.000038,-0.000041,0.000041|vel|0.000000,-0.000000,0.000000,0.000000,0.000000,0.000000|eff|0.000000,483.398438,-854.003906,0.000000,20.141602,-36.254883
cobot_dynamixel_driver/joint_states|name|J1,J2,J3,J4,J5,J6|pos|-0.000013,0.000025,0.000013,0.000038,-0.000041,0.000041|vel|0.000000,-0.000000,0.000000,0.000000,0.000000,0.000000|eff|-80.566406,499.511719,-854.003906,0.000000,32.226562,-12.084961
cobot_dynamixel_driver/joint_states|name|J1,J2,J3,J4,J5,J6|pos|-0.000013,0.000025,0.000013,0.000038,-0.000041,0.000041|vel|0.000000,-0.000000,0.000000,0.000000,0.000000,0.000000|eff|0.000000,499.511719,-854.003906,0.000000,44.311523,-20.141602
cobot_dynamixel_driver/joint_states|name|J1,J2,J3,J4,J5,J6|pos|-0.000013,0.000025,0.000013,0.000038,-0.000041,0.000041|vel|0.000000,-0.000000,0.000000,0.000000,0.000000,0.000000|eff|0.000000,418.945312,-902.343750,0.000000,40.283203,-32.226562
cobot_dynamixel_driver/joint_states|name|J1,J2,J3,J4,J5,J6|pos|-0.000013,0.000025,0.000013,0.000038,-0.000041,0.000041|vel|0.000000,-0.000000,0.000000,0.000000,0.000000,0.000000|eff|0.000000,322.265625,-854.003906,0.000000,20.141602,0.000000
cobot_dynamixel_driver/joint_states|name|J1,J2,J3,J4,J5,J6|pos|-0.000013,0.000025,0.000013,0.000038,-0.000041,0.000041|vel|0.000000,-0.000000,0.000000,0.000000,0.000000,0.000000|eff|0.000000,499.511719,-854.003906,-32.226562,40.283203,-20.141602
cobot_dynamixel_driver/joint_states|name|J1,J2,J3,J4,J5,J6|pos|-0.000013,0.000025,0.000013,0.000025,-0.000041,0.000041|vel|0.000000,-0.000000,0.000000,0.000000,0.000000,0.000000|eff|0.000000,483.398438,-870.117188,0.000000,24.169922,0.000000
cobot_dynamixel_driver/joint_states|name|J1,J2,J3,J4,J5,J6|pos|-0.000013,0.000025,0.000013,0.000025,-0.000041,0.000041|vel|0.000000,-0.000000,0.000000,0.000000,0.000000,0.000000|eff|-80.566406,370.605469,-854.003906,-48.339844,16.113281,-32.226562
cobot_dynamixel_driver/joint_states|name|J1,J2,J3,J4,J5,J6|pos|-0.000013,0.000025,0.000013,0.000025,-0.000041,0.000041|vel|0.000000,-0.000000,0.000000,0.000000,0.000000,0.000000|eff|-48.339844,451.171875,-902.343750,0.000000,28.198242,-20.141602
cobot_dynamixel_driver/joint_states|name|J1,J2,J3,J4,J5,J6|pos|-0.000013,0.000025,0.000013,0.000025,-0.000041,0.000041|vel|0.000000,-0.000000,0.000000,0.000000,0.000000,0.000000|eff|0.000000,483.398438,-886.230469,0.000000,20.141602,-20.141602
cobot_dynamixel_driver/joint_states|name|J1,J2,J3,J4,J5,J6|pos|-0.000013,0.000025,0.000013,0.000025,-0.000041,0.000041|vel|0.000000,-0.000000,0.000000,0.000000,0.000000,0.000000|eff|0.000000,499.511719,-854.003906,-64.453125,20.141602,-32.226562
cobot_dynamixel_driver/joint_states|name|J1,J2,J3,J4,J5,J6|pos|-0.000013,0.000025,0.000013,0.000025,-0.000041,0.000041|vel|0.000000,-0.000000,0.000000,0.000000,0.000000,0.000000|eff|0.000000,467.285156,-854.003906,0.000000,20.141602,-16.113281
cobot_dynamixel_driver/joint_states|name|J1,J2,J3,J4,J5,J6|pos|-0.000013,0.000025,0.000013,0.000025,-0.000041,0.000041|vel|0.000000,-0.000000,0.000000,0.000000,0.000000,0.000000|eff|-48.339844,402.832031,-854.003906,0.000000,24.169922,-28.198242
cobot_dynamixel_driver/joint_states|name|J1,J2,J3,J4,J5,J6|pos|-0.000013,0.000025,0.000013,0.000025,-0.000041,0.000041|vel|0.000000,-0.000000,0.000000,0.000000,0.000000,0.000000|eff|0.000000,435.058594,-854.003906,0.000000,28.198242,-20.141602
cobot_dynamixel_driver/joint_states|name|J1,J2,J3,J4,J5,J6|pos|-0.000013,0.000025,0.000013,0.000025,-0.000041,0.000041|vel|0.000000,-0.000000,0.000000,0.000000,0.000000,0.000000|eff|-128.906250,499.511719,-854.003906,-64.453125,32.226562,-20.141602
cobot_dynamixel_driver/joint_states|name|J1,J2,J3,J4,J5,J6|pos|-0.000013,0.000025,0.000013,0.000025,-0.000041,0.000041|vel|0.000000,-0.000000,0.000000,0.000000,0.000000,0.000000|eff|-48.339844,483.398438,-854.003906,0.000000,44.311523,-20.141602
cobot_dynamixel_driver/joint_states|name|J1,J2,J3,J4,J5,J6|pos|-0.000013,0.000025,0.000013,0.000025,-0.000041,0.000041|vel|0.000000,-0.000000,0.000000,0.000000,0.000000,0.000000|eff|-96.679688,499.511719,-918.457031,0.000000,20.141602,-32.226562
cobot_dynamixel_driver/joint_states|name|J1,J2,J3,J4,J5,J6|pos|-0.000013,0.000025,0.000013,0.000025,-0.000041,0.000041|vel|0.000000,-0.000000,0.000000,0.000000,0.000000,0.000000|eff|0.000000,483.398438,-870.117188,0.000000,20.141602,-32.226562
cobot_dynamixel_driver/joint_states|name|J1,J2,J3,J4,J5,J6|pos|-0.000013,0.000025,0.000013,0.000025,-0.000041,0.000041|vel|0.000000,-0.000000,0.000000,0.000000,0.000000,0.000000|eff|-145.019531,451.171875,-854.003906,-48.339844,24.169922,-36.254883
cobot_dynamixel_driver/joint_states|name|J1,J2,J3,J4,J5,J6|pos|-0.000013,0.000025,0.000013,0.000025,-0.000041,0.000041|vel|0.000000,-0.000000,0.000000,0.000000,0.000000,0.000000|eff|0.000000,467.285156,-854.003906,-32.226562,32.226562,0.000000
cobot_dynamixel_driver/joint_states|name|J1,J2,J3,J4,J5,J6|pos|-0.000013,0.000025,0.000013,0.000025,-0.000041,0.000041|vel|0.000000,-0.000000,0.000000,0.000000,0.000000,0.000000|eff|0.000000,483.398438,-854.003906,-64.453125,32.226562,0.000000
cobot_dynamixel_driver/joint_states|name|J1,J2,J3,J4,J5,J6|pos|-0.000013,0.000025,0.000013,0.000025,-0.000041,0.000041|vel|0.000000,-0.000000,0.000000,0.000000,0.000000,0.000000|eff|-48.339844,483.398438,-854.003906,-32.226562,24.169922,0.000000
cobot_dynamixel_driver/joint_states|name|J1,J2,J3,J4,J5,J6|pos|-0.000013,0.000025,0.000013,0.000025,-0.000041,0.000041|vel|0.000000,-0.000000,0.000000,0.000000,0.000000,0.000000|eff|-128.906250,451.171875,-854.003906,0.000000,32.226562,0.000000
cobot_dynamixel_driver/goal|-:J1,J2,J3,J4,J5,J6:0.000000,0.000000,0.000000,0.000000,0.000000,1.000000:vel_
cobot_dynamixel_driver/joint_states|name|J1,J2,J3,J4,J5,J6|pos|0.000000,0.001364,0.002454,0.000038,-0.000041,0.000269|vel|0.000000,0.004590,0.000000,0.000000,0.000000,0.038606|eff|0.000000,338.378906,-370.605469,0.000000,-8.056641,52.368164
cobot_dynamixel_driver/joint_states|name|J1,J2,J3,J4,J5,J6|pos|0.000000,0.001364,0.002441,0.000038,-0.000041,0.014294|vel|0.000000,-0.000000,0.000000,0.000000,0.000000,-0.401920|eff|0.000000,241.699219,-386.718750,0.000000,0.000000,-205.444336
cobot_dynamixel_driver/goal|-:J1,J2,J3,J4,J5,J6:0.000000,0.000000,0.000000,0.000000,0.000000,1.000000:vel_
cobot_dynamixel_driver/joint_states|name|J1,J2,J3,J4,J5,J6|pos|0.000000,0.001364,0.002441,0.000038,-0.000041,0.049459|vel|0.000000,-0.000000,0.000000,0.000000,0.000000,0.714562|eff|0.000000,322.265625,-370.605469,0.000000,-8.056641,-2316.284180
cobot_dynamixel_driver/joint_states|name|J1,J2,J3,J4,J5,J6|pos|0.000000,0.001364,0.002454,0.000038,-0.000041,0.103117|vel|0.000000,-0.000000,0.000000,0.000000,0.000000,0.384685|eff|0.000000,225.585938,-370.605469,0.000000,8.056641,-2658.691406
cobot_dynamixel_driver/goal|-:J1,J2,J3,J4,J5,J6:0.000000,0.000000,0.000000,0.000000,0.000000,1.000000:vel_
cobot_dynamixel_driver/joint_states|name|J1,J2,J3,J4,J5,J6|pos|0.000000,0.001364,0.002454,0.000038,-0.000041,0.175019|vel|0.000000,-0.000000,0.000000,0.000000,0.000000,0.471204|eff|0.000000,241.699219,-370.605469,0.000000,12.084961,3033.325195
cobot_dynamixel_driver/joint_states|name|J1,J2,J3,J4,J5,J6|pos|0.000000,0.001364,0.002454,0.000038,-0.000041,0.267172|vel|0.000000,-0.000000,0.000000,0.000000,0.000000,1.316408|eff|0.000000,241.699219,-370.605469,0.000000,-8.056641,-1454.223633
cobot_dynamixel_driver/goal|-:J1,J2,J3,J4,J5,J6:0.000000,0.000000,0.000000,0.000000,0.000000,1.000000:vel_
cobot_dynamixel_driver/joint_states|name|J1,J2,J3,J4,J5,J6|pos|0.000000,0.001364,0.002441,0.000038,-0.000041,0.364911|vel|0.000000,-0.000000,0.000000,0.000000,0.000000,0.715941|eff|0.000000,370.605469,-386.718750,0.000000,-8.056641,-1720.092773
cobot_dynamixel_driver/joint_states|name|J1,J2,J3,J4,J5,J6|pos|0.000000,0.001364,0.002454,0.000038,-0.000041,0.461801|vel|0.000000,-0.000000,0.000000,0.000000,0.000000,1.229888|eff|0.000000,257.812500,-370.605469,0.000000,-8.056641,-3416.015625
cobot_dynamixel_driver/goal|-:J1,J2,J3,J4,J5,J6:0.000000,0.000000,0.000000,0.000000,0.000000,1.000000:vel_
cobot_dynamixel_driver/joint_states|name|J1,J2,J3,J4,J5,J6|pos|0.000000,0.001364,0.002454,0.000038,-0.000041,0.559105|vel|0.000000,-0.000000,0.000000,0.000000,0.000000,0.806252|eff|0.000000,273.925781,-386.718750,0.000000,0.000000,-2465.332031
cobot_dynamixel_driver/joint_states|name|J1,J2,J3,J4,J5,J6|pos|0.000000,0.001364,0.002454,0.000038,-0.000041,0.655727|vel|0.000000,-0.000000,0.000000,0.000000,0.000000,1.310893|eff|0.000000,225.585938,-370.605469,0.000000,0.000000,1961.791992
cobot_dynamixel_driver/goal|-:J1,J2,J3,J4,J5,J6:0.000000,0.000000,0.000000,0.000000,0.000000,1.000000:vel_
cobot_dynamixel_driver/joint_states|name|J1,J2,J3,J4,J5,J6|pos|0.000000,0.001364,0.002454,0.000038,-0.000041,0.752989|vel|0.000000,-0.000000,0.000000,0.000000,0.000000,1.167842|eff|0.000000,370.605469,-370.605469,0.000000,12.084961,-3093.750000
cobot_dynamixel_driver/joint_states|name|J1,J2,J3,J4,J5,J6|pos|0.000000,0.001364,0.002454,0.000038,-0.000041,0.850521|vel|0.000000,-0.000000,0.000000,0.000000,0.000000,0.731453|eff|0.000000,241.699219,-370.605469,0.000000,0.000000,-3053.466797
cobot_dynamixel_driver/goal|-:J1,J2,J3,J4,J5,J6:0.000000,0.000000,0.000000,0.000000,0.000000,1.000000:vel_
cobot_dynamixel_driver/joint_states|name|J1,J2,J3,J4,J5,J6|pos|0.000000,0.001364,0.002454,0.000038,-0.000041,0.948197|vel|0.000000,-0.000000,0.000000,0.000000,0.000000,1.039614|eff|0.000000,418.945312,-386.718750,0.000000,0.000000,-3440.185547
cobot_dynamixel_driver/joint_states|name|J1,J2,J3,J4,J5,J6|pos|0.000000,0.001364,0.002454,0.000038,-0.000041,1.045170|vel|0.000000,-0.000000,0.000000,0.000000,0.000000,0.887946|eff|0.000000,241.699219,-386.718750,0.000000,-8.056641,-3440.185547
cobot_dynamixel_driver/goal|-:J1,J2,J3,J4,J5,J6:0.000000,0.000000,0.000000,0.000000,0.000000,1.000000:vel_
cobot_dynamixel_driver/joint_states|name|J1,J2,J3,J4,J5,J6|pos|0.000000,0.001364,0.002454,0.000038,-0.000041,1.141833|vel|0.000000,-0.000000,0.000000,0.000000,0.000000,1.240574|eff|0.000000,241.699219,-370.605469,0.000000,-8.056641,596.191406
cobot_dynamixel_driver/joint_states|name|J1,J2,J3,J4,J5,J6|pos|0.000000,0.001364,0.002454,0.000038,-0.000041,1.238827|vel|0.000000,-0.000000,0.000000,0.000000,0.000000,0.715941|eff|0.000000,451.171875,-338.378906,0.000000,-8.056641,3375.732422
cobot_dynamixel_driver/goal|-:J1,J2,J3,J4,J5,J6:0.000000,0.000000,0.000000,0.000000,0.000000,1.000000:vel_
cobot_dynamixel_driver/joint_states|name|J1,J2,J3,J4,J5,J6|pos|0.000000,0.001364,0.002454,0.000038,-0.000041,1.336565|vel|0.000000,-0.000000,0.000000,0.000000,0.000000,0.942754|eff|0.000000,225.585938,-370.605469,0.000000,0.000000,3520.751953
cobot_dynamixel_driver/joint_states|name|J1,J2,J3,J4,J5,J6|pos|0.000000,0.001364,0.002454,0.000038,-0.000041,1.433601|vel|0.000000,-0.000000,0.000000,0.000000,0.000000,0.803495|eff|0.000000,386.718750,-370.605469,0.000000,0.000000,2135.009766
cobot_dynamixel_driver/goal|-:J1,J2,J3,J4,J5,J6:0.000000,0.000000,0.000000,0.000000,0.000000,1.000000:vel_
cobot_dynamixel_driver/joint_states|name|J1,J2,J3,J4,J5,J6|pos|0.000000,0.001364,0.002454,0.000038,-0.000041,1.530946|vel|0.000000,-0.000000,0.000000,0.000000,0.000000,1.068224|eff|0.000000,451.171875,-370.605469,0.000000,0.000000,-3601.318359
cobot_dynamixel_driver/joint_states|name|J1,J2,J3,J4,J5,J6|pos|0.000000,0.001364,0.002454,0.000038,-0.000041,1.606323|vel|0.000000,-0.000000,0.000000,0.000000,0.000000,0.594952|eff|0.000000,225.585938,-370.605469,0.000000,0.000000,0.000000
cobot_dynamixel_driver/goal|-:J1,J2,J3,J4,J5,J6:0.000000,0.000000,0.000000,0.000000,0.000000,1.000000:vel_
[RxPacketError] Hardware error occurred. Check the error at Control Table (Hardware Error Status)!
 /home/dell/catkin_ws/src/cobot/cobot_dynamixel_driver/src/cJoint_pro.cpp:389
