surachairobotic/cobot/cobot_dynamixel_driver/log/2018-12-14T09:56:45.112806_driver_log.txt
cobot_dynamixel_driver/joint_states|name|J1,J2,J3,J4,J5,J6|pos|0.012205,-1.267658,1.296275,-0.001715,-1.383045,1.335490|vel|0.000000,-0.000000,0.000000,0.000000,0.000000,0.000000|eff|0.000000,0.000000,0.000000,0.000000,0.000000,0.000000
cobot_dynamixel_driver/joint_states|name|J1,J2,J3,J4,J5,J6|pos|0.012205,-1.267658,1.296275,-0.001715,-1.383045,1.335490|vel|0.000000,-0.000000,0.000000,0.000000,0.000000,0.000000|eff|0.000000,0.000000,0.000000,0.000000,0.000000,0.000000
cobot_dynamixel_driver/joint_states|name|J1,J2,J3,J4,J5,J6|pos|0.012205,-1.267658,1.296275,-0.001715,-1.383045,1.335490|vel|0.000000,-0.000000,0.000000,0.000000,0.000000,0.000000|eff|0.000000,0.000000,0.000000,0.000000,-8.056641,0.000000
cobot_dynamixel_driver/joint_states|name|J1,J2,J3,J4,J5,J6|pos|0.012205,-1.267658,1.296275,-0.001715,-1.383045,1.335490|vel|0.000000,-0.000000,0.000000,0.000000,0.000000,0.000000|eff|0.000000,0.000000,0.000000,0.000000,8.056641,-8.056641
cobot_dynamixel_driver/joint_states|name|J1,J2,J3,J4,J5,J6|pos|0.012205,-1.267658,1.296275,-0.001715,-1.383045,1.335490|vel|0.000000,-0.000000,0.000000,0.000000,0.000000,0.000000|eff|0.000000,0.000000,0.000000,0.000000,0.000000,-8.056641
cobot_dynamixel_driver/joint_states|name|J1,J2,J3,J4,J5,J6|pos|0.012205,-1.267658,1.296275,-0.001715,-1.383045,1.335490|vel|0.000000,-0.000000,0.000000,0.000000,0.000000,0.000000|eff|0.000000,0.000000,0.000000,0.000000,8.056641,-8.056641
cobot_dynamixel_driver/joint_states|name|J1,J2,J3,J4,J5,J6|pos|0.012205,-1.267658,1.296275,-0.001715,-1.383045,1.335490|vel|0.000000,-0.000000,0.000000,0.000000,0.000000,0.000000|eff|0.000000,0.000000,0.000000,0.000000,8.056641,8.056641
cobot_dynamixel_driver/joint_states|name|J1,J2,J3,J4,J5,J6|pos|0.012205,-1.267658,1.296275,-0.001715,-1.383045,1.335490|vel|0.000000,-0.000000,0.000000,0.000000,0.000000,0.000000|eff|0.000000,0.000000,0.000000,0.000000,0.000000,-8.056641
cobot_dynamixel_driver/joint_states|name|J1,J2,J3,J4,J5,J6|pos|0.012205,-1.267658,1.296275,-0.001715,-1.383045,1.335490|vel|0.000000,-0.000000,0.000000,0.000000,0.000000,0.000000|eff|0.000000,0.000000,0.000000,0.000000,0.000000,-8.056641
cobot_dynamixel_driver/joint_states|name|J1,J2,J3,J4,J5,J6|pos|0.012205,-1.267658,1.296275,-0.001715,-1.383045,1.335490|vel|0.000000,-0.000000,0.000000,0.000000,0.000000,0.000000|eff|0.000000,0.000000,0.000000,0.000000,0.000000,-8.056641
cobot_dynamixel_driver/joint_states|name|J1,J2,J3,J4,J5,J6|pos|0.012205,-1.267658,1.296275,-0.001715,-1.383045,1.335490|vel|0.000000,-0.000000,0.000000,0.000000,0.000000,0.000000|eff|0.000000,0.000000,0.000000,0.000000,-8.056641,-8.056641
cobot_dynamixel_driver/joint_states|name|J1,J2,J3,J4,J5,J6|pos|0.012205,-1.267658,1.296275,-0.001715,-1.383045,1.335490|vel|0.000000,-0.000000,0.000000,0.000000,0.000000,0.000000|eff|0.000000,0.000000,0.000000,0.000000,0.000000,-8.056641
cobot_dynamixel_driver/joint_states|name|J1,J2,J3,J4,J5,J6|pos|0.012205,-1.267658,1.296275,-0.001715,-1.383045,1.335490|vel|0.000000,-0.000000,0.000000,0.000000,0.000000,0.000000|eff|0.000000,0.000000,0.000000,0.000000,0.000000,-8.056641
cobot_dynamixel_driver/joint_states|name|J1,J2,J3,J4,J5,J6|pos|0.012205,-1.267658,1.296275,-0.001715,-1.383045,1.335490|vel|0.000000,-0.000000,0.000000,0.000000,0.000000,0.000000|eff|0.000000,0.000000,0.000000,0.000000,-8.056641,8.056641
cobot_dynamixel_driver/joint_states|name|J1,J2,J3,J4,J5,J6|pos|0.012205,-1.267658,1.296275,-0.001715,-1.383045,1.335490|vel|0.000000,-0.000000,0.000000,0.000000,0.000000,0.000000|eff|0.000000,0.000000,0.000000,0.000000,-8.056641,-8.056641
cobot_dynamixel_driver/joint_states|name|J1,J2,J3,J4,J5,J6|pos|0.012205,-1.267658,1.296275,-0.001715,-1.383045,1.335490|vel|0.000000,-0.000000,0.000000,0.000000,0.000000,0.000000|eff|0.000000,0.000000,0.000000,0.000000,0.000000,-8.056641
cobot_dynamixel_driver/joint_states|name|J1,J2,J3,J4,J5,J6|pos|0.012205,-1.267658,1.296275,-0.001715,-1.383045,1.335490|vel|0.000000,-0.000000,0.000000,0.000000,0.000000,0.000000|eff|0.000000,0.000000,0.000000,0.000000,8.056641,24.169922
cobot_dynamixel_driver/joint_states|name|J1,J2,J3,J4,J5,J6|pos|0.012205,-1.267658,1.296275,-0.001715,-1.383045,1.335490|vel|0.000000,-0.000000,0.000000,0.000000,0.000000,0.000000|eff|0.000000,0.000000,0.000000,0.000000,0.000000,8.056641
cobot_dynamixel_driver/joint_states|name|J1,J2,J3,J4,J5,J6|pos|0.012205,-1.267658,1.296275,-0.001715,-1.383045,1.335490|vel|0.000000,-0.000000,0.000000,0.000000,0.000000,0.000000|eff|0.000000,0.000000,0.000000,0.000000,0.000000,20.141602
cobot_dynamixel_driver/joint_states|name|J1,J2,J3,J4,J5,J6|pos|0.012205,-1.267658,1.296275,-0.001715,-1.383045,1.335490|vel|0.000000,-0.000000,0.000000,0.000000,0.000000,0.000000|eff|0.000000,0.000000,0.000000,0.000000,-8.056641,-8.056641
cobot_dynamixel_driver/joint_states|name|J1,J2,J3,J4,J5,J6|pos|0.012205,-1.267658,1.296275,-0.001715,-1.383045,1.335490|vel|0.000000,-0.000000,0.000000,0.000000,0.000000,0.000000|eff|0.000000,0.000000,0.000000,0.000000,0.000000,-8.056641
cobot_dynamixel_driver/joint_states|name|J1,J2,J3,J4,J5,J6|pos|0.012205,-1.267658,1.296275,-0.001715,-1.383045,1.335490|vel|0.000000,-0.000000,0.000000,0.000000,0.000000,0.000000|eff|0.000000,0.000000,0.000000,0.000000,-8.056641,0.000000
cobot_dynamixel_driver/joint_states|name|J1,J2,J3,J4,J5,J6|pos|0.012205,-1.267658,1.296275,-0.001715,-1.383045,1.335490|vel|0.000000,-0.000000,0.000000,0.000000,0.000000,0.000000|eff|0.000000,0.000000,0.000000,0.000000,0.000000,-8.056641
cobot_dynamixel_driver/goal|-:J1,J2,J3,J4,J5,J6:0.000000,0.000000,0.000000,0.000000,0.000000,0.000000:0.700000,0.700000,0.700000,0.700000,0.700000,0.700000:pos_vel_
cobot_dynamixel_driver/joint_states|name|J1,J2,J3,J4,J5,J6|pos|0.012205,-1.267658,1.294497,-0.001715,-1.383045,1.335490|vel|0.000000,-0.000000,0.000000,0.000000,0.000000,0.000000|eff|0.000000,-32.226562,0.000000,0.000000,-8.056641,0.000000
cobot_dynamixel_driver/joint_states|name|J1,J2,J3,J4,J5,J6|pos|0.008275,-1.259208,1.286148,-0.001177,-1.368669,1.321486|vel|-0.054248,0.224712,-0.264355,0.006259,0.308851,-0.332290|eff|-338.378906,-1820.800781,-1417.968750,96.679688,68.481445,-132.934570
cobot_dynamixel_driver/joint_states|name|J1,J2,J3,J4,J5,J6|pos|0.004306,-1.221140,1.246602,-0.000701,-1.328084,1.280591|vel|-0.026707,0.498248,-0.535805,0.002712,0.565997,-0.467413|eff|-290.039062,-2352.539062,-1111.816406,177.246094,48.339844,-84.594727
cobot_dynamixel_driver/joint_states|name|J1,J2,J3,J4,J5,J6|pos|0.002141,-1.166924,1.192724,-0.000438,-1.274675,1.226933|vel|-0.013979,0.639293,-0.609457,0.004799,0.520152,-0.585989|eff|-273.925781,-2094.726562,-1417.968750,161.132812,60.424805,-48.339844
cobot_dynamixel_driver/joint_states|name|J1,J2,J3,J4,J5,J6|pos|0.001026,-1.105697,1.132173,-0.000225,-1.214501,1.166800|vel|-0.007303,0.656611,-0.660993,0.003130,0.631145,-0.649759|eff|-338.378906,-741.210938,-2014.160156,128.906250,32.226562,-52.368164
cobot_dynamixel_driver/joint_states|name|J1,J2,J3,J4,J5,J6|pos|0.000426,-1.041228,1.068143,-0.000225,-1.151059,1.103296|vel|-0.005216,0.702722,-0.655150,0.000000,0.661134,-0.669407|eff|-257.812500,-644.531250,-773.437500,128.906250,52.368164,-80.566406
cobot_dynamixel_driver/joint_states|name|J1,J2,J3,J4,J5,J6|pos|0.000175,-0.975007,1.002109,-0.000213,-1.085424,1.038013|vel|-0.002295,0.677058,-0.701053,0.000000,0.746275,-0.673543|eff|-193.359375,-1756.347656,-1079.589844,145.019531,-16.113281,-64.453125
cobot_dynamixel_driver/joint_states|name|J1,J2,J3,J4,J5,J6|pos|0.000113,-0.908135,0.935424,-0.000088,-1.019355,0.971468|vel|-0.002504,0.650352,-0.711694,0.001669,0.666994,-0.726282|eff|-177.246094,-2884.277344,-1208.496094,128.906250,72.509766,-40.283203
cobot_dynamixel_driver/joint_states|name|J1,J2,J3,J4,J5,J6|pos|0.000100,-0.840812,0.868089,-0.000075,-0.952314,0.904613|vel|0.000000,0.682275,-0.690412,0.001669,0.681816,-0.679748|eff|-145.019531,-370.605469,-1144.042969,96.679688,72.509766,-24.169922
cobot_dynamixel_driver/joint_states|name|J1,J2,J3,J4,J5,J6|pos|0.000025,-0.773251,0.800440,-0.000075,-0.885334,0.837572|vel|-0.001669,0.678102,-0.665374,0.000000,0.684574,-0.704221|eff|-177.246094,-1305.175781,-1530.761719,128.906250,44.311523,-60.424805
cobot_dynamixel_driver/joint_states|name|J1,J2,J3,J4,J5,J6|pos|0.000025,-0.705289,0.733030,-0.000063,-0.818334,0.770489|vel|0.000000,0.705852,-0.710025,0.000000,0.784192,-0.703877|eff|-145.019531,-145.019531,-1047.363281,128.906250,-16.113281,-72.509766
cobot_dynamixel_driver/joint_states|name|J1,J2,J3,J4,J5,J6|pos|0.000025,-0.637553,0.665043,-0.000050,-0.750983,0.703365|vel|0.000000,0.692498,-0.718162,0.000000,0.730074,-0.678369|eff|-128.906250,-290.039062,-1869.140625,177.246094,0.000000,-44.311523
cobot_dynamixel_driver/joint_states|name|J1,J2,J3,J4,J5,J6|pos|0.000025,-0.569579,0.596944,-0.000025,-0.683652,0.635993|vel|0.000000,0.714615,-0.720040,0.000209,0.688710,-0.650104|eff|-177.246094,80.566406,-1289.062500,128.906250,72.509766,-36.254883
cobot_dynamixel_driver/joint_states|name|J1,J2,J3,J4,J5,J6|pos|0.000025,-0.502031,0.529208,0.000000,-0.616238,0.568786|vel|0.000000,0.676432,-0.737983,0.000209,0.603569,-0.696638|eff|-112.792969,-1240.722656,-1885.253906,145.019531,16.113281,-68.481445
cobot_dynamixel_driver/joint_states|name|J1,J2,J3,J4,J5,J6|pos|0.000025,-0.433944,0.461722,0.000000,-0.549156,0.501476|vel|0.000000,0.669756,-0.723169,0.000209,0.679403,-0.704566|eff|-145.019531,80.566406,-1417.968750,128.906250,92.651367,-32.226562
cobot_dynamixel_driver/joint_states|name|J1,J2,J3,J4,J5,J6|pos|0.000025,-0.366196,0.393936,0.000013,-0.481680,0.434269|vel|0.000000,0.737983,-0.716493,0.000000,0.685263,-0.645622|eff|-177.246094,161.132812,-1498.535156,128.906250,40.283203,-76.538086
cobot_dynamixel_driver/joint_states|name|J1,J2,J3,J4,J5,J6|pos|0.000025,-0.298234,0.325699,0.000013,-0.414576,0.366938|vel|0.000000,0.670799,-0.721291,0.000000,0.789707,-0.712149|eff|-96.679688,0.000000,-1498.535156,128.906250,52.368164,-12.084961
cobot_dynamixel_driver/joint_states|name|J1,J2,J3,J4,J5,J6|pos|0.000025,-0.230435,0.257888,0.000013,-0.347452,0.299690|vel|0.000000,0.712111,-0.718996,0.000000,0.694915,-0.706979|eff|-161.132812,209.472656,-1691.894531,128.906250,60.424805,-84.594727
cobot_dynamixel_driver/joint_states|name|J1,J2,J3,J4,J5,J6|pos|0.000025,-0.162637,0.190214,0.000013,-0.280639,0.232380|vel|0.000000,0.724004,-0.751545,0.000000,0.685608,-0.678714|eff|0.000000,241.699219,-1095.703125,128.906250,84.594727,-36.254883
cobot_dynamixel_driver/joint_states|name|J1,J2,J3,J4,J5,J6|pos|0.000025,-0.095001,0.122378,0.000013,-0.212915,0.165193|vel|0.000000,0.650352,-0.735479,0.000000,0.674233,-0.641486|eff|-161.132812,773.437500,-2159.179688,128.906250,80.566406,-108.764648
cobot_dynamixel_driver/joint_states|name|J1,J2,J3,J4,J5,J6|pos|0.000025,-0.046580,0.062616,0.000013,-0.145873,0.097945|vel|0.000000,0.328201,-0.452763,0.000000,0.620804,-0.716975|eff|0.000000,273.925781,-596.191406,128.906250,92.651367,-64.453125
cobot_dynamixel_driver/joint_states|name|J1,J2,J3,J4,J5,J6|pos|0.000013,-0.023434,0.032172,0.000025,-0.080363,0.049748|vel|0.000000,0.163996,-0.224712,0.000000,0.575993,-0.351594|eff|-32.226562,177.246094,-805.664062,128.906250,-36.254883,0.000000
cobot_dynamixel_driver/joint_states|name|J1,J2,J3,J4,J5,J6|pos|0.000013,-0.012130,0.016524,0.000025,-0.041267,0.025650|vel|0.000000,0.083250,-0.102237,0.000000,0.284033,-0.175797|eff|-145.019531,225.585938,-773.437500,128.906250,36.254883,-32.226562
cobot_dynamixel_driver/joint_states|name|J1,J2,J3,J4,J5,J6|pos|0.000013,-0.006259,0.008525,0.000025,-0.021285,0.013218|vel|0.000000,0.048197,-0.058212,0.000000,0.150289,-0.091690|eff|-161.132812,257.812500,-870.117188,128.906250,52.368164,-44.311523
cobot_dynamixel_driver/joint_states|name|J1,J2,J3,J4,J5,J6|pos|0.000013,-0.003280,0.004469,0.000025,-0.010943,0.006785|vel|0.000000,0.024203,-0.037348,0.000000,0.064459,-0.041709|eff|-96.679688,177.246094,-902.343750,128.906250,60.424805,-52.368164
cobot_dynamixel_driver/joint_states|name|J1,J2,J3,J4,J5,J6|pos|0.000013,-0.001640,0.002291,0.000025,-0.005668,0.003475|vel|0.000000,0.012519,-0.023577,0.000000,0.037572,-0.022405|eff|-161.132812,177.246094,-886.230469,128.906250,76.538086,-52.368164
cobot_dynamixel_driver/joint_states|name|J1,J2,J3,J4,J5,J6|pos|0.000013,-0.000839,0.001064,0.000025,-0.002958,0.001820|vel|0.000000,0.004590,-0.012936,0.000000,0.017580,-0.009652|eff|-177.246094,241.699219,-837.890625,128.906250,76.538086,-60.424805
cobot_dynamixel_driver/joint_states|name|J1,J2,J3,J4,J5,J6|pos|0.000013,-0.000513,0.000914,0.000025,-0.001510,0.000889|vel|0.000000,0.002712,-0.005008,0.000000,0.013443,-0.008273|eff|-145.019531,145.019531,-902.343750,128.906250,72.509766,-48.339844
cobot_dynamixel_driver/joint_states|name|J1,J2,J3,J4,J5,J6|pos|0.000013,-0.000163,0.000626,0.000025,-0.000765,0.000455|vel|0.000000,0.003756,-0.007511,0.000000,0.006549,-0.005860|eff|-145.019531,225.585938,-950.683594,128.906250,68.481445,-48.339844
cobot_dynamixel_driver/joint_states|name|J1,J2,J3,J4,J5,J6|pos|0.000013,0.000100,0.000125,0.000025,-0.000455,0.000352|vel|0.000000,-0.002295,-0.003547,0.000000,0.004136,-0.002758|eff|0.000000,241.699219,-821.777344,128.906250,64.453125,-48.339844
cobot_dynamixel_driver/joint_states|name|J1,J2,J3,J4,J5,J6|pos|0.000013,0.000100,0.000125,0.000025,-0.000455,0.000228|vel|0.000000,-0.000000,0.000000,0.000000,0.004136,-0.003102|eff|-145.019531,257.812500,-773.437500,128.906250,52.368164,-56.396484
cobot_dynamixel_driver/joint_states|name|J1,J2,J3,J4,J5,J6|pos|0.000013,0.000113,0.000125,0.000038,-0.000290,0.000228|vel|0.000000,-0.000000,0.000000,0.000000,0.004481,0.000000|eff|-96.679688,241.699219,-805.664062,128.906250,64.453125,-40.283203
cobot_dynamixel_driver/joint_states|name|J1,J2,J3,J4,J5,J6|pos|0.000013,0.000100,0.000125,0.000038,-0.000290,0.000228|vel|0.000000,-0.000000,-0.000626,0.000000,0.000000,0.000000|eff|-177.246094,386.718750,-837.890625,128.906250,36.254883,-44.311523
cobot_dynamixel_driver/joint_states|name|J1,J2,J3,J4,J5,J6|pos|0.000013,0.000100,0.000125,0.000038,-0.000290,0.000083|vel|0.000000,-0.000000,0.000000,0.000000,0.000000,-0.004826|eff|-177.246094,322.265625,-886.230469,112.792969,60.424805,-20.141602
cobot_dynamixel_driver/joint_states|name|J1,J2,J3,J4,J5,J6|pos|0.000013,0.000100,0.000113,0.000038,-0.000207,0.000083|vel|0.000000,-0.000000,0.000000,0.000000,0.001379,0.000000|eff|-128.906250,451.171875,-902.343750,128.906250,68.481445,0.000000
cobot_dynamixel_driver/joint_states|name|J1,J2,J3,J4,J5,J6|pos|0.000013,0.000100,0.000100,0.000038,-0.000186,0.000083|vel|0.000000,-0.000000,0.000000,0.000000,0.001379,0.000000|eff|-177.246094,338.378906,-902.343750,128.906250,72.509766,-8.056641
cobot_dynamixel_driver/joint_states|name|J1,J2,J3,J4,J5,J6|pos|0.000013,0.000088,0.000088,0.000038,-0.000165,0.000083|vel|0.000000,-0.000000,0.000000,0.000000,0.000000,0.000000|eff|-161.132812,306.152344,-870.117188,112.792969,72.509766,0.000000
cobot_dynamixel_driver/joint_states|name|J1,J2,J3,J4,J5,J6|pos|0.000013,0.000088,0.000063,0.000038,-0.000041,0.000083|vel|0.000000,-0.000000,0.000000,0.000000,0.002068,0.000000|eff|-177.246094,483.398438,-902.343750,112.792969,52.368164,-20.141602
cobot_dynamixel_driver/joint_states|name|J1,J2,J3,J4,J5,J6|pos|0.000013,0.000088,0.000050,0.000038,-0.000041,0.000083|vel|0.000000,-0.000000,-0.000209,0.000000,0.000000,0.000000|eff|-80.566406,402.832031,-886.230469,80.566406,48.339844,-28.198242
cobot_dynamixel_driver/joint_states|name|J1,J2,J3,J4,J5,J6|pos|0.000013,0.000075,0.000038,0.000038,-0.000041,0.000083|vel|0.000000,-0.000000,-0.000209,0.000000,0.000000,0.000000|eff|-177.246094,273.925781,-918.457031,112.792969,52.368164,-16.113281
cobot_dynamixel_driver/joint_states|name|J1,J2,J3,J4,J5,J6|pos|0.000013,0.000075,0.000025,0.000038,-0.000041,0.000083|vel|0.000000,-0.000000,0.000000,0.000000,0.000000,0.000000|eff|-96.679688,483.398438,-934.570312,64.453125,52.368164,-36.254883
cobot_dynamixel_driver/joint_states|name|J1,J2,J3,J4,J5,J6|pos|0.000013,0.000075,0.000013,0.000038,-0.000041,0.000083|vel|0.000000,-0.000000,0.000000,0.000000,0.000000,0.000000|eff|-145.019531,402.832031,-918.457031,128.906250,48.339844,-24.169922
cobot_dynamixel_driver/joint_states|name|J1,J2,J3,J4,J5,J6|pos|0.000013,0.000063,0.000013,0.000025,-0.000041,0.000083|vel|0.000000,-0.000000,0.000000,0.000000,0.000000,0.000000|eff|-96.679688,370.605469,-934.570312,64.453125,48.339844,-24.169922
cobot_dynamixel_driver/joint_states|name|J1,J2,J3,J4,J5,J6|pos|0.000013,0.000063,0.000000,0.000025,-0.000041,0.000083|vel|0.000000,-0.000000,0.000000,0.000000,0.000000,0.000000|eff|-177.246094,467.285156,-934.570312,32.226562,48.339844,-36.254883
cobot_dynamixel_driver/joint_states|name|J1,J2,J3,J4,J5,J6|pos|0.000013,0.000038,0.000000,0.000025,-0.000041,0.000083|vel|0.000000,-0.000000,0.000000,0.000000,0.000000,0.000000|eff|-96.679688,499.511719,-934.570312,112.792969,44.311523,-40.283203
cobot_dynamixel_driver/joint_states|name|J1,J2,J3,J4,J5,J6|pos|0.000013,0.000038,-0.000025,0.000025,-0.000041,0.000083|vel|0.000000,-0.000000,0.000000,0.000000,0.000000,0.000000|eff|-32.226562,499.511719,-934.570312,64.453125,52.368164,-40.283203
cobot_dynamixel_driver/joint_states|name|J1,J2,J3,J4,J5,J6|pos|0.000013,0.000038,-0.000025,0.000025,-0.000041,0.000083|vel|0.000000,-0.000000,0.000000,0.000000,0.000000,0.000000|eff|-177.246094,370.605469,-934.570312,64.453125,44.311523,-48.339844
cobot_dynamixel_driver/joint_states|name|J1,J2,J3,J4,J5,J6|pos|0.000013,0.000025,-0.000025,0.000025,-0.000041,0.000083|vel|0.000000,-0.000000,0.000000,0.000000,0.000000,0.000000|eff|-177.246094,499.511719,-902.343750,96.679688,48.339844,-52.368164
cobot_dynamixel_driver/joint_states|name|J1,J2,J3,J4,J5,J6|pos|0.000013,0.000025,-0.000025,0.000025,-0.000041,0.000062|vel|0.000000,-0.000000,0.000000,0.000000,0.000000,0.000000|eff|-161.132812,499.511719,-934.570312,0.000000,48.339844,-56.396484
cobot_dynamixel_driver/joint_states|name|J1,J2,J3,J4,J5,J6|pos|0.000013,0.000025,-0.000025,0.000025,-0.000041,-0.000041|vel|0.000000,-0.000000,0.000000,0.000000,0.000000,-0.001723|eff|-80.566406,499.511719,-934.570312,112.792969,48.339844,-48.339844
cobot_dynamixel_driver/joint_states|name|J1,J2,J3,J4,J5,J6|pos|0.000013,0.000025,-0.000038,0.000025,-0.000041,-0.000041|vel|0.000000,-0.000000,0.000000,0.000000,0.000000,0.000000|eff|-145.019531,499.511719,-918.457031,64.453125,48.339844,-36.254883
cobot_dynamixel_driver/joint_states|name|J1,J2,J3,J4,J5,J6|pos|0.000013,0.000025,-0.000038,0.000025,-0.000041,-0.000041|vel|0.000000,-0.000000,0.000000,0.000000,0.000000,0.000000|eff|-96.679688,483.398438,-870.117188,96.679688,48.339844,-36.254883
cobot_dynamixel_driver/joint_states|name|J1,J2,J3,J4,J5,J6|pos|0.000013,0.000013,-0.000038,0.000025,-0.000041,-0.000041|vel|0.000000,-0.000000,0.000000,0.000000,0.000000,0.000000|eff|0.000000,499.511719,-918.457031,0.000000,48.339844,-36.254883
cobot_dynamixel_driver/joint_states|name|J1,J2,J3,J4,J5,J6|pos|0.000013,0.000013,-0.000038,0.000025,-0.000041,-0.000041|vel|0.000000,-0.000000,0.000000,0.000000,0.000000,0.000000|eff|-177.246094,467.285156,-870.117188,0.000000,48.339844,-36.254883
cobot_dynamixel_driver/joint_states|name|J1,J2,J3,J4,J5,J6|pos|0.000013,0.000013,-0.000038,0.000025,-0.000041,-0.000041|vel|0.000000,-0.000000,0.000000,0.000000,0.000000,0.000000|eff|-161.132812,499.511719,-886.230469,0.000000,48.339844,-36.254883
cobot_dynamixel_driver/joint_states|name|J1,J2,J3,J4,J5,J6|pos|0.000013,0.000013,-0.000038,0.000025,-0.000041,-0.000041|vel|0.000000,-0.000000,0.000000,0.000000,0.000000,0.000000|eff|-177.246094,418.945312,-902.343750,0.000000,48.339844,-40.283203
cobot_dynamixel_driver/joint_states|name|J1,J2,J3,J4,J5,J6|pos|0.000013,0.000013,-0.000038,0.000025,-0.000041,-0.000041|vel|0.000000,-0.000000,0.000000,0.000000,0.000000,0.000000|eff|-80.566406,499.511719,-902.343750,112.792969,48.339844,-36.254883
cobot_dynamixel_driver/joint_states|name|J1,J2,J3,J4,J5,J6|pos|0.000013,0.000013,-0.000038,0.000025,-0.000041,-0.000041|vel|0.000000,-0.000000,0.000000,0.000000,0.000000,0.000000|eff|-145.019531,499.511719,-854.003906,64.453125,48.339844,-36.254883
cobot_dynamixel_driver/joint_states|name|J1,J2,J3,J4,J5,J6|pos|0.000013,0.000013,-0.000038,0.000025,-0.000041,-0.000041|vel|0.000000,-0.000000,0.000000,0.000000,0.000000,0.000000|eff|-177.246094,354.492188,-918.457031,32.226562,48.339844,-36.254883
cobot_dynamixel_driver/joint_states|name|J1,J2,J3,J4,J5,J6|pos|0.000013,0.000013,-0.000038,0.000025,-0.000041,-0.000041|vel|0.000000,-0.000000,0.000000,0.000000,0.000000,0.000000|eff|-177.246094,499.511719,-837.890625,0.000000,48.339844,-36.254883
cobot_dynamixel_driver/joint_states|name|J1,J2,J3,J4,J5,J6|pos|0.000013,0.000013,-0.000038,0.000025,-0.000041,-0.000041|vel|0.000000,-0.000000,0.000000,0.000000,0.000000,0.000000|eff|-177.246094,499.511719,-837.890625,112.792969,48.339844,-40.283203
cobot_dynamixel_driver/joint_states|name|J1,J2,J3,J4,J5,J6|pos|0.000013,0.000013,-0.000038,0.000025,-0.000041,-0.000041|vel|0.000000,-0.000000,0.000000,0.000000,0.000000,0.000000|eff|-96.679688,402.832031,-837.890625,64.453125,48.339844,-36.254883
cobot_dynamixel_driver/joint_states|name|J1,J2,J3,J4,J5,J6|pos|0.000013,0.000013,-0.000025,0.000025,-0.000041,-0.000041|vel|0.000000,-0.000000,0.000000,0.000000,0.000000,0.000000|eff|-177.246094,499.511719,-854.003906,32.226562,48.339844,-36.254883
cobot_dynamixel_driver/joint_states|name|J1,J2,J3,J4,J5,J6|pos|0.000013,0.000013,-0.000038,0.000025,-0.000041,-0.000041|vel|0.000000,-0.000000,0.000000,0.000000,0.000000,0.000000|eff|-32.226562,354.492188,-870.117188,80.566406,48.339844,-36.254883
cobot_dynamixel_driver/joint_states|name|J1,J2,J3,J4,J5,J6|pos|0.000000,0.000013,-0.000038,0.000025,-0.000041,-0.000041|vel|0.000000,-0.000000,0.000000,0.000000,0.000000,0.000000|eff|-96.679688,483.398438,-837.890625,0.000000,48.339844,-36.254883
cobot_dynamixel_driver/joint_states|name|J1,J2,J3,J4,J5,J6|pos|0.000000,0.000013,-0.000038,0.000025,-0.000041,-0.000041|vel|0.000000,-0.000000,0.000000,0.000000,0.000000,0.000000|eff|-112.792969,322.265625,-821.777344,128.906250,48.339844,-36.254883
cobot_dynamixel_driver/joint_states|name|J1,J2,J3,J4,J5,J6|pos|0.000000,0.000013,-0.000025,0.000025,-0.000041,-0.000041|vel|0.000000,-0.000000,0.000000,0.000000,0.000000,0.000000|eff|-145.019531,499.511719,-821.777344,64.453125,48.339844,0.000000
cobot_dynamixel_driver/joint_states|name|J1,J2,J3,J4,J5,J6|pos|0.000000,0.000013,-0.000025,0.000025,-0.000041,-0.000041|vel|0.000000,-0.000000,0.000000,0.000000,0.000000,0.000000|eff|-145.019531,499.511719,-837.890625,0.000000,48.339844,0.000000
cobot_dynamixel_driver/joint_states|name|J1,J2,J3,J4,J5,J6|pos|0.000000,0.000013,-0.000025,0.000025,-0.000041,-0.000041|vel|0.000000,-0.000000,0.000000,0.000000,0.000000,0.000000|eff|-32.226562,499.511719,-821.777344,32.226562,48.339844,0.000000
cobot_dynamixel_driver/joint_states|name|J1,J2,J3,J4,J5,J6|pos|0.000000,0.000013,-0.000025,0.000025,-0.000041,-0.000041|vel|0.000000,-0.000000,0.000000,0.000000,0.000000,0.000000|eff|-96.679688,467.285156,-789.550781,32.226562,48.339844,0.000000
cobot_dynamixel_driver/goal|-:J1,J2,J3,J4,J5,J6:0.000000,0.000000,0.000000,0.000000,0.000000,1.000000:vel_
cobot_dynamixel_driver/joint_states|name|J1,J2,J3,J4,J5,J6|pos|0.000050,0.001339,0.002429,0.000025,-0.000041,0.000186|vel|0.000000,0.004382,0.000417,0.000000,0.000000,0.036883|eff|0.000000,290.039062,-322.265625,0.000000,0.000000,44.311523
cobot_dynamixel_driver/joint_states|name|J1,J2,J3,J4,J5,J6|pos|0.000050,0.001339,0.002429,0.000025,-0.000041,0.014563|vel|0.000000,-0.000000,0.000000,0.000000,0.000000,-0.360211|eff|0.000000,370.605469,-338.378906,0.000000,0.000000,-741.210938
cobot_dynamixel_driver/goal|-:J1,J2,J3,J4,J5,J6:0.000000,0.000000,0.000000,0.000000,0.000000,1.000000:vel_
cobot_dynamixel_driver/joint_states|name|J1,J2,J3,J4,J5,J6|pos|0.000050,0.001339,0.002429,0.000025,-0.000041,0.049500|vel|0.000000,-0.000000,0.000000,0.000000,0.000000,0.596675|eff|0.000000,225.585938,-338.378906,0.000000,0.000000,-2457.275391
cobot_dynamixel_driver/joint_states|name|J1,J2,J3,J4,J5,J6|pos|0.000050,0.001339,0.002429,0.000025,-0.000041,0.102662|vel|0.000000,-0.000000,0.000000,0.000000,0.000000,0.432598|eff|0.000000,451.171875,-338.378906,0.000000,0.000000,-3049.438477
cobot_dynamixel_driver/goal|-:J1,J2,J3,J4,J5,J6:0.000000,0.000000,0.000000,0.000000,0.000000,1.000000:vel_
cobot_dynamixel_driver/joint_states|name|J1,J2,J3,J4,J5,J6|pos|0.000050,0.001339,0.002429,0.000025,-0.000041,0.174192|vel|0.000000,-0.000000,0.000000,0.000000,0.000000,0.501883|eff|-48.339844,257.812500,-338.378906,0.000000,12.084961,3001.098633
cobot_dynamixel_driver/joint_states|name|J1,J2,J3,J4,J5,J6|pos|0.000050,0.001339,0.002429,0.000025,-0.000041,0.267048|vel|0.000000,-0.000000,0.000000,0.000000,0.000000,1.066501|eff|0.000000,273.925781,-338.378906,0.000000,0.000000,-3581.176758
cobot_dynamixel_driver/goal|-:J1,J2,J3,J4,J5,J6:0.000000,0.000000,0.000000,0.000000,0.000000,1.000000:vel_
cobot_dynamixel_driver/joint_states|name|J1,J2,J3,J4,J5,J6|pos|0.000050,0.001339,0.002429,0.000013,-0.000041,0.363111|vel|0.000000,-0.000000,0.000000,0.000000,0.000000,0.796946|eff|0.000000,306.152344,-338.378906,0.000000,0.000000,3432.128906
cobot_dynamixel_driver/joint_states|name|J1,J2,J3,J4,J5,J6|pos|0.000050,0.001339,0.002429,0.000013,-0.000041,0.461532|vel|0.000000,-0.000000,0.000000,0.000000,0.000000,1.155778|eff|-64.453125,241.699219,-338.378906,0.000000,0.000000,-3516.723633
cobot_dynamixel_driver/goal|-:J1,J2,J3,J4,J5,J6:0.000000,0.000000,0.000000,0.000000,0.000000,1.000000:vel_
cobot_dynamixel_driver/joint_states|name|J1,J2,J3,J4,J5,J6|pos|0.000050,0.001339,0.002429,0.000013,-0.000041,0.557719|vel|0.000000,-0.000000,0.000000,0.000000,0.000000,0.767301|eff|0.000000,225.585938,-338.378906,0.000000,0.000000,3202.514648
cobot_dynamixel_driver/joint_states|name|J1,J2,J3,J4,J5,J6|pos|0.000050,0.001339,0.002429,0.000013,-0.000041,0.655582|vel|0.000000,-0.000000,0.000000,0.000000,0.000000,1.009970|eff|0.000000,386.718750,-338.378906,0.000000,12.084961,-3323.364258
cobot_dynamixel_driver/goal|-:J1,J2,J3,J4,J5,J6:0.000000,0.000000,0.000000,0.000000,0.000000,1.000000:vel_
cobot_dynamixel_driver/joint_states|name|J1,J2,J3,J4,J5,J6|pos|0.000050,0.001339,0.002429,0.000013,-0.000041,0.751831|vel|0.000000,-0.000000,0.000000,0.000000,0.000000,0.827279|eff|0.000000,257.812500,-338.378906,0.000000,8.056641,2787.597656
cobot_dynamixel_driver/joint_states|name|J1,J2,J3,J4,J5,J6|pos|0.000050,0.001339,0.002429,0.000013,-0.000041,0.849135|vel|0.000000,-0.000000,0.000000,0.000000,0.000000,1.173358|eff|-112.792969,322.265625,-338.378906,0.000000,0.000000,2735.229492
cobot_dynamixel_driver/goal|-:J1,J2,J3,J4,J5,J6:0.000000,0.000000,0.000000,0.000000,0.000000,1.000000:vel_
cobot_dynamixel_driver/joint_states|name|J1,J2,J3,J4,J5,J6|pos|0.000050,0.001339,0.002429,0.000013,-0.000041,0.946749|vel|0.000000,-0.000000,0.000000,0.000000,0.000000,0.955852|eff|-112.792969,241.699219,-338.378906,0.000000,12.084961,3323.364258
cobot_dynamixel_driver/joint_states|name|J1,J2,J3,J4,J5,J6|pos|0.000050,0.001339,0.002429,0.000013,-0.000041,1.043516|vel|0.000000,-0.000000,0.000000,0.000000,0.000000,1.021000|eff|-128.906250,370.605469,-338.378906,0.000000,12.084961,3532.836914
cobot_dynamixel_driver/goal|-:J1,J2,J3,J4,J5,J6:0.000000,0.000000,0.000000,0.000000,0.000000,1.000000:vel_
cobot_dynamixel_driver/joint_states|name|J1,J2,J3,J4,J5,J6|pos|0.000050,0.001339,0.002429,0.000013,-0.000041,1.141419|vel|0.000000,-0.000000,0.000000,0.000000,0.000000,0.804529|eff|-64.453125,290.039062,-338.378906,0.000000,-8.056641,-1470.336914
cobot_dynamixel_driver/joint_states|name|J1,J2,J3,J4,J5,J6|pos|0.000050,0.001339,0.002429,0.000013,-0.000041,1.238620|vel|0.000000,-0.000000,0.000000,0.000000,0.000000,0.940685|eff|0.000000,322.265625,-338.378906,0.000000,0.000000,-3343.505859
cobot_dynamixel_driver/goal|-:J1,J2,J3,J4,J5,J6:0.000000,0.000000,0.000000,0.000000,0.000000,1.000000:vel_
cobot_dynamixel_driver/joint_states|name|J1,J2,J3,J4,J5,J6|pos|0.000050,0.001339,0.002429,0.000013,-0.000041,1.335304|vel|0.000000,-0.000000,0.000000,0.000000,0.000000,0.783158|eff|0.000000,370.605469,-338.378906,0.000000,0.000000,3262.939453
cobot_dynamixel_driver/joint_states|name|J1,J2,J3,J4,J5,J6|pos|0.000050,0.001339,0.002429,0.000013,-0.000041,1.432897|vel|0.000000,-0.000000,0.000000,0.000000,0.000000,0.794877|eff|-112.792969,435.058594,-338.378906,0.000000,-8.056641,2219.604492
cobot_dynamixel_driver/goal|-:J1,J2,J3,J4,J5,J6:0.000000,0.000000,0.000000,0.000000,0.000000,1.000000:vel_
cobot_dynamixel_driver/joint_states|name|J1,J2,J3,J4,J5,J6|pos|0.000050,0.001339,0.002429,0.000013,-0.000041,1.530284|vel|0.000000,-0.000000,0.000000,0.000000,0.000000,1.129236|eff|0.000000,418.945312,-338.378906,0.000000,0.000000,-3411.987305
cobot_dynamixel_driver/joint_states|name|J1,J2,J3,J4,J5,J6|pos|0.000050,0.001339,0.002429,0.000013,-0.000041,1.627650|vel|0.000000,-0.000000,0.000000,0.000000,0.000000,1.007212|eff|0.000000,225.585938,-338.378906,0.000000,0.000000,3343.505859
cobot_dynamixel_driver/goal|-:J1,J2,J3,J4,J5,J6:0.000000,0.000000,0.000000,0.000000,0.000000,1.000000:vel_
cobot_dynamixel_driver/joint_states|name|J1,J2,J3,J4,J5,J6|pos|0.000050,0.001339,0.002429,0.000013,-0.000041,1.714777|vel|0.000000,-0.000000,0.000000,0.000000,0.000000,0.663202|eff|0.000000,273.925781,-338.378906,0.000000,-8.056641,-8.056641
[RxPacketError] Hardware error occurred. Check the error at Control Table (Hardware Error Status)!
 /home/dell/catkin_ws/src/cobot/cobot_dynamixel_driver/src/cJoint_pro.cpp:379
