surachairobotic/cobot/cobot_dynamixel_driver/log/2018-12-19T09:38:01.818709_driver_log.txt
cobot_dynamixel_driver/joint_states|name|J1,J2,J3,J4,J5,J6|pos|-0.017864,-1.268785,1.294497,0.001014,-1.016211,-0.000083|vel|0.000000,-0.000000,0.000000,0.000000,0.000000,0.000000|eff|0.000000,0.000000,0.000000,0.000000,0.000000,0.000000
cobot_dynamixel_driver/joint_states|name|J1,J2,J3,J4,J5,J6|pos|-0.017864,-1.268785,1.294497,0.001014,-1.016211,-0.000083|vel|0.000000,-0.000000,0.000000,0.000000,0.000000,0.000000|eff|0.000000,0.000000,0.000000,0.000000,0.000000,-8.056641
cobot_dynamixel_driver/joint_states|name|J1,J2,J3,J4,J5,J6|pos|-0.017864,-1.268785,1.294497,0.001014,-1.016211,-0.000083|vel|0.000000,-0.000000,0.000000,0.000000,0.000000,0.000000|eff|0.000000,0.000000,0.000000,0.000000,0.000000,0.000000
cobot_dynamixel_driver/joint_states|name|J1,J2,J3,J4,J5,J6|pos|-0.017864,-1.268785,1.294497,0.001014,-1.016211,-0.000083|vel|0.000000,-0.000000,0.000000,0.000000,0.000000,0.000000|eff|0.000000,0.000000,0.000000,0.000000,0.000000,0.000000
cobot_dynamixel_driver/joint_states|name|J1,J2,J3,J4,J5,J6|pos|-0.017864,-1.268785,1.294497,0.001014,-1.016211,-0.000083|vel|0.000000,-0.000000,0.000000,0.000000,0.000000,0.000000|eff|0.000000,0.000000,0.000000,0.000000,0.000000,0.000000
cobot_dynamixel_driver/joint_states|name|J1,J2,J3,J4,J5,J6|pos|-0.017864,-1.268785,1.294497,0.001014,-1.016211,-0.000083|vel|0.000000,-0.000000,0.000000,0.000000,0.000000,0.000000|eff|0.000000,0.000000,0.000000,0.000000,0.000000,0.000000
cobot_dynamixel_driver/joint_states|name|J1,J2,J3,J4,J5,J6|pos|-0.017864,-1.268785,1.294497,0.001014,-1.016211,-0.000083|vel|0.000000,-0.000000,0.000000,0.000000,0.000000,0.000000|eff|0.000000,0.000000,0.000000,0.000000,0.000000,0.000000
cobot_dynamixel_driver/joint_states|name|J1,J2,J3,J4,J5,J6|pos|-0.017864,-1.268785,1.294497,0.001014,-1.016211,-0.000083|vel|0.000000,-0.000000,0.000000,0.000000,0.000000,0.000000|eff|0.000000,0.000000,0.000000,0.000000,0.000000,0.000000
cobot_dynamixel_driver/joint_states|name|J1,J2,J3,J4,J5,J6|pos|-0.017864,-1.268785,1.294497,0.001014,-1.016211,-0.000083|vel|0.000000,-0.000000,0.000000,0.000000,0.000000,0.000000|eff|0.000000,0.000000,0.000000,0.000000,0.000000,0.000000
cobot_dynamixel_driver/joint_states|name|J1,J2,J3,J4,J5,J6|pos|-0.017864,-1.268785,1.294497,0.001014,-1.016211,-0.000083|vel|0.000000,-0.000000,0.000000,0.000000,0.000000,0.000000|eff|0.000000,0.000000,0.000000,0.000000,0.000000,0.000000
cobot_dynamixel_driver/joint_states|name|J1,J2,J3,J4,J5,J6|pos|-0.017864,-1.268785,1.294497,0.001014,-1.016211,-0.000083|vel|0.000000,-0.000000,0.000000,0.000000,0.000000,0.000000|eff|0.000000,0.000000,0.000000,0.000000,0.000000,-8.056641
cobot_dynamixel_driver/joint_states|name|J1,J2,J3,J4,J5,J6|pos|-0.017864,-1.268785,1.294497,0.001014,-1.016211,-0.000083|vel|0.000000,-0.000000,0.000000,0.000000,0.000000,0.000000|eff|0.000000,0.000000,0.000000,0.000000,0.000000,0.000000
cobot_dynamixel_driver/joint_states|name|J1,J2,J3,J4,J5,J6|pos|-0.017864,-1.268785,1.294497,0.001014,-1.016211,-0.000083|vel|0.000000,-0.000000,0.000000,0.000000,0.000000,0.000000|eff|0.000000,0.000000,0.000000,0.000000,0.000000,0.000000
cobot_dynamixel_driver/joint_states|name|J1,J2,J3,J4,J5,J6|pos|-0.017864,-1.268785,1.294497,0.001014,-1.016211,-0.000083|vel|0.000000,-0.000000,0.000000,0.000000,0.000000,0.000000|eff|0.000000,0.000000,0.000000,0.000000,0.000000,8.056641
cobot_dynamixel_driver/joint_states|name|J1,J2,J3,J4,J5,J6|pos|-0.017864,-1.268785,1.294497,0.001014,-1.016211,-0.000083|vel|0.000000,-0.000000,0.000000,0.000000,0.000000,0.000000|eff|0.000000,0.000000,0.000000,0.000000,0.000000,0.000000
cobot_dynamixel_driver/joint_states|name|J1,J2,J3,J4,J5,J6|pos|-0.017864,-1.268785,1.294497,0.001014,-1.016211,-0.000083|vel|0.000000,-0.000000,0.000000,0.000000,0.000000,0.000000|eff|0.000000,0.000000,0.000000,0.000000,0.000000,-8.056641
cobot_dynamixel_driver/joint_states|name|J1,J2,J3,J4,J5,J6|pos|-0.017864,-1.268785,1.294497,0.001014,-1.016211,-0.000083|vel|0.000000,-0.000000,0.000000,0.000000,0.000000,0.000000|eff|0.000000,0.000000,0.000000,0.000000,0.000000,-8.056641
cobot_dynamixel_driver/joint_states|name|J1,J2,J3,J4,J5,J6|pos|-0.017864,-1.268785,1.294497,0.001014,-1.016211,-0.000083|vel|0.000000,-0.000000,0.000000,0.000000,0.000000,0.000000|eff|0.000000,0.000000,0.000000,0.000000,0.000000,0.000000
cobot_dynamixel_driver/joint_states|name|J1,J2,J3,J4,J5,J6|pos|-0.017864,-1.268785,1.294497,0.001014,-1.016211,-0.000083|vel|0.000000,-0.000000,0.000000,0.000000,0.000000,0.000000|eff|0.000000,0.000000,0.000000,0.000000,0.000000,-8.056641
cobot_dynamixel_driver/joint_states|name|J1,J2,J3,J4,J5,J6|pos|-0.017864,-1.268785,1.294497,0.001014,-1.016211,-0.000083|vel|0.000000,-0.000000,0.000000,0.000000,0.000000,0.000000|eff|0.000000,0.000000,0.000000,0.000000,0.000000,20.141602
cobot_dynamixel_driver/joint_states|name|J1,J2,J3,J4,J5,J6|pos|-0.017864,-1.268785,1.294497,0.001014,-1.016211,-0.000083|vel|0.000000,-0.000000,0.000000,0.000000,0.000000,0.000000|eff|0.000000,0.000000,0.000000,0.000000,0.000000,0.000000
cobot_dynamixel_driver/joint_states|name|J1,J2,J3,J4,J5,J6|pos|-0.017864,-1.268785,1.294497,0.001014,-1.016211,-0.000083|vel|0.000000,-0.000000,0.000000,0.000000,0.000000,0.000000|eff|0.000000,0.000000,0.000000,0.000000,0.000000,0.000000
cobot_dynamixel_driver/joint_states|name|J1,J2,J3,J4,J5,J6|pos|-0.017864,-1.268785,1.294497,0.001014,-1.016211,-0.000083|vel|0.000000,-0.000000,0.000000,0.000000,0.000000,0.000000|eff|0.000000,0.000000,0.000000,0.000000,0.000000,0.000000
cobot_dynamixel_driver/joint_states|name|J1,J2,J3,J4,J5,J6|pos|-0.017864,-1.268785,1.294497,0.001014,-1.016211,-0.000083|vel|0.000000,-0.000000,0.000000,0.000000,0.000000,0.000000|eff|0.000000,0.000000,0.000000,0.000000,0.000000,0.000000
cobot_dynamixel_driver/joint_states|name|J1,J2,J3,J4,J5,J6|pos|-0.017864,-1.268785,1.294497,0.001014,-1.016211,-0.000083|vel|0.000000,-0.000000,0.000000,0.000000,0.000000,0.000000|eff|0.000000,0.000000,0.000000,0.000000,0.000000,-8.056641
cobot_dynamixel_driver/joint_states|name|J1,J2,J3,J4,J5,J6|pos|-0.017864,-1.268785,1.294497,0.001014,-1.016211,-0.000083|vel|0.000000,-0.000000,0.000000,0.000000,0.000000,0.000000|eff|0.000000,0.000000,0.000000,0.000000,0.000000,0.000000
cobot_dynamixel_driver/joint_states|name|J1,J2,J3,J4,J5,J6|pos|-0.017864,-1.268785,1.294497,0.001014,-1.016211,-0.000083|vel|0.000000,-0.000000,0.000000,0.000000,0.000000,0.000000|eff|0.000000,0.000000,0.000000,0.000000,0.000000,0.000000
cobot_dynamixel_driver/joint_states|name|J1,J2,J3,J4,J5,J6|pos|-0.017864,-1.268785,1.294497,0.001014,-1.016211,-0.000083|vel|0.000000,-0.000000,0.000000,0.000000,0.000000,0.000000|eff|0.000000,0.000000,0.000000,0.000000,0.000000,0.000000
cobot_dynamixel_driver/joint_states|name|J1,J2,J3,J4,J5,J6|pos|-0.017864,-1.268785,1.294497,0.001014,-1.016211,-0.000083|vel|0.000000,-0.000000,0.000000,0.000000,0.000000,0.000000|eff|0.000000,0.000000,0.000000,0.000000,0.000000,0.000000
cobot_dynamixel_driver/joint_states|name|J1,J2,J3,J4,J5,J6|pos|-0.017864,-1.268785,1.294497,0.001014,-1.016211,-0.000083|vel|0.000000,-0.000000,0.000000,0.000000,0.000000,0.000000|eff|0.000000,0.000000,0.000000,0.000000,0.000000,0.000000
cobot_dynamixel_driver/joint_states|name|J1,J2,J3,J4,J5,J6|pos|-0.017864,-1.268785,1.294497,0.001014,-1.016211,-0.000083|vel|0.000000,-0.000000,0.000000,0.000000,0.000000,0.000000|eff|0.000000,0.000000,0.000000,0.000000,0.000000,-8.056641
cobot_dynamixel_driver/joint_states|name|J1,J2,J3,J4,J5,J6|pos|-0.017864,-1.268785,1.294497,0.001014,-1.016211,-0.000083|vel|0.000000,-0.000000,0.000000,0.000000,0.000000,0.000000|eff|0.000000,0.000000,0.000000,0.000000,0.000000,0.000000
cobot_dynamixel_driver/joint_states|name|J1,J2,J3,J4,J5,J6|pos|-0.017864,-1.268785,1.294497,0.001014,-1.016211,-0.000083|vel|0.000000,-0.000000,0.000000,0.000000,0.000000,0.000000|eff|0.000000,0.000000,0.000000,0.000000,0.000000,0.000000
cobot_dynamixel_driver/joint_states|name|J1,J2,J3,J4,J5,J6|pos|-0.017864,-1.268785,1.294497,0.001014,-1.016211,-0.000083|vel|0.000000,-0.000000,0.000000,0.000000,0.000000,0.000000|eff|0.000000,0.000000,0.000000,0.000000,0.000000,-8.056641
cobot_dynamixel_driver/joint_states|name|J1,J2,J3,J4,J5,J6|pos|-0.017864,-1.268785,1.294497,0.001014,-1.016211,-0.000083|vel|0.000000,-0.000000,0.000000,0.000000,0.000000,0.000000|eff|0.000000,0.000000,0.000000,0.000000,0.000000,0.000000
cobot_dynamixel_driver/joint_states|name|J1,J2,J3,J4,J5,J6|pos|-0.017864,-1.268785,1.294497,0.001014,-1.016211,-0.000083|vel|0.000000,-0.000000,0.000000,0.000000,0.000000,0.000000|eff|0.000000,0.000000,0.000000,0.000000,0.000000,0.000000
cobot_dynamixel_driver/joint_states|name|J1,J2,J3,J4,J5,J6|pos|-0.017864,-1.268785,1.294497,0.001014,-1.016211,-0.000083|vel|0.000000,-0.000000,0.000000,0.000000,0.000000,0.000000|eff|0.000000,0.000000,0.000000,0.000000,0.000000,0.000000
cobot_dynamixel_driver/joint_states|name|J1,J2,J3,J4,J5,J6|pos|-0.017864,-1.268785,1.294497,0.001014,-1.016211,-0.000083|vel|0.000000,-0.000000,0.000000,0.000000,0.000000,0.000000|eff|0.000000,0.000000,0.000000,0.000000,0.000000,0.000000
cobot_dynamixel_driver/joint_states|name|J1,J2,J3,J4,J5,J6|pos|-0.017864,-1.268785,1.294497,0.001014,-1.016211,-0.000083|vel|0.000000,-0.000000,0.000000,0.000000,0.000000,0.000000|eff|0.000000,0.000000,0.000000,0.000000,0.000000,0.000000
cobot_dynamixel_driver/joint_states|name|J1,J2,J3,J4,J5,J6|pos|-0.017864,-1.268785,1.294497,0.001014,-1.016211,-0.000083|vel|0.000000,-0.000000,0.000000,0.000000,0.000000,0.000000|eff|0.000000,0.000000,0.000000,0.000000,0.000000,20.141602
cobot_dynamixel_driver/joint_states|name|J1,J2,J3,J4,J5,J6|pos|-0.017864,-1.268785,1.294497,0.001014,-1.016211,-0.000083|vel|0.000000,-0.000000,0.000000,0.000000,0.000000,0.000000|eff|0.000000,0.000000,0.000000,0.000000,0.000000,0.000000
cobot_dynamixel_driver/joint_states|name|J1,J2,J3,J4,J5,J6|pos|-0.017864,-1.268785,1.294497,0.001014,-1.016211,-0.000083|vel|0.000000,-0.000000,0.000000,0.000000,0.000000,0.000000|eff|0.000000,0.000000,0.000000,0.000000,0.000000,0.000000
cobot_dynamixel_driver/joint_states|name|J1,J2,J3,J4,J5,J6|pos|-0.017864,-1.268785,1.294497,0.001014,-1.016211,-0.000083|vel|0.000000,-0.000000,0.000000,0.000000,0.000000,0.000000|eff|0.000000,0.000000,0.000000,0.000000,0.000000,12.084961
cobot_dynamixel_driver/joint_states|name|J1,J2,J3,J4,J5,J6|pos|-0.017864,-1.268785,1.294497,0.001014,-1.016211,-0.000083|vel|0.000000,-0.000000,0.000000,0.000000,0.000000,0.000000|eff|0.000000,0.000000,0.000000,0.000000,0.000000,-8.056641
cobot_dynamixel_driver/joint_states|name|J1,J2,J3,J4,J5,J6|pos|-0.017864,-1.268785,1.294497,0.001014,-1.016211,-0.000083|vel|0.000000,-0.000000,0.000000,0.000000,0.000000,0.000000|eff|0.000000,0.000000,0.000000,0.000000,0.000000,0.000000
cobot_dynamixel_driver/joint_states|name|J1,J2,J3,J4,J5,J6|pos|-0.017864,-1.268785,1.294497,0.001014,-1.016211,-0.000083|vel|0.000000,-0.000000,0.000000,0.000000,0.000000,0.000000|eff|0.000000,0.000000,0.000000,0.000000,0.000000,0.000000
cobot_dynamixel_driver/joint_states|name|J1,J2,J3,J4,J5,J6|pos|-0.017864,-1.268785,1.294497,0.001014,-1.016211,-0.000083|vel|0.000000,-0.000000,0.000000,0.000000,0.000000,0.000000|eff|0.000000,0.000000,0.000000,0.000000,0.000000,20.141602
cobot_dynamixel_driver/joint_states|name|J1,J2,J3,J4,J5,J6|pos|-0.017864,-1.268785,1.294497,0.001014,-1.016211,-0.000083|vel|0.000000,-0.000000,0.000000,0.000000,0.000000,0.000000|eff|0.000000,0.000000,0.000000,0.000000,0.000000,0.000000
cobot_dynamixel_driver/joint_states|name|J1,J2,J3,J4,J5,J6|pos|-0.017864,-1.268785,1.294497,0.001014,-1.016211,-0.000083|vel|0.000000,-0.000000,0.000000,0.000000,0.000000,0.000000|eff|0.000000,0.000000,0.000000,0.000000,0.000000,12.084961
cobot_dynamixel_driver/joint_states|name|J1,J2,J3,J4,J5,J6|pos|-0.017864,-1.268785,1.294497,0.001014,-1.016211,-0.000083|vel|0.000000,-0.000000,0.000000,0.000000,0.000000,0.000000|eff|0.000000,0.000000,0.000000,0.000000,0.000000,8.056641
cobot_dynamixel_driver/joint_states|name|J1,J2,J3,J4,J5,J6|pos|-0.017864,-1.268785,1.294497,0.001014,-1.016211,-0.000083|vel|0.000000,-0.000000,0.000000,0.000000,0.000000,0.000000|eff|0.000000,0.000000,0.000000,0.000000,0.000000,0.000000
cobot_dynamixel_driver/joint_states|name|J1,J2,J3,J4,J5,J6|pos|-0.017864,-1.268785,1.294497,0.001014,-1.016211,-0.000083|vel|0.000000,-0.000000,0.000000,0.000000,0.000000,0.000000|eff|0.000000,0.000000,0.000000,0.000000,0.000000,-8.056641
cobot_dynamixel_driver/joint_states|name|J1,J2,J3,J4,J5,J6|pos|-0.017864,-1.268785,1.294497,0.001014,-1.016211,-0.000083|vel|0.000000,-0.000000,0.000000,0.000000,0.000000,0.000000|eff|0.000000,0.000000,0.000000,0.000000,0.000000,0.000000
cobot_dynamixel_driver/joint_states|name|J1,J2,J3,J4,J5,J6|pos|-0.017864,-1.268785,1.294497,0.001014,-1.016211,-0.000083|vel|0.000000,-0.000000,0.000000,0.000000,0.000000,0.000000|eff|0.000000,0.000000,0.000000,0.000000,0.000000,0.000000
cobot_dynamixel_driver/joint_states|name|J1,J2,J3,J4,J5,J6|pos|-0.017864,-1.268785,1.294497,0.001014,-1.016211,-0.000083|vel|0.000000,-0.000000,0.000000,0.000000,0.000000,0.000000|eff|0.000000,0.000000,0.000000,0.000000,0.000000,12.084961
cobot_dynamixel_driver/joint_states|name|J1,J2,J3,J4,J5,J6|pos|-0.017864,-1.268785,1.294497,0.001014,-1.016211,-0.000083|vel|0.000000,-0.000000,0.000000,0.000000,0.000000,0.000000|eff|0.000000,0.000000,0.000000,0.000000,0.000000,0.000000
cobot_dynamixel_driver/joint_states|name|J1,J2,J3,J4,J5,J6|pos|-0.017864,-1.268785,1.294497,0.001014,-1.016211,-0.000083|vel|0.000000,-0.000000,0.000000,0.000000,0.000000,0.000000|eff|0.000000,0.000000,0.000000,0.000000,0.000000,0.000000
cobot_dynamixel_driver/joint_states|name|J1,J2,J3,J4,J5,J6|pos|-0.017864,-1.268785,1.294497,0.001014,-1.016211,-0.000083|vel|0.000000,-0.000000,0.000000,0.000000,0.000000,0.000000|eff|0.000000,0.000000,0.000000,0.000000,0.000000,0.000000
cobot_dynamixel_driver/joint_states|name|J1,J2,J3,J4,J5,J6|pos|-0.017864,-1.268785,1.294497,0.001014,-1.016211,-0.000083|vel|0.000000,-0.000000,0.000000,0.000000,0.000000,0.000000|eff|0.000000,0.000000,0.000000,0.000000,0.000000,0.000000
cobot_dynamixel_driver/joint_states|name|J1,J2,J3,J4,J5,J6|pos|-0.017864,-1.268785,1.294497,0.001014,-1.016211,-0.000083|vel|0.000000,-0.000000,0.000000,0.000000,0.000000,0.000000|eff|0.000000,0.000000,0.000000,0.000000,0.000000,0.000000
cobot_dynamixel_driver/joint_states|name|J1,J2,J3,J4,J5,J6|pos|-0.017864,-1.268785,1.294497,0.001014,-1.016211,-0.000083|vel|0.000000,-0.000000,0.000000,0.000000,0.000000,0.000000|eff|0.000000,0.000000,0.000000,0.000000,0.000000,0.000000
cobot_dynamixel_driver/joint_states|name|J1,J2,J3,J4,J5,J6|pos|-0.017864,-1.268785,1.294497,0.001014,-1.016211,-0.000083|vel|0.000000,-0.000000,0.000000,0.000000,0.000000,0.000000|eff|0.000000,0.000000,0.000000,0.000000,0.000000,0.000000
cobot_dynamixel_driver/joint_states|name|J1,J2,J3,J4,J5,J6|pos|-0.017864,-1.268785,1.294497,0.001014,-1.016211,-0.000083|vel|0.000000,-0.000000,0.000000,0.000000,0.000000,0.000000|eff|0.000000,0.000000,0.000000,0.000000,0.000000,0.000000
cobot_dynamixel_driver/joint_states|name|J1,J2,J3,J4,J5,J6|pos|-0.017864,-1.268785,1.294497,0.001014,-1.016211,-0.000083|vel|0.000000,-0.000000,0.000000,0.000000,0.000000,0.000000|eff|0.000000,0.000000,0.000000,0.000000,0.000000,0.000000
cobot_dynamixel_driver/joint_states|name|J1,J2,J3,J4,J5,J6|pos|-0.017864,-1.268785,1.294497,0.001014,-1.016211,-0.000083|vel|0.000000,-0.000000,0.000000,0.000000,0.000000,0.000000|eff|0.000000,0.000000,0.000000,0.000000,0.000000,0.000000
cobot_dynamixel_driver/goal|-:J1,J2,J3,J4,J5,J6:0.000000,0.261799,0.000000,0.000000,0.000000,0.000000:0.500000,0.500000,0.500000,0.500000,0.500000,0.500000:pos_vel_
cobot_dynamixel_driver/joint_states|name|J1,J2,J3,J4,J5,J6|pos|-0.017864,-1.268785,1.294497,0.002216,-1.016211,-0.000083|vel|0.000000,-0.000000,0.000000,0.000000,0.000000,0.000000|eff|0.000000,0.000000,0.000000,0.000000,0.000000,0.000000
cobot_dynamixel_driver/goal|-:J1,J2,J3,J4,J5,J6:0.000000,0.261799,0.000000,0.000000,0.000000,0.000000:0.500000,0.500000,0.500000,0.500000,0.500000,0.500000:pos_vel_
cobot_dynamixel_driver/goal|-:J1,J2,J3,J4,J5,J6:0.000000,0.261799,0.000000,0.000000,0.000000,0.000000:0.500000,0.500000,0.500000,0.500000,0.500000,0.500000:pos_vel_
cobot_dynamixel_driver/goal|-:J1,J2,J3,J4,J5,J6:0.000000,0.261799,0.000000,0.000000,0.000000,0.000000:0.500000,0.500000,0.500000,0.500000,0.500000,0.500000:pos_vel_
cobot_dynamixel_driver/goal|-:J1,J2,J3,J4,J5,J6:0.000000,0.261799,0.000000,0.000000,0.000000,0.000000:0.500000,0.500000,0.500000,0.500000,0.500000,0.500000:pos_vel_
cobot_dynamixel_driver/goal|-:J1,J2,J3,J4,J5,J6:0.000000,0.261799,0.000000,0.000000,0.000000,0.000000:0.500000,0.500000,0.500000,0.500000,0.500000,0.500000:pos_vel_
cobot_dynamixel_driver/goal|-:J1,J2,J3,J4,J5,J6:0.000000,0.261799,0.000000,0.000000,0.000000,0.000000:0.500000,0.500000,0.500000,0.500000,0.500000,0.500000:pos_vel_
cobot_dynamixel_driver/goal|-:J1,J2,J3,J4,J5,J6:0.000000,0.261799,0.000000,0.000000,0.000000,0.000000:0.500000,0.500000,0.500000,0.500000,0.500000,0.500000:pos_vel_
cobot_dynamixel_driver/goal|-:J1,J2,J3,J4,J5,J6:0.000000,0.261799,0.000000,0.000000,0.000000,0.000000:0.500000,0.500000,0.500000,0.500000,0.500000,0.500000:pos_vel_
cobot_dynamixel_driver/goal|-:J1,J2,J3,J4,J5,J6:0.000000,0.261799,0.000000,0.000000,0.000000,0.000000:0.500000,0.500000,0.500000,0.500000,0.500000,0.500000:pos_vel_
cobot_dynamixel_driver/goal|-:J1,J2,J3,J4,J5,J6:0.000000,0.261799,0.000000,0.000000,0.000000,0.000000:0.500000,0.500000,0.500000,0.500000,0.500000,0.500000:pos_vel_
cobot_dynamixel_driver/goal|-:J1,J2,J3,J4,J5,J6:0.000000,0.261799,0.000000,0.000000,0.000000,0.000000:0.500000,0.500000,0.500000,0.500000,0.500000,0.500000:pos_vel_
cobot_dynamixel_driver/goal|-:J1,J2,J3,J4,J5,J6:0.000000,0.261799,0.000000,0.000000,0.000000,0.000000:0.500000,0.500000,0.500000,0.500000,0.500000,0.500000:pos_vel_
cobot_dynamixel_driver/goal|-:J1,J2,J3,J4,J5,J6:0.000000,0.261799,0.000000,0.000000,0.000000,0.000000:0.500000,0.500000,0.500000,0.500000,0.500000,0.500000:pos_vel_
cobot_dynamixel_driver/goal|-:J1,J2,J3,J4,J5,J6:0.000000,0.261799,0.000000,0.000000,0.000000,0.000000:0.500000,0.500000,0.500000,0.500000,0.500000,0.500000:pos_vel_
cobot_dynamixel_driver/goal|-:J1,J2,J3,J4,J5,J6:0.000000,0.261799,0.000000,0.000000,0.000000,0.000000:0.500000,0.500000,0.500000,0.500000,0.500000,0.500000:pos_vel_
cobot_dynamixel_driver/goal|-:J1,J2,J3,J4,J5,J6:0.000000,0.261799,0.000000,0.000000,0.000000,0.000000:0.500000,0.500000,0.500000,0.500000,0.500000,0.500000:pos_vel_
cobot_dynamixel_driver/goal|-:J1,J2,J3,J4,J5,J6:0.000000,0.261799,0.000000,0.000000,0.000000,0.000000:0.500000,0.500000,0.500000,0.500000,0.500000,0.500000:pos_vel_
cobot_dynamixel_driver/goal|-:J1,J2,J3,J4,J5,J6:0.000000,0.261799,0.000000,0.000000,0.000000,0.000000:0.500000,0.500000,0.500000,0.500000,0.500000,0.500000:pos_vel_
cobot_dynamixel_driver/goal|-:J1,J2,J3,J4,J5,J6:0.000000,0.261799,0.000000,0.000000,0.000000,0.000000:0.500000,0.500000,0.500000,0.500000,0.500000,0.500000:pos_vel_
cobot_dynamixel_driver/goal|-:J1,J2,J3,J4,J5,J6:0.000000,0.261799,0.000000,0.000000,0.000000,0.000000:0.500000,0.500000,0.500000,0.500000,0.500000,0.500000:pos_vel_
cobot_dynamixel_driver/goal|-:J1,J2,J3,J4,J5,J6:0.000000,0.261799,0.000000,0.000000,0.000000,0.000000:0.500000,0.500000,0.500000,0.500000,0.500000,0.500000:pos_vel_
cobot_dynamixel_driver/goal|-:J1,J2,J3,J4,J5,J6:0.000000,0.261799,0.000000,0.000000,0.000000,0.000000:0.500000,0.500000,0.500000,0.500000,0.500000,0.500000:pos_vel_
cobot_dynamixel_driver/goal|-:J1,J2,J3,J4,J5,J6:0.000000,0.261799,0.000000,0.000000,0.000000,0.000000:0.500000,0.500000,0.500000,0.500000,0.500000,0.500000:pos_vel_
cobot_dynamixel_driver/goal|-:J1,J2,J3,J4,J5,J6:0.000000,0.261799,0.000000,0.000000,0.000000,0.000000:0.500000,0.500000,0.500000,0.500000,0.500000,0.500000:pos_vel_
cobot_dynamixel_driver/goal|-:J1,J2,J3,J4,J5,J6:0.000000,0.261799,0.000000,0.000000,0.000000,0.000000:0.500000,0.500000,0.500000,0.500000,0.500000,0.500000:pos_vel_
cobot_dynamixel_driver/goal|-:J1,J2,J3,J4,J5,J6:0.000000,0.261799,0.000000,0.000000,0.000000,0.000000:0.500000,0.500000,0.500000,0.500000,0.500000,0.500000:pos_vel_
cobot_dynamixel_driver/goal|-:J1,J2,J3,J4,J5,J6:0.000000,0.261799,0.000000,0.000000,0.000000,0.000000:0.500000,0.500000,0.500000,0.500000,0.500000,0.500000:pos_vel_
cobot_dynamixel_driver/goal|-:J1,J2,J3,J4,J5,J6:0.000000,0.261799,0.000000,0.000000,0.000000,0.000000:0.500000,0.500000,0.500000,0.500000,0.500000,0.500000:pos_vel_
cobot_dynamixel_driver/goal|-:J1,J2,J3,J4,J5,J6:0.000000,0.261799,0.000000,0.000000,0.000000,0.000000:0.500000,0.500000,0.500000,0.500000,0.500000,0.500000:pos_vel_
cobot_dynamixel_driver/joint_states|name|J1,J2,J3,J4,J5,J6|pos|-0.017813,-1.268722,1.294422,0.002128,-1.015983,-0.000083|vel|0.007720,0.012102,-0.014188,-0.012519,0.033091,0.000000|eff|483.398438,-435.058594,-354.492188,-112.792969,116.821289,-8.056641
cobot_dynamixel_driver/joint_states|name|J1,J2,J3,J4,J5,J6|pos|-0.017288,-1.268084,1.293809,0.001978,-1.014639,-0.000083|vel|0.050910,0.052996,-0.060925,-0.006468,0.106512,0.000000|eff|789.550781,-741.210938,-580.078125,-112.792969,104.736328,0.000000
cobot_dynamixel_driver/joint_states|name|J1,J2,J3,J4,J5,J6|pos|-0.016098,-1.266782,1.292544,0.001853,-1.012446,-0.000083|vel|0.092848,0.097438,-0.091387,-0.008137,0.153047,0.000000|eff|692.871094,-902.343750,-886.230469,-161.132812,92.651367,20.141602
cobot_dynamixel_driver/joint_states|name|J1,J2,J3,J4,J5,J6|pos|-0.014221,-1.264554,1.290491,0.001702,-1.008868,-0.000083|vel|0.093265,0.134160,-0.133325,-0.007511,0.204062,0.000000|eff|467.285156,-1434.082031,-1466.308594,-161.132812,68.481445,0.000000
cobot_dynamixel_driver/joint_states|name|J1,J2,J3,J4,J5,J6|pos|-0.012568,-1.261825,1.287725,0.001565,-1.004979,-0.000083|vel|0.089927,0.185487,-0.195711,-0.007511,0.271279,0.000000|eff|386.718750,-1562.988281,-1514.648438,-193.359375,60.424805,24.169922
cobot_dynamixel_driver/joint_states|name|J1,J2,J3,J4,J5,J6|pos|-0.010953,-1.257744,1.283193,0.001402,-1.000097,-0.000083|vel|0.078868,0.243699,-0.258513,-0.007511,0.263695,0.000000|eff|386.718750,-1643.554688,-1337.402344,-161.132812,64.453125,0.000000
cobot_dynamixel_driver/joint_states|name|J1,J2,J3,J4,J5,J6|pos|-0.009351,-1.252035,1.276771,0.001239,-0.993767,-0.000083|vel|0.067184,0.285429,-0.301286,-0.005842,0.259214,0.000000|eff|386.718750,-1675.781250,-1144.042969,-209.472656,40.283203,0.000000
cobot_dynamixel_driver/joint_states|name|J1,J2,J3,J4,J5,J6|pos|-0.008300,-1.247066,1.271539,0.001139,-0.988679,-0.000083|vel|0.057169,0.315474,-0.301703,-0.006885,0.311264,0.000000|eff|370.605469,-1417.968750,-1063.476562,-112.792969,72.509766,0.000000
cobot_dynamixel_driver/joint_states|name|J1,J2,J3,J4,J5,J6|pos|-0.007123,-1.240318,1.264353,0.001026,-0.981914,-0.000083|vel|0.053414,0.326115,-0.364297,-0.006051,0.349525,0.000000|eff|306.152344,-1965.820312,-1321.289062,-209.472656,48.339844,0.000000
cobot_dynamixel_driver/joint_states|name|J1,J2,J3,J4,J5,J6|pos|-0.006209,-1.233734,1.257731,0.000926,-0.975461,-0.000083|vel|0.042773,0.375147,-0.371808,-0.004799,0.323673,0.000000|eff|306.152344,-1192.382812,-982.910156,-177.246094,52.368164,0.000000
cobot_dynamixel_driver/joint_states|name|J1,J2,J3,J4,J5,J6|pos|-0.005370,-1.226398,1.250809,0.000826,-0.968262,-0.000083|vel|0.039852,0.379737,-0.379737,-0.005008,0.369863,0.000000|eff|273.925781,-1176.269531,-1111.816406,-225.585938,36.254883,12.084961
cobot_dynamixel_driver/joint_states|name|J1,J2,J3,J4,J5,J6|pos|-0.004644,-1.218825,1.243197,0.000701,-0.960733,-0.000083|vel|0.035887,0.338425,-0.406444,-0.007303,0.351594,0.000000|eff|306.152344,-1434.082031,-1047.363281,-177.246094,36.254883,12.084961
cobot_dynamixel_driver/joint_states|name|J1,J2,J3,J4,J5,J6|pos|-0.004018,-1.210663,1.235349,0.000576,-0.952996,-0.000083|vel|0.031297,0.416667,-0.423761,-0.005425,0.411571,0.000000|eff|241.699219,-757.324219,-1498.535156,-177.246094,40.283203,0.000000
cobot_dynamixel_driver/joint_states|name|J1,J2,J3,J4,J5,J6|pos|-0.003455,-1.202526,1.227187,0.000488,-0.945115,-0.000083|vel|0.026081,0.421466,-0.421884,-0.004173,0.376067,0.000000|eff|225.585938,-1579.101562,-1385.742188,-145.019531,36.254883,12.084961
cobot_dynamixel_driver/joint_states|name|J1,J2,J3,J4,J5,J6|pos|-0.002992,-1.194126,1.218461,0.000401,-0.936531,-0.000083|vel|0.024829,0.439201,-0.427726,-0.003964,0.373654,0.000000|eff|209.472656,-821.777344,-1562.988281,-177.246094,32.226562,0.000000
cobot_dynamixel_driver/joint_states|name|J1,J2,J3,J4,J5,J6|pos|-0.002529,-1.185576,1.209962,0.000325,-0.928629,-0.000083|vel|0.023994,0.473211,-0.445043,-0.003756,0.423981,0.000000|eff|161.132812,-1079.589844,-1160.156250,-145.019531,52.368164,0.000000
cobot_dynamixel_driver/joint_states|name|J1,J2,J3,J4,J5,J6|pos|-0.002166,-1.176838,1.201312,0.000288,-0.920127,-0.000083|vel|0.014605,0.460483,-0.442957,-0.002086,0.433977,0.000000|eff|225.585938,-2046.386719,-757.324219,-128.906250,32.226562,0.000000
cobot_dynamixel_driver/joint_states|name|J1,J2,J3,J4,J5,J6|pos|-0.001878,-1.167963,1.192999,0.000263,-0.911481,-0.000083|vel|0.015231,0.480513,-0.455267,-0.001252,0.444663,0.000000|eff|177.246094,-773.437500,-1208.496094,-193.359375,36.254883,0.000000
cobot_dynamixel_driver/joint_states|name|J1,J2,J3,J4,J5,J6|pos|-0.001577,-1.159037,1.184212,0.000250,-0.902710,-0.000083|vel|0.013979,0.488025,-0.469246,-0.001043,0.427428,0.000000|eff|128.906250,-2143.066406,-1450.195312,-161.132812,56.396484,0.000000
cobot_dynamixel_driver/joint_states|name|J1,J2,J3,J4,J5,J6|pos|-0.001364,-1.149974,1.175274,0.000225,-0.893774,-0.000083|vel|0.009806,0.471750,-0.465282,-0.001043,0.392958,0.000000|eff|161.132812,-1240.722656,-1289.062500,-193.359375,20.141602,0.000000
cobot_dynamixel_driver/joint_states|name|J1,J2,J3,J4,J5,J6|pos|-0.001177,-1.140861,1.166298,0.000200,-0.884859,-0.000083|vel|0.008763,0.450259,-0.486355,-0.001461,0.454659,0.000000|eff|209.472656,-692.871094,-773.437500,-177.246094,28.198242,24.169922
cobot_dynamixel_driver/joint_states|name|J1,J2,J3,J4,J5,J6|pos|-0.001052,-1.131598,1.157210,0.000150,-0.875861,-0.000083|vel|0.007094,0.483017,-0.466325,-0.002086,0.491886,0.000000|eff|209.472656,-1353.515625,-1611.328125,-177.246094,40.283203,0.000000
cobot_dynamixel_driver/joint_states|name|J1,J2,J3,J4,J5,J6|pos|-0.000889,-1.121508,1.147020,0.000113,-0.865828,-0.000083|vel|0.007511,0.460483,-0.488025,-0.001878,0.491886,0.000000|eff|145.019531,-1530.761719,-1095.703125,-161.132812,32.226562,24.169922
cobot_dynamixel_driver/joint_states|name|J1,J2,J3,J4,J5,J6|pos|-0.000776,-1.113083,1.138683,0.000113,-0.857513,-0.000083|vel|0.005842,0.457353,-0.471750,-0.001878,0.496712,0.000000|eff|177.246094,-2288.085938,-1385.742188,-128.906250,28.198242,32.226562
cobot_dynamixel_driver/joint_states|name|J1,J2,J3,J4,J5,J6|pos|-0.000651,-1.103732,1.129382,0.000100,-0.848308,-0.000083|vel|0.005633,0.485938,-0.481974,-0.001878,0.399162,0.000000|eff|209.472656,-2433.105469,-1353.515625,-209.472656,32.226562,0.000000
cobot_dynamixel_driver/joint_states|name|J1,J2,J3,J4,J5,J6|pos|-0.000551,-1.093943,1.119104,0.000100,-0.838627,-0.000083|vel|0.005008,0.465491,-0.414790,-0.000417,0.521875,0.000000|eff|64.453125,-692.871094,-1095.703125,-145.019531,36.254883,16.113281
cobot_dynamixel_driver/joint_states|name|J1,J2,J3,J4,J5,J6|pos|-0.000488,-1.084842,1.110667,0.000088,-0.829773,-0.000083|vel|0.002921,0.514314,-0.477801,-0.000417,0.502572,0.000000|eff|241.699219,-2030.273438,-1224.609375,-209.472656,44.311523,32.226562
cobot_dynamixel_driver/joint_states|name|J1,J2,J3,J4,J5,J6|pos|-0.000401,-1.075403,1.101078,0.000088,-0.820444,-0.000083|vel|0.004382,0.499500,-0.481974,-0.000417,0.476720,0.000000|eff|112.792969,-2271.972656,-1385.742188,-193.359375,24.169922,24.169922
cobot_dynamixel_driver/joint_states|name|J1,J2,J3,J4,J5,J6|pos|-0.000363,-1.065864,1.091552,0.000088,-0.810970,-0.000083|vel|0.002086,0.505759,-0.510558,-0.000417,0.520841,0.000000|eff|193.359375,-1256.835938,-1611.328125,-209.472656,16.113281,28.198242
cobot_dynamixel_driver/joint_states|name|J1,J2,J3,J4,J5,J6|pos|-0.000338,-1.056275,1.081487,0.000075,-0.801124,-0.000083|vel|0.001252,0.435446,-0.492197,-0.000417,0.474307,0.000000|eff|161.132812,-821.777344,-628.417969,-209.472656,68.481445,0.000000
cobot_dynamixel_driver/joint_states|name|J1,J2,J3,J4,J5,J6|pos|-0.000300,-1.046223,1.071973,0.000075,-0.791733,-0.000083|vel|0.002086,0.477175,-0.503673,-0.000417,0.435011,0.000000|eff|273.925781,-1869.140625,-950.683594,-128.906250,68.481445,24.169922
cobot_dynamixel_driver/joint_states|name|J1,J2,J3,J4,J5,J6|pos|-0.000275,-1.037110,1.062935,0.000075,-0.782673,-0.000083|vel|0.002086,0.460066,-0.519530,0.000000,0.493955,0.000000|eff|177.246094,-1740.234375,-773.437500,-145.019531,40.283203,28.198242
cobot_dynamixel_driver/joint_states|name|J1,J2,J3,J4,J5,J6|pos|-0.000263,-1.027584,1.053396,0.000075,-0.773261,-0.000083|vel|0.001043,0.461318,-0.433568,0.000000,0.496023,0.000000|eff|209.472656,-2062.500000,-999.023438,-128.906250,64.453125,28.198242
cobot_dynamixel_driver/joint_states|name|J1,J2,J3,J4,J5,J6|pos|-0.000225,-1.017982,1.043895,0.000075,-0.763746,-0.000083|vel|0.001878,0.513897,-0.457145,0.000000,0.417087,0.000000|eff|177.246094,-1643.554688,-1305.175781,-209.472656,44.311523,8.056641
cobot_dynamixel_driver/joint_states|name|J1,J2,J3,J4,J5,J6|pos|-0.000188,-1.008393,1.034293,0.000063,-0.754210,-0.000083|vel|0.001878,0.496996,-0.506385,0.000000,0.520841,0.000000|eff|145.019531,-628.417969,-1417.968750,-177.246094,28.198242,20.141602
cobot_dynamixel_driver/joint_states|name|J1,J2,J3,J4,J5,J6|pos|-0.000150,-0.998854,1.024642,0.000063,-0.744612,-0.000083|vel|0.001461,0.499500,-0.513688,0.000000,0.497402,0.000000|eff|177.246094,-708.984375,-1176.269531,-161.132812,24.169922,32.226562
cobot_dynamixel_driver/joint_states|name|J1,J2,J3,J4,J5,J6|pos|-0.000150,-0.989215,1.015090,0.000050,-0.735159,-0.000083|vel|0.001461,0.518696,-0.530588,0.000000,0.518084,0.000000|eff|161.132812,-1353.515625,-741.210938,-209.472656,44.311523,28.198242
cobot_dynamixel_driver/joint_states|name|J1,J2,J3,J4,J5,J6|pos|-0.000125,-0.979601,1.005426,0.000038,-0.725561,-0.000083|vel|0.000626,0.490737,-0.503047,-0.000209,0.499125,0.000000|eff|209.472656,-2143.066406,-999.023438,-193.359375,56.396484,32.226562
cobot_dynamixel_driver/joint_states|name|J1,J2,J3,J4,J5,J6|pos|-0.000100,-0.970075,0.995787,0.000025,-0.715983,-0.000083|vel|0.001252,0.509724,-0.428560,-0.000209,0.477754,0.000000|eff|128.906250,-2223.632812,-1417.968750,-209.472656,48.339844,32.226562
cobot_dynamixel_driver/joint_states|name|J1,J2,J3,J4,J5,J6|pos|-0.000075,-0.960298,0.986248,0.000013,-0.706385,-0.000083|vel|0.001252,0.505551,-0.445043,-0.000417,0.515671,0.000000|eff|193.359375,-628.417969,-370.605469,-161.132812,68.481445,32.226562
cobot_dynamixel_driver/joint_states|name|J1,J2,J3,J4,J5,J6|pos|-0.000013,-0.950659,0.976509,0.000000,-0.696891,-0.000083|vel|0.002921,0.520156,-0.544568,-0.000417,0.441216,0.000000|eff|225.585938,-1272.949219,-628.417969,-209.472656,32.226562,28.198242
cobot_dynamixel_driver/joint_states|name|J1,J2,J3,J4,J5,J6|pos|-0.000013,-0.940970,0.966820,0.000000,-0.687313,-0.000021|vel|0.002921,0.483434,-0.531840,-0.000417,0.482235,0.000000|eff|161.132812,-2271.972656,-950.683594,-209.472656,36.254883,32.226562
cobot_dynamixel_driver/joint_states|name|J1,J2,J3,J4,J5,J6|pos|-0.000013,-0.931281,0.957081,-0.000013,-0.677695,0.000041|vel|0.002921,0.503256,-0.515149,-0.000417,0.476720,0.004481|eff|0.000000,-902.343750,-1450.195312,-161.132812,36.254883,24.169922
cobot_dynamixel_driver/joint_states|name|J1,J2,J3,J4,J5,J6|pos|-0.000013,-0.921592,0.947392,-0.000013,-0.668138,0.000041|vel|0.002921,0.476132,-0.487399,-0.000417,0.486027,0.004481|eff|80.566406,-870.117188,-1047.363281,-193.359375,44.311523,0.000000
cobot_dynamixel_driver/joint_states|name|J1,J2,J3,J4,J5,J6|pos|-0.000013,-0.911878,0.937790,-0.000013,-0.658561,0.000041|vel|0.002921,0.513897,-0.510141,-0.000417,0.493955,0.004481|eff|32.226562,-1724.121094,-708.984375,-112.792969,48.339844,-8.056641
cobot_dynamixel_driver/joint_states|name|J1,J2,J3,J4,J5,J6|pos|-0.000013,-0.901800,0.927175,-0.000025,-0.648528,0.000041|vel|0.002921,0.509724,-0.511602,-0.000417,0.576683,0.004481|eff|161.132812,-870.117188,-1208.496094,-112.792969,44.311523,-8.056641
cobot_dynamixel_driver/joint_states|name|J1,J2,J3,J4,J5,J6|pos|-0.000025,-0.892575,0.918550,-0.000025,-0.639323,0.000041|vel|0.000000,0.528085,-0.518904,-0.000417,0.520496,0.004481|eff|128.906250,-386.718750,-1466.308594,-128.906250,36.254883,-16.113281
cobot_dynamixel_driver/joint_states|name|J1,J2,J3,J4,J5,J6|pos|-0.000013,-0.882885,0.908898,-0.000025,-0.629725,0.000021|vel|0.000000,0.483434,-0.533092,0.000000,0.485337,-0.004481|eff|177.246094,-1063.476562,-1385.742188,-128.906250,32.226562,-20.141602
cobot_dynamixel_driver/joint_states|name|J1,J2,J3,J4,J5,J6|pos|-0.000013,-0.873259,0.899209,-0.000025,-0.620148,0.000021|vel|0.000000,0.486147,-0.520573,0.000000,0.523254,0.000000|eff|0.000000,-1965.820312,-692.871094,-177.246094,52.368164,-28.198242
cobot_dynamixel_driver/joint_states|name|J1,J2,J3,J4,J5,J6|pos|-0.000013,-0.863545,0.889583,-0.000025,-0.610570,0.000021|vel|0.000000,0.528919,-0.514105,0.000000,0.499814,0.000000|eff|161.132812,-1063.476562,-982.910156,-193.359375,44.311523,-8.056641
cobot_dynamixel_driver/joint_states|name|J1,J2,J3,J4,J5,J6|pos|-0.000013,-0.853918,0.879906,-0.000025,-0.601014,0.000021|vel|0.000000,0.496579,-0.517652,0.000000,0.482580,0.000000|eff|32.226562,-676.757812,-1482.421875,-177.246094,24.169922,-32.226562
cobot_dynamixel_driver/joint_states|name|J1,J2,J3,J4,J5,J6|pos|-0.000013,-0.844254,0.869779,-0.000025,-0.591416,0.000021|vel|0.000000,0.516609,-0.524746,0.000000,0.563929,0.000000|eff|177.246094,-1160.156250,-1353.515625,-96.679688,40.283203,-32.226562
cobot_dynamixel_driver/joint_states|name|J1,J2,J3,J4,J5,J6|pos|-0.000013,-0.834477,0.860678,-0.000025,-0.581735,0.000021|vel|0.000000,0.523286,-0.520573,0.000000,0.482580,0.000000|eff|32.226562,-1031.250000,-660.644531,-145.019531,24.169922,-12.084961
cobot_dynamixel_driver/joint_states|name|J1,J2,J3,J4,J5,J6|pos|-0.000013,-0.824801,0.850438,-0.000025,-0.572137,0.000021|vel|0.000000,0.484269,-0.490320,0.000000,0.479133,0.000000|eff|177.246094,-467.285156,-1176.269531,-145.019531,48.339844,0.000000
cobot_dynamixel_driver/joint_states|name|J1,J2,J3,J4,J5,J6|pos|-0.000013,-0.815087,0.841225,-0.000025,-0.562518,0.000021|vel|0.000000,0.502004,-0.509306,0.000000,0.510500,0.000000|eff|32.226562,-999.023438,-1659.667969,-177.246094,56.396484,-32.226562
cobot_dynamixel_driver/joint_states|name|J1,J2,J3,J4,J5,J6|pos|-0.000013,-0.805385,0.831486,-0.000025,-0.552920,0.000021|vel|0.000000,0.485729,-0.513688,0.000000,0.415708,0.000000|eff|0.000000,-2126.953125,-596.191406,-112.792969,48.339844,-32.226562
cobot_dynamixel_driver/joint_states|name|J1,J2,J3,J4,J5,J6|pos|-0.000013,-0.795708,0.821221,-0.000025,-0.543322,0.000021|vel|0.000000,0.516609,-0.527876,0.000000,0.491542,0.000000|eff|161.132812,-692.871094,-1144.042969,-161.132812,32.226562,-28.198242
cobot_dynamixel_driver/joint_states|name|J1,J2,J3,J4,J5,J6|pos|-0.000013,-0.785994,0.812007,-0.000025,-0.533745,0.000021|vel|0.000000,0.503256,-0.435028,0.000000,0.451557,0.000000|eff|161.132812,-596.191406,-1675.781250,-145.019531,56.396484,-32.226562
cobot_dynamixel_driver/joint_states|name|J1,J2,J3,J4,J5,J6|pos|-0.000013,-0.776368,0.802318,-0.000025,-0.524230,0.000021|vel|0.000000,0.496579,-0.508889,0.000000,0.527390,0.000000|eff|177.246094,-1256.835938,-757.324219,-209.472656,52.368164,0.000000
cobot_dynamixel_driver/joint_states|name|J1,J2,J3,J4,J5,J6|pos|-0.000013,-0.766616,0.792241,-0.000025,-0.514549,0.000021|vel|0.000000,0.498457,-0.507220,0.000000,0.497746,0.000000|eff|177.246094,-1289.062500,-934.570312,-177.246094,64.453125,0.000000
cobot_dynamixel_driver/joint_states|name|J1,J2,J3,J4,J5,J6|pos|-0.000013,-0.756927,0.783028,-0.000038,-0.504930,0.000021|vel|0.000000,0.512228,-0.534135,0.000000,0.419499,0.000000|eff|177.246094,-451.171875,-1305.175781,-145.019531,56.396484,0.000000
cobot_dynamixel_driver/joint_states|name|J1,J2,J3,J4,J5,J6|pos|-0.000013,-0.746324,0.771861,-0.000038,-0.493884,0.000021|vel|0.000000,0.461109,-0.502004,0.000000,0.482580,0.000000|eff|145.019531,-1015.136719,-1450.195312,-112.792969,40.283203,-20.141602
cobot_dynamixel_driver/joint_states|name|J1,J2,J3,J4,J5,J6|pos|-0.000013,-0.737086,0.763124,-0.000038,-0.485279,0.000021|vel|0.000000,0.517861,-0.513479,0.000000,0.482235,0.000000|eff|32.226562,-402.832031,-1417.968750,-177.246094,56.396484,-20.141602
cobot_dynamixel_driver/joint_states|name|J1,J2,J3,J4,J5,J6|pos|-0.000013,-0.727935,0.753923,-0.000038,-0.476157,0.000021|vel|0.000000,0.495536,-0.441288,0.000000,0.488784,0.000000|eff|0.000000,-1321.289062,-1111.816406,-145.019531,60.424805,0.000000
cobot_dynamixel_driver/joint_states|name|J1,J2,J3,J4,J5,J6|pos|-0.000013,-0.718208,0.744334,-0.000038,-0.466538,0.000021|vel|0.000000,0.521408,-0.487190,0.000000,0.507398,0.000000|eff|177.246094,-418.945312,-1498.535156,-161.132812,52.368164,-32.226562
cobot_dynamixel_driver/joint_states|name|J1,J2,J3,J4,J5,J6|pos|-0.000013,-0.708444,0.734682,-0.000038,-0.456940,0.000021|vel|0.000000,0.500961,-0.514105,0.000000,0.441216,0.000000|eff|96.679688,-1611.328125,-1466.308594,-112.792969,40.283203,-8.056641
cobot_dynamixel_driver/joint_states|name|J1,J2,J3,J4,J5,J6|pos|-0.000013,-0.698755,0.724918,-0.000038,-0.447342,0.000021|vel|0.000000,0.494075,-0.447338,0.000000,0.482580,0.000000|eff|145.019531,-1353.515625,-854.003906,-128.906250,44.311523,0.000000
cobot_dynamixel_driver/joint_states|name|J1,J2,J3,J4,J5,J6|pos|-0.000013,-0.688552,0.714665,-0.000038,-0.437268,0.000021|vel|0.000000,0.508055,-0.444000,0.000000,0.492576,0.000000|eff|0.000000,-773.437500,-1337.402344,-145.019531,80.566406,-12.084961
cobot_dynamixel_driver/joint_states|name|J1,J2,J3,J4,J5,J6|pos|-0.000013,-0.679364,0.705427,-0.000038,-0.428125,0.000021|vel|0.000000,0.486355,-0.536639,0.000000,0.518773,0.000000|eff|0.000000,-1224.609375,-1224.609375,-112.792969,32.226562,0.000000
cobot_dynamixel_driver/joint_states|name|J1,J2,J3,J4,J5,J6|pos|-0.000013,-0.669700,0.695725,-0.000038,-0.418527,0.000021|vel|0.000000,0.505134,-0.504090,0.000000,0.505330,0.000000|eff|177.246094,-2078.613281,-773.437500,-209.472656,76.538086,-24.169922
cobot_dynamixel_driver/joint_states|name|J1,J2,J3,J4,J5,J6|pos|-0.000013,-0.660023,0.685573,-0.000038,-0.408888,0.000021|vel|0.000000,0.487607,-0.498457,0.000000,0.441216,0.000000|eff|80.566406,-241.699219,-1224.609375,-128.906250,44.311523,-12.084961
cobot_dynamixel_driver/joint_states|name|J1,J2,J3,J4,J5,J6|pos|-0.000013,-0.650347,0.675947,-0.000038,-0.399249,0.000021|vel|0.000000,0.503464,-0.455893,0.000000,0.532216,0.000000|eff|96.679688,-644.531250,-999.023438,-96.679688,32.226562,0.000000
cobot_dynamixel_driver/joint_states|name|J1,J2,J3,J4,J5,J6|pos|-0.000013,-0.640570,0.666746,-0.000038,-0.389651,0.000021|vel|0.000000,0.507637,-0.510141,0.000000,0.498091,0.000000|eff|0.000000,-1917.480469,-870.117188,-112.792969,52.368164,-32.226562
cobot_dynamixel_driver/joint_states|name|J1,J2,J3,J4,J5,J6|pos|-0.000013,-0.630944,0.656982,-0.000038,-0.380094,0.000021|vel|0.000000,0.510767,-0.514940,0.000000,0.481890,0.000000|eff|0.000000,-1160.156250,-966.796875,-112.792969,52.368164,0.000000
cobot_dynamixel_driver/joint_states|name|J1,J2,J3,J4,J5,J6|pos|-0.000013,-0.621317,0.647292,-0.000038,-0.370455,0.000021|vel|0.000000,0.507637,-0.444000,0.000000,0.521875,0.000000|eff|112.792969,-322.265625,-1450.195312,-96.679688,72.509766,-8.056641
cobot_dynamixel_driver/joint_states|name|J1,J2,J3,J4,J5,J6|pos|-0.000013,-0.611590,0.637566,-0.000038,-0.360877,0.000021|vel|0.000000,0.474254,-0.513688,0.000000,0.513602,0.000000|eff|177.246094,-902.343750,-902.343750,-177.246094,80.566406,-24.169922
cobot_dynamixel_driver/joint_states|name|J1,J2,J3,J4,J5,J6|pos|-0.000013,-0.601951,0.627927,-0.000038,-0.351259,0.000021|vel|0.000000,0.483017,-0.510350,0.000000,0.527390,0.000000|eff|80.566406,-1820.800781,-741.210938,-209.472656,60.424805,-12.084961
cobot_dynamixel_driver/joint_states|name|J1,J2,J3,J4,J5,J6|pos|-0.000013,-0.592200,0.618413,-0.000038,-0.341640,0.000021|vel|0.000000,0.521617,-0.499500,0.000000,0.497057,0.000000|eff|177.246094,-48.339844,-1095.703125,-193.359375,76.538086,-24.169922
cobot_dynamixel_driver/joint_states|name|J1,J2,J3,J4,J5,J6|pos|-0.000013,-0.581997,0.608173,-0.000038,-0.331566,0.000021|vel|0.000000,0.510350,-0.512645,0.000000,0.520496,0.000000|eff|96.679688,-2336.425781,-628.417969,-112.792969,68.481445,0.000000
cobot_dynamixel_driver/joint_states|name|J1,J2,J3,J4,J5,J6|pos|-0.000013,-0.572796,0.598897,-0.000038,-0.322402,0.000021|vel|0.000000,0.486147,-0.499291,0.000000,0.481545,0.000000|eff|161.132812,-1562.988281,-612.304688,-112.792969,48.339844,0.000000
cobot_dynamixel_driver/joint_states|name|J1,J2,J3,J4,J5,J6|pos|-0.000013,-0.562619,0.588194,-0.000038,-0.312329,0.000021|vel|0.000000,0.493032,-0.513897,0.000000,0.504640,0.000000|eff|0.000000,-741.210938,-1675.781250,-112.792969,80.566406,0.000000
cobot_dynamixel_driver/joint_states|name|J1,J2,J3,J4,J5,J6|pos|-0.000013,-0.553443,0.579419,-0.000038,-0.303186,0.000021|vel|0.000000,0.507429,-0.493867,0.000000,0.529114,0.000000|eff|0.000000,-241.699219,-1514.648438,-112.792969,72.509766,-12.084961
cobot_dynamixel_driver/joint_states|name|J1,J2,J3,J4,J5,J6|pos|-0.000013,-0.543779,0.569729,-0.000038,-0.293546,0.000021|vel|0.000000,0.460483,-0.529754,0.000000,0.557035,0.000000|eff|80.566406,-966.796875,-644.531250,-112.792969,68.481445,-16.113281
cobot_dynamixel_driver/joint_states|name|J1,J2,J3,J4,J5,J6|pos|-0.000013,-0.533627,0.559590,-0.000038,-0.283472,0.000021|vel|0.000000,0.502421,-0.524120,0.000000,0.493955,0.000000|eff|0.000000,-547.851562,-1272.949219,-145.019531,80.566406,-24.169922
cobot_dynamixel_driver/joint_states|name|J1,J2,J3,J4,J5,J6|pos|-0.000013,-0.524388,0.550001,-0.000038,-0.274350,0.000021|vel|0.000000,0.480722,-0.488233,0.000000,0.503606,0.000000|eff|80.566406,-209.472656,-1176.269531,-161.132812,52.368164,-20.141602
cobot_dynamixel_driver/joint_states|name|J1,J2,J3,J4,J5,J6|pos|-0.000013,-0.514599,0.540825,-0.000038,-0.264835,0.000021|vel|0.000000,0.536013,-0.489068,0.000000,0.476720,0.000000|eff|161.132812,-725.097656,-1562.988281,-177.246094,72.509766,-32.226562
cobot_dynamixel_driver/joint_states|name|J1,J2,J3,J4,J5,J6|pos|-0.000013,-0.504998,0.530572,-0.000038,-0.254782,0.000021|vel|0.000000,0.452763,-0.516609,0.000000,0.481201,0.000000|eff|32.226562,-1933.593750,-660.644531,-193.359375,80.566406,-28.198242
cobot_dynamixel_driver/joint_states|name|J1,J2,J3,J4,J5,J6|pos|-0.000013,-0.495359,0.521384,-0.000038,-0.245577,0.000021|vel|0.000000,0.469455,-0.523912,0.000000,0.556345,0.000000|eff|177.246094,-1627.441406,-999.023438,-96.679688,60.424805,-24.169922
cobot_dynamixel_driver/joint_states|name|J1,J2,J3,J4,J5,J6|pos|-0.000013,-0.485620,0.511657,-0.000038,-0.235937,0.000021|vel|0.000000,0.501378,-0.509515,0.000000,0.521186,0.000000|eff|145.019531,-128.906250,-1466.308594,-112.792969,56.396484,-16.113281
cobot_dynamixel_driver/joint_states|name|J1,J2,J3,J4,J5,J6|pos|-0.000013,-0.475918,0.501993,-0.000038,-0.226422,0.000021|vel|0.000000,0.498666,-0.494284,0.000000,0.487405,0.000000|eff|96.679688,-1095.703125,-1176.269531,-161.132812,72.509766,0.000000
cobot_dynamixel_driver/joint_states|name|J1,J2,J3,J4,J5,J6|pos|-0.000013,-0.466204,0.491979,-0.000038,-0.216741,0.000021|vel|0.000000,0.519322,-0.496579,0.000000,0.498436,0.000000|eff|145.019531,-902.343750,-789.550781,-112.792969,64.453125,-16.113281
cobot_dynamixel_driver/joint_states|name|J1,J2,J3,J4,J5,J6|pos|-0.000013,-0.456465,0.482215,-0.000038,-0.207185,0.000021|vel|0.000000,0.528919,-0.525372,0.000000,0.526012,0.000000|eff|128.906250,80.566406,-1160.156250,-161.132812,72.509766,-12.084961
cobot_dynamixel_driver/joint_states|name|J1,J2,J3,J4,J5,J6|pos|-0.000013,-0.446788,0.473014,-0.000038,-0.197525,0.000021|vel|0.000000,0.505134,-0.462987,0.000000,0.510845,0.000000|eff|80.566406,-773.437500,-1160.156250,-96.679688,56.396484,-8.056641
cobot_dynamixel_driver/joint_states|name|J1,J2,J3,J4,J5,J6|pos|-0.000013,-0.437136,0.463300,-0.000038,-0.187947,0.000021|vel|0.000000,0.508263,-0.508055,0.000000,0.524978,0.000000|eff|96.679688,-1724.121094,-708.984375,-145.019531,72.509766,-20.141602
cobot_dynamixel_driver/joint_states|name|J1,J2,J3,J4,J5,J6|pos|-0.000013,-0.427497,0.453548,-0.000038,-0.178308,0.000021|vel|0.000000,0.497414,-0.530380,0.000000,0.485337,0.000000|eff|0.000000,-837.890625,-950.683594,-112.792969,64.453125,-16.113281
cobot_dynamixel_driver/joint_states|name|J1,J2,J3,J4,J5,J6|pos|-0.000013,-0.417833,0.443809,-0.000038,-0.168689,0.000021|vel|-0.000417,0.472585,-0.517444,0.000000,0.491542,0.000000|eff|112.792969,-32.226562,-1450.195312,-112.792969,96.679688,-28.198242
cobot_dynamixel_driver/joint_states|name|J1,J2,J3,J4,J5,J6|pos|-0.000013,-0.408132,0.434157,-0.000038,-0.159071,0.000021|vel|0.000417,0.517652,-0.480722,0.000000,0.445697,0.000000|eff|96.679688,-934.570312,-1031.250000,-128.906250,48.339844,-8.056641
cobot_dynamixel_driver/joint_states|name|J1,J2,J3,J4,J5,J6|pos|-0.000013,-0.398342,0.424543,-0.000038,-0.149514,0.000021|vel|0.000417,0.529754,-0.509932,0.000000,0.480167,0.000000|eff|96.679688,-1611.328125,-725.097656,-128.906250,76.538086,-24.169922
cobot_dynamixel_driver/joint_states|name|J1,J2,J3,J4,J5,J6|pos|-0.000013,-0.388591,0.414366,-0.000038,-0.140019,0.000021|vel|0.000417,0.505342,-0.520782,0.000000,0.407435,0.000000|eff|32.226562,-32.226562,-1240.722656,-112.792969,80.566406,0.000000
cobot_dynamixel_driver/joint_states|name|J1,J2,J3,J4,J5,J6|pos|-0.000013,-0.378927,0.405115,-0.000038,-0.130359,0.000021|vel|0.000417,0.484478,-0.493867,0.000000,0.552898,0.000000|eff|0.000000,-854.003906,-2143.066406,-161.132812,52.368164,-24.169922
cobot_dynamixel_driver/joint_states|name|J1,J2,J3,J4,J5,J6|pos|-0.000013,-0.369300,0.395363,-0.000038,-0.120699,0.000021|vel|0.000417,0.521199,-0.517235,0.000000,0.493610,0.000000|eff|32.226562,-1836.914062,-580.078125,-96.679688,116.821289,-32.226562
cobot_dynamixel_driver/joint_states|name|J1,J2,J3,J4,J5,J6|pos|-0.000013,-0.359148,0.384685,-0.000038,-0.110605,0.000021|vel|0.000000,0.472585,-0.497414,0.000000,0.485337,0.000000|eff|128.906250,-902.343750,-854.003906,-177.246094,64.453125,-16.113281
cobot_dynamixel_driver/joint_states|name|J1,J2,J3,J4,J5,J6|pos|-0.000013,-0.349909,0.375522,-0.000038,-0.101503,0.000021|vel|0.000000,0.504716,-0.421049,0.000000,0.485337,0.000000|eff|145.019531,-257.812500,-1063.476562,-96.679688,60.424805,0.000000
cobot_dynamixel_driver/joint_states|name|J1,J2,J3,J4,J5,J6|pos|-0.000013,-0.340133,0.366346,-0.000038,-0.091884,0.000021|vel|0.000000,0.474045,-0.466325,0.000000,0.473617,0.000000|eff|96.679688,-1562.988281,-950.683594,-96.679688,72.509766,0.000000
cobot_dynamixel_driver/joint_states|name|J1,J2,J3,J4,J5,J6|pos|-0.000013,-0.330394,0.356131,-0.000038,-0.082266,0.000021|vel|0.000000,0.533301,-0.494493,0.000000,0.521186,0.000000|eff|145.019531,322.265625,-950.683594,-96.679688,68.481445,-28.198242
cobot_dynamixel_driver/joint_states|name|J1,J2,J3,J4,J5,J6|pos|-0.000013,-0.320667,0.346918,-0.000038,-0.072688,0.000021|vel|0.000000,0.470498,-0.526833,0.000000,0.555656,0.000000|eff|80.566406,-161.132812,-1369.628906,-96.679688,84.594727,-32.226562
cobot_dynamixel_driver/joint_states|name|J1,J2,J3,J4,J5,J6|pos|0.000000,-0.310990,0.336753,-0.000038,-0.063277,0.000021|vel|0.000000,0.512019,-0.510767,0.000000,0.484648,0.000000|eff|80.566406,-1337.402344,-1272.949219,-112.792969,-32.226562,0.000000
cobot_dynamixel_driver/joint_states|name|J1,J2,J3,J4,J5,J6|pos|0.000000,-0.301351,0.327039,-0.000038,-0.055085,0.000021|vel|0.000000,0.522451,-0.487399,0.000000,0.377791,0.000000|eff|161.132812,-789.550781,-692.871094,-112.792969,-8.056641,0.000000
cobot_dynamixel_driver/joint_states|name|J1,J2,J3,J4,J5,J6|pos|0.000000,-0.291687,0.317838,-0.000038,-0.048156,0.000021|vel|0.000000,0.489276,-0.466117,0.000000,0.318502,0.000000|eff|0.000000,257.812500,-1192.382812,-96.679688,24.169922,-24.169922
cobot_dynamixel_driver/joint_states|name|J1,J2,J3,J4,J5,J6|pos|0.000000,-0.282036,0.308174,-0.000038,-0.042198,0.000021|vel|0.000000,0.472167,-0.460066,0.000000,0.253699,0.000000|eff|161.132812,-402.832031,-1562.988281,-96.679688,28.198242,-8.056641
cobot_dynamixel_driver/joint_states|name|J1,J2,J3,J4,J5,J6|pos|0.000000,-0.270394,0.296544,-0.000038,-0.036013,0.000021|vel|0.000000,0.460275,-0.500752,0.000000,0.246116,0.000000|eff|0.000000,-145.019531,-1530.761719,-112.792969,36.254883,-32.226562
cobot_dynamixel_driver/joint_states|name|J1,J2,J3,J4,J5,J6|pos|0.000000,-0.262132,0.288295,-0.000038,-0.032166,0.000021|vel|0.000000,0.512645,-0.451094,0.000000,0.206130,0.000000|eff|32.226562,-563.964844,-1869.140625,-96.679688,36.254883,0.000000
cobot_dynamixel_driver/joint_states|name|J1,J2,J3,J4,J5,J6|pos|0.000000,-0.252893,0.279119,-0.000038,-0.028422,0.000021|vel|0.000000,0.517026,-0.500335,0.000000,0.191308,0.000000|eff|161.132812,-32.226562,-1417.968750,-145.019531,56.396484,-24.169922
cobot_dynamixel_driver/joint_states|name|J1,J2,J3,J4,J5,J6|pos|0.000000,-0.243192,0.269392,-0.000038,-0.024885,0.000021|vel|0.000000,0.541855,-0.486147,0.000000,0.166490,0.000000|eff|0.000000,-1031.250000,-1272.949219,-112.792969,48.339844,-32.226562
cobot_dynamixel_driver/joint_states|name|J1,J2,J3,J4,J5,J6|pos|0.000000,-0.233502,0.259215,-0.000038,-0.021823,0.000021|vel|0.000000,0.507011,-0.507429,0.000000,0.144084,0.000000|eff|80.566406,-676.757812,-725.097656,-96.679688,60.424805,-32.226562
cobot_dynamixel_driver/joint_states|name|J1,J2,J3,J4,J5,J6|pos|0.000000,-0.223788,0.250052,-0.000038,-0.019113,0.000021|vel|0.000000,0.478218,-0.512228,0.000000,0.139603,0.000000|eff|145.019531,225.585938,-1176.269531,-96.679688,60.424805,0.000000
cobot_dynamixel_driver/joint_states|name|J1,J2,J3,J4,J5,J6|pos|0.000000,-0.214112,0.240362,-0.000038,-0.016734,0.000021|vel|0.000000,0.504508,-0.520782,0.000000,0.122713,0.000000|eff|0.000000,-563.964844,-1643.554688,-96.679688,56.396484,-32.226562
cobot_dynamixel_driver/joint_states|name|J1,J2,J3,J4,J5,J6|pos|0.000000,-0.204373,0.230636,-0.000038,-0.014645,0.000021|vel|0.000000,0.477384,-0.514523,0.000000,0.088243,0.000000|eff|128.906250,-1820.800781,-596.191406,-96.679688,64.453125,-28.198242
cobot_dynamixel_driver/joint_states|name|J1,J2,J3,J4,J5,J6|pos|0.000000,-0.194734,0.220433,-0.000038,-0.012804,0.000021|vel|0.000000,0.498248,-0.524746,0.000000,0.101342,0.000000|eff|145.019531,386.718750,-999.023438,-96.679688,64.453125,-32.226562
cobot_dynamixel_driver/joint_states|name|J1,J2,J3,J4,J5,J6|pos|0.000000,-0.185120,0.211208,-0.000038,-0.011211,0.000021|vel|0.000000,0.502004,-0.530588,0.000000,0.076179,0.000000|eff|177.246094,96.679688,-1498.535156,-96.679688,64.453125,-24.169922
cobot_dynamixel_driver/joint_states|name|J1,J2,J3,J4,J5,J6|pos|0.000013,-0.175430,0.201506,-0.000038,-0.009805,0.000021|vel|0.000000,0.500335,-0.509932,0.000000,0.055841,0.000000|eff|0.000000,-854.003906,-757.324219,-96.679688,68.481445,-20.141602
cobot_dynamixel_driver/joint_states|name|J1,J2,J3,J4,J5,J6|pos|0.000013,-0.165704,0.191804,-0.000038,-0.008605,0.000021|vel|0.000000,0.508472,-0.489485,0.000000,0.063425,0.000000|eff|145.019531,-725.097656,-789.550781,-96.679688,68.481445,-16.113281
cobot_dynamixel_driver/joint_states|name|J1,J2,J3,J4,J5,J6|pos|0.000013,-0.156002,0.181715,-0.000038,-0.007529,0.000021|vel|0.000000,0.528919,-0.454641,0.000000,0.053428,0.000000|eff|145.019531,241.699219,-1272.949219,-96.679688,64.453125,-8.056641
cobot_dynamixel_driver/joint_states|name|J1,J2,J3,J4,J5,J6|pos|0.000013,-0.146288,0.172050,-0.000038,-0.006619,0.000021|vel|0.000000,0.481974,-0.513897,0.000000,0.044466,0.000000|eff|0.000000,-676.757812,-1708.007812,-96.679688,80.566406,-16.113281
cobot_dynamixel_driver/joint_states|name|J1,J2,J3,J4,J5,J6|pos|0.000025,-0.136561,0.162812,-0.000038,-0.005833,0.000021|vel|0.000000,0.490737,-0.496788,0.000000,0.037572,0.000000|eff|32.226562,-1708.007812,-596.191406,-96.679688,72.509766,-8.056641
cobot_dynamixel_driver/goal|-:J1,J2,J3,J4,J5,J6:0.000000,0.261799,0.000000,0.000000,0.000000,0.000000:0.500000,0.500000,0.500000,0.500000,0.500000,0.500000:pos_vel_
cobot_dynamixel_driver/joint_states|name|J1,J2,J3,J4,J5,J6|pos|0.000025,-0.126822,0.153160,-0.000038,-0.005130,0.000021|vel|0.000000,0.513479,-0.499083,0.000000,0.034125,0.000000|eff|161.132812,370.605469,-918.457031,-96.679688,76.538086,-8.056641
cobot_dynamixel_driver/joint_states|name|J1,J2,J3,J4,J5,J6|pos|0.000038,-0.117108,0.143396,-0.000038,-0.004530,0.000021|vel|0.000000,0.488233,-0.513688,0.000000,0.032402,0.000000|eff|80.566406,-225.585938,-1482.421875,-96.679688,88.623047,-28.198242
cobot_dynamixel_driver/joint_states|name|J1,J2,J3,J4,J5,J6|pos|0.000038,-0.107419,0.133194,-0.000038,-0.004013,0.000021|vel|0.000000,0.489276,-0.452346,0.000000,0.021027,0.000000|eff|0.000000,-2094.726562,-821.777344,-96.679688,96.679688,-24.169922
cobot_dynamixel_driver/joint_states|name|J1,J2,J3,J4,J5,J6|pos|0.000050,-0.097267,0.123129,-0.000038,-0.003413,0.000021|vel|0.000000,0.461318,-0.458397,0.000000,0.028265,0.000000|eff|80.566406,-580.078125,-1546.875000,-96.679688,76.538086,-28.198242
cobot_dynamixel_driver/joint_states|name|J1,J2,J3,J4,J5,J6|pos|0.000050,-0.088066,0.114329,-0.000038,-0.003061,0.000021|vel|0.000000,0.477592,-0.511810,0.000000,0.020682,0.000000|eff|96.679688,161.132812,-1289.062500,-80.566406,64.453125,-20.141602
cobot_dynamixel_driver/joint_states|name|J1,J2,J3,J4,J5,J6|pos|0.000050,-0.078389,0.104127,-0.000038,-0.002689,0.000021|vel|0.000209,0.517652,-0.435237,0.001878,0.015167,0.000000|eff|112.792969,-854.003906,-1289.062500,-80.566406,68.481445,-28.198242
cobot_dynamixel_driver/joint_states|name|J1,J2,J3,J4,J5,J6|pos|0.000063,-0.068738,0.094863,-0.000038,-0.002379,0.000021|vel|0.000209,0.472585,-0.478635,-0.001878,0.014822,0.000000|eff|96.679688,209.472656,-741.210938,-96.679688,88.623047,-32.226562
cobot_dynamixel_driver/joint_states|name|J1,J2,J3,J4,J5,J6|pos|0.000063,-0.059061,0.085161,-0.000038,-0.002027,0.000021|vel|0.000209,0.504299,-0.493241,0.001878,0.019993,0.000000|eff|161.132812,515.625000,-1144.042969,-96.679688,76.538086,-32.226562
cobot_dynamixel_driver/joint_states|name|J1,J2,J3,J4,J5,J6|pos|0.000063,-0.049359,0.075460,-0.000038,-0.001758,0.000021|vel|0.000209,0.493867,-0.447547,-0.001878,0.012064,0.000000|eff|32.226562,-48.339844,-1401.855469,-96.679688,88.623047,-32.226562
cobot_dynamixel_driver/joint_states|name|J1,J2,J3,J4,J5,J6|pos|0.000063,-0.039683,0.065483,-0.000038,-0.001593,0.000021|vel|0.000209,0.467577,-0.476132,0.001878,0.007928,0.000000|eff|0.000000,-1289.062500,-708.984375,-96.679688,92.651367,-32.226562
cobot_dynamixel_driver/joint_states|name|J1,J2,J3,J4,J5,J6|pos|0.000063,-0.030031,0.056833,-0.000038,-0.001386,0.000021|vel|0.000209,0.483017,-0.417293,-0.001461,0.011720,0.000000|eff|161.132812,-290.039062,-563.964844,-96.679688,88.623047,-20.141602
cobot_dynamixel_driver/joint_states|name|J1,J2,J3,J4,J5,J6|pos|0.000063,-0.020342,0.049722,-0.000038,-0.001200,0.000021|vel|0.000000,0.491780,-0.352196,0.001461,0.007928,0.000000|eff|0.000000,483.398438,-725.097656,-96.679688,88.623047,-12.084961
cobot_dynamixel_driver/joint_states|name|J1,J2,J3,J4,J5,J6|pos|0.000063,-0.010666,0.043376,-0.000038,-0.001096,0.000021|vel|0.000000,0.508472,-0.298365,0.001252,0.004481,0.000000|eff|96.679688,-515.625000,-708.984375,-96.679688,88.623047,0.000000
cobot_dynamixel_driver/joint_states|name|J1,J2,J3,J4,J5,J6|pos|0.000063,-0.000989,0.037630,-0.000038,-0.000993,0.000021|vel|0.000000,0.473837,-0.256635,-0.001252,0.008273,0.000000|eff|161.132812,-1482.421875,-821.777344,-96.679688,88.623047,0.000000
cobot_dynamixel_driver/joint_states|name|J1,J2,J3,J4,J5,J6|pos|0.000063,0.008675,0.032973,-0.000038,-0.000807,0.000021|vel|0.000000,0.502838,-0.227216,-0.001043,0.009307,0.000000|eff|80.566406,692.871094,-773.437500,-96.679688,84.594727,0.000000
cobot_dynamixel_driver/joint_states|name|J1,J2,J3,J4,J5,J6|pos|0.000063,0.018402,0.029055,-0.000038,-0.000745,0.000021|vel|0.000000,0.474671,-0.190912,0.000835,0.006549,0.000000|eff|161.132812,32.226562,-741.210938,-96.679688,84.594727,0.000000
cobot_dynamixel_driver/joint_states|name|J1,J2,J3,J4,J5,J6|pos|0.000063,0.028091,0.025362,-0.000038,-0.000724,0.000021|vel|0.000000,0.499500,-0.175055,-0.000835,0.001723,0.000000|eff|161.132812,-902.343750,-741.210938,-96.679688,88.623047,-32.226562
cobot_dynamixel_driver/joint_states|name|J1,J2,J3,J4,J5,J6|pos|0.000063,0.037767,0.022032,-0.000038,-0.000641,0.000021|vel|0.000000,0.516609,-0.140628,0.000626,0.004136,0.000000|eff|161.132812,306.152344,-773.437500,-96.679688,92.651367,-12.084961
cobot_dynamixel_driver/joint_states|name|J1,J2,J3,J4,J5,J6|pos|0.000063,0.047482,0.019341,-0.000038,-0.000538,0.000021|vel|0.000000,0.488650,-0.132699,-0.000626,0.005170,0.000000|eff|0.000000,354.492188,-789.550781,-96.679688,88.623047,0.000000
cobot_dynamixel_driver/joint_states|name|J1,J2,J3,J4,J5,J6|pos|0.000063,0.057171,0.017062,-0.000038,-0.000476,0.000021|vel|0.000000,0.501169,-0.113086,0.000417,0.003447,0.000000|eff|0.000000,-435.058594,-805.664062,-96.679688,92.651367,-32.226562
cobot_dynamixel_driver/joint_states|name|J1,J2,J3,J4,J5,J6|pos|0.000063,0.066860,0.014822,-0.000038,-0.000434,0.000021|vel|0.000000,0.510976,-0.105367,-0.000417,0.002758,0.000000|eff|112.792969,-950.683594,-789.550781,-96.679688,84.594727,-32.226562
cobot_dynamixel_driver/joint_states|name|J1,J2,J3,J4,J5,J6|pos|0.000063,0.076599,0.013107,-0.000038,-0.000434,0.000021|vel|0.000000,0.519322,-0.089301,-0.000417,0.002758,0.000000|eff|80.566406,515.625000,-854.003906,-96.679688,84.594727,-16.113281
cobot_dynamixel_driver/joint_states|name|J1,J2,J3,J4,J5,J6|pos|0.000063,0.086276,0.011442,-0.000038,-0.000414,0.000021|vel|0.000000,0.496996,-0.081164,0.000209,0.002758,0.000000|eff|0.000000,-451.171875,-837.890625,-96.679688,84.594727,0.000000
cobot_dynamixel_driver/joint_states|name|J1,J2,J3,J4,J5,J6|pos|0.000063,0.095952,0.010015,-0.000038,-0.000414,0.000021|vel|0.000000,0.498457,-0.064680,0.000209,0.002758,0.000000|eff|0.000000,-966.796875,-789.550781,-96.679688,84.594727,-16.113281
cobot_dynamixel_driver/joint_states|name|J1,J2,J3,J4,J5,J6|pos|0.000063,0.105666,0.008800,-0.000038,-0.000414,0.000021|vel|0.000000,0.480096,-0.057378,0.000209,0.002758,0.000000|eff|64.453125,854.003906,-854.003906,-96.679688,84.594727,-12.084961
cobot_dynamixel_driver/joint_states|name|J1,J2,J3,J4,J5,J6|pos|0.000063,0.115368,0.007711,-0.000038,-0.000414,0.000021|vel|0.000000,0.508889,-0.051953,-0.000209,0.000345,0.000000|eff|80.566406,386.718750,-854.003906,-96.679688,92.651367,-32.226562
cobot_dynamixel_driver/joint_states|name|J1,J2,J3,J4,J5,J6|pos|0.000063,0.125020,0.006847,-0.000038,-0.000352,0.000021|vel|0.000000,0.503673,-0.040269,-0.000209,0.002068,0.000000|eff|64.453125,-547.851562,-934.570312,-96.679688,92.651367,-16.113281
cobot_dynamixel_driver/joint_states|name|J1,J2,J3,J4,J5,J6|pos|0.000063,0.134734,0.006096,-0.000038,-0.000290,0.000021|vel|0.000000,0.509932,-0.034635,0.000209,0.004136,0.000000|eff|80.566406,-241.699219,-934.570312,-96.679688,84.594727,-24.169922
cobot_dynamixel_driver/joint_states|name|J1,J2,J3,J4,J5,J6|pos|0.000063,0.144435,0.005320,-0.000038,-0.000290,0.000021|vel|0.000000,0.524746,-0.045068,0.000209,0.004136,0.000000|eff|0.000000,596.191406,-870.117188,-96.679688,84.594727,-24.169922
cobot_dynamixel_driver/joint_states|name|J1,J2,J3,J4,J5,J6|pos|0.000063,0.154062,0.004532,-0.000038,-0.000290,0.000021|vel|0.000000,0.505968,-0.041103,0.000209,0.004136,0.000000|eff|80.566406,0.000000,-789.550781,-96.679688,76.538086,-28.198242
cobot_dynamixel_driver/joint_states|name|J1,J2,J3,J4,J5,J6|pos|0.000063,0.163776,0.003956,-0.000038,-0.000290,0.000021|vel|0.000000,0.473628,-0.024620,0.000209,0.004136,0.000000|eff|0.000000,-966.796875,-854.003906,-96.679688,76.538086,-28.198242
cobot_dynamixel_driver/joint_states|name|J1,J2,J3,J4,J5,J6|pos|0.000050,0.173478,0.003480,-0.000038,-0.000290,0.000021|vel|0.000000,0.525372,-0.024829,0.000209,0.004136,0.000000|eff|0.000000,725.097656,-886.230469,-96.679688,64.453125,-8.056641
cobot_dynamixel_driver/joint_states|name|J1,J2,J3,J4,J5,J6|pos|0.000050,0.183142,0.002967,-0.000038,-0.000290,0.000021|vel|0.000000,0.442122,-0.016483,0.000209,0.004136,0.000000|eff|0.000000,435.058594,-837.890625,-96.679688,56.396484,-24.169922
cobot_dynamixel_driver/joint_states|name|J1,J2,J3,J4,J5,J6|pos|0.000050,0.193294,0.002641,-0.000038,-0.000290,0.000021|vel|0.000000,0.486773,-0.017109,0.000000,0.000000,0.000000|eff|80.566406,-837.890625,-870.117188,-96.679688,68.481445,-28.198242
cobot_dynamixel_driver/joint_states|name|J1,J2,J3,J4,J5,J6|pos|0.000050,0.201982,0.002266,-0.000038,-0.000290,0.000021|vel|0.000000,0.465282,-0.021699,0.000000,0.000000,0.000000|eff|48.339844,902.343750,-757.324219,-96.679688,68.481445,-16.113281
cobot_dynamixel_driver/joint_states|name|J1,J2,J3,J4,J5,J6|pos|0.000050,0.210456,0.002003,-0.000038,-0.000290,0.000021|vel|0.000000,0.377650,-0.008346,0.000000,0.000000,0.000000|eff|0.000000,982.910156,-870.117188,-64.453125,72.509766,0.000000
cobot_dynamixel_driver/joint_states|name|J1,J2,J3,J4,J5,J6|pos|0.000050,0.217755,0.001978,-0.000038,-0.000290,0.000021|vel|0.000000,0.315265,-0.003547,0.000000,0.000000,0.000000|eff|64.453125,1031.250000,-966.796875,0.000000,84.594727,-8.056641
cobot_dynamixel_driver/joint_states|name|J1,J2,J3,J4,J5,J6|pos|0.000050,0.223025,0.001915,-0.000038,-0.000290,0.000021|vel|0.000000,0.278335,-0.006468,0.000000,0.000000,0.000000|eff|0.000000,612.304688,-999.023438,-96.679688,80.566406,-28.198242
cobot_dynamixel_driver/joint_states|name|J1,J2,J3,J4,J5,J6|pos|0.000050,0.228032,0.001677,-0.000038,-0.000290,0.000021|vel|0.000000,0.237231,-0.018361,0.000000,0.000000,0.000000|eff|145.019531,644.531250,-902.343750,-96.679688,84.594727,-28.198242
cobot_dynamixel_driver/joint_states|name|J1,J2,J3,J4,J5,J6|pos|0.000050,0.232514,0.001239,-0.000038,-0.000290,0.000021|vel|0.000000,0.214071,-0.023368,0.000000,0.000000,0.000000|eff|128.906250,547.851562,-773.437500,-96.679688,88.623047,-32.226562
cobot_dynamixel_driver/joint_states|name|J1,J2,J3,J4,J5,J6|pos|0.000050,0.236094,0.001001,-0.000038,-0.000269,0.000021|vel|0.000000,0.184444,-0.007303,0.000000,0.000000,0.000000|eff|64.453125,837.890625,-854.003906,0.000000,92.651367,-24.169922
cobot_dynamixel_driver/joint_states|name|J1,J2,J3,J4,J5,J6|pos|0.000050,0.239374,0.001001,-0.000038,-0.000248,0.000021|vel|0.000000,0.148348,-0.007303,0.000000,0.000000,0.000000|eff|64.453125,612.304688,-854.003906,-96.679688,100.708008,-16.113281
cobot_dynamixel_driver/joint_states|name|J1,J2,J3,J4,J5,J6|pos|0.000050,0.242165,0.001001,-0.000038,-0.000248,0.000021|vel|0.000000,0.138959,-0.007303,0.000000,0.000689,0.000000|eff|0.000000,435.058594,-870.117188,-96.679688,100.708008,0.000000
cobot_dynamixel_driver/joint_states|name|J1,J2,J3,J4,J5,J6|pos|0.000050,0.244656,0.001001,-0.000038,-0.000248,0.000021|vel|0.000000,0.132699,-0.007303,0.000000,0.000689,0.000000|eff|0.000000,580.078125,-886.230469,-96.679688,96.679688,0.000000
cobot_dynamixel_driver/joint_states|name|J1,J2,J3,J4,J5,J6|pos|0.000050,0.246784,0.001001,-0.000038,-0.000228,0.000021|vel|0.000000,0.098064,-0.007303,0.000000,0.000689,0.000000|eff|0.000000,547.851562,-886.230469,-80.566406,96.679688,-28.198242
cobot_dynamixel_driver/joint_states|name|J1,J2,J3,J4,J5,J6|pos|0.000050,0.248599,0.001001,-0.000038,-0.000207,0.000021|vel|0.000000,0.085336,-0.007303,0.000000,0.000689,0.000000|eff|112.792969,451.171875,-837.890625,-48.339844,100.708008,-8.056641
cobot_dynamixel_driver/joint_states|name|J1,J2,J3,J4,J5,J6|pos|0.000050,0.250189,0.001001,-0.000038,-0.000207,0.000021|vel|0.000000,0.074070,0.000000,0.000000,0.000345,0.000000|eff|0.000000,451.171875,-837.890625,-96.679688,96.679688,-16.113281
cobot_dynamixel_driver/joint_states|name|J1,J2,J3,J4,J5,J6|pos|0.000050,0.251579,0.000976,-0.000038,-0.000186,0.000021|vel|0.000000,0.060090,0.000000,0.000000,0.000345,0.000000|eff|0.000000,370.605469,-918.457031,-96.679688,104.736328,0.000000
cobot_dynamixel_driver/joint_states|name|J1,J2,J3,J4,J5,J6|pos|0.000050,0.252781,0.000889,-0.000038,-0.000165,0.000021|vel|0.000000,0.059464,-0.005008,0.000000,0.000345,0.000000|eff|0.000000,402.832031,-886.230469,-96.679688,104.736328,-24.169922
cobot_dynamixel_driver/joint_states|name|J1,J2,J3,J4,J5,J6|pos|0.000050,0.253870,0.000751,-0.000038,-0.000145,0.000021|vel|0.000000,0.051744,-0.008137,0.000000,0.000689,0.000000|eff|0.000000,483.398438,-870.117188,-96.679688,104.736328,-28.198242
cobot_dynamixel_driver/joint_states|name|J1,J2,J3,J4,J5,J6|pos|0.000050,0.254896,0.000613,-0.000038,-0.000124,0.000021|vel|0.000000,0.051118,-0.007511,0.000000,0.001034,0.000000|eff|80.566406,435.058594,-870.117188,-80.566406,112.792969,0.000000
cobot_dynamixel_driver/joint_states|name|J1,J2,J3,J4,J5,J6|pos|0.000050,0.255772,0.000463,-0.000038,-0.000083,0.000021|vel|0.000000,0.039017,-0.008555,0.000000,0.001034,0.000000|eff|0.000000,435.058594,-870.117188,0.000000,104.736328,0.000000
cobot_dynamixel_driver/joint_states|name|J1,J2,J3,J4,J5,J6|pos|0.000050,0.256511,0.000288,-0.000038,-0.000083,0.000021|vel|0.000000,0.034844,-0.006677,0.000000,0.001034,0.000000|eff|0.000000,435.058594,-773.437500,-96.679688,104.736328,-16.113281
cobot_dynamixel_driver/joint_states|name|J1,J2,J3,J4,J5,J6|pos|0.000050,0.257187,0.000213,-0.000038,-0.000083,0.000021|vel|0.000000,0.034427,-0.003964,0.000000,0.001034,0.000000|eff|0.000000,467.285156,-789.550781,-96.679688,104.736328,-12.084961
cobot_dynamixel_driver/joint_states|name|J1,J2,J3,J4,J5,J6|pos|0.000050,0.257750,0.000188,-0.000038,-0.000083,0.000021|vel|0.000000,0.026498,-0.002086,0.000000,0.001034,0.000000|eff|48.339844,386.718750,-805.664062,0.000000,104.736328,-28.198242
cobot_dynamixel_driver/joint_states|name|J1,J2,J3,J4,J5,J6|pos|0.000050,0.258251,0.000175,-0.000038,-0.000083,0.000021|vel|0.000000,0.029836,-0.001043,0.000000,0.001034,0.000000|eff|0.000000,386.718750,-821.777344,-96.679688,104.736328,-16.113281
cobot_dynamixel_driver/joint_states|name|J1,J2,J3,J4,J5,J6|pos|0.000050,0.258664,0.000163,-0.000038,-0.000083,0.000021|vel|0.000000,0.018361,-0.001043,0.000000,0.001034,0.000000|eff|80.566406,306.152344,-821.777344,-96.679688,100.708008,-12.084961
cobot_dynamixel_driver/joint_states|name|J1,J2,J3,J4,J5,J6|pos|0.000050,0.259015,0.000163,-0.000038,-0.000083,0.000021|vel|0.000000,0.017735,-0.000417,0.000000,0.001034,0.000000|eff|0.000000,660.644531,-773.437500,-48.339844,96.679688,-12.084961
cobot_dynamixel_driver/joint_states|name|J1,J2,J3,J4,J5,J6|pos|0.000050,0.259403,0.000150,-0.000038,-0.000083,0.000021|vel|0.000000,0.017944,-0.000417,0.000000,0.000000,0.000000|eff|0.000000,483.398438,-773.437500,0.000000,100.708008,0.000000
cobot_dynamixel_driver/joint_states|name|J1,J2,J3,J4,J5,J6|pos|0.000050,0.259716,0.000150,-0.000038,-0.000083,0.000021|vel|0.000000,0.013353,-0.000417,0.000000,0.000000,0.000000|eff|112.792969,225.585938,-821.777344,-48.339844,96.679688,-20.141602
cobot_dynamixel_driver/joint_states|name|J1,J2,J3,J4,J5,J6|pos|0.000050,0.259953,0.000138,-0.000038,-0.000083,0.000021|vel|0.000000,0.012310,-0.000417,0.000000,0.000000,0.000000|eff|0.000000,483.398438,-821.777344,-80.566406,96.679688,-16.113281
cobot_dynamixel_driver/joint_states|name|J1,J2,J3,J4,J5,J6|pos|0.000050,0.260191,0.000138,-0.000038,-0.000083,0.000021|vel|0.000000,0.012727,-0.000209,0.000000,0.000000,0.000000|eff|112.792969,596.191406,-821.777344,-48.339844,96.679688,-16.113281
cobot_dynamixel_driver/joint_states|name|J1,J2,J3,J4,J5,J6|pos|0.000050,0.260392,0.000125,-0.000038,-0.000083,0.000021|vel|0.000000,0.008763,-0.000209,0.000000,0.000000,0.000000|eff|0.000000,451.171875,-821.777344,-96.679688,100.708008,-32.226562
cobot_dynamixel_driver/joint_states|name|J1,J2,J3,J4,J5,J6|pos|0.000050,0.260554,0.000113,-0.000038,-0.000083,0.000021|vel|0.000000,0.008555,-0.000209,0.000000,0.000000,0.000000|eff|0.000000,451.171875,-837.890625,-96.679688,100.708008,0.000000
cobot_dynamixel_driver/joint_states|name|J1,J2,J3,J4,J5,J6|pos|0.000050,0.260692,0.000100,-0.000038,-0.000083,0.000021|vel|0.000000,0.007094,-0.000417,0.000000,0.000000,0.000000|eff|0.000000,435.058594,-854.003906,-96.679688,104.736328,-32.226562
cobot_dynamixel_driver/joint_states|name|J1,J2,J3,J4,J5,J6|pos|0.000050,0.260842,0.000100,-0.000038,-0.000083,0.000021|vel|0.000000,0.007511,-0.000417,0.000000,0.000000,0.000000|eff|0.000000,435.058594,-886.230469,0.000000,96.679688,0.000000
cobot_dynamixel_driver/joint_states|name|J1,J2,J3,J4,J5,J6|pos|0.000050,0.260980,0.000088,-0.000038,-0.000083,0.000021|vel|0.000000,0.007511,-0.000417,0.000000,0.000000,0.000000|eff|0.000000,467.285156,-821.777344,-96.679688,104.736328,-16.113281
cobot_dynamixel_driver/joint_states|name|J1,J2,J3,J4,J5,J6|pos|0.000050,0.261155,0.000088,-0.000038,-0.000062,0.000021|vel|0.000000,0.008972,-0.000417,0.000000,0.000000,0.000000|eff|0.000000,467.285156,-821.777344,-80.566406,104.736328,-16.113281
cobot_dynamixel_driver/joint_states|name|J1,J2,J3,J4,J5,J6|pos|0.000050,0.261356,0.000075,-0.000038,-0.000062,0.000021|vel|0.000000,0.008972,-0.000417,0.000000,0.000000,0.000000|eff|0.000000,515.625000,-837.890625,0.000000,100.708008,0.000000
cobot_dynamixel_driver/joint_states|name|J1,J2,J3,J4,J5,J6|pos|0.000050,0.261406,0.000075,-0.000038,-0.000062,0.000021|vel|0.000000,0.002295,-0.000417,0.000000,0.000000,0.000000|eff|0.000000,531.738281,-837.890625,0.000000,108.764648,0.000000
cobot_dynamixel_driver/joint_states|name|J1,J2,J3,J4,J5,J6|pos|0.000050,0.261481,0.000075,-0.000038,-0.000062,0.000021|vel|0.000000,0.003756,-0.000417,0.000000,0.000000,0.000000|eff|0.000000,418.945312,-837.890625,-96.679688,108.764648,-16.113281
cobot_dynamixel_driver/joint_states|name|J1,J2,J3,J4,J5,J6|pos|0.000050,0.261493,0.000075,-0.000038,-0.000062,0.000021|vel|0.000000,0.002504,-0.000417,0.000000,0.000000,0.000000|eff|0.000000,515.625000,-870.117188,-48.339844,108.764648,0.000000
cobot_dynamixel_driver/joint_states|name|J1,J2,J3,J4,J5,J6|pos|0.000050,0.261493,0.000075,-0.000038,-0.000062,0.000021|vel|0.000000,0.002504,-0.000417,0.000000,0.000000,0.000000|eff|0.000000,483.398438,-837.890625,0.000000,104.736328,-28.198242
cobot_dynamixel_driver/joint_states|name|J1,J2,J3,J4,J5,J6|pos|0.000050,0.261506,0.000075,-0.000038,-0.000041,0.000021|vel|0.000000,0.002504,0.000000,0.000000,0.000000,0.000000|eff|0.000000,370.605469,-821.777344,-96.679688,112.792969,0.000000
cobot_dynamixel_driver/joint_states|name|J1,J2,J3,J4,J5,J6|pos|0.000050,0.261506,0.000063,-0.000038,-0.000041,0.000021|vel|0.000000,0.002504,0.000000,0.000000,0.000000,0.000000|eff|0.000000,515.625000,-837.890625,0.000000,104.736328,-16.113281
cobot_dynamixel_driver/joint_states|name|J1,J2,J3,J4,J5,J6|pos|0.000050,0.261506,0.000063,-0.000038,-0.000021,0.000021|vel|0.000000,0.002504,0.000000,0.000000,0.000000,0.000000|eff|0.000000,515.625000,-837.890625,0.000000,108.764648,0.000000
cobot_dynamixel_driver/joint_states|name|J1,J2,J3,J4,J5,J6|pos|0.000050,0.261506,0.000050,-0.000038,-0.000021,0.000021|vel|0.000000,0.002504,0.000000,0.000000,0.000000,0.000000|eff|0.000000,499.511719,-837.890625,-96.679688,108.764648,0.000000
cobot_dynamixel_driver/joint_states|name|J1,J2,J3,J4,J5,J6|pos|0.000050,0.261506,0.000050,-0.000038,-0.000021,0.000021|vel|0.000000,-0.000000,0.000000,0.000000,0.000000,0.000000|eff|0.000000,483.398438,-854.003906,-48.339844,108.764648,-32.226562
cobot_dynamixel_driver/joint_states|name|J1,J2,J3,J4,J5,J6|pos|0.000050,0.261518,0.000050,-0.000038,-0.000021,0.000021|vel|0.000000,-0.000000,0.000000,0.000000,0.000000,0.000000|eff|0.000000,531.738281,-837.890625,-80.566406,108.764648,-16.113281
cobot_dynamixel_driver/joint_states|name|J1,J2,J3,J4,J5,J6|pos|0.000050,0.261531,0.000050,-0.000038,-0.000021,0.000021|vel|0.000000,-0.000000,0.000000,0.000000,0.000000,0.000000|eff|0.000000,435.058594,-837.890625,0.000000,108.764648,0.000000
cobot_dynamixel_driver/joint_states|name|J1,J2,J3,J4,J5,J6|pos|0.000050,0.261543,0.000050,-0.000038,-0.000021,0.000021|vel|0.000000,0.000417,0.000000,0.000000,0.000000,0.000000|eff|0.000000,467.285156,-854.003906,-80.566406,108.764648,-28.198242
cobot_dynamixel_driver/joint_states|name|J1,J2,J3,J4,J5,J6|pos|0.000050,0.261568,0.000050,-0.000025,-0.000021,0.000021|vel|0.000000,0.000835,0.000000,0.000000,0.000000,0.000000|eff|0.000000,515.625000,-837.890625,-48.339844,108.764648,-32.226562
cobot_dynamixel_driver/joint_states|name|J1,J2,J3,J4,J5,J6|pos|0.000050,0.261568,0.000050,-0.000025,-0.000021,0.000021|vel|0.000000,0.000835,0.000000,0.000000,0.000000,0.000000|eff|0.000000,402.832031,-870.117188,-32.226562,108.764648,-20.141602
cobot_dynamixel_driver/joint_states|name|J1,J2,J3,J4,J5,J6|pos|0.000050,0.261581,0.000050,-0.000025,-0.000021,0.000021|vel|0.000000,0.000417,0.000000,0.000000,0.000000,0.000000|eff|0.000000,499.511719,-837.890625,0.000000,108.764648,-32.226562
cobot_dynamixel_driver/joint_states|name|J1,J2,J3,J4,J5,J6|pos|0.000050,0.261581,0.000050,-0.000025,-0.000021,0.000021|vel|0.000000,0.000417,0.000000,0.000000,0.000000,0.000000|eff|0.000000,451.171875,-837.890625,0.000000,108.764648,-16.113281
cobot_dynamixel_driver/joint_states|name|J1,J2,J3,J4,J5,J6|pos|0.000050,0.261593,0.000050,-0.000025,-0.000021,0.000021|vel|0.000000,0.000417,0.000000,0.000000,0.000000,0.000000|eff|0.000000,483.398438,-837.890625,0.000000,108.764648,-12.084961
cobot_dynamixel_driver/joint_states|name|J1,J2,J3,J4,J5,J6|pos|0.000050,0.261593,0.000038,-0.000025,-0.000021,0.000021|vel|0.000000,0.000417,0.000000,0.000000,0.000000,0.000000|eff|0.000000,467.285156,-886.230469,-80.566406,108.764648,-8.056641
cobot_dynamixel_driver/joint_states|name|J1,J2,J3,J4,J5,J6|pos|0.000050,0.261593,0.000038,-0.000025,-0.000021,0.000021|vel|0.000000,0.000417,0.000000,0.000000,0.000000,0.000000|eff|0.000000,467.285156,-837.890625,0.000000,108.764648,0.000000
cobot_dynamixel_driver/joint_states|name|J1,J2,J3,J4,J5,J6|pos|0.000050,0.261593,0.000038,-0.000025,-0.000021,0.000021|vel|0.000000,0.000417,0.000000,0.000000,0.000000,0.000000|eff|0.000000,499.511719,-918.457031,0.000000,108.764648,-32.226562
cobot_dynamixel_driver/joint_states|name|J1,J2,J3,J4,J5,J6|pos|0.000050,0.261593,0.000025,-0.000025,-0.000021,0.000021|vel|0.000000,-0.000000,0.000000,0.000000,0.000000,0.000000|eff|0.000000,515.625000,-870.117188,0.000000,108.764648,-8.056641
cobot_dynamixel_driver/joint_states|name|J1,J2,J3,J4,J5,J6|pos|0.000050,0.261618,0.000025,-0.000025,-0.000021,0.000021|vel|0.000000,-0.000000,0.000000,0.000000,0.000000,0.000000|eff|0.000000,531.738281,-870.117188,0.000000,108.764648,0.000000
cobot_dynamixel_driver/joint_states|name|J1,J2,J3,J4,J5,J6|pos|0.000050,0.261631,0.000025,-0.000025,-0.000021,0.000021|vel|0.000000,-0.000000,0.000000,0.000000,0.000000,0.000000|eff|0.000000,322.265625,-854.003906,-80.566406,108.764648,-12.084961
cobot_dynamixel_driver/joint_states|name|J1,J2,J3,J4,J5,J6|pos|0.000050,0.261643,0.000025,-0.000025,-0.000021,0.000021|vel|0.000000,0.000626,0.000000,0.000000,0.000000,0.000000|eff|0.000000,467.285156,-902.343750,-32.226562,108.764648,-16.113281
cobot_dynamixel_driver/joint_states|name|J1,J2,J3,J4,J5,J6|pos|0.000050,0.261681,0.000025,-0.000025,0.000000,0.000021|vel|0.000000,0.002295,0.000000,0.000000,0.000000,0.000000|eff|0.000000,370.605469,-854.003906,-80.566406,108.764648,-8.056641
cobot_dynamixel_driver/joint_states|name|J1,J2,J3,J4,J5,J6|pos|0.000050,0.261731,0.000025,-0.000025,0.000000,0.000021|vel|0.000000,0.002712,0.000000,0.000000,0.000000,0.000000|eff|0.000000,483.398438,-837.890625,0.000000,108.764648,-24.169922
cobot_dynamixel_driver/joint_states|name|J1,J2,J3,J4,J5,J6|pos|0.000050,0.261756,0.000025,-0.000025,0.000000,0.000021|vel|0.000000,0.001878,0.000000,0.000000,0.000000,0.000000|eff|0.000000,515.625000,-854.003906,-64.453125,108.764648,-24.169922
cobot_dynamixel_driver/joint_states|name|J1,J2,J3,J4,J5,J6|pos|0.000050,0.261769,0.000025,-0.000025,0.000000,0.000021|vel|0.000000,0.001043,0.000000,0.000000,0.000000,0.000000|eff|0.000000,322.265625,-854.003906,-48.339844,108.764648,-20.141602
cobot_dynamixel_driver/joint_states|name|J1,J2,J3,J4,J5,J6|pos|0.000050,0.261769,0.000025,-0.000025,0.000000,0.000021|vel|0.000000,0.001043,0.000000,0.000000,0.000000,0.000000|eff|0.000000,499.511719,-837.890625,0.000000,108.764648,-12.084961
cobot_dynamixel_driver/joint_states|name|J1,J2,J3,J4,J5,J6|pos|0.000050,0.261781,0.000025,-0.000025,0.000000,0.000021|vel|0.000000,0.001043,0.000000,0.000000,0.000000,0.000000|eff|0.000000,435.058594,-837.890625,-64.453125,108.764648,-32.226562
cobot_dynamixel_driver/joint_states|name|J1,J2,J3,J4,J5,J6|pos|0.000050,0.261794,0.000025,-0.000025,0.000000,0.000021|vel|0.000000,0.000417,0.000000,0.000000,0.000000,0.000000|eff|0.000000,531.738281,-854.003906,-64.453125,108.764648,-8.056641
cobot_dynamixel_driver/joint_states|name|J1,J2,J3,J4,J5,J6|pos|0.000050,0.261806,0.000025,-0.000025,0.000000,0.000021|vel|0.000000,0.000417,0.000000,0.000000,0.000000,0.000000|eff|0.000000,322.265625,-854.003906,-64.453125,108.764648,0.000000
cobot_dynamixel_driver/joint_states|name|J1,J2,J3,J4,J5,J6|pos|0.000038,0.261819,0.000025,-0.000025,0.000000,0.000021|vel|0.000000,0.000417,0.000000,0.000000,0.000000,0.000000|eff|0.000000,499.511719,-837.890625,0.000000,108.764648,-12.084961
cobot_dynamixel_driver/joint_states|name|J1,J2,J3,J4,J5,J6|pos|0.000038,0.261819,0.000025,-0.000025,0.000000,0.000021|vel|0.000000,0.000417,0.000000,0.000000,0.000000,0.000000|eff|-32.226562,451.171875,-902.343750,0.000000,108.764648,-16.113281
cobot_dynamixel_driver/joint_states|name|J1,J2,J3,J4,J5,J6|pos|0.000038,0.261831,0.000025,-0.000025,0.000000,0.000021|vel|0.000000,0.000417,0.000000,0.000000,0.000000,0.000000|eff|-96.679688,515.625000,-870.117188,0.000000,108.764648,-28.198242
cobot_dynamixel_driver/joint_states|name|J1,J2,J3,J4,J5,J6|pos|0.000038,0.261831,0.000025,-0.000025,0.000000,0.000021|vel|0.000000,0.000417,0.000000,0.000000,0.000000,0.000000|eff|-32.226562,499.511719,-886.230469,-80.566406,108.764648,0.000000
cobot_dynamixel_driver/joint_states|name|J1,J2,J3,J4,J5,J6|pos|0.000038,0.261831,0.000025,-0.000025,0.000000,0.000021|vel|0.000000,0.000209,0.000000,0.000000,0.000000,0.000000|eff|-64.453125,515.625000,-902.343750,0.000000,108.764648,-32.226562
cobot_dynamixel_driver/joint_states|name|J1,J2,J3,J4,J5,J6|pos|0.000038,0.261831,0.000025,-0.000025,0.000000,0.000021|vel|0.000000,0.000209,0.000000,0.000000,0.000000,0.000000|eff|0.000000,515.625000,-918.457031,0.000000,108.764648,-12.084961
cobot_dynamixel_driver/joint_states|name|J1,J2,J3,J4,J5,J6|pos|0.000038,0.261831,0.000025,-0.000025,0.000000,0.000021|vel|0.000000,0.000209,0.000000,0.000000,0.000000,0.000000|eff|0.000000,515.625000,-902.343750,-64.453125,108.764648,-32.226562
cobot_dynamixel_driver/joint_states|name|J1,J2,J3,J4,J5,J6|pos|0.000038,0.261844,0.000025,-0.000025,0.000000,0.000021|vel|0.000000,0.000209,0.000000,0.000000,0.000000,0.000000|eff|0.000000,499.511719,-918.457031,0.000000,108.764648,-24.169922
cobot_dynamixel_driver/joint_states|name|J1,J2,J3,J4,J5,J6|pos|0.000038,0.261844,0.000025,-0.000025,0.000000,0.000021|vel|0.000000,0.000209,0.000000,0.000000,0.000000,0.000000|eff|0.000000,451.171875,-870.117188,0.000000,108.764648,-32.226562
cobot_dynamixel_driver/joint_states|name|J1,J2,J3,J4,J5,J6|pos|0.000038,0.261844,0.000025,-0.000025,0.000000,0.000021|vel|0.000000,0.000209,0.000000,0.000000,0.000000,0.000000|eff|0.000000,386.718750,-854.003906,-80.566406,108.764648,-12.084961
cobot_dynamixel_driver/joint_states|name|J1,J2,J3,J4,J5,J6|pos|0.000038,0.261844,0.000025,-0.000025,0.000000,0.000021|vel|0.000000,-0.000000,0.000000,0.000000,0.000000,0.000000|eff|0.000000,499.511719,-837.890625,0.000000,108.764648,0.000000
cobot_dynamixel_driver/joint_states|name|J1,J2,J3,J4,J5,J6|pos|0.000025,0.261844,0.000025,-0.000025,0.000000,0.000021|vel|0.000000,-0.000000,0.000000,0.000000,0.000000,0.000000|eff|-64.453125,499.511719,-837.890625,-48.339844,108.764648,-32.226562
cobot_dynamixel_driver/joint_states|name|J1,J2,J3,J4,J5,J6|pos|0.000013,0.261844,0.000025,-0.000025,0.000000,0.000021|vel|0.000000,-0.000000,0.000000,0.000000,0.000000,0.000000|eff|0.000000,515.625000,-854.003906,-48.339844,108.764648,-24.169922
cobot_dynamixel_driver/joint_states|name|J1,J2,J3,J4,J5,J6|pos|0.000000,0.261844,0.000025,-0.000025,0.000000,0.000021|vel|0.000000,-0.000000,0.000000,0.000000,0.000000,0.000000|eff|-96.679688,499.511719,-837.890625,0.000000,108.764648,-8.056641
cobot_dynamixel_driver/joint_states|name|J1,J2,J3,J4,J5,J6|pos|-0.000013,0.261844,0.000025,-0.000025,0.000000,0.000021|vel|-0.000626,-0.000000,0.000000,0.000000,0.000000,0.000000|eff|-64.453125,499.511719,-918.457031,0.000000,108.764648,-32.226562
cobot_dynamixel_driver/joint_states|name|J1,J2,J3,J4,J5,J6|pos|-0.000013,0.261844,0.000025,-0.000025,0.000000,0.000021|vel|-0.000626,-0.000000,0.000000,0.000000,0.000000,0.000000|eff|0.000000,499.511719,-870.117188,0.000000,108.764648,0.000000
cobot_dynamixel_driver/joint_states|name|J1,J2,J3,J4,J5,J6|pos|-0.000013,0.261844,0.000025,-0.000025,0.000000,0.000021|vel|-0.000626,-0.000000,0.000000,0.000000,0.000000,0.000000|eff|0.000000,418.945312,-837.890625,-64.453125,108.764648,-16.113281
cobot_dynamixel_driver/joint_states|name|J1,J2,J3,J4,J5,J6|pos|-0.000013,0.261844,0.000025,-0.000025,0.000000,0.000021|vel|-0.000626,-0.000000,0.000000,0.000000,0.000000,0.000000|eff|0.000000,499.511719,-918.457031,0.000000,108.764648,-16.113281
cobot_dynamixel_driver/joint_states|name|J1,J2,J3,J4,J5,J6|pos|-0.000013,0.261844,0.000025,-0.000025,0.000000,0.000021|vel|-0.000626,-0.000000,0.000000,0.000000,0.000000,0.000000|eff|-32.226562,435.058594,-837.890625,0.000000,108.764648,0.000000
cobot_dynamixel_driver/joint_states|name|J1,J2,J3,J4,J5,J6|pos|-0.000013,0.261844,0.000025,-0.000025,0.000000,0.000021|vel|-0.000626,-0.000000,0.000000,0.000000,0.000000,0.000000|eff|0.000000,499.511719,-886.230469,0.000000,108.764648,-16.113281
cobot_dynamixel_driver/joint_states|name|J1,J2,J3,J4,J5,J6|pos|-0.000013,0.261844,0.000025,-0.000025,0.000000,0.000021|vel|0.000000,-0.000000,0.000000,0.000000,0.000000,0.000000|eff|0.000000,435.058594,-902.343750,-32.226562,108.764648,0.000000
cobot_dynamixel_driver/joint_states|name|J1,J2,J3,J4,J5,J6|pos|-0.000013,0.261844,0.000025,-0.000025,0.000000,0.000021|vel|0.000000,-0.000000,0.000000,0.000000,0.000000,0.000000|eff|0.000000,499.511719,-870.117188,0.000000,108.764648,-28.198242
cobot_dynamixel_driver/joint_states|name|J1,J2,J3,J4,J5,J6|pos|-0.000013,0.261844,0.000013,-0.000025,0.000000,0.000021|vel|0.000000,-0.000000,0.000000,0.000000,0.000000,0.000000|eff|0.000000,354.492188,-870.117188,0.000000,108.764648,0.000000
cobot_dynamixel_driver/joint_states|name|J1,J2,J3,J4,J5,J6|pos|-0.000013,0.261844,0.000013,-0.000025,0.000000,0.000021|vel|0.000000,-0.000000,0.000000,0.000000,0.000000,0.000000|eff|-96.679688,499.511719,-837.890625,-64.453125,108.764648,0.000000
cobot_dynamixel_driver/goal|-:J1,J2,J3,J4,J5,J6:0.000000,0.261799,0.000000,0.000000,0.000000,0.000000:0.500000,0.500000,0.500000,0.500000,0.500000,0.500000:pos_vel_
cobot_dynamixel_driver/joint_states|name|J1,J2,J3,J4,J5,J6|pos|-0.000013,0.261844,0.000013,-0.000025,0.000000,0.000021|vel|0.000000,-0.000000,0.000000,0.000000,0.000000,0.000000|eff|0.000000,499.511719,-870.117188,-32.226562,108.764648,-24.169922
cobot_dynamixel_driver/joint_states|name|J1,J2,J3,J4,J5,J6|pos|-0.000013,0.261844,0.000013,-0.000025,0.000000,0.000021|vel|0.000000,-0.000000,0.000000,0.000000,0.000000,0.000000|eff|0.000000,499.511719,-837.890625,0.000000,108.764648,-16.113281
cobot_dynamixel_driver/joint_states|name|J1,J2,J3,J4,J5,J6|pos|-0.000013,0.261844,0.000013,-0.000025,0.000000,0.000021|vel|0.000000,-0.000000,0.000000,0.000000,0.000000,0.000000|eff|-64.453125,499.511719,-837.890625,-32.226562,108.764648,-20.141602
cobot_dynamixel_driver/joint_states|name|J1,J2,J3,J4,J5,J6|pos|-0.000013,0.261844,0.000013,-0.000025,0.000000,0.000021|vel|0.000000,-0.000000,0.000000,0.000000,0.000000,0.000000|eff|0.000000,483.398438,-837.890625,0.000000,108.764648,-12.084961
cobot_dynamixel_driver/joint_states|name|J1,J2,J3,J4,J5,J6|pos|-0.000013,0.261844,0.000013,-0.000025,0.000000,0.000021|vel|0.000000,-0.000000,0.000000,0.000000,0.000000,0.000000|eff|-64.453125,499.511719,-854.003906,0.000000,108.764648,-24.169922
cobot_dynamixel_driver/joint_states|name|J1,J2,J3,J4,J5,J6|pos|-0.000013,0.261844,0.000013,-0.000025,0.000000,0.000021|vel|0.000000,-0.000000,0.000000,0.000000,0.000000,0.000000|eff|0.000000,499.511719,-837.890625,0.000000,108.764648,-16.113281
cobot_dynamixel_driver/joint_states|name|J1,J2,J3,J4,J5,J6|pos|-0.000013,0.261844,0.000013,-0.000025,0.000000,0.000021|vel|0.000000,-0.000000,0.000000,0.000000,0.000000,0.000000|eff|0.000000,499.511719,-918.457031,0.000000,108.764648,-28.198242
cobot_dynamixel_driver/joint_states|name|J1,J2,J3,J4,J5,J6|pos|-0.000013,0.261844,0.000013,-0.000025,0.000000,0.000021|vel|0.000000,-0.000000,0.000000,0.000000,0.000000,0.000000|eff|0.000000,499.511719,-902.343750,0.000000,108.764648,-28.198242
cobot_dynamixel_driver/joint_states|name|J1,J2,J3,J4,J5,J6|pos|-0.000013,0.261844,0.000013,-0.000025,0.000000,0.000021|vel|0.000000,-0.000000,0.000000,0.000000,0.000000,0.000000|eff|0.000000,451.171875,-854.003906,0.000000,108.764648,-12.084961
cobot_dynamixel_driver/joint_states|name|J1,J2,J3,J4,J5,J6|pos|-0.000013,0.261844,0.000013,-0.000025,0.000000,0.000021|vel|0.000000,-0.000000,0.000000,0.000000,0.000000,0.000000|eff|0.000000,418.945312,-902.343750,0.000000,108.764648,0.000000
cobot_dynamixel_driver/joint_states|name|J1,J2,J3,J4,J5,J6|pos|-0.000013,0.261844,0.000013,-0.000025,0.000000,0.000021|vel|0.000000,-0.000000,0.000000,0.000000,0.000000,0.000000|eff|0.000000,499.511719,-854.003906,0.000000,108.764648,-20.141602
cobot_dynamixel_driver/joint_states|name|J1,J2,J3,J4,J5,J6|pos|-0.000013,0.261844,0.000013,-0.000025,0.000000,0.000021|vel|0.000000,-0.000000,0.000000,0.000000,0.000000,0.000000|eff|0.000000,499.511719,-854.003906,-32.226562,108.764648,0.000000
cobot_dynamixel_driver/joint_states|name|J1,J2,J3,J4,J5,J6|pos|-0.000013,0.261844,0.000013,-0.000025,0.000000,0.000021|vel|0.000000,-0.000000,0.000000,0.000000,0.000000,0.000000|eff|0.000000,499.511719,-854.003906,-32.226562,108.764648,0.000000
cobot_dynamixel_driver/joint_states|name|J1,J2,J3,J4,J5,J6|pos|-0.000013,0.261844,0.000013,-0.000025,0.000000,0.000021|vel|0.000000,-0.000000,0.000000,0.000000,0.000000,0.000000|eff|0.000000,499.511719,-854.003906,-64.453125,108.764648,-28.198242
cobot_dynamixel_driver/joint_states|name|J1,J2,J3,J4,J5,J6|pos|-0.000013,0.261844,0.000013,-0.000025,0.000000,0.000021|vel|0.000000,-0.000000,0.000000,0.000000,0.000000,0.000000|eff|0.000000,499.511719,-886.230469,-32.226562,108.764648,-32.226562
cobot_dynamixel_driver/joint_states|name|J1,J2,J3,J4,J5,J6|pos|-0.000013,0.261844,0.000013,-0.000025,0.000000,0.000021|vel|0.000000,-0.000000,0.000000,0.000000,0.000000,0.000000|eff|-32.226562,515.625000,-870.117188,0.000000,108.764648,-16.113281
cobot_dynamixel_driver/joint_states|name|J1,J2,J3,J4,J5,J6|pos|-0.000013,0.261844,0.000013,-0.000025,0.000000,0.000021|vel|0.000000,-0.000000,0.000000,0.000000,0.000000,0.000000|eff|-64.453125,499.511719,-870.117188,0.000000,108.764648,0.000000
cobot_dynamixel_driver/joint_states|name|J1,J2,J3,J4,J5,J6|pos|-0.000013,0.261844,0.000013,-0.000025,0.000000,0.000021|vel|0.000000,-0.000000,0.000000,0.000000,0.000000,0.000000|eff|0.000000,499.511719,-886.230469,-48.339844,108.764648,-20.141602
cobot_dynamixel_driver/joint_states|name|J1,J2,J3,J4,J5,J6|pos|-0.000013,0.261844,0.000013,-0.000025,0.000000,0.000021|vel|0.000000,-0.000000,0.000000,0.000000,0.000000,0.000000|eff|0.000000,499.511719,-918.457031,0.000000,108.764648,-32.226562
cobot_dynamixel_driver/joint_states|name|J1,J2,J3,J4,J5,J6|pos|-0.000013,0.261844,0.000013,-0.000025,0.000000,0.000021|vel|0.000000,-0.000000,0.000000,0.000000,0.000000,0.000000|eff|-32.226562,515.625000,-918.457031,0.000000,108.764648,-28.198242
cobot_dynamixel_driver/joint_states|name|J1,J2,J3,J4,J5,J6|pos|-0.000013,0.261844,0.000013,-0.000025,0.000000,0.000021|vel|0.000000,-0.000000,0.000000,0.000000,0.000000,0.000000|eff|0.000000,499.511719,-854.003906,0.000000,108.764648,-32.226562
cobot_dynamixel_driver/joint_states|name|J1,J2,J3,J4,J5,J6|pos|-0.000013,0.261844,0.000013,-0.000025,0.000000,0.000021|vel|0.000000,-0.000000,0.000000,0.000000,0.000000,0.000000|eff|0.000000,499.511719,-837.890625,0.000000,108.764648,0.000000
cobot_dynamixel_driver/joint_states|name|J1,J2,J3,J4,J5,J6|pos|-0.000013,0.261844,0.000013,-0.000025,0.000000,0.000021|vel|0.000000,-0.000000,0.000000,0.000000,0.000000,0.000000|eff|0.000000,499.511719,-837.890625,0.000000,108.764648,-24.169922
cobot_dynamixel_driver/joint_states|name|J1,J2,J3,J4,J5,J6|pos|-0.000013,0.261844,0.000013,-0.000025,0.000000,0.000021|vel|0.000000,-0.000000,0.000000,0.000000,0.000000,0.000000|eff|0.000000,499.511719,-837.890625,-48.339844,108.764648,-32.226562
cobot_dynamixel_driver/joint_states|name|J1,J2,J3,J4,J5,J6|pos|-0.000013,0.261844,0.000013,-0.000025,0.000000,0.000021|vel|0.000000,-0.000000,0.000000,0.000000,0.000000,0.000000|eff|0.000000,499.511719,-837.890625,0.000000,108.764648,-8.056641
cobot_dynamixel_driver/joint_states|name|J1,J2,J3,J4,J5,J6|pos|-0.000013,0.261844,0.000013,-0.000025,0.000000,0.000021|vel|0.000000,-0.000000,0.000000,0.000000,0.000000,0.000000|eff|0.000000,515.625000,-870.117188,-80.566406,108.764648,0.000000
cobot_dynamixel_driver/joint_states|name|J1,J2,J3,J4,J5,J6|pos|-0.000013,0.261844,0.000013,-0.000025,0.000000,0.000021|vel|0.000000,-0.000000,0.000000,0.000000,0.000000,0.000000|eff|-32.226562,499.511719,-886.230469,-48.339844,108.764648,-8.056641
cobot_dynamixel_driver/joint_states|name|J1,J2,J3,J4,J5,J6|pos|-0.000013,0.261844,0.000013,-0.000025,0.000000,0.000021|vel|0.000000,-0.000000,0.000000,0.000000,0.000000,0.000000|eff|0.000000,644.531250,-837.890625,0.000000,108.764648,-32.226562
cobot_dynamixel_driver/joint_states|name|J1,J2,J3,J4,J5,J6|pos|-0.000013,0.261844,0.000013,-0.000025,0.000000,0.000021|vel|0.000000,-0.000000,0.000000,0.000000,0.000000,0.000000|eff|0.000000,515.625000,-902.343750,0.000000,108.764648,-16.113281
cobot_dynamixel_driver/joint_states|name|J1,J2,J3,J4,J5,J6|pos|-0.000013,0.261844,0.000013,-0.000025,0.000000,0.000021|vel|0.000000,-0.000000,0.000000,0.000000,0.000000,0.000000|eff|-96.679688,499.511719,-837.890625,0.000000,108.764648,-24.169922
cobot_dynamixel_driver/joint_states|name|J1,J2,J3,J4,J5,J6|pos|-0.000013,0.261844,0.000013,-0.000025,0.000000,0.000021|vel|0.000000,-0.000000,0.000000,0.000000,0.000000,0.000000|eff|0.000000,515.625000,-886.230469,-80.566406,108.764648,-24.169922
cobot_dynamixel_driver/joint_states|name|J1,J2,J3,J4,J5,J6|pos|-0.000013,0.261844,0.000013,-0.000025,0.000000,0.000021|vel|0.000000,-0.000000,0.000000,0.000000,0.000000,0.000000|eff|-32.226562,499.511719,-854.003906,0.000000,108.764648,-32.226562
cobot_dynamixel_driver/joint_states|name|J1,J2,J3,J4,J5,J6|pos|-0.000013,0.261844,0.000013,-0.000025,0.000000,0.000021|vel|0.000000,-0.000000,0.000000,0.000000,0.000000,0.000000|eff|-96.679688,515.625000,-918.457031,-32.226562,108.764648,-32.226562
cobot_dynamixel_driver/joint_states|name|J1,J2,J3,J4,J5,J6|pos|-0.000013,0.261844,0.000013,-0.000025,0.000000,0.000021|vel|0.000000,-0.000000,0.000000,0.000000,0.000000,0.000000|eff|-96.679688,499.511719,-854.003906,-48.339844,108.764648,-20.141602
cobot_dynamixel_driver/joint_states|name|J1,J2,J3,J4,J5,J6|pos|-0.000013,0.261844,0.000013,-0.000025,0.000000,0.000021|vel|0.000000,-0.000000,0.000000,0.000000,0.000000,0.000000|eff|0.000000,515.625000,-886.230469,0.000000,108.764648,0.000000
cobot_dynamixel_driver/joint_states|name|J1,J2,J3,J4,J5,J6|pos|-0.000013,0.261844,0.000013,-0.000025,0.000000,0.000021|vel|0.000000,-0.000000,0.000000,0.000000,0.000000,0.000000|eff|-64.453125,580.078125,-870.117188,0.000000,108.764648,-20.141602
cobot_dynamixel_driver/joint_states|name|J1,J2,J3,J4,J5,J6|pos|-0.000013,0.261844,0.000013,-0.000025,0.000000,0.000021|vel|0.000000,-0.000000,0.000000,0.000000,0.000000,0.000000|eff|-64.453125,515.625000,-854.003906,0.000000,108.764648,-8.056641
cobot_dynamixel_driver/joint_states|name|J1,J2,J3,J4,J5,J6|pos|-0.000013,0.261844,0.000013,-0.000025,0.000000,0.000021|vel|0.000000,-0.000000,0.000000,0.000000,0.000000,0.000000|eff|-32.226562,499.511719,-837.890625,-48.339844,108.764648,-28.198242
cobot_dynamixel_driver/joint_states|name|J1,J2,J3,J4,J5,J6|pos|-0.000013,0.261844,0.000013,-0.000025,0.000000,0.000021|vel|0.000000,-0.000000,0.000000,0.000000,0.000000,0.000000|eff|0.000000,515.625000,-837.890625,0.000000,108.764648,-28.198242
cobot_dynamixel_driver/joint_states|name|J1,J2,J3,J4,J5,J6|pos|-0.000013,0.261844,0.000013,-0.000025,0.000000,0.000021|vel|0.000000,-0.000000,0.000000,0.000000,0.000000,0.000000|eff|0.000000,515.625000,-837.890625,-80.566406,108.764648,-28.198242
cobot_dynamixel_driver/joint_states|name|J1,J2,J3,J4,J5,J6|pos|-0.000025,0.261844,0.000013,-0.000025,0.000000,0.000021|vel|0.000000,-0.000000,0.000000,0.000000,0.000000,0.000000|eff|0.000000,499.511719,-854.003906,0.000000,108.764648,0.000000
cobot_dynamixel_driver/joint_states|name|J1,J2,J3,J4,J5,J6|pos|-0.000025,0.261844,0.000013,-0.000025,0.000000,0.000021|vel|0.000000,-0.000000,0.000000,0.000000,0.000000,0.000000|eff|0.000000,499.511719,-902.343750,0.000000,108.764648,-12.084961
cobot_dynamixel_driver/joint_states|name|J1,J2,J3,J4,J5,J6|pos|-0.000025,0.261844,0.000013,-0.000025,0.000000,0.000021|vel|0.000000,-0.000000,0.000000,0.000000,0.000000,0.000000|eff|0.000000,499.511719,-854.003906,0.000000,108.764648,-12.084961
cobot_dynamixel_driver/joint_states|name|J1,J2,J3,J4,J5,J6|pos|-0.000025,0.261844,0.000013,-0.000025,0.000000,0.000021|vel|0.000000,-0.000000,0.000000,0.000000,0.000000,0.000000|eff|-64.453125,515.625000,-854.003906,-48.339844,108.764648,-28.198242
cobot_dynamixel_driver/joint_states|name|J1,J2,J3,J4,J5,J6|pos|-0.000025,0.261844,0.000013,-0.000025,0.000000,0.000021|vel|0.000000,-0.000000,0.000000,0.000000,0.000000,0.000000|eff|0.000000,515.625000,-870.117188,-64.453125,108.764648,-24.169922
cobot_dynamixel_driver/joint_states|name|J1,J2,J3,J4,J5,J6|pos|-0.000025,0.261844,0.000013,-0.000025,0.000000,0.000021|vel|0.000000,-0.000000,0.000000,0.000000,0.000000,0.000000|eff|-64.453125,515.625000,-886.230469,0.000000,108.764648,-32.226562
cobot_dynamixel_driver/joint_states|name|J1,J2,J3,J4,J5,J6|pos|-0.000025,0.261844,0.000013,-0.000025,0.000000,0.000021|vel|0.000000,-0.000000,0.000000,0.000000,0.000000,0.000000|eff|0.000000,580.078125,-870.117188,0.000000,108.764648,-32.226562
cobot_dynamixel_driver/joint_states|name|J1,J2,J3,J4,J5,J6|pos|-0.000025,0.261844,0.000013,-0.000025,0.000000,0.000021|vel|0.000000,-0.000000,0.000000,0.000000,0.000000,0.000000|eff|0.000000,499.511719,-837.890625,-32.226562,108.764648,0.000000
cobot_dynamixel_driver/joint_states|name|J1,J2,J3,J4,J5,J6|pos|-0.000025,0.261844,0.000013,-0.000025,0.000000,0.000021|vel|0.000000,-0.000000,0.000000,0.000000,0.000000,0.000000|eff|-48.339844,515.625000,-918.457031,-48.339844,108.764648,0.000000
cobot_dynamixel_driver/joint_states|name|J1,J2,J3,J4,J5,J6|pos|-0.000025,0.261844,0.000013,-0.000025,0.000000,0.000021|vel|0.000000,-0.000000,0.000000,0.000000,0.000000,0.000000|eff|0.000000,515.625000,-918.457031,0.000000,108.764648,-8.056641
cobot_dynamixel_driver/joint_states|name|J1,J2,J3,J4,J5,J6|pos|-0.000025,0.261844,0.000013,-0.000025,0.000000,0.000021|vel|0.000000,-0.000000,0.000000,0.000000,0.000000,0.000000|eff|0.000000,515.625000,-837.890625,-48.339844,108.764648,0.000000
cobot_dynamixel_driver/joint_states|name|J1,J2,J3,J4,J5,J6|pos|-0.000025,0.261844,0.000013,-0.000025,0.000000,0.000021|vel|0.000000,-0.000000,0.000000,0.000000,0.000000,0.000000|eff|0.000000,515.625000,-870.117188,0.000000,108.764648,-24.169922
cobot_dynamixel_driver/joint_states|name|J1,J2,J3,J4,J5,J6|pos|-0.000025,0.261844,0.000013,-0.000025,0.000000,0.000021|vel|0.000000,-0.000000,0.000000,0.000000,0.000000,0.000000|eff|-96.679688,644.531250,-902.343750,0.000000,108.764648,-12.084961
cobot_dynamixel_driver/joint_states|name|J1,J2,J3,J4,J5,J6|pos|-0.000025,0.261844,0.000013,-0.000025,0.000000,0.000021|vel|0.000000,-0.000000,0.000000,0.000000,0.000000,0.000000|eff|0.000000,515.625000,-918.457031,0.000000,108.764648,-8.056641
cobot_dynamixel_driver/joint_states|name|J1,J2,J3,J4,J5,J6|pos|-0.000025,0.261844,0.000013,-0.000025,0.000000,0.000021|vel|0.000000,-0.000000,0.000000,0.000000,0.000000,0.000000|eff|0.000000,515.625000,-854.003906,0.000000,108.764648,-32.226562
cobot_dynamixel_driver/joint_states|name|J1,J2,J3,J4,J5,J6|pos|-0.000025,0.261844,0.000013,-0.000025,0.000000,0.000021|vel|0.000000,-0.000000,0.000000,0.000000,0.000000,0.000000|eff|0.000000,515.625000,-902.343750,0.000000,108.764648,-32.226562
cobot_dynamixel_driver/joint_states|name|J1,J2,J3,J4,J5,J6|pos|-0.000025,0.261844,0.000013,-0.000025,0.000000,0.000021|vel|0.000000,-0.000000,0.000000,0.000000,0.000000,0.000000|eff|0.000000,515.625000,-886.230469,-80.566406,108.764648,-16.113281
cobot_dynamixel_driver/joint_states|name|J1,J2,J3,J4,J5,J6|pos|-0.000025,0.261844,0.000013,-0.000025,0.000000,0.000021|vel|0.000000,-0.000000,0.000000,0.000000,0.000000,0.000000|eff|-64.453125,515.625000,-837.890625,-48.339844,108.764648,0.000000
cobot_dynamixel_driver/joint_states|name|J1,J2,J3,J4,J5,J6|pos|-0.000025,0.261844,0.000013,-0.000025,0.000000,0.000021|vel|0.000000,-0.000000,0.000000,0.000000,0.000000,0.000000|eff|0.000000,515.625000,-918.457031,-64.453125,108.764648,-32.226562
cobot_dynamixel_driver/joint_states|name|J1,J2,J3,J4,J5,J6|pos|-0.000025,0.261844,0.000013,-0.000025,0.000000,0.000021|vel|0.000000,-0.000000,0.000000,0.000000,0.000000,0.000000|eff|-96.679688,515.625000,-870.117188,-80.566406,108.764648,-32.226562
cobot_dynamixel_driver/joint_states|name|J1,J2,J3,J4,J5,J6|pos|-0.000025,0.261844,0.000013,-0.000025,0.000000,0.000021|vel|0.000000,-0.000000,0.000000,0.000000,0.000000,0.000000|eff|-96.679688,531.738281,-918.457031,-64.453125,108.764648,0.000000
cobot_dynamixel_driver/joint_states|name|J1,J2,J3,J4,J5,J6|pos|-0.000025,0.261844,0.000013,-0.000025,0.000000,0.000021|vel|0.000000,-0.000000,0.000000,0.000000,0.000000,0.000000|eff|0.000000,580.078125,-837.890625,0.000000,108.764648,-12.084961
cobot_dynamixel_driver/joint_states|name|J1,J2,J3,J4,J5,J6|pos|-0.000025,0.261844,0.000013,-0.000025,0.000000,0.000021|vel|0.000000,-0.000000,0.000000,0.000000,0.000000,0.000000|eff|0.000000,515.625000,-886.230469,0.000000,108.764648,-32.226562
cobot_dynamixel_driver/joint_states|name|J1,J2,J3,J4,J5,J6|pos|-0.000025,0.261844,0.000013,-0.000025,0.000000,0.000021|vel|0.000000,-0.000000,0.000000,0.000000,0.000000,0.000000|eff|0.000000,547.851562,-854.003906,-80.566406,108.764648,-16.113281
cobot_dynamixel_driver/joint_states|name|J1,J2,J3,J4,J5,J6|pos|-0.000025,0.261844,0.000013,-0.000025,0.000000,0.000021|vel|0.000000,-0.000000,0.000000,0.000000,0.000000,0.000000|eff|-64.453125,515.625000,-886.230469,0.000000,108.764648,-8.056641
cobot_dynamixel_driver/joint_states|name|J1,J2,J3,J4,J5,J6|pos|-0.000025,0.261844,0.000013,-0.000025,0.000000,0.000021|vel|0.000000,-0.000000,0.000000,0.000000,0.000000,0.000000|eff|0.000000,531.738281,-854.003906,0.000000,108.764648,-16.113281
cobot_dynamixel_driver/joint_states|name|J1,J2,J3,J4,J5,J6|pos|-0.000025,0.261844,0.000013,-0.000025,0.000000,0.000021|vel|0.000000,-0.000000,0.000000,0.000000,0.000000,0.000000|eff|-32.226562,644.531250,-886.230469,0.000000,108.764648,0.000000
cobot_dynamixel_driver/joint_states|name|J1,J2,J3,J4,J5,J6|pos|-0.000025,0.261844,0.000013,-0.000025,0.000000,0.000021|vel|0.000000,-0.000000,0.000000,0.000000,0.000000,0.000000|eff|0.000000,515.625000,-918.457031,0.000000,108.764648,-32.226562
