surachairobotic/cobot/cobot_dynamixel_driver/log/2018-12-18T06:00:35.833351_driver_log.txt
cobot_dynamixel_driver/joint_states|name|J1,J2,J3,J4,J5,J6|pos|1.054623,-1.266694,1.294497,-0.001715,-1.034724,-0.000083|vel|0.000000,-0.000000,0.000000,0.000000,0.000000,0.000000|eff|0.000000,0.000000,0.000000,0.000000,0.000000,0.000000
cobot_dynamixel_driver/joint_states|name|J1,J2,J3,J4,J5,J6|pos|1.054623,-1.266694,1.294497,-0.001715,-1.034724,-0.000083|vel|0.000000,-0.000000,0.000000,0.000000,0.000000,0.000000|eff|0.000000,0.000000,0.000000,0.000000,0.000000,0.000000
cobot_dynamixel_driver/joint_states|name|J1,J2,J3,J4,J5,J6|pos|1.054623,-1.266694,1.294497,-0.001715,-1.034724,-0.000083|vel|0.000000,-0.000000,0.000000,0.000000,0.000000,0.000000|eff|0.000000,0.000000,0.000000,0.000000,0.000000,0.000000
cobot_dynamixel_driver/joint_states|name|J1,J2,J3,J4,J5,J6|pos|1.054623,-1.266694,1.294497,-0.001715,-1.034724,-0.000083|vel|0.000000,-0.000000,0.000000,0.000000,0.000000,0.000000|eff|0.000000,0.000000,0.000000,0.000000,0.000000,0.000000
cobot_dynamixel_driver/joint_states|name|J1,J2,J3,J4,J5,J6|pos|1.054623,-1.266694,1.294497,-0.001715,-1.034724,-0.000083|vel|0.000000,-0.000000,0.000000,0.000000,0.000000,0.000000|eff|0.000000,0.000000,0.000000,0.000000,0.000000,0.000000
cobot_dynamixel_driver/joint_states|name|J1,J2,J3,J4,J5,J6|pos|1.054623,-1.266694,1.294497,-0.001715,-1.034724,-0.000083|vel|0.000000,-0.000000,0.000000,0.000000,0.000000,0.000000|eff|0.000000,0.000000,0.000000,0.000000,0.000000,0.000000
cobot_dynamixel_driver/joint_states|name|J1,J2,J3,J4,J5,J6|pos|1.054623,-1.266694,1.294497,-0.001715,-1.034724,-0.000083|vel|0.000000,-0.000000,0.000000,0.000000,0.000000,0.000000|eff|0.000000,0.000000,0.000000,0.000000,0.000000,0.000000
cobot_dynamixel_driver/joint_states|name|J1,J2,J3,J4,J5,J6|pos|1.054623,-1.266694,1.294497,-0.001715,-1.034724,-0.000083|vel|0.000000,-0.000000,0.000000,0.000000,0.000000,0.000000|eff|0.000000,0.000000,0.000000,0.000000,0.000000,0.000000
cobot_dynamixel_driver/joint_states|name|J1,J2,J3,J4,J5,J6|pos|1.054623,-1.266694,1.294497,-0.001715,-1.034724,-0.000083|vel|0.000000,-0.000000,0.000000,0.000000,0.000000,0.000000|eff|0.000000,0.000000,0.000000,0.000000,0.000000,0.000000
cobot_dynamixel_driver/joint_states|name|J1,J2,J3,J4,J5,J6|pos|1.054623,-1.266694,1.294497,-0.001715,-1.034724,-0.000083|vel|0.000000,-0.000000,0.000000,0.000000,0.000000,0.000000|eff|0.000000,0.000000,0.000000,0.000000,0.000000,0.000000
cobot_dynamixel_driver/joint_states|name|J1,J2,J3,J4,J5,J6|pos|1.054623,-1.266694,1.294497,-0.001715,-1.034724,-0.000083|vel|0.000000,-0.000000,0.000000,0.000000,0.000000,0.000000|eff|0.000000,0.000000,0.000000,0.000000,0.000000,0.000000
cobot_dynamixel_driver/joint_states|name|J1,J2,J3,J4,J5,J6|pos|1.054623,-1.266694,1.294497,-0.001715,-1.034724,-0.000083|vel|0.000000,-0.000000,0.000000,0.000000,0.000000,0.000000|eff|0.000000,0.000000,0.000000,0.000000,0.000000,0.000000
cobot_dynamixel_driver/goal|-:J1,J2,J3,J4,J5,J6:0.000000,0.000000,0.000000,0.000000,0.000000,0.000000:0.700000,0.700000,0.700000,0.700000,0.700000,0.700000:pos_vel_
cobot_dynamixel_driver/joint_states|name|J1,J2,J3,J4,J5,J6|pos|1.054623,-1.266694,1.296275,0.001014,-1.034724,-0.000083|vel|0.000000,-0.000000,0.000000,0.000000,0.000000,0.000000|eff|0.000000,0.000000,0.000000,0.000000,0.000000,0.000000
cobot_dynamixel_driver/joint_states|name|J1,J2,J3,J4,J5,J6|pos|1.045647,-1.258507,1.287900,0.000901,-1.020410,-0.000083|vel|-0.270197,0.235353,-0.244325,-0.002295,0.351249,0.000000|eff|-1643.554688,-2304.199219,-1562.988281,-96.679688,84.594727,0.000000
cobot_dynamixel_driver/joint_states|name|J1,J2,J3,J4,J5,J6|pos|1.006979,-1.220327,1.247829,0.000551,-0.980260,-0.000083|vel|-0.496788,0.462987,-0.533718,-0.003756,0.551519,0.000000|eff|-2304.199219,-1804.687500,-1401.855469,-145.019531,44.311523,0.000000
cobot_dynamixel_driver/joint_states|name|J1,J2,J3,J4,J5,J6|pos|0.954064,-1.165998,1.194414,0.000288,-0.926933,-0.000083|vel|-0.568562,0.593808,-0.594226,-0.003130,0.588058,0.000000|eff|-1337.402344,-1434.082031,-789.550781,-177.246094,44.311523,16.113281
cobot_dynamixel_driver/joint_states|name|J1,J2,J3,J4,J5,J6|pos|0.893388,-1.105447,1.133938,0.000200,-0.866676,-0.000083|vel|-0.669964,0.677267,-0.553540,-0.001461,0.728006,0.000000|eff|-934.570312,-2239.746094,-1272.949219,-161.132812,0.000000,16.113281
cobot_dynamixel_driver/joint_states|name|J1,J2,J3,J4,J5,J6|pos|0.828982,-1.040828,1.069895,0.000088,-0.803110,-0.000083|vel|-0.630322,0.688534,-0.659949,-0.001252,0.716975,0.000000|eff|-1885.253906,-3093.750000,-725.097656,-193.359375,44.311523,20.141602
cobot_dynamixel_driver/joint_states|name|J1,J2,J3,J4,J5,J6|pos|0.763136,-0.974919,1.004149,0.000063,-0.738406,-0.000083|vel|-0.700010,0.716284,-0.712111,-0.000209,0.695604,0.000000|eff|-2062.500000,-1933.593750,-515.625000,-145.019531,32.226562,20.141602
cobot_dynamixel_driver/joint_states|name|J1,J2,J3,J4,J5,J6|pos|0.696789,-0.907947,0.938041,0.000050,-0.671944,-0.000083|vel|-0.707312,0.728594,-0.685613,0.000000,0.580474,0.000000|eff|-2288.085938,-2771.484375,-1176.269531,-177.246094,52.368164,24.169922
cobot_dynamixel_driver/joint_states|name|J1,J2,J3,J4,J5,J6|pos|0.629517,-0.840574,0.870705,-0.000013,-0.605565,-0.000083|vel|-0.698966,0.661201,-0.714823,-0.000626,0.700430,0.000000|eff|-370.605469,-547.851562,-1208.496094,-209.472656,48.339844,24.169922
cobot_dynamixel_driver/joint_states|name|J1,J2,J3,J4,J5,J6|pos|0.561805,-0.773614,0.802656,-0.000025,-0.538213,-0.000021|vel|-0.669756,0.653481,-0.710233,-0.000626,0.811768,0.001723|eff|-1579.101562,-789.550781,-1482.421875,-112.792969,56.396484,32.226562
cobot_dynamixel_driver/joint_states|name|J1,J2,J3,J4,J5,J6|pos|0.493907,-0.705702,0.735095,-0.000025,-0.471420,-0.000021|vel|-0.661827,0.729011,-0.698966,0.000000,0.665270,0.000000|eff|-1482.421875,-145.019531,-789.550781,-128.906250,84.594727,24.169922
cobot_dynamixel_driver/joint_states|name|J1,J2,J3,J4,J5,J6|pos|0.425995,-0.637816,0.667234,-0.000025,-0.404606,-0.000021|vel|-0.667669,0.678310,-0.712111,0.000000,0.705945,0.000000|eff|-2997.070312,-1885.253906,-854.003906,-112.792969,48.339844,16.113281
cobot_dynamixel_driver/joint_states|name|J1,J2,J3,J4,J5,J6|pos|0.359098,-0.570093,0.600987,-0.000038,-0.338041,-0.000021|vel|-0.705852,0.699384,-0.688325,0.000000,0.683539,0.000000|eff|-1160.156250,-3206.542969,-886.230469,-161.132812,64.453125,8.056641
cobot_dynamixel_driver/joint_states|name|J1,J2,J3,J4,J5,J6|pos|0.291324,-0.502331,0.532801,-0.000038,-0.270399,-0.000021|vel|-0.692081,0.685196,-0.685822,0.000000,0.735589,0.000000|eff|-612.304688,-1144.042969,-708.984375,-112.792969,68.481445,28.198242
cobot_dynamixel_driver/joint_states|name|J1,J2,J3,J4,J5,J6|pos|0.223425,-0.435184,0.465240,-0.000038,-0.202924,-0.000021|vel|-0.664748,0.672885,-0.769906,0.000000,0.658721,0.000000|eff|0.000000,-547.851562,-1643.554688,-161.132812,16.113281,0.000000
cobot_dynamixel_driver/joint_states|name|J1,J2,J3,J4,J5,J6|pos|0.155664,-0.367172,0.396865,-0.000038,-0.136358,-0.000021|vel|-0.721709,0.668295,-0.695419,0.000000,0.710426,0.000000|eff|-1305.175781,-612.304688,-902.343750,-161.132812,44.311523,0.000000
cobot_dynamixel_driver/joint_states|name|J1,J2,J3,J4,J5,J6|pos|0.088404,-0.299211,0.328941,-0.000038,-0.073206,-0.000021|vel|-0.649726,0.689994,-0.592974,0.000000,0.543247,0.000000|eff|-435.058594,-1079.589844,-918.457031,-177.246094,-12.084961,0.000000
cobot_dynamixel_driver/joint_states|name|J1,J2,J3,J4,J5,J6|pos|0.043651,-0.231374,0.261431,-0.000038,-0.037647,-0.000021|vel|-0.321524,0.730263,-0.742573,0.000000,0.259904,0.000000|eff|-515.625000,-322.265625,-1611.328125,-112.792969,52.368164,0.000000
cobot_dynamixel_driver/joint_states|name|J1,J2,J3,J4,J5,J6|pos|0.021669,-0.163576,0.193507,-0.000038,-0.019403,-0.000021|vel|-0.157946,0.676850,-0.702513,0.000000,0.130986,0.000000|eff|-273.925781,451.171875,-1385.742188,-145.019531,72.509766,16.113281
cobot_dynamixel_driver/joint_states|name|J1,J2,J3,J4,J5,J6|pos|0.010816,-0.096578,0.125983,-0.000038,-0.009929,-0.000021|vel|-0.080538,0.645761,-0.691664,0.000000,0.079626,0.000000|eff|-225.585938,-1047.363281,-708.984375,-96.679688,60.424805,0.000000
cobot_dynamixel_driver/joint_states|name|J1,J2,J3,J4,J5,J6|pos|0.005433,-0.047419,0.065120,-0.000038,-0.005233,-0.000021|vel|-0.039643,0.362419,-0.464656,0.000000,0.044811,0.000000|eff|-225.585938,-821.777344,-531.738281,-112.792969,72.509766,0.000000
cobot_dynamixel_driver/joint_states|name|J1,J2,J3,J4,J5,J6|pos|0.002691,-0.023772,0.033261,-0.000038,-0.002772,-0.000021|vel|-0.018361,0.171299,-0.239944,0.000000,0.017924,0.000000|eff|-209.472656,241.699219,-1079.589844,-112.792969,108.764648,16.113281
cobot_dynamixel_driver/joint_states|name|J1,J2,J3,J4,J5,J6|pos|0.001364,-0.012205,0.017162,-0.000038,-0.001427,-0.000021|vel|-0.009389,0.086588,-0.118720,0.000000,0.009307,0.000000|eff|-96.679688,225.585938,-821.777344,-112.792969,96.679688,0.000000
cobot_dynamixel_driver/joint_states|name|J1,J2,J3,J4,J5,J6|pos|0.000651,-0.006359,0.008888,-0.000038,-0.000724,-0.000021|vel|-0.005216,0.046528,-0.052579,0.000000,0.008273,0.000000|eff|-161.132812,193.359375,-918.457031,-112.792969,84.594727,16.113281
cobot_dynamixel_driver/joint_states|name|J1,J2,J3,J4,J5,J6|pos|0.000376,-0.003317,0.004594,-0.000038,-0.000434,-0.000021|vel|-0.002086,0.023577,-0.031923,0.000000,0.002068,0.000000|eff|-161.132812,193.359375,-854.003906,-80.566406,84.594727,12.084961
cobot_dynamixel_driver/joint_states|name|J1,J2,J3,J4,J5,J6|pos|0.000200,-0.001665,0.002429,-0.000025,-0.000228,-0.000021|vel|-0.001878,0.013562,-0.018778,0.000000,0.005515,0.000000|eff|-145.019531,177.246094,-837.890625,-112.792969,56.396484,0.000000
cobot_dynamixel_driver/joint_states|name|J1,J2,J3,J4,J5,J6|pos|0.000050,-0.000876,0.001152,-0.000025,-0.000228,-0.000021|vel|-0.001252,0.005425,-0.017735,0.000000,0.000000,0.000000|eff|-273.925781,209.472656,-789.550781,-112.792969,36.254883,0.000000
cobot_dynamixel_driver/joint_states|name|J1,J2,J3,J4,J5,J6|pos|0.000025,-0.000451,0.000714,-0.000025,-0.000228,-0.000021|vel|-0.000209,0.004590,-0.005425,0.000000,0.000000,0.000000|eff|-32.226562,225.585938,-870.117188,-96.679688,48.339844,0.000000
cobot_dynamixel_driver/joint_states|name|J1,J2,J3,J4,J5,J6|pos|0.000013,-0.000063,0.000138,-0.000025,-0.000228,-0.000021|vel|-0.000209,0.004590,-0.001669,0.000000,0.000000,0.000000|eff|-161.132812,209.472656,-805.664062,-96.679688,60.424805,16.113281
cobot_dynamixel_driver/joint_states|name|J1,J2,J3,J4,J5,J6|pos|0.000000,-0.000000,0.000113,-0.000025,-0.000228,-0.000021|vel|0.000000,0.001878,-0.000209,0.000000,0.000000,0.000000|eff|-193.359375,241.699219,-789.550781,-96.679688,76.538086,16.113281
cobot_dynamixel_driver/joint_states|name|J1,J2,J3,J4,J5,J6|pos|0.000000,-0.000000,0.000088,-0.000025,-0.000083,-0.000021|vel|0.000000,0.000209,0.000000,0.000000,0.002413,0.000000|eff|-145.019531,241.699219,-773.437500,-96.679688,76.538086,24.169922
cobot_dynamixel_driver/joint_states|name|J1,J2,J3,J4,J5,J6|pos|-0.000013,-0.000000,0.000088,-0.000025,-0.000083,-0.000021|vel|0.000000,-0.000000,0.000000,0.000000,0.002413,0.000000|eff|-193.359375,241.699219,-837.890625,-96.679688,56.396484,0.000000
cobot_dynamixel_driver/joint_states|name|J1,J2,J3,J4,J5,J6|pos|-0.000025,-0.000000,0.000063,-0.000025,-0.000083,-0.000021|vel|0.000000,-0.000000,0.000000,0.000000,0.000000,0.000000|eff|-193.359375,386.718750,-773.437500,-80.566406,60.424805,28.198242
cobot_dynamixel_driver/joint_states|name|J1,J2,J3,J4,J5,J6|pos|-0.000025,-0.000000,0.000038,-0.000025,-0.000083,-0.000021|vel|0.000000,-0.000000,0.000000,0.000000,0.000000,0.000000|eff|-193.359375,370.605469,-789.550781,-96.679688,60.424805,0.000000
cobot_dynamixel_driver/joint_states|name|J1,J2,J3,J4,J5,J6|pos|-0.000038,-0.000000,0.000038,-0.000025,-0.000083,-0.000021|vel|0.000000,-0.000000,-0.000209,0.000000,0.000000,0.000000|eff|-112.792969,241.699219,-821.777344,-48.339844,68.481445,28.198242
cobot_dynamixel_driver/joint_states|name|J1,J2,J3,J4,J5,J6|pos|-0.000038,-0.000000,0.000025,-0.000025,-0.000083,-0.000021|vel|0.000000,-0.000000,0.000000,0.000000,0.000000,0.000000|eff|-96.679688,257.812500,-821.777344,-96.679688,68.481445,0.000000
cobot_dynamixel_driver/joint_states|name|J1,J2,J3,J4,J5,J6|pos|-0.000038,-0.000000,0.000025,-0.000025,-0.000083,-0.000021|vel|0.000000,-0.000000,0.000000,0.000000,0.000000,0.000000|eff|-193.359375,257.812500,-789.550781,-96.679688,72.509766,0.000000
cobot_dynamixel_driver/joint_states|name|J1,J2,J3,J4,J5,J6|pos|-0.000038,-0.000000,0.000025,-0.000025,-0.000083,-0.000021|vel|0.000000,-0.000000,0.000000,0.000000,0.000000,0.000000|eff|-112.792969,257.812500,-837.890625,-112.792969,76.538086,24.169922
cobot_dynamixel_driver/joint_states|name|J1,J2,J3,J4,J5,J6|pos|-0.000038,-0.000000,0.000025,-0.000025,-0.000041,-0.000021|vel|0.000000,-0.000000,0.000000,0.000000,0.000000,0.000000|eff|-193.359375,386.718750,-837.890625,-96.679688,80.566406,16.113281
cobot_dynamixel_driver/joint_states|name|J1,J2,J3,J4,J5,J6|pos|-0.000038,-0.000000,0.000025,-0.000025,-0.000041,-0.000021|vel|0.000000,-0.000000,0.000000,0.000000,0.000000,0.000000|eff|-177.246094,322.265625,-854.003906,-80.566406,80.566406,0.000000
cobot_dynamixel_driver/joint_states|name|J1,J2,J3,J4,J5,J6|pos|-0.000038,-0.000000,0.000025,-0.000025,-0.000041,-0.000021|vel|0.000000,-0.000000,0.000000,0.000000,0.000000,0.000000|eff|0.000000,273.925781,-854.003906,-96.679688,80.566406,0.000000
cobot_dynamixel_driver/joint_states|name|J1,J2,J3,J4,J5,J6|pos|-0.000025,-0.000000,0.000025,-0.000025,-0.000041,-0.000021|vel|0.000000,-0.000000,0.000000,0.000000,0.000000,0.000000|eff|-128.906250,338.378906,-837.890625,-96.679688,80.566406,0.000000
cobot_dynamixel_driver/joint_states|name|J1,J2,J3,J4,J5,J6|pos|-0.000025,-0.000000,0.000013,-0.000025,-0.000021,-0.000021|vel|0.000000,-0.000000,0.000000,0.000000,0.000000,0.000000|eff|-32.226562,257.812500,-805.664062,-96.679688,80.566406,0.000000
cobot_dynamixel_driver/joint_states|name|J1,J2,J3,J4,J5,J6|pos|-0.000025,-0.000000,0.000013,-0.000025,-0.000021,-0.000021|vel|0.000000,-0.000000,0.000000,0.000000,0.000000,0.000000|eff|-145.019531,257.812500,-837.890625,-112.792969,80.566406,0.000000
cobot_dynamixel_driver/joint_states|name|J1,J2,J3,J4,J5,J6|pos|-0.000025,-0.000000,0.000013,-0.000025,-0.000021,-0.000021|vel|0.000000,-0.000000,0.000000,0.000000,0.000000,0.000000|eff|-128.906250,273.925781,-821.777344,-96.679688,80.566406,0.000000
cobot_dynamixel_driver/joint_states|name|J1,J2,J3,J4,J5,J6|pos|-0.000025,-0.000000,0.000013,-0.000025,-0.000021,-0.000021|vel|0.000000,-0.000000,0.000000,0.000000,0.000000,0.000000|eff|-96.679688,322.265625,-854.003906,-96.679688,76.538086,0.000000
cobot_dynamixel_driver/joint_states|name|J1,J2,J3,J4,J5,J6|pos|-0.000025,-0.000000,0.000013,-0.000025,-0.000021,-0.000021|vel|0.000000,-0.000000,0.000000,0.000000,0.000000,0.000000|eff|-96.679688,241.699219,-821.777344,-64.453125,76.538086,0.000000
cobot_dynamixel_driver/joint_states|name|J1,J2,J3,J4,J5,J6|pos|-0.000025,-0.000000,0.000013,-0.000025,-0.000021,-0.000021|vel|0.000000,-0.000000,0.000000,0.000000,0.000000,0.000000|eff|-193.359375,322.265625,-805.664062,-80.566406,80.566406,0.000000
cobot_dynamixel_driver/joint_states|name|J1,J2,J3,J4,J5,J6|pos|-0.000025,-0.000000,0.000013,-0.000025,-0.000021,-0.000021|vel|0.000000,-0.000000,0.000000,0.000000,0.000000,0.000000|eff|-177.246094,257.812500,-821.777344,-96.679688,80.566406,0.000000
cobot_dynamixel_driver/joint_states|name|J1,J2,J3,J4,J5,J6|pos|-0.000025,-0.000000,0.000013,-0.000025,-0.000021,-0.000021|vel|0.000000,-0.000000,0.000000,0.000000,0.000000,0.000000|eff|-128.906250,241.699219,-821.777344,-48.339844,80.566406,16.113281
cobot_dynamixel_driver/joint_states|name|J1,J2,J3,J4,J5,J6|pos|-0.000025,-0.000000,0.000013,-0.000025,-0.000021,-0.000021|vel|0.000000,-0.000000,0.000000,0.000000,0.000000,0.000000|eff|0.000000,241.699219,-789.550781,-64.453125,84.594727,0.000000
cobot_dynamixel_driver/joint_states|name|J1,J2,J3,J4,J5,J6|pos|-0.000025,-0.000000,0.000013,-0.000025,-0.000021,-0.000021|vel|0.000000,-0.000000,0.000000,0.000000,0.000000,0.000000|eff|-112.792969,257.812500,-821.777344,-96.679688,80.566406,0.000000
cobot_dynamixel_driver/joint_states|name|J1,J2,J3,J4,J5,J6|pos|-0.000025,-0.000000,0.000013,-0.000025,-0.000021,-0.000021|vel|0.000000,-0.000000,0.000000,0.000000,0.000000,0.000000|eff|-145.019531,257.812500,-805.664062,0.000000,80.566406,12.084961
cobot_dynamixel_driver/joint_states|name|J1,J2,J3,J4,J5,J6|pos|-0.000025,-0.000000,0.000013,-0.000025,-0.000021,-0.000021|vel|0.000000,-0.000000,0.000000,0.000000,0.000000,0.000000|eff|-96.679688,241.699219,-854.003906,-80.566406,76.538086,0.000000
cobot_dynamixel_driver/joint_states|name|J1,J2,J3,J4,J5,J6|pos|-0.000025,-0.000000,0.000013,-0.000025,-0.000021,-0.000021|vel|0.000000,-0.000000,0.000000,0.000000,0.000000,0.000000|eff|-161.132812,370.605469,-805.664062,-96.679688,80.566406,0.000000
cobot_dynamixel_driver/joint_states|name|J1,J2,J3,J4,J5,J6|pos|-0.000025,-0.000000,0.000013,-0.000025,-0.000021,-0.000021|vel|0.000000,-0.000000,0.000000,0.000000,0.000000,0.000000|eff|-177.246094,241.699219,-789.550781,-112.792969,80.566406,0.000000
cobot_dynamixel_driver/joint_states|name|J1,J2,J3,J4,J5,J6|pos|-0.000025,-0.000000,0.000013,-0.000025,0.000000,-0.000021|vel|0.000000,-0.000000,0.000000,0.000000,0.000000,0.000000|eff|-145.019531,257.812500,-854.003906,-96.679688,80.566406,0.000000
cobot_dynamixel_driver/joint_states|name|J1,J2,J3,J4,J5,J6|pos|-0.000025,-0.000000,0.000013,-0.000025,0.000000,-0.000021|vel|0.000000,-0.000000,0.000000,0.000000,0.000000,0.000000|eff|-177.246094,241.699219,-821.777344,0.000000,80.566406,16.113281
cobot_dynamixel_driver/joint_states|name|J1,J2,J3,J4,J5,J6|pos|-0.000025,-0.000000,0.000013,-0.000025,0.000000,-0.000021|vel|0.000000,-0.000000,0.000000,0.000000,0.000000,0.000000|eff|-128.906250,354.492188,-854.003906,-64.453125,76.538086,16.113281
cobot_dynamixel_driver/joint_states|name|J1,J2,J3,J4,J5,J6|pos|-0.000025,-0.000000,0.000013,-0.000025,0.000000,-0.000021|vel|0.000000,-0.000000,0.000000,0.000000,0.000000,0.000000|eff|-177.246094,386.718750,-789.550781,-96.679688,80.566406,0.000000
cobot_dynamixel_driver/joint_states|name|J1,J2,J3,J4,J5,J6|pos|-0.000025,-0.000000,0.000013,-0.000025,0.000000,-0.000021|vel|0.000000,-0.000000,0.000000,0.000000,0.000000,0.000000|eff|-128.906250,322.265625,-821.777344,-96.679688,84.594727,0.000000
cobot_dynamixel_driver/joint_states|name|J1,J2,J3,J4,J5,J6|pos|-0.000025,-0.000000,0.000013,-0.000025,0.000000,-0.000021|vel|0.000000,-0.000000,0.000000,0.000000,0.000000,0.000000|eff|-161.132812,273.925781,-789.550781,-96.679688,84.594727,0.000000
cobot_dynamixel_driver/joint_states|name|J1,J2,J3,J4,J5,J6|pos|-0.000025,-0.000000,0.000013,-0.000025,0.000000,-0.000021|vel|0.000000,-0.000000,0.000000,0.000000,0.000000,0.000000|eff|-161.132812,306.152344,-837.890625,-80.566406,80.566406,0.000000
cobot_dynamixel_driver/joint_states|name|J1,J2,J3,J4,J5,J6|pos|-0.000025,-0.000000,0.000013,-0.000025,0.000000,-0.000021|vel|0.000000,-0.000000,0.000000,0.000000,0.000000,0.000000|eff|0.000000,418.945312,-854.003906,-96.679688,76.538086,0.000000
cobot_dynamixel_driver/joint_states|name|J1,J2,J3,J4,J5,J6|pos|-0.000025,-0.000000,0.000013,-0.000025,0.000000,-0.000021|vel|0.000000,-0.000000,0.000000,0.000000,0.000000,0.000000|eff|-161.132812,241.699219,-854.003906,-112.792969,84.594727,0.000000
cobot_dynamixel_driver/joint_states|name|J1,J2,J3,J4,J5,J6|pos|-0.000025,-0.000000,0.000013,-0.000025,0.000000,-0.000021|vel|0.000000,-0.000000,0.000000,0.000000,0.000000,0.000000|eff|0.000000,257.812500,-805.664062,-112.792969,80.566406,16.113281
cobot_dynamixel_driver/joint_states|name|J1,J2,J3,J4,J5,J6|pos|-0.000025,-0.000000,0.000013,-0.000025,0.000000,-0.000021|vel|0.000000,-0.000000,0.000000,0.000000,0.000000,0.000000|eff|-177.246094,306.152344,-773.437500,-64.453125,84.594727,0.000000
cobot_dynamixel_driver/joint_states|name|J1,J2,J3,J4,J5,J6|pos|-0.000025,-0.000000,0.000013,-0.000025,0.000000,-0.000021|vel|0.000000,-0.000000,0.000000,0.000000,0.000000,0.000000|eff|-177.246094,241.699219,-821.777344,-96.679688,80.566406,0.000000
cobot_dynamixel_driver/joint_states|name|J1,J2,J3,J4,J5,J6|pos|-0.000025,-0.000000,0.000013,-0.000025,0.000000,-0.000021|vel|0.000000,-0.000000,0.000000,0.000000,0.000000,0.000000|eff|0.000000,241.699219,-854.003906,0.000000,80.566406,0.000000
cobot_dynamixel_driver/joint_states|name|J1,J2,J3,J4,J5,J6|pos|-0.000025,-0.000000,0.000013,-0.000025,0.000000,-0.000021|vel|0.000000,-0.000000,0.000000,0.000000,0.000000,0.000000|eff|-161.132812,257.812500,-821.777344,-80.566406,80.566406,16.113281
cobot_dynamixel_driver/joint_states|name|J1,J2,J3,J4,J5,J6|pos|-0.000025,-0.000000,0.000013,-0.000025,0.000000,-0.000021|vel|0.000000,-0.000000,0.000000,0.000000,0.000000,0.000000|eff|-161.132812,354.492188,-789.550781,-48.339844,80.566406,0.000000
cobot_dynamixel_driver/joint_states|name|J1,J2,J3,J4,J5,J6|pos|-0.000025,-0.000000,0.000013,-0.000025,0.000000,-0.000021|vel|0.000000,-0.000000,0.000000,0.000000,0.000000,0.000000|eff|-177.246094,306.152344,-854.003906,-96.679688,80.566406,28.198242
cobot_dynamixel_driver/joint_states|name|J1,J2,J3,J4,J5,J6|pos|-0.000025,-0.000000,0.000013,-0.000025,0.000000,-0.000021|vel|0.000000,-0.000000,0.000000,0.000000,0.000000,0.000000|eff|-177.246094,241.699219,-789.550781,-32.226562,80.566406,0.000000
cobot_dynamixel_driver/joint_states|name|J1,J2,J3,J4,J5,J6|pos|-0.000025,-0.000000,0.000013,-0.000025,0.000000,-0.000021|vel|0.000000,-0.000000,0.000000,0.000000,0.000000,0.000000|eff|-145.019531,241.699219,-773.437500,-96.679688,80.566406,0.000000
cobot_dynamixel_driver/joint_states|name|J1,J2,J3,J4,J5,J6|pos|-0.000025,-0.000000,0.000013,-0.000025,0.000000,-0.000021|vel|0.000000,-0.000000,0.000000,0.000000,0.000000,0.000000|eff|-145.019531,241.699219,-789.550781,-96.679688,80.566406,0.000000
cobot_dynamixel_driver/joint_states|name|J1,J2,J3,J4,J5,J6|pos|-0.000025,-0.000000,0.000013,-0.000025,0.000000,-0.000021|vel|0.000000,-0.000000,0.000000,0.000000,0.000000,0.000000|eff|0.000000,290.039062,-773.437500,-96.679688,80.566406,0.000000
cobot_dynamixel_driver/joint_states|name|J1,J2,J3,J4,J5,J6|pos|-0.000025,-0.000000,0.000013,-0.000025,0.000000,-0.000021|vel|0.000000,-0.000000,0.000000,0.000000,0.000000,0.000000|eff|0.000000,273.925781,-821.777344,-96.679688,80.566406,16.113281
cobot_dynamixel_driver/joint_states|name|J1,J2,J3,J4,J5,J6|pos|-0.000025,-0.000000,0.000013,-0.000025,0.000000,-0.000021|vel|0.000000,-0.000000,0.000000,0.000000,0.000000,0.000000|eff|-128.906250,322.265625,-789.550781,-64.453125,80.566406,0.000000
cobot_dynamixel_driver/joint_states|name|J1,J2,J3,J4,J5,J6|pos|-0.000025,-0.000000,0.000013,-0.000025,0.000000,-0.000021|vel|0.000000,-0.000000,0.000000,0.000000,0.000000,0.000000|eff|-128.906250,257.812500,-837.890625,-96.679688,80.566406,0.000000
cobot_dynamixel_driver/joint_states|name|J1,J2,J3,J4,J5,J6|pos|-0.000025,-0.000000,0.000013,-0.000025,0.000000,-0.000021|vel|0.000000,-0.000000,0.000000,0.000000,0.000000,0.000000|eff|0.000000,273.925781,-854.003906,-112.792969,80.566406,0.000000
cobot_dynamixel_driver/joint_states|name|J1,J2,J3,J4,J5,J6|pos|-0.000025,-0.000000,0.000013,-0.000025,0.000000,-0.000021|vel|0.000000,-0.000000,0.000000,0.000000,0.000000,0.000000|eff|-112.792969,290.039062,-837.890625,-96.679688,80.566406,28.198242
cobot_dynamixel_driver/joint_states|name|J1,J2,J3,J4,J5,J6|pos|-0.000025,-0.000000,0.000013,-0.000025,0.000000,-0.000021|vel|0.000000,-0.000000,0.000000,0.000000,0.000000,0.000000|eff|-128.906250,322.265625,-854.003906,-96.679688,80.566406,0.000000
cobot_dynamixel_driver/goal|-:J1,J2,J3,J4,J5,J6:1.047198,0.000000,0.000000,0.000000,0.000000,0.000000:0.500000,0.500000,0.500000,0.500000,0.500000,0.500000:pos_vel_
cobot_dynamixel_driver/goal|-:J1,J2,J3,J4,J5,J6:1.047198,0.000000,0.000000,0.000000,0.000000,0.000000:0.500000,0.500000,0.500000,0.500000,0.500000,0.500000:pos_vel_
cobot_dynamixel_driver/joint_states|name|J1,J2,J3,J4,J5,J6|pos|0.004632,-0.000000,0.000013,-0.000025,0.000000,-0.000021|vel|0.154607,-0.000000,0.000000,0.000000,0.000000,0.000000|eff|854.003906,322.265625,-821.777344,-96.679688,76.538086,0.000000
cobot_dynamixel_driver/goal|-:J1,J2,J3,J4,J5,J6:1.047198,0.000000,0.000000,0.000000,0.000000,0.000000:0.500000,0.500000,0.500000,0.500000,0.500000,0.500000:pos_vel_
cobot_dynamixel_driver/joint_states|name|J1,J2,J3,J4,J5,J6|pos|0.030457,-0.000000,0.000013,-0.000025,0.000041,-0.000021|vel|0.343850,-0.000000,0.000000,0.000000,0.000345,0.000000|eff|1015.136719,241.699219,-805.664062,-96.679688,80.566406,0.000000
cobot_dynamixel_driver/joint_states|name|J1,J2,J3,J4,J5,J6|pos|0.068174,-0.000000,0.000013,-0.000025,0.000041,-0.000021|vel|0.458605,-0.000000,0.000000,0.000000,0.000345,0.000000|eff|322.265625,257.812500,-854.003906,-112.792969,76.538086,0.000000
cobot_dynamixel_driver/joint_states|name|J1,J2,J3,J4,J5,J6|pos|0.111224,-0.000000,0.000013,-0.000025,0.000083,-0.000021|vel|0.486564,-0.000000,0.000000,0.000000,0.000000,0.000000|eff|273.925781,241.699219,-821.777344,-64.453125,68.481445,28.198242
cobot_dynamixel_driver/joint_states|name|J1,J2,J3,J4,J5,J6|pos|0.156590,0.000013,0.000000,-0.000025,0.000083,-0.000021|vel|0.492197,-0.000000,0.000000,0.000000,0.000000,0.000000|eff|354.492188,402.832031,-837.890625,0.000000,64.453125,16.113281
cobot_dynamixel_driver/joint_states|name|J1,J2,J3,J4,J5,J6|pos|0.203759,0.000013,0.000000,-0.000025,0.000083,-0.000021|vel|0.475506,-0.000000,0.000000,0.000000,0.000000,0.000000|eff|257.812500,290.039062,-854.003906,-80.566406,64.453125,28.198242
cobot_dynamixel_driver/joint_states|name|J1,J2,J3,J4,J5,J6|pos|0.251554,0.000013,0.000000,-0.000025,0.000083,-0.000021|vel|0.484686,-0.000000,0.000000,0.000000,0.000000,0.000000|eff|1289.062500,241.699219,-789.550781,-112.792969,64.453125,0.000000
cobot_dynamixel_driver/joint_states|name|J1,J2,J3,J4,J5,J6|pos|0.299524,0.000013,0.000000,-0.000025,0.000083,-0.000021|vel|0.484895,-0.000000,0.000000,0.000000,0.000000,0.000000|eff|2384.765625,354.492188,-837.890625,-96.679688,60.424805,0.000000
cobot_dynamixel_driver/joint_states|name|J1,J2,J3,J4,J5,J6|pos|0.347856,0.000025,0.000000,-0.000025,0.000083,-0.000021|vel|0.518487,-0.000000,0.000000,0.000000,0.000000,0.000000|eff|241.699219,241.699219,-805.664062,-80.566406,56.396484,16.113281
cobot_dynamixel_driver/joint_states|name|J1,J2,J3,J4,J5,J6|pos|0.396289,0.000025,0.000000,-0.000025,0.000083,-0.000021|vel|0.485312,-0.000000,0.000000,0.000000,0.000000,0.000000|eff|1272.949219,257.812500,-837.890625,-96.679688,48.339844,16.113281
cobot_dynamixel_driver/joint_states|name|J1,J2,J3,J4,J5,J6|pos|0.444197,0.000025,0.000000,-0.000025,0.000083,-0.000021|vel|0.488650,-0.000000,0.000000,0.000000,0.000000,0.000000|eff|1869.140625,322.265625,-789.550781,-96.679688,48.339844,0.000000
cobot_dynamixel_driver/joint_states|name|J1,J2,J3,J4,J5,J6|pos|0.492742,0.000038,-0.000013,-0.000025,0.000083,-0.000021|vel|0.489276,-0.000000,0.000000,0.000000,0.000000,0.000000|eff|209.472656,322.265625,-837.890625,-80.566406,40.283203,28.198242
cobot_dynamixel_driver/joint_states|name|J1,J2,J3,J4,J5,J6|pos|0.541163,0.000038,-0.000013,-0.000025,0.000083,-0.000021|vel|0.496996,-0.000000,0.000000,0.000000,0.000000,0.000000|eff|1272.949219,241.699219,-821.777344,-80.566406,48.339844,16.113281
cobot_dynamixel_driver/joint_states|name|J1,J2,J3,J4,J5,J6|pos|0.589596,0.000038,-0.000013,-0.000025,0.000083,-0.000021|vel|0.518070,-0.000000,0.000000,0.000000,0.000000,0.000000|eff|1579.101562,290.039062,-837.890625,-80.566406,40.283203,0.000000
cobot_dynamixel_driver/joint_states|name|J1,J2,J3,J4,J5,J6|pos|0.637966,0.000050,-0.000013,-0.000025,0.000083,-0.000021|vel|0.510558,-0.000000,0.000000,0.000000,0.000000,0.000000|eff|306.152344,241.699219,-805.664062,-96.679688,40.283203,0.000000
cobot_dynamixel_driver/joint_states|name|J1,J2,J3,J4,J5,J6|pos|0.686374,0.000050,-0.000013,-0.000025,0.000083,-0.000021|vel|0.488859,-0.000000,0.000000,0.000000,0.000000,0.000000|eff|1144.042969,257.812500,-821.777344,-96.679688,20.141602,16.113281
cobot_dynamixel_driver/joint_states|name|J1,J2,J3,J4,J5,J6|pos|0.734407,0.000050,-0.000013,-0.000025,0.000083,-0.000021|vel|0.490111,-0.000000,0.000000,0.000000,0.000000,0.000000|eff|1063.476562,257.812500,-821.777344,-32.226562,40.283203,24.169922
cobot_dynamixel_driver/joint_states|name|J1,J2,J3,J4,J5,J6|pos|0.782902,0.000050,-0.000013,-0.000025,0.000083,-0.000021|vel|0.504716,-0.000000,0.000000,0.000000,0.000000,0.000000|eff|660.644531,257.812500,-805.664062,0.000000,32.226562,0.000000
cobot_dynamixel_driver/joint_states|name|J1,J2,J3,J4,J5,J6|pos|0.831398,0.000050,-0.000013,-0.000025,0.000083,-0.000021|vel|0.476340,-0.000000,0.000000,0.000000,0.000000,0.000000|eff|2110.839844,290.039062,-854.003906,-96.679688,28.198242,0.000000
cobot_dynamixel_driver/joint_states|name|J1,J2,J3,J4,J5,J6|pos|0.879856,0.000050,-0.000013,-0.000025,0.000083,-0.000021|vel|0.499291,-0.000000,0.000000,0.000000,0.000000,0.000000|eff|306.152344,386.718750,-805.664062,-96.679688,20.141602,0.000000
cobot_dynamixel_driver/joint_states|name|J1,J2,J3,J4,J5,J6|pos|0.928176,0.000050,-0.000013,-0.000025,0.000083,-0.000021|vel|0.484060,-0.000000,0.000000,0.000000,0.000000,0.000000|eff|692.871094,338.378906,-854.003906,-96.679688,16.113281,0.000000
cobot_dynamixel_driver/joint_states|name|J1,J2,J3,J4,J5,J6|pos|0.976659,0.000050,-0.000025,-0.000025,0.000083,-0.000021|vel|0.504716,-0.000000,0.000000,0.000000,0.000000,0.000000|eff|1691.894531,338.378906,-837.890625,-112.792969,8.056641,24.169922
cobot_dynamixel_driver/joint_states|name|J1,J2,J3,J4,J5,J6|pos|1.012549,0.000050,-0.000025,-0.000025,0.000083,-0.000021|vel|0.251837,-0.000000,0.000000,0.000000,0.000000,0.000000|eff|354.492188,290.039062,-854.003906,-96.679688,8.056641,24.169922
cobot_dynamixel_driver/joint_states|name|J1,J2,J3,J4,J5,J6|pos|1.029987,0.000050,-0.000025,-0.000025,0.000083,-0.000021|vel|0.123727,-0.000000,0.000000,0.000000,0.000000,0.000000|eff|177.246094,338.378906,-789.550781,-96.679688,8.056641,0.000000
cobot_dynamixel_driver/joint_states|name|J1,J2,J3,J4,J5,J6|pos|1.038600,0.000050,-0.000025,-0.000025,0.000083,-0.000021|vel|0.060508,-0.000000,0.000000,0.000000,0.000000,0.000000|eff|225.585938,273.925781,-805.664062,-32.226562,0.000000,0.000000
cobot_dynamixel_driver/joint_states|name|J1,J2,J3,J4,J5,J6|pos|1.042893,0.000050,-0.000025,-0.000025,0.000083,-0.000021|vel|0.029628,-0.000000,0.000000,0.000000,0.000000,0.000000|eff|209.472656,435.058594,-854.003906,-96.679688,0.000000,0.000000
cobot_dynamixel_driver/goal|-:J1,J2,J3,J4,J5,J6:1.047198,0.000000,0.000000,0.000000,0.000000,0.000000:0.500000,0.500000,0.500000,0.500000,0.500000,0.500000:pos_vel_
cobot_dynamixel_driver/joint_states|name|J1,J2,J3,J4,J5,J6|pos|1.045034,0.000050,-0.000025,-0.000025,0.000083,-0.000021|vel|0.016066,-0.000000,0.000000,0.000000,0.000000,0.000000|eff|145.019531,322.265625,-821.777344,-96.679688,0.000000,12.084961
cobot_dynamixel_driver/joint_states|name|J1,J2,J3,J4,J5,J6|pos|1.046148,0.000038,-0.000025,-0.000025,0.000041,-0.000021|vel|0.006677,-0.000000,0.000000,0.000000,0.000000,0.000000|eff|145.019531,451.171875,-805.664062,-32.226562,0.000000,0.000000
cobot_dynamixel_driver/joint_states|name|J1,J2,J3,J4,J5,J6|pos|1.046599,0.000038,-0.000025,-0.000025,0.000041,-0.000021|vel|0.001669,-0.000000,0.000000,0.000000,0.000000,0.000000|eff|161.132812,451.171875,-854.003906,-80.566406,-8.056641,0.000000
cobot_dynamixel_driver/joint_states|name|J1,J2,J3,J4,J5,J6|pos|1.046849,0.000038,-0.000025,-0.000025,0.000041,-0.000021|vel|0.002712,-0.000000,0.000000,0.000000,0.000000,0.000000|eff|257.812500,418.945312,-837.890625,-96.679688,0.000000,24.169922
cobot_dynamixel_driver/joint_states|name|J1,J2,J3,J4,J5,J6|pos|1.047049,0.000038,-0.000025,-0.000025,0.000041,-0.000021|vel|0.001461,-0.000000,0.000000,0.000000,0.000000,0.000000|eff|161.132812,273.925781,-821.777344,-96.679688,-8.056641,0.000000
cobot_dynamixel_driver/joint_states|name|J1,J2,J3,J4,J5,J6|pos|1.047150,0.000038,-0.000025,-0.000025,0.000041,-0.000021|vel|0.000835,-0.000000,0.000000,0.000000,0.000000,0.000000|eff|128.906250,290.039062,-789.550781,-96.679688,0.000000,0.000000
cobot_dynamixel_driver/joint_states|name|J1,J2,J3,J4,J5,J6|pos|1.047150,0.000038,-0.000025,-0.000025,0.000041,-0.000021|vel|0.000000,-0.000000,0.000000,0.000000,0.000000,0.000000|eff|209.472656,402.832031,-837.890625,-96.679688,-8.056641,24.169922
cobot_dynamixel_driver/joint_states|name|J1,J2,J3,J4,J5,J6|pos|1.047162,0.000038,-0.000025,-0.000025,0.000041,-0.000021|vel|0.000000,-0.000000,0.000000,0.000000,0.000000,0.000000|eff|225.585938,273.925781,-805.664062,-96.679688,-8.056641,0.000000
cobot_dynamixel_driver/joint_states|name|J1,J2,J3,J4,J5,J6|pos|1.047162,0.000038,-0.000025,-0.000025,0.000041,-0.000021|vel|0.000000,-0.000000,0.000000,0.000000,0.000000,0.000000|eff|128.906250,483.398438,-854.003906,-80.566406,0.000000,0.000000
cobot_dynamixel_driver/joint_states|name|J1,J2,J3,J4,J5,J6|pos|1.047162,0.000038,-0.000025,-0.000025,0.000041,-0.000021|vel|0.000000,-0.000000,0.000000,0.000000,0.000000,0.000000|eff|96.679688,322.265625,-821.777344,-80.566406,-8.056641,0.000000
cobot_dynamixel_driver/joint_states|name|J1,J2,J3,J4,J5,J6|pos|1.047162,0.000038,-0.000025,-0.000025,0.000041,-0.000021|vel|0.000000,-0.000000,0.000000,0.000000,0.000000,0.000000|eff|177.246094,290.039062,-805.664062,-64.453125,0.000000,12.084961
cobot_dynamixel_driver/joint_states|name|J1,J2,J3,J4,J5,J6|pos|1.047162,0.000038,-0.000025,-0.000025,0.000041,-0.000021|vel|0.000000,-0.000000,0.000000,0.000000,0.000000,0.000000|eff|96.679688,322.265625,-821.777344,-80.566406,0.000000,12.084961
cobot_dynamixel_driver/joint_states|name|J1,J2,J3,J4,J5,J6|pos|1.047162,0.000038,-0.000025,-0.000025,0.000041,-0.000021|vel|0.000000,-0.000000,0.000000,0.000000,0.000000,0.000000|eff|177.246094,402.832031,-805.664062,-96.679688,0.000000,24.169922
cobot_dynamixel_driver/joint_states|name|J1,J2,J3,J4,J5,J6|pos|1.047162,0.000038,-0.000025,-0.000025,0.000041,-0.000021|vel|0.000000,-0.000000,0.000000,0.000000,0.000000,0.000000|eff|193.359375,418.945312,-805.664062,-96.679688,0.000000,0.000000
cobot_dynamixel_driver/joint_states|name|J1,J2,J3,J4,J5,J6|pos|1.047162,0.000038,-0.000025,-0.000025,0.000041,-0.000021|vel|0.000000,-0.000000,0.000000,0.000000,0.000000,0.000000|eff|0.000000,306.152344,-837.890625,-96.679688,-8.056641,0.000000
cobot_dynamixel_driver/joint_states|name|J1,J2,J3,J4,J5,J6|pos|1.047162,0.000025,-0.000025,-0.000025,0.000041,-0.000021|vel|0.000000,-0.000000,0.000000,0.000000,0.000000,0.000000|eff|0.000000,483.398438,-773.437500,-80.566406,0.000000,0.000000
cobot_dynamixel_driver/joint_states|name|J1,J2,J3,J4,J5,J6|pos|1.047162,0.000025,-0.000025,-0.000025,0.000041,-0.000021|vel|0.000000,-0.000000,0.000000,0.000000,0.000000,0.000000|eff|161.132812,370.605469,-837.890625,-96.679688,0.000000,0.000000
cobot_dynamixel_driver/joint_states|name|J1,J2,J3,J4,J5,J6|pos|1.047175,0.000025,-0.000025,-0.000025,0.000041,-0.000021|vel|0.000000,-0.000000,0.000000,0.000000,0.000000,0.000000|eff|48.339844,467.285156,-821.777344,-64.453125,0.000000,0.000000
cobot_dynamixel_driver/joint_states|name|J1,J2,J3,J4,J5,J6|pos|1.047175,0.000025,-0.000025,-0.000025,0.000041,-0.000021|vel|0.000000,-0.000000,0.000000,0.000000,0.000000,0.000000|eff|209.472656,418.945312,-789.550781,-96.679688,0.000000,0.000000
cobot_dynamixel_driver/joint_states|name|J1,J2,J3,J4,J5,J6|pos|1.047175,0.000025,-0.000025,-0.000025,0.000041,-0.000021|vel|0.000000,-0.000000,0.000000,0.000000,0.000000,0.000000|eff|225.585938,467.285156,-821.777344,-112.792969,0.000000,0.000000
cobot_dynamixel_driver/joint_states|name|J1,J2,J3,J4,J5,J6|pos|1.047175,0.000025,-0.000025,-0.000025,0.000041,-0.000021|vel|0.000000,-0.000000,0.000000,0.000000,0.000000,0.000000|eff|209.472656,451.171875,-837.890625,-32.226562,0.000000,0.000000
cobot_dynamixel_driver/joint_states|name|J1,J2,J3,J4,J5,J6|pos|1.047175,0.000025,-0.000025,-0.000025,0.000041,-0.000021|vel|0.000000,-0.000000,0.000000,0.000000,0.000000,0.000000|eff|48.339844,499.511719,-854.003906,0.000000,0.000000,28.198242
cobot_dynamixel_driver/joint_states|name|J1,J2,J3,J4,J5,J6|pos|1.047175,0.000025,-0.000025,-0.000025,0.000041,-0.000021|vel|0.000000,-0.000000,0.000000,0.000000,0.000000,0.000000|eff|145.019531,354.492188,-805.664062,-96.679688,0.000000,0.000000
cobot_dynamixel_driver/joint_states|name|J1,J2,J3,J4,J5,J6|pos|1.047175,0.000025,-0.000025,-0.000025,0.000041,-0.000021|vel|0.000000,-0.000000,0.000000,0.000000,0.000000,0.000000|eff|96.679688,306.152344,-854.003906,-96.679688,-8.056641,16.113281
cobot_dynamixel_driver/joint_states|name|J1,J2,J3,J4,J5,J6|pos|1.047175,0.000025,-0.000025,-0.000025,0.000041,-0.000021|vel|0.000000,-0.000000,0.000000,0.000000,0.000000,0.000000|eff|128.906250,435.058594,-854.003906,-96.679688,0.000000,0.000000
cobot_dynamixel_driver/goal|-:J1,J2,J3,J4,J5,J6:1.047198,0.000000,0.000000,0.000000,0.000000,0.000000:0.500000,0.500000,0.500000,0.500000,0.500000,0.500000:pos_vel_
cobot_dynamixel_driver/joint_states|name|J1,J2,J3,J4,J5,J6|pos|1.047175,0.000025,-0.000025,-0.000025,0.000041,-0.000021|vel|0.000000,-0.000000,0.000000,0.000000,0.000000,0.000000|eff|145.019531,418.945312,-773.437500,0.000000,-8.056641,0.000000
cobot_dynamixel_driver/joint_states|name|J1,J2,J3,J4,J5,J6|pos|1.047175,0.000025,-0.000025,-0.000025,0.000041,-0.000021|vel|0.000000,-0.000000,0.000000,0.000000,0.000000,0.000000|eff|161.132812,354.492188,-805.664062,-112.792969,-12.084961,24.169922
cobot_dynamixel_driver/joint_states|name|J1,J2,J3,J4,J5,J6|pos|1.047175,0.000025,-0.000025,-0.000025,0.000041,-0.000021|vel|0.000000,-0.000000,0.000000,0.000000,0.000000,0.000000|eff|0.000000,467.285156,-789.550781,-96.679688,-8.056641,16.113281
cobot_dynamixel_driver/joint_states|name|J1,J2,J3,J4,J5,J6|pos|1.047175,0.000025,-0.000025,-0.000025,0.000041,-0.000021|vel|0.000000,-0.000000,0.000000,0.000000,0.000000,0.000000|eff|209.472656,499.511719,-805.664062,-112.792969,0.000000,24.169922
cobot_dynamixel_driver/joint_states|name|J1,J2,J3,J4,J5,J6|pos|1.047175,0.000025,-0.000025,-0.000025,0.000041,-0.000021|vel|0.000000,-0.000000,0.000000,0.000000,0.000000,0.000000|eff|209.472656,354.492188,-821.777344,0.000000,-12.084961,12.084961
cobot_dynamixel_driver/joint_states|name|J1,J2,J3,J4,J5,J6|pos|1.047175,0.000025,-0.000025,-0.000025,0.000041,-0.000021|vel|0.000000,-0.000000,0.000000,0.000000,0.000000,0.000000|eff|128.906250,402.832031,-854.003906,-64.453125,0.000000,0.000000
cobot_dynamixel_driver/joint_states|name|J1,J2,J3,J4,J5,J6|pos|1.047175,0.000025,-0.000025,-0.000025,0.000041,-0.000021|vel|0.000000,-0.000000,0.000000,0.000000,0.000000,0.000000|eff|209.472656,370.605469,-854.003906,-48.339844,0.000000,0.000000
cobot_dynamixel_driver/joint_states|name|J1,J2,J3,J4,J5,J6|pos|1.047175,0.000025,-0.000025,-0.000025,0.000041,-0.000021|vel|0.000000,-0.000000,0.000000,0.000000,0.000000,0.000000|eff|209.472656,499.511719,-805.664062,-48.339844,0.000000,0.000000
cobot_dynamixel_driver/joint_states|name|J1,J2,J3,J4,J5,J6|pos|1.047175,0.000025,-0.000025,-0.000025,0.000041,-0.000021|vel|0.000000,-0.000000,0.000000,0.000000,0.000000,0.000000|eff|0.000000,418.945312,-854.003906,-112.792969,0.000000,16.113281
cobot_dynamixel_driver/joint_states|name|J1,J2,J3,J4,J5,J6|pos|1.047175,0.000025,-0.000025,-0.000025,0.000041,-0.000021|vel|0.000000,-0.000000,0.000000,0.000000,0.000000,0.000000|eff|96.679688,499.511719,-821.777344,-96.679688,0.000000,0.000000
cobot_dynamixel_driver/joint_states|name|J1,J2,J3,J4,J5,J6|pos|1.047175,0.000025,-0.000025,-0.000025,0.000041,-0.000021|vel|0.000000,-0.000000,0.000000,0.000000,0.000000,0.000000|eff|209.472656,499.511719,-789.550781,-96.679688,0.000000,0.000000
cobot_dynamixel_driver/joint_states|name|J1,J2,J3,J4,J5,J6|pos|1.047175,0.000025,-0.000025,-0.000025,0.000041,-0.000021|vel|0.000000,-0.000000,0.000000,0.000000,0.000000,0.000000|eff|209.472656,467.285156,-854.003906,-96.679688,-12.084961,0.000000
cobot_dynamixel_driver/joint_states|name|J1,J2,J3,J4,J5,J6|pos|1.047175,0.000025,-0.000025,-0.000025,0.000041,-0.000021|vel|0.000000,-0.000000,0.000000,0.000000,0.000000,0.000000|eff|48.339844,499.511719,-805.664062,-112.792969,0.000000,24.169922
cobot_dynamixel_driver/joint_states|name|J1,J2,J3,J4,J5,J6|pos|1.047175,0.000025,-0.000025,-0.000025,0.000041,-0.000021|vel|0.000000,-0.000000,0.000000,0.000000,0.000000,0.000000|eff|209.472656,370.605469,-837.890625,-96.679688,1019.165039,0.000000
cobot_dynamixel_driver/joint_states|name|J1,J2,J3,J4,J5,J6|pos|1.047175,0.000025,-0.000025,-0.000025,0.000041,-0.000021|vel|0.000000,-0.000000,0.000000,0.000000,0.000000,0.000000|eff|145.019531,322.265625,-821.777344,-80.566406,-12.084961,0.000000
cobot_dynamixel_driver/joint_states|name|J1,J2,J3,J4,J5,J6|pos|1.047175,0.000025,-0.000025,-0.000025,0.000041,-0.000021|vel|0.000000,-0.000000,0.000000,0.000000,0.000000,0.000000|eff|128.906250,499.511719,-821.777344,-64.453125,-8.056641,0.000000
cobot_dynamixel_driver/joint_states|name|J1,J2,J3,J4,J5,J6|pos|1.047175,0.000025,-0.000025,-0.000025,0.000041,-0.000021|vel|0.000000,-0.000000,0.000000,0.000000,0.000000,0.000000|eff|209.472656,483.398438,-805.664062,-112.792969,0.000000,0.000000
cobot_dynamixel_driver/joint_states|name|J1,J2,J3,J4,J5,J6|pos|1.047175,0.000025,-0.000025,-0.000025,0.000041,-0.000021|vel|0.000000,-0.000000,0.000000,0.000000,0.000000,0.000000|eff|193.359375,370.605469,-773.437500,-48.339844,0.000000,12.084961
cobot_dynamixel_driver/joint_states|name|J1,J2,J3,J4,J5,J6|pos|1.047175,0.000025,-0.000025,-0.000025,0.000041,-0.000021|vel|0.000000,-0.000000,0.000000,0.000000,0.000000,0.000000|eff|225.585938,418.945312,-773.437500,0.000000,-8.056641,0.000000
cobot_dynamixel_driver/joint_states|name|J1,J2,J3,J4,J5,J6|pos|1.047175,0.000025,-0.000025,-0.000025,0.000041,-0.000021|vel|0.000000,-0.000000,0.000000,0.000000,0.000000,0.000000|eff|177.246094,370.605469,-854.003906,-48.339844,0.000000,0.000000
cobot_dynamixel_driver/joint_states|name|J1,J2,J3,J4,J5,J6|pos|1.047175,0.000025,-0.000025,-0.000025,0.000041,-0.000021|vel|0.000000,-0.000000,0.000000,0.000000,0.000000,0.000000|eff|209.472656,306.152344,-789.550781,-80.566406,-8.056641,0.000000
cobot_dynamixel_driver/joint_states|name|J1,J2,J3,J4,J5,J6|pos|1.047175,0.000025,-0.000025,-0.000025,0.000041,-0.000021|vel|0.000000,-0.000000,0.000000,0.000000,0.000000,0.000000|eff|128.906250,338.378906,-854.003906,0.000000,0.000000,0.000000
cobot_dynamixel_driver/joint_states|name|J1,J2,J3,J4,J5,J6|pos|1.047175,0.000025,-0.000025,-0.000025,0.000041,-0.000021|vel|0.000000,-0.000000,0.000000,0.000000,0.000000,0.000000|eff|48.339844,499.511719,-805.664062,-96.679688,-8.056641,16.113281
cobot_dynamixel_driver/joint_states|name|J1,J2,J3,J4,J5,J6|pos|1.047175,0.000025,-0.000025,-0.000025,0.000041,-0.000021|vel|0.000000,-0.000000,0.000000,0.000000,0.000000,0.000000|eff|128.906250,499.511719,-854.003906,-64.453125,-12.084961,0.000000
cobot_dynamixel_driver/joint_states|name|J1,J2,J3,J4,J5,J6|pos|1.047175,0.000025,-0.000025,-0.000025,0.000041,-0.000021|vel|0.000000,-0.000000,0.000000,0.000000,0.000000,0.000000|eff|209.472656,370.605469,-805.664062,-96.679688,-12.084961,0.000000
cobot_dynamixel_driver/joint_states|name|J1,J2,J3,J4,J5,J6|pos|1.047187,0.000025,-0.000025,-0.000025,0.000041,-0.000021|vel|0.000000,-0.000000,0.000000,0.000000,0.000000,0.000000|eff|209.472656,402.832031,-805.664062,-96.679688,0.000000,0.000000
cobot_dynamixel_driver/joint_states|name|J1,J2,J3,J4,J5,J6|pos|1.047187,0.000025,-0.000025,-0.000025,0.000041,-0.000021|vel|0.000000,-0.000000,0.000000,0.000000,0.000000,0.000000|eff|0.000000,435.058594,-854.003906,-96.679688,0.000000,0.000000
cobot_dynamixel_driver/joint_states|name|J1,J2,J3,J4,J5,J6|pos|1.047187,0.000025,-0.000025,-0.000025,0.000041,-0.000021|vel|0.000000,-0.000000,0.000000,0.000000,0.000000,0.000000|eff|193.359375,467.285156,-854.003906,-96.679688,-12.084961,0.000000
cobot_dynamixel_driver/joint_states|name|J1,J2,J3,J4,J5,J6|pos|1.047187,0.000025,-0.000025,-0.000025,0.000041,-0.000021|vel|0.000000,-0.000000,0.000000,0.000000,0.000000,0.000000|eff|193.359375,499.511719,-837.890625,-96.679688,0.000000,0.000000
cobot_dynamixel_driver/joint_states|name|J1,J2,J3,J4,J5,J6|pos|1.047187,0.000025,-0.000025,-0.000025,0.000041,-0.000021|vel|0.000000,-0.000000,0.000000,0.000000,0.000000,0.000000|eff|64.453125,322.265625,-854.003906,-96.679688,0.000000,0.000000
cobot_dynamixel_driver/joint_states|name|J1,J2,J3,J4,J5,J6|pos|1.047187,0.000025,-0.000025,-0.000025,0.000041,-0.000021|vel|0.000000,-0.000000,0.000000,0.000000,0.000000,0.000000|eff|161.132812,467.285156,-805.664062,-80.566406,-8.056641,0.000000
cobot_dynamixel_driver/joint_states|name|J1,J2,J3,J4,J5,J6|pos|1.047187,0.000025,-0.000025,-0.000025,0.000041,-0.000021|vel|0.000000,-0.000000,0.000000,0.000000,0.000000,0.000000|eff|209.472656,483.398438,-805.664062,-64.453125,0.000000,0.000000
cobot_dynamixel_driver/joint_states|name|J1,J2,J3,J4,J5,J6|pos|1.047187,0.000025,-0.000025,-0.000025,0.000041,-0.000021|vel|0.000000,-0.000000,0.000000,0.000000,0.000000,0.000000|eff|0.000000,322.265625,-837.890625,-96.679688,-8.056641,0.000000
cobot_dynamixel_driver/joint_states|name|J1,J2,J3,J4,J5,J6|pos|1.047187,0.000025,-0.000025,-0.000025,0.000041,-0.000021|vel|0.000000,-0.000000,0.000000,0.000000,0.000000,0.000000|eff|209.472656,467.285156,-837.890625,-80.566406,0.000000,16.113281
cobot_dynamixel_driver/joint_states|name|J1,J2,J3,J4,J5,J6|pos|1.047187,0.000025,-0.000025,-0.000025,0.000041,-0.000021|vel|0.000000,-0.000000,0.000000,0.000000,0.000000,0.000000|eff|128.906250,322.265625,-837.890625,-96.679688,-8.056641,0.000000
cobot_dynamixel_driver/joint_states|name|J1,J2,J3,J4,J5,J6|pos|1.047187,0.000025,-0.000025,-0.000025,0.000041,-0.000021|vel|0.000000,-0.000000,0.000000,0.000000,0.000000,0.000000|eff|161.132812,435.058594,-805.664062,-96.679688,0.000000,16.113281
cobot_dynamixel_driver/joint_states|name|J1,J2,J3,J4,J5,J6|pos|1.047187,0.000025,-0.000025,-0.000025,0.000041,-0.000021|vel|0.000000,-0.000000,0.000000,0.000000,0.000000,0.000000|eff|0.000000,418.945312,-854.003906,-96.679688,-12.084961,24.169922
cobot_dynamixel_driver/joint_states|name|J1,J2,J3,J4,J5,J6|pos|1.047187,0.000025,-0.000025,-0.000025,0.000041,-0.000021|vel|0.000000,-0.000000,0.000000,0.000000,0.000000,0.000000|eff|96.679688,483.398438,-805.664062,-112.792969,-12.084961,0.000000
cobot_dynamixel_driver/joint_states|name|J1,J2,J3,J4,J5,J6|pos|1.047187,0.000025,-0.000025,-0.000025,0.000041,-0.000021|vel|0.000000,-0.000000,0.000000,0.000000,0.000000,0.000000|eff|48.339844,402.832031,-854.003906,-96.679688,0.000000,0.000000
cobot_dynamixel_driver/joint_states|name|J1,J2,J3,J4,J5,J6|pos|1.047187,0.000025,-0.000025,-0.000025,0.000041,-0.000021|vel|0.000000,-0.000000,0.000000,0.000000,0.000000,0.000000|eff|96.679688,306.152344,-789.550781,-80.566406,-8.056641,0.000000
cobot_dynamixel_driver/joint_states|name|J1,J2,J3,J4,J5,J6|pos|1.047187,0.000025,-0.000025,-0.000025,0.000041,-0.000021|vel|0.000000,-0.000000,0.000000,0.000000,0.000000,0.000000|eff|193.359375,402.832031,-789.550781,-96.679688,-8.056641,24.169922
cobot_dynamixel_driver/joint_states|name|J1,J2,J3,J4,J5,J6|pos|1.047187,0.000025,-0.000025,-0.000025,0.000041,-0.000021|vel|0.000000,-0.000000,0.000000,0.000000,0.000000,0.000000|eff|0.000000,370.605469,-854.003906,-80.566406,0.000000,24.169922
cobot_dynamixel_driver/joint_states|name|J1,J2,J3,J4,J5,J6|pos|1.047187,0.000025,-0.000025,-0.000025,0.000041,-0.000021|vel|0.000000,-0.000000,0.000000,0.000000,0.000000,0.000000|eff|209.472656,483.398438,-789.550781,-96.679688,-8.056641,0.000000
cobot_dynamixel_driver/joint_states|name|J1,J2,J3,J4,J5,J6|pos|1.047187,0.000025,-0.000025,-0.000025,0.000041,-0.000021|vel|0.000000,-0.000000,0.000000,0.000000,0.000000,0.000000|eff|0.000000,499.511719,-805.664062,-96.679688,0.000000,0.000000
cobot_dynamixel_driver/joint_states|name|J1,J2,J3,J4,J5,J6|pos|1.047187,0.000025,-0.000025,-0.000025,0.000041,-0.000021|vel|0.000000,-0.000000,0.000000,0.000000,0.000000,0.000000|eff|0.000000,386.718750,-773.437500,-96.679688,-12.084961,16.113281
cobot_dynamixel_driver/joint_states|name|J1,J2,J3,J4,J5,J6|pos|1.047187,0.000025,-0.000025,-0.000025,0.000041,-0.000021|vel|0.000000,-0.000000,0.000000,0.000000,0.000000,0.000000|eff|193.359375,370.605469,-854.003906,-112.792969,-12.084961,0.000000
cobot_dynamixel_driver/joint_states|name|J1,J2,J3,J4,J5,J6|pos|1.047187,0.000025,-0.000025,-0.000025,0.000041,-0.000021|vel|0.000000,-0.000000,0.000000,0.000000,0.000000,0.000000|eff|209.472656,370.605469,-837.890625,-96.679688,-12.084961,28.198242
cobot_dynamixel_driver/joint_states|name|J1,J2,J3,J4,J5,J6|pos|1.047187,0.000025,-0.000025,-0.000025,0.000041,-0.000021|vel|0.000000,-0.000000,0.000000,0.000000,0.000000,0.000000|eff|145.019531,370.605469,-821.777344,-96.679688,-8.056641,0.000000
cobot_dynamixel_driver/joint_states|name|J1,J2,J3,J4,J5,J6|pos|1.047187,0.000025,-0.000025,-0.000025,0.000041,-0.000021|vel|0.000000,-0.000000,0.000000,0.000000,0.000000,0.000000|eff|177.246094,370.605469,-821.777344,-96.679688,0.000000,24.169922
cobot_dynamixel_driver/joint_states|name|J1,J2,J3,J4,J5,J6|pos|1.047187,0.000025,-0.000025,-0.000025,0.000041,-0.000021|vel|0.000000,-0.000000,0.000000,0.000000,0.000000,0.000000|eff|48.339844,499.511719,-837.890625,0.000000,0.000000,0.000000
cobot_dynamixel_driver/joint_states|name|J1,J2,J3,J4,J5,J6|pos|1.047187,0.000025,-0.000025,-0.000025,0.000041,-0.000021|vel|0.000000,-0.000000,0.000000,0.000000,0.000000,0.000000|eff|96.679688,499.511719,-837.890625,-112.792969,0.000000,0.000000
cobot_dynamixel_driver/joint_states|name|J1,J2,J3,J4,J5,J6|pos|1.047187,0.000025,-0.000025,-0.000025,0.000041,-0.000021|vel|0.000000,-0.000000,0.000000,0.000000,0.000000,0.000000|eff|145.019531,418.945312,-789.550781,-80.566406,-12.084961,12.084961
cobot_dynamixel_driver/joint_states|name|J1,J2,J3,J4,J5,J6|pos|1.047187,0.000025,-0.000025,-0.000025,0.000041,-0.000021|vel|0.000000,-0.000000,0.000000,0.000000,0.000000,0.000000|eff|161.132812,467.285156,-805.664062,-96.679688,0.000000,12.084961
cobot_dynamixel_driver/joint_states|name|J1,J2,J3,J4,J5,J6|pos|1.047187,0.000025,-0.000025,-0.000025,0.000041,-0.000021|vel|0.000000,-0.000000,0.000000,0.000000,0.000000,0.000000|eff|193.359375,467.285156,-837.890625,-80.566406,0.000000,16.113281
cobot_dynamixel_driver/joint_states|name|J1,J2,J3,J4,J5,J6|pos|1.047187,0.000025,-0.000025,-0.000025,0.000041,-0.000021|vel|0.000000,-0.000000,0.000000,0.000000,0.000000,0.000000|eff|209.472656,338.378906,-837.890625,-96.679688,-8.056641,0.000000
cobot_dynamixel_driver/joint_states|name|J1,J2,J3,J4,J5,J6|pos|1.047187,0.000025,-0.000025,-0.000025,0.000041,-0.000021|vel|0.000000,-0.000000,0.000000,0.000000,0.000000,0.000000|eff|193.359375,467.285156,-854.003906,-96.679688,0.000000,0.000000
cobot_dynamixel_driver/joint_states|name|J1,J2,J3,J4,J5,J6|pos|1.047187,0.000025,-0.000025,-0.000025,0.000041,-0.000021|vel|0.000000,-0.000000,0.000000,0.000000,0.000000,0.000000|eff|209.472656,306.152344,-854.003906,-96.679688,0.000000,24.169922
cobot_dynamixel_driver/joint_states|name|J1,J2,J3,J4,J5,J6|pos|1.047187,0.000025,-0.000025,-0.000025,0.000041,-0.000021|vel|0.000000,-0.000000,0.000000,0.000000,0.000000,0.000000|eff|209.472656,370.605469,-854.003906,-32.226562,0.000000,16.113281
cobot_dynamixel_driver/joint_states|name|J1,J2,J3,J4,J5,J6|pos|1.047187,0.000025,-0.000025,-0.000025,0.000041,-0.000021|vel|0.000000,-0.000000,0.000000,0.000000,0.000000,0.000000|eff|209.472656,467.285156,-805.664062,0.000000,0.000000,0.000000
cobot_dynamixel_driver/joint_states|name|J1,J2,J3,J4,J5,J6|pos|1.047187,0.000025,-0.000025,-0.000025,0.000041,-0.000021|vel|0.000000,-0.000000,0.000000,0.000000,0.000000,0.000000|eff|128.906250,370.605469,-854.003906,0.000000,-12.084961,0.000000
cobot_dynamixel_driver/joint_states|name|J1,J2,J3,J4,J5,J6|pos|1.047187,0.000025,-0.000025,-0.000025,0.000041,-0.000021|vel|0.000000,-0.000000,0.000000,0.000000,0.000000,0.000000|eff|209.472656,499.511719,-789.550781,-48.339844,0.000000,12.084961
cobot_dynamixel_driver/joint_states|name|J1,J2,J3,J4,J5,J6|pos|1.047187,0.000025,-0.000025,-0.000025,0.000041,-0.000021|vel|0.000000,-0.000000,0.000000,0.000000,0.000000,0.000000|eff|209.472656,467.285156,-837.890625,-64.453125,0.000000,0.000000
cobot_dynamixel_driver/joint_states|name|J1,J2,J3,J4,J5,J6|pos|1.047187,0.000025,-0.000025,-0.000025,0.000041,-0.000021|vel|0.000000,-0.000000,0.000000,0.000000,0.000000,0.000000|eff|64.453125,483.398438,-821.777344,-112.792969,0.000000,0.000000
cobot_dynamixel_driver/joint_states|name|J1,J2,J3,J4,J5,J6|pos|1.047187,0.000025,-0.000025,-0.000025,0.000041,-0.000021|vel|0.000000,-0.000000,0.000000,0.000000,0.000000,0.000000|eff|64.453125,402.832031,-854.003906,-80.566406,-8.056641,0.000000
cobot_dynamixel_driver/joint_states|name|J1,J2,J3,J4,J5,J6|pos|1.047187,0.000025,-0.000025,-0.000025,0.000041,-0.000021|vel|0.000000,-0.000000,0.000000,0.000000,0.000000,0.000000|eff|193.359375,467.285156,-854.003906,-48.339844,-12.084961,0.000000
cobot_dynamixel_driver/goal|-:J1,J2,J3,J4,J5,J6:1.047198,0.000000,0.000000,0.000000,0.000000,0.000000:0.500000,0.500000,0.500000,0.500000,0.500000,0.500000:pos_vel_
cobot_dynamixel_driver/goal|-:J1:-0.523599:vel_
cobot_dynamixel_driver/joint_states|name|J1,J2,J3,J4,J5,J6|pos|1.047137,0.001252,0.002454,-0.000013,0.000041,-0.000021|vel|0.000000,0.004173,0.000835,0.000000,0.000000,0.000000|eff|0.000000,225.585938,-273.925781,0.000000,0.000000,0.000000
cobot_dynamixel_driver/goal|-:J1:-0.523599:vel_
cobot_dynamixel_driver/goal|-:J1:-0.523599:vel_
cobot_dynamixel_driver/goal|-:J1:-0.523599:vel_
cobot_dynamixel_driver/goal|-:J1:-0.523599:vel_
cobot_dynamixel_driver/goal|-:J1:-0.523599:vel_
cobot_dynamixel_driver/goal|-:J1:-0.523599:vel_
cobot_dynamixel_driver/goal|-:J1:-0.523599:vel_
cobot_dynamixel_driver/goal|-:J1:-0.523599:vel_
cobot_dynamixel_driver/goal|-:J1:-0.523599:vel_
cobot_dynamixel_driver/goal|-:J1:-0.523599:vel_
cobot_dynamixel_driver/goal|-:J1:-0.523599:vel_
cobot_dynamixel_driver/goal|-:J1:-0.523599:vel_
cobot_dynamixel_driver/goal|-:J1:-0.523599:vel_
cobot_dynamixel_driver/goal|-:J1:-0.523599:vel_
cobot_dynamixel_driver/goal|-:J1:-0.523599:vel_
cobot_dynamixel_driver/goal|-:J1:-0.523599:vel_
cobot_dynamixel_driver/goal|-:J1:-0.523599:vel_
cobot_dynamixel_driver/goal|-:J1:-0.523599:vel_
cobot_dynamixel_driver/goal|-:J1:-0.523599:vel_
cobot_dynamixel_driver/goal|-:J1:-0.523599:vel_
cobot_dynamixel_driver/goal|-:J1:-0.523599:vel_
cobot_dynamixel_driver/goal|-:J1:-0.523599:vel_
cobot_dynamixel_driver/goal|-:J1:-0.523599:vel_
cobot_dynamixel_driver/goal|-:J1:-0.523599:vel_
cobot_dynamixel_driver/goal|-:J1:-0.523599:vel_
cobot_dynamixel_driver/goal|-:J1:-0.523599:vel_
cobot_dynamixel_driver/goal|-:J1:-0.523599:vel_
cobot_dynamixel_driver/goal|-:J1:-0.523599:vel_
cobot_dynamixel_driver/goal|-:J1:-0.523599:vel_
cobot_dynamixel_driver/joint_states|name|J1,J2,J3,J4,J5,J6|pos|1.009182,0.001252,0.002466,-0.000013,0.000041,-0.000021|vel|-0.523494,-0.000000,0.000000,0.000000,0.000000,0.000000|eff|-1788.574219,225.585938,-273.925781,0.000000,0.000000,0.000000
cobot_dynamixel_driver/joint_states|name|J1,J2,J3,J4,J5,J6|pos|0.957794,0.001264,0.002479,-0.000013,0.000041,-0.000021|vel|-0.544776,-0.000000,0.000000,0.000000,0.000000,0.000000|eff|-580.078125,273.925781,-290.039062,0.000000,0.000000,0.000000
cobot_dynamixel_driver/joint_states|name|J1,J2,J3,J4,J5,J6|pos|0.906169,0.001302,0.002479,-0.000013,0.000041,-0.000021|vel|-0.534135,-0.000000,0.000000,0.000000,0.000000,0.000000|eff|-2578.125000,354.492188,-386.718750,0.000000,0.000000,0.000000
cobot_dynamixel_driver/joint_states|name|J1,J2,J3,J4,J5,J6|pos|0.854632,0.001377,0.002479,-0.000013,0.000041,-0.000021|vel|-0.496162,0.003338,0.000000,0.000000,0.000000,0.000000|eff|-418.945312,257.812500,-322.265625,0.000000,0.000000,0.000000
cobot_dynamixel_driver/joint_states|name|J1,J2,J3,J4,J5,J6|pos|0.803144,0.001377,0.002479,-0.000013,0.000041,-0.000021|vel|-0.502838,-0.000000,0.000000,0.000000,0.000000,0.000000|eff|-902.343750,322.265625,-386.718750,0.000000,0.000000,0.000000
cobot_dynamixel_driver/joint_states|name|J1,J2,J3,J4,J5,J6|pos|0.751569,0.001377,0.002491,-0.000013,0.000041,-0.000021|vel|-0.518904,-0.000000,0.000000,0.000000,0.000000,0.000000|eff|-2320.312500,467.285156,-370.605469,0.000000,0.000000,0.000000
cobot_dynamixel_driver/joint_states|name|J1,J2,J3,J4,J5,J6|pos|0.700044,0.001377,0.002491,-0.000013,0.000041,-0.000021|vel|-0.546028,-0.000000,0.000000,0.000000,0.000000,0.000000|eff|-128.906250,467.285156,-306.152344,0.000000,0.000000,0.000000
cobot_dynamixel_driver/joint_states|name|J1,J2,J3,J4,J5,J6|pos|0.648657,0.001377,0.002491,-0.000013,0.000041,-0.000021|vel|-0.508472,-0.000000,0.000000,0.000000,0.000000,0.000000|eff|-692.871094,241.699219,-386.718750,0.000000,0.000000,0.000000
cobot_dynamixel_driver/joint_states|name|J1,J2,J3,J4,J5,J6|pos|0.597107,0.001377,0.002491,-0.000013,0.000041,-0.000021|vel|-0.480096,-0.000000,0.000000,0.000000,0.000000,0.000000|eff|-1933.593750,338.378906,-322.265625,0.000000,0.000000,0.000000
cobot_dynamixel_driver/joint_states|name|J1,J2,J3,J4,J5,J6|pos|0.546045,0.001377,0.002491,0.000000,0.000041,-0.000021|vel|-0.525790,-0.000000,0.000000,0.000000,0.000000,0.000000|eff|-128.906250,338.378906,-322.265625,0.000000,0.000000,0.000000
cobot_dynamixel_driver/joint_states|name|J1,J2,J3,J4,J5,J6|pos|0.494482,0.001377,0.002491,0.000000,0.000041,-0.000021|vel|-0.504925,-0.000000,0.000000,0.000000,0.000000,0.000000|eff|-789.550781,451.171875,-273.925781,0.000000,0.000000,0.000000
cobot_dynamixel_driver/joint_states|name|J1,J2,J3,J4,J5,J6|pos|0.443033,0.001377,0.002491,0.000000,0.000041,-0.000021|vel|-0.511393,-0.000000,0.000000,0.000000,0.000000,0.000000|eff|-1869.140625,273.925781,-290.039062,0.000000,0.000000,0.000000
cobot_dynamixel_driver/joint_states|name|J1,J2,J3,J4,J5,J6|pos|0.391658,0.001377,0.002491,0.000000,0.000041,-0.000021|vel|-0.507846,-0.000000,0.000000,0.000000,0.000000,0.000000|eff|-966.796875,322.265625,-370.605469,0.000000,0.000000,0.000000
cobot_dynamixel_driver/joint_states|name|J1,J2,J3,J4,J5,J6|pos|0.340170,0.001377,0.002491,0.000000,0.000041,-0.000021|vel|-0.544776,-0.000000,0.000000,0.000000,0.000000,0.000000|eff|-209.472656,257.812500,-306.152344,0.000000,0.000000,0.000000
cobot_dynamixel_driver/joint_states|name|J1,J2,J3,J4,J5,J6|pos|0.288633,0.001377,0.002491,0.000000,0.000041,-0.000021|vel|-0.520573,-0.000000,0.000000,0.000000,0.000000,0.000000|eff|-1724.121094,354.492188,-354.492188,0.000000,0.000000,0.000000
cobot_dynamixel_driver/joint_states|name|J1,J2,J3,J4,J5,J6|pos|0.237258,0.001377,0.002491,0.000000,0.000041,-0.000021|vel|-0.542690,-0.000000,0.000000,0.000000,0.000000,0.000000|eff|-499.511719,257.812500,-273.925781,0.000000,0.000000,0.000000
cobot_dynamixel_driver/joint_states|name|J1,J2,J3,J4,J5,J6|pos|0.185645,0.001377,0.002491,0.000000,0.000041,-0.000021|vel|-0.535179,-0.000000,0.000000,0.000000,0.000000,0.000000|eff|-80.566406,451.171875,-354.492188,0.000000,0.000000,0.000000
cobot_dynamixel_driver/joint_states|name|J1,J2,J3,J4,J5,J6|pos|0.134158,0.001377,0.002504,0.000000,0.000041,-0.000021|vel|-0.536639,-0.000000,0.000000,0.000000,0.000000,0.000000|eff|-1160.156250,451.171875,-306.152344,0.000000,0.000000,0.000000
cobot_dynamixel_driver/joint_states|name|J1,J2,J3,J4,J5,J6|pos|0.083296,0.001377,0.002504,0.000000,0.000041,-0.000021|vel|-0.547280,-0.000000,0.000000,0.000000,0.000000,0.000000|eff|-1675.781250,386.718750,-290.039062,0.000000,0.000000,0.000000
cobot_dynamixel_driver/joint_states|name|J1,J2,J3,J4,J5,J6|pos|0.031959,0.001377,0.002504,0.000000,0.000041,-0.000021|vel|-0.526624,-0.000000,0.000000,0.000000,0.000000,0.000000|eff|-2320.312500,338.378906,-354.492188,0.000000,0.000000,0.000000
cobot_dynamixel_driver/joint_states|name|J1,J2,J3,J4,J5,J6|pos|-0.011554,-1.266694,1.294497,-0.001715,-1.500497,-0.000083|vel|0.000000,-0.000000,0.000000,0.000000,0.000000,0.000000|eff|-145.019531,-209.472656,0.000000,-273.925781,0.000000,0.000000
cobot_dynamixel_driver/joint_states|name|J1,J2,J3,J4,J5,J6|pos|-0.011554,-1.266694,1.294497,-0.001715,-1.500497,-0.000083|vel|0.000000,-0.000000,0.000000,0.000000,0.000000,0.000000|eff|-145.019531,-209.472656,0.000000,-273.925781,0.000000,0.000000
cobot_dynamixel_driver/joint_states|name|J1,J2,J3,J4,J5,J6|pos|-0.011554,-1.266694,1.294497,-0.001715,-1.500497,-0.000083|vel|0.000000,-0.000000,0.000000,0.000000,0.000000,0.000000|eff|-145.019531,-209.472656,0.000000,-273.925781,0.000000,0.000000
cobot_dynamixel_driver/joint_states|name|J1,J2,J3,J4,J5,J6|pos|-0.011554,-1.266694,1.294497,-0.001715,-1.500497,-0.000083|vel|0.000000,-0.000000,0.000000,0.000000,0.000000,0.000000|eff|-145.019531,-209.472656,0.000000,-273.925781,0.000000,0.000000
cobot_dynamixel_driver/joint_states|name|J1,J2,J3,J4,J5,J6|pos|-0.011554,-1.266694,1.294497,-0.001715,-1.500497,-0.000083|vel|0.000000,-0.000000,0.000000,0.000000,0.000000,0.000000|eff|-145.019531,-209.472656,0.000000,-273.925781,0.000000,0.000000
cobot_dynamixel_driver/joint_states|name|J1,J2,J3,J4,J5,J6|pos|-0.011554,-1.266694,1.294497,-0.001715,-1.500497,-0.000083|vel|0.000000,-0.000000,0.000000,0.000000,0.000000,0.000000|eff|-145.019531,-209.472656,0.000000,-273.925781,0.000000,0.000000
cobot_dynamixel_driver/joint_states|name|J1,J2,J3,J4,J5,J6|pos|-0.011554,-1.266694,1.294497,-0.001715,-1.500497,-0.000083|vel|0.000000,-0.000000,0.000000,0.000000,0.000000,0.000000|eff|-145.019531,-209.472656,0.000000,-273.925781,0.000000,0.000000
cobot_dynamixel_driver/joint_states|name|J1,J2,J3,J4,J5,J6|pos|-0.011554,-1.266694,1.294497,-0.001715,-1.500497,-0.000083|vel|0.000000,-0.000000,0.000000,0.000000,0.000000,0.000000|eff|-145.019531,-209.472656,0.000000,-273.925781,0.000000,0.000000
cobot_dynamixel_driver/joint_states|name|J1,J2,J3,J4,J5,J6|pos|-0.011554,-1.266694,1.294497,-0.001715,-1.500497,-0.000083|vel|0.000000,-0.000000,0.000000,0.000000,0.000000,0.000000|eff|-145.019531,-209.472656,0.000000,-273.925781,0.000000,0.000000
cobot_dynamixel_driver/joint_states|name|J1,J2,J3,J4,J5,J6|pos|-0.011554,-1.266694,1.294497,-0.001715,-1.500497,-0.000083|vel|0.000000,-0.000000,0.000000,0.000000,0.000000,0.000000|eff|-145.019531,-209.472656,0.000000,-273.925781,0.000000,0.000000
cobot_dynamixel_driver/joint_states|name|J1,J2,J3,J4,J5,J6|pos|-0.011554,-1.266694,1.294497,-0.001715,-1.500497,-0.000083|vel|0.000000,-0.000000,0.000000,0.000000,0.000000,0.000000|eff|-145.019531,-209.472656,0.000000,-273.925781,0.000000,0.000000
cobot_dynamixel_driver/joint_states|name|J1,J2,J3,J4,J5,J6|pos|-0.011554,-1.266694,1.294497,-0.001715,-1.500497,-0.000083|vel|0.000000,-0.000000,0.000000,0.000000,0.000000,0.000000|eff|-145.019531,-209.472656,0.000000,-273.925781,0.000000,0.000000
cobot_dynamixel_driver/joint_states|name|J1,J2,J3,J4,J5,J6|pos|-0.011554,-1.266694,1.294497,-0.001715,-1.500497,-0.000083|vel|0.000000,-0.000000,0.000000,0.000000,0.000000,0.000000|eff|-145.019531,-209.472656,0.000000,-273.925781,0.000000,0.000000
cobot_dynamixel_driver/joint_states|name|J1,J2,J3,J4,J5,J6|pos|-0.011554,-1.266694,1.294497,-0.001715,-1.500497,-0.000083|vel|0.000000,-0.000000,0.000000,0.000000,0.000000,0.000000|eff|-145.019531,-209.472656,0.000000,-273.925781,0.000000,0.000000
cobot_dynamixel_driver/joint_states|name|J1,J2,J3,J4,J5,J6|pos|-0.011554,-1.266694,1.294497,-0.001715,-1.500497,-0.000083|vel|0.000000,-0.000000,0.000000,0.000000,0.000000,0.000000|eff|-145.019531,-209.472656,0.000000,-273.925781,0.000000,0.000000
cobot_dynamixel_driver/joint_states|name|J1,J2,J3,J4,J5,J6|pos|-0.011554,-1.266694,1.294497,-0.001715,-1.500497,-0.000083|vel|0.000000,-0.000000,0.000000,0.000000,0.000000,0.000000|eff|-145.019531,-209.472656,0.000000,-273.925781,0.000000,0.000000
cobot_dynamixel_driver/joint_states|name|J1,J2,J3,J4,J5,J6|pos|-0.011554,-1.266694,1.294497,-0.001715,-1.500497,-0.000083|vel|0.000000,-0.000000,0.000000,0.000000,0.000000,0.000000|eff|-145.019531,-209.472656,0.000000,-273.925781,0.000000,0.000000
cobot_dynamixel_driver/joint_states|name|J1,J2,J3,J4,J5,J6|pos|-0.011554,-1.266694,1.294497,-0.001715,-1.500497,-0.000083|vel|0.000000,-0.000000,0.000000,0.000000,0.000000,0.000000|eff|-145.019531,-209.472656,0.000000,-273.925781,0.000000,0.000000
cobot_dynamixel_driver/joint_states|name|J1,J2,J3,J4,J5,J6|pos|-0.011554,-1.266694,1.294497,-0.001715,-1.500497,-0.000083|vel|0.000000,-0.000000,0.000000,0.000000,0.000000,0.000000|eff|-145.019531,-209.472656,0.000000,-273.925781,0.000000,0.000000
cobot_dynamixel_driver/joint_states|name|J1,J2,J3,J4,J5,J6|pos|-0.011554,-1.266694,1.294497,-0.001715,-1.500497,-0.000083|vel|0.000000,-0.000000,0.000000,0.000000,0.000000,0.000000|eff|-145.019531,-209.472656,0.000000,-273.925781,0.000000,0.000000
cobot_dynamixel_driver/joint_states|name|J1,J2,J3,J4,J5,J6|pos|-0.011554,-1.266694,1.294497,-0.001715,-1.500497,-0.000083|vel|0.000000,-0.000000,0.000000,0.000000,0.000000,0.000000|eff|-145.019531,-209.472656,0.000000,-273.925781,0.000000,0.000000
cobot_dynamixel_driver/joint_states|name|J1,J2,J3,J4,J5,J6|pos|-0.011554,-1.266694,1.294497,-0.001715,-1.500497,-0.000083|vel|0.000000,-0.000000,0.000000,0.000000,0.000000,0.000000|eff|-145.019531,-209.472656,0.000000,-273.925781,0.000000,0.000000
cobot_dynamixel_driver/joint_states|name|J1,J2,J3,J4,J5,J6|pos|-0.011554,-1.266694,1.294497,-0.001715,-1.500497,-0.000083|vel|0.000000,-0.000000,0.000000,0.000000,0.000000,0.000000|eff|-145.019531,-209.472656,0.000000,-273.925781,0.000000,0.000000
cobot_dynamixel_driver/joint_states|name|J1,J2,J3,J4,J5,J6|pos|-0.011554,-1.266694,1.294497,-0.001715,-1.500497,-0.000083|vel|0.000000,-0.000000,0.000000,0.000000,0.000000,0.000000|eff|-145.019531,-209.472656,0.000000,-273.925781,0.000000,0.000000
cobot_dynamixel_driver/joint_states|name|J1,J2,J3,J4,J5,J6|pos|-0.011554,-1.266694,1.294497,-0.001715,-1.500497,-0.000083|vel|0.000000,-0.000000,0.000000,0.000000,0.000000,0.000000|eff|-145.019531,-209.472656,0.000000,-273.925781,0.000000,0.000000
cobot_dynamixel_driver/joint_states|name|J1,J2,J3,J4,J5,J6|pos|-0.011554,-1.266694,1.294497,-0.001715,-1.500497,-0.000083|vel|0.000000,-0.000000,0.000000,0.000000,0.000000,0.000000|eff|-145.019531,-209.472656,0.000000,-273.925781,0.000000,0.000000
cobot_dynamixel_driver/goal|-:J1,J2,J3,J4,J5,J6:0.000000,0.000000,0.000000,0.000000,0.000000,0.000000:0.700000,0.700000,0.700000,0.700000,0.700000,0.700000:pos_vel_
cobot_dynamixel_driver/joint_states|name|J1,J2,J3,J4,J5,J6|pos|-0.012017,-1.266694,1.294497,-0.001715,-1.500497,-0.000083|vel|0.000000,-0.000000,0.000000,0.000000,0.000000,0.000000|eff|0.000000,0.000000,-8217.773438,0.000000,0.000000,0.000000
cobot_dynamixel_driver/joint_states|name|J1,J2,J3,J4,J5,J6|pos|-0.008124,-1.258207,1.286285,-0.001177,-1.486431,-0.000083|vel|0.059673,0.236605,-0.258513,0.005216,0.314711,0.000000|eff|290.039062,-1965.820312,-1756.347656,112.792969,72.509766,0.000000
cobot_dynamixel_driver/joint_states|name|J1,J2,J3,J4,J5,J6|pos|-0.004006,-1.220302,1.246515,-0.000726,-1.446094,-0.000083|vel|0.028793,0.496996,-0.515566,0.004590,0.508777,0.000000|eff|241.699219,-1305.175781,-1691.894531,161.132812,48.339844,0.000000
cobot_dynamixel_driver/joint_states|name|J1,J2,J3,J4,J5,J6|pos|-0.001890,-1.165822,1.192611,-0.000325,-1.392830,-0.000083|vel|0.016066,0.557713,-0.544776,0.002921,0.504985,0.000000|eff|177.246094,-1095.703125,-1111.816406,177.246094,32.226562,16.113281
cobot_dynamixel_driver/joint_states|name|J1,J2,J3,J4,J5,J6|pos|-0.000989,-1.104596,1.132211,-0.000213,-1.332697,-0.000083|vel|0.005842,0.656194,-0.626775,0.001878,0.656308,0.000000|eff|96.679688,-1192.382812,-950.683594,161.132812,64.453125,16.113281
cobot_dynamixel_driver/joint_states|name|J1,J2,J3,J4,J5,J6|pos|-0.000488,-1.040139,1.067942,-0.000113,-1.269172,-0.000083|vel|0.001461,0.655568,-0.668504,0.001878,0.685608,0.000000|eff|145.019531,-2932.617188,-1498.535156,128.906250,56.396484,16.113281
cobot_dynamixel_driver/joint_states|name|J1,J2,J3,J4,J5,J6|pos|-0.000263,-0.974093,1.001796,-0.000113,-1.203682,-0.000083|vel|0.001252,0.559590,-0.710442,0.000000,0.773161,0.000000|eff|193.359375,-628.417969,-451.171875,112.792969,20.141602,24.169922
cobot_dynamixel_driver/joint_states|name|J1,J2,J3,J4,J5,J6|pos|-0.000138,-0.907308,0.934911,-0.000113,-1.137407,-0.000083|vel|0.001878,0.698132,-0.731098,0.000000,0.678714,0.000000|eff|306.152344,-837.890625,-870.117188,112.792969,44.311523,24.169922
cobot_dynamixel_driver/joint_states|name|J1,J2,J3,J4,J5,J6|pos|-0.000075,-0.840010,0.867826,-0.000100,-1.070303,-0.000083|vel|0.002921,0.693333,-0.719414,0.000000,0.759029,0.000000|eff|32.226562,-1659.667969,-1869.140625,177.246094,36.254883,36.254883
cobot_dynamixel_driver/joint_states|name|J1,J2,J3,J4,J5,J6|pos|-0.000075,-0.772637,0.800553,-0.000038,-1.003510,-0.000062|vel|0.000000,0.670590,-0.709190,0.000626,0.689055,0.000000|eff|161.132812,-531.738281,-708.984375,112.792969,88.623047,24.169922
cobot_dynamixel_driver/joint_states|name|J1,J2,J3,J4,J5,J6|pos|-0.000063,-0.704401,0.732792,-0.000025,-0.936034,0.000000|vel|0.000000,0.681440,-0.634494,0.000626,0.606671,0.001379|eff|0.000000,-1208.496094,-789.550781,161.132812,36.254883,16.113281
cobot_dynamixel_driver/joint_states|name|J1,J2,J3,J4,J5,J6|pos|-0.000063,-0.636614,0.665594,-0.000013,-0.869014,0.000000|vel|0.000000,0.731307,-0.688534,0.000000,0.669751,0.000000|eff|32.226562,-837.890625,-821.777344,128.906250,28.198242,32.226562
cobot_dynamixel_driver/joint_states|name|J1,J2,J3,J4,J5,J6|pos|-0.000038,-0.568653,0.597808,-0.000013,-0.801621,0.000000|vel|0.000209,0.700427,-0.696045,0.000000,0.679403,0.000000|eff|145.019531,-1353.515625,-1031.250000,128.906250,32.226562,28.198242
cobot_dynamixel_driver/joint_states|name|J1,J2,J3,J4,J5,J6|pos|-0.000013,-0.500879,0.529834,-0.000013,-0.734372,0.000000|vel|0.000209,0.696254,-0.737566,0.000000,0.750411,0.000000|eff|64.453125,-789.550781,-725.097656,128.906250,20.141602,0.000000
cobot_dynamixel_driver/joint_states|name|J1,J2,J3,J4,J5,J6|pos|0.000013,-0.433030,0.462048,0.000000,-0.666959,0.000000|vel|0.000209,0.696463,-0.717744,0.000000,0.603224,0.000000|eff|177.246094,-708.984375,-660.644531,128.906250,-8.056641,0.000000
cobot_dynamixel_driver/joint_states|name|J1,J2,J3,J4,J5,J6|pos|0.000025,-0.365232,0.394174,0.000000,-0.600021,0.000000|vel|0.000209,0.676224,-0.637416,0.000000,0.679058,0.000000|eff|161.132812,-708.984375,-418.945312,128.906250,52.368164,32.226562
cobot_dynamixel_driver/joint_states|name|J1,J2,J3,J4,J5,J6|pos|0.000038,-0.297195,0.326225,0.000000,-0.532876,0.000000|vel|0.000000,0.720248,-0.722126,0.000000,0.678369,0.000000|eff|0.000000,-1562.988281,-725.097656,112.792969,128.906250,12.084961
cobot_dynamixel_driver/joint_states|name|J1,J2,J3,J4,J5,J6|pos|0.000075,-0.229434,0.258339,0.000000,-0.465566,0.000000|vel|0.000209,0.676015,-0.684361,0.000000,0.690778,0.000000|eff|96.679688,-1740.234375,-741.210938,128.906250,120.849609,0.000000
cobot_dynamixel_driver/joint_states|name|J1,J2,J3,J4,J5,J6|pos|0.000075,-0.161498,0.190577,0.000000,-0.398028,0.000000|vel|0.000000,0.678310,-0.738401,0.000000,0.604258,0.000000|eff|128.906250,-1820.800781,-837.890625,128.906250,80.566406,32.226562
cobot_dynamixel_driver/joint_states|name|J1,J2,J3,J4,J5,J6|pos|0.000075,-0.094024,0.122841,0.000000,-0.331256,0.000000|vel|0.000000,0.677267,-0.714615,0.000000,0.801082,0.000000|eff|32.226562,386.718750,-451.171875,128.906250,56.396484,32.226562
cobot_dynamixel_driver/joint_states|name|J1,J2,J3,J4,J5,J6|pos|0.000088,-0.046505,0.062967,0.000013,-0.263925,0.000000|vel|0.000000,0.315265,-0.437949,0.000000,0.702498,0.000000|eff|0.000000,596.191406,-563.964844,161.132812,60.424805,32.226562
cobot_dynamixel_driver/joint_states|name|J1,J2,J3,J4,J5,J6|pos|0.000088,-0.023397,0.032222,0.000013,-0.197483,0.000000|vel|0.000000,0.155650,-0.213654,0.000000,0.663892,0.000000|eff|0.000000,306.152344,-902.343750,128.906250,153.076172,0.000000
cobot_dynamixel_driver/joint_states|name|J1,J2,J3,J4,J5,J6|pos|0.000088,-0.012043,0.016562,0.000013,-0.129884,0.000000|vel|0.000000,0.084711,-0.121850,0.000000,0.816249,0.000000|eff|0.000000,306.152344,-854.003906,128.906250,64.453125,20.141602
cobot_dynamixel_driver/joint_states|name|J1,J2,J3,J4,J5,J6|pos|0.000088,-0.006272,0.008500,0.000013,-0.068407,0.000000|vel|0.000000,0.042564,-0.056961,0.000000,0.465345,0.000000|eff|0.000000,193.359375,-837.890625,112.792969,0.000000,16.113281
cobot_dynamixel_driver/joint_states|name|J1,J2,J3,J4,J5,J6|pos|0.000088,-0.003242,0.004494,0.000013,-0.035248,0.000000|vel|0.000000,0.020447,-0.032966,0.000000,0.269900,0.000000|eff|80.566406,193.359375,-886.230469,161.132812,32.226562,0.000000
cobot_dynamixel_driver/joint_states|name|J1,J2,J3,J4,J5,J6|pos|0.000075,-0.001652,0.002278,0.000013,-0.018182,0.000000|vel|0.000000,0.014188,-0.018570,0.000000,0.109270,0.000000|eff|0.000000,193.359375,-870.117188,128.906250,48.339844,0.000000
cobot_dynamixel_driver/joint_states|name|J1,J2,J3,J4,J5,J6|pos|0.000075,-0.000876,0.001415,0.000013,-0.009308,0.000000|vel|0.000000,0.005842,-0.014188,0.000000,0.063425,0.000000|eff|0.000000,257.812500,-918.457031,128.906250,48.339844,32.226562
cobot_dynamixel_driver/joint_states|name|J1,J2,J3,J4,J5,J6|pos|0.000075,-0.000413,0.000801,0.000013,-0.004882,0.000000|vel|0.000000,0.003338,-0.004382,0.000000,0.026887,0.000000|eff|0.000000,209.472656,-854.003906,128.906250,84.594727,28.198242
cobot_dynamixel_driver/joint_states|name|J1,J2,J3,J4,J5,J6|pos|0.000075,-0.000138,0.000751,0.000013,-0.002503,0.000000|vel|0.000000,0.004173,0.000000,0.000000,0.015856,0.000000|eff|0.000000,322.265625,-966.796875,112.792969,80.566406,32.226562
cobot_dynamixel_driver/joint_states|name|J1,J2,J3,J4,J5,J6|pos|0.000075,-0.000138,0.000175,0.000013,-0.001303,0.000000|vel|0.000000,0.000209,-0.007511,0.000000,0.011030,0.000000|eff|0.000000,386.718750,-837.890625,128.906250,80.566406,20.141602
cobot_dynamixel_driver/joint_states|name|J1,J2,J3,J4,J5,J6|pos|0.000075,-0.000138,0.000025,0.000013,-0.000703,0.000000|vel|0.000000,0.000209,-0.000417,0.000000,0.004826,0.000000|eff|0.000000,209.472656,-837.890625,161.132812,104.736328,0.000000
cobot_dynamixel_driver/goal|-:J1,J2,J3,J4,J5,J6:1.047198,0.000000,0.000000,0.000000,0.000000,0.000000:0.500000,0.500000,0.500000,0.500000,0.500000,0.500000:pos_vel_
cobot_dynamixel_driver/goal|-:J1,J2,J3,J4,J5,J6:1.047198,0.000000,0.000000,0.000000,0.000000,0.000000:0.500000,0.500000,0.500000,0.500000,0.500000,0.500000:pos_vel_
cobot_dynamixel_driver/goal|-:J1,J2,J3,J4,J5,J6:1.047198,0.000000,0.000000,0.000000,0.000000,0.000000:0.500000,0.500000,0.500000,0.500000,0.500000,0.500000:pos_vel_
cobot_dynamixel_driver/goal|-:J1,J2,J3,J4,J5,J6:1.047198,0.000000,0.000000,0.000000,0.000000,0.000000:0.500000,0.500000,0.500000,0.500000,0.500000,0.500000:pos_vel_
cobot_dynamixel_driver/goal|-:J1,J2,J3,J4,J5,J6:1.047198,0.000000,0.000000,0.000000,0.000000,0.000000:0.500000,0.500000,0.500000,0.500000,0.500000,0.500000:pos_vel_
cobot_dynamixel_driver/joint_states|name|J1,J2,J3,J4,J5,J6|pos|0.004569,-0.000138,0.000013,0.000013,-0.000414,0.000000|vel|0.156902,-0.000000,-0.000417,0.000000,0.004826,0.000000|eff|1015.136719,273.925781,-837.890625,128.906250,104.736328,0.000000
cobot_dynamixel_driver/joint_states|name|J1,J2,J3,J4,J5,J6|pos|0.030382,-0.000100,0.000013,0.000013,-0.000310,0.000000|vel|0.337382,-0.000000,0.000000,0.000000,0.005170,0.000000|eff|886.230469,225.585938,-821.777344,128.906250,60.424805,32.226562
cobot_dynamixel_driver/joint_states|name|J1,J2,J3,J4,J5,J6|pos|0.067886,-0.000038,0.000013,0.000013,-0.000310,0.000000|vel|0.414998,0.000835,0.000000,0.000000,0.000000,0.000000|eff|886.230469,225.585938,-821.777344,112.792969,60.424805,20.141602
cobot_dynamixel_driver/joint_states|name|J1,J2,J3,J4,J5,J6|pos|0.110824,0.000025,0.000000,0.000025,-0.000269,0.000000|vel|0.471750,0.000835,0.000000,0.000000,0.000000,0.000000|eff|1530.761719,193.359375,-821.777344,128.906250,84.594727,24.169922
cobot_dynamixel_driver/joint_states|name|J1,J2,J3,J4,J5,J6|pos|0.156691,0.000050,0.000000,0.000025,-0.000207,0.000000|vel|0.430021,-0.000000,-0.001043,0.000000,0.001723,0.000000|eff|1369.628906,209.472656,-805.664062,128.906250,72.509766,12.084961
cobot_dynamixel_driver/joint_states|name|J1,J2,J3,J4,J5,J6|pos|0.203834,0.000063,0.000000,0.000025,-0.000165,0.000000|vel|0.504925,-0.000000,-0.000209,0.000000,0.000000,0.000000|eff|1853.027344,241.699219,-821.777344,112.792969,80.566406,0.000000
cobot_dynamixel_driver/joint_states|name|J1,J2,J3,J4,J5,J6|pos|0.251529,0.000075,0.000000,0.000025,-0.000083,0.000000|vel|0.498874,-0.000000,-0.000209,0.000000,0.002413,0.000000|eff|934.570312,209.472656,-821.777344,128.906250,64.453125,0.000000
cobot_dynamixel_driver/joint_states|name|J1,J2,J3,J4,J5,J6|pos|0.299611,0.000075,0.000000,0.000025,-0.000083,0.000000|vel|0.496162,-0.000000,0.000000,0.000000,0.000000,0.000000|eff|1272.949219,386.718750,-773.437500,112.792969,60.424805,0.000000
cobot_dynamixel_driver/joint_states|name|J1,J2,J3,J4,J5,J6|pos|0.347856,0.000075,0.000000,0.000025,-0.000083,0.000000|vel|0.480931,-0.000000,0.000000,0.000000,0.000000,0.000000|eff|2062.500000,386.718750,-821.777344,128.906250,64.453125,0.000000
cobot_dynamixel_driver/joint_states|name|J1,J2,J3,J4,J5,J6|pos|0.396315,0.000075,0.000000,0.000025,-0.000083,0.000000|vel|0.493241,-0.000000,0.000000,0.000000,0.000000,0.000000|eff|193.359375,418.945312,-821.777344,128.906250,60.424805,0.000000
cobot_dynamixel_driver/joint_states|name|J1,J2,J3,J4,J5,J6|pos|0.444785,0.000075,0.000000,0.000025,-0.000083,0.000000|vel|0.527041,-0.000000,0.000000,0.000000,0.000000,0.000000|eff|1369.628906,435.058594,-821.777344,128.906250,68.481445,24.169922
cobot_dynamixel_driver/joint_states|name|J1,J2,J3,J4,J5,J6|pos|0.493193,0.000075,-0.000013,0.000025,0.000000,0.000000|vel|0.483434,-0.000000,0.000000,0.000000,0.003102,0.000000|eff|580.078125,338.378906,-757.324219,128.906250,48.339844,32.226562
cobot_dynamixel_driver/joint_states|name|J1,J2,J3,J4,J5,J6|pos|0.541626,0.000075,-0.000013,0.000025,0.000000,0.000000|vel|0.485103,-0.000000,0.000000,0.000000,0.000000,0.000000|eff|757.324219,290.039062,-773.437500,128.906250,24.169922,28.198242
cobot_dynamixel_driver/joint_states|name|J1,J2,J3,J4,J5,J6|pos|0.589996,0.000075,-0.000013,0.000025,0.000000,0.000000|vel|0.510350,-0.000000,0.000000,0.000000,0.000000,0.000000|eff|2030.273438,402.832031,-821.777344,128.906250,32.226562,20.141602
cobot_dynamixel_driver/joint_states|name|J1,J2,J3,J4,J5,J6|pos|0.638417,0.000075,-0.000013,0.000025,0.000000,0.000000|vel|0.497831,-0.000000,0.000000,0.000000,0.000000,0.000000|eff|273.925781,418.945312,-821.777344,128.906250,32.226562,20.141602
cobot_dynamixel_driver/joint_states|name|J1,J2,J3,J4,J5,J6|pos|0.686925,0.000075,-0.000013,0.000025,0.000000,0.000000|vel|0.497622,-0.000000,0.000000,0.000000,0.000000,0.000000|eff|1917.480469,435.058594,-773.437500,112.792969,48.339844,0.000000
cobot_dynamixel_driver/joint_states|name|J1,J2,J3,J4,J5,J6|pos|0.735421,0.000075,-0.000025,0.000025,0.000000,0.000000|vel|0.498040,-0.000000,0.000000,0.000000,0.000000,0.000000|eff|80.566406,435.058594,-821.777344,128.906250,48.339844,28.198242
cobot_dynamixel_driver/joint_states|name|J1,J2,J3,J4,J5,J6|pos|0.783891,0.000075,-0.000025,0.000025,0.000000,0.000000|vel|0.515775,-0.000000,0.000000,0.000000,0.000000,0.000000|eff|1047.363281,386.718750,-821.777344,128.906250,36.254883,32.226562
cobot_dynamixel_driver/joint_states|name|J1,J2,J3,J4,J5,J6|pos|0.832324,0.000075,-0.000025,0.000025,0.000000,0.000000|vel|0.481556,-0.000000,0.000000,0.000000,0.000000,0.000000|eff|1450.195312,386.718750,-821.777344,128.906250,44.311523,8.056641
cobot_dynamixel_driver/joint_states|name|J1,J2,J3,J4,J5,J6|pos|0.880757,0.000063,-0.000025,0.000025,0.000000,0.000000|vel|0.491780,-0.000000,0.000000,0.000000,0.000000,0.000000|eff|773.437500,451.171875,-773.437500,128.906250,24.169922,20.141602
cobot_dynamixel_driver/joint_states|name|J1,J2,J3,J4,J5,J6|pos|0.929090,0.000063,-0.000025,0.000025,0.000000,0.000000|vel|0.481348,-0.000000,0.000000,0.000000,0.000000,0.000000|eff|1917.480469,354.492188,-821.777344,128.906250,48.339844,20.141602
cobot_dynamixel_driver/joint_states|name|J1,J2,J3,J4,J5,J6|pos|0.977160,0.000063,-0.000025,0.000025,0.000000,0.000000|vel|0.478844,-0.000000,0.000000,0.000000,0.000000,0.000000|eff|80.566406,435.058594,-805.664062,128.906250,48.339844,0.000000
cobot_dynamixel_driver/joint_states|name|J1,J2,J3,J4,J5,J6|pos|1.013000,0.000050,-0.000025,0.000025,0.000000,0.000000|vel|0.236188,-0.000000,0.000000,0.000000,0.000000,0.000000|eff|322.265625,451.171875,-805.664062,128.906250,24.169922,20.141602
cobot_dynamixel_driver/joint_states|name|J1,J2,J3,J4,J5,J6|pos|1.030212,0.000050,-0.000025,0.000038,0.000000,0.000000|vel|0.117259,-0.000000,0.000000,0.000000,0.000000,0.000000|eff|273.925781,435.058594,-757.324219,128.906250,48.339844,20.141602
cobot_dynamixel_driver/joint_states|name|J1,J2,J3,J4,J5,J6|pos|1.038700,0.000050,-0.000025,0.000038,0.000000,0.000000|vel|0.057378,-0.000000,0.000000,0.000000,0.000000,0.000000|eff|257.812500,418.945312,-821.777344,64.453125,36.254883,12.084961
cobot_dynamixel_driver/joint_states|name|J1,J2,J3,J4,J5,J6|pos|1.042931,0.000050,-0.000025,0.000038,0.000000,0.000000|vel|0.032966,-0.000000,0.000000,0.000000,0.000000,0.000000|eff|145.019531,451.171875,-821.777344,32.226562,24.169922,32.226562
cobot_dynamixel_driver/goal|-:J1,J2,J3,J4,J5,J6:1.047198,0.000000,0.000000,0.000000,0.000000,0.000000:0.500000,0.500000,0.500000,0.500000,0.500000,0.500000:pos_vel_
cobot_dynamixel_driver/joint_states|name|J1,J2,J3,J4,J5,J6|pos|1.045021,0.000050,-0.000025,0.000025,0.000000,0.000000|vel|0.014814,-0.000000,0.000000,0.000000,0.000000,0.000000|eff|209.472656,451.171875,-821.777344,112.792969,28.198242,20.141602
cobot_dynamixel_driver/joint_states|name|J1,J2,J3,J4,J5,J6|pos|1.046111,0.000038,-0.000025,0.000025,0.000000,0.000000|vel|0.005425,-0.000000,0.000000,0.000000,0.000000,0.000000|eff|177.246094,451.171875,-757.324219,112.792969,48.339844,28.198242
cobot_dynamixel_driver/joint_states|name|J1,J2,J3,J4,J5,J6|pos|1.046649,0.000038,-0.000025,0.000025,0.000000,0.000000|vel|0.004382,-0.000000,0.000000,0.000000,0.000000,0.000000|eff|241.699219,451.171875,-773.437500,112.792969,28.198242,0.000000
cobot_dynamixel_driver/joint_states|name|J1,J2,J3,J4,J5,J6|pos|1.046849,0.000038,-0.000025,0.000025,0.000000,0.000000|vel|0.000417,-0.000000,0.000000,0.000000,0.000000,0.000000|eff|161.132812,451.171875,-837.890625,128.906250,48.339844,20.141602
cobot_dynamixel_driver/joint_states|name|J1,J2,J3,J4,J5,J6|pos|1.046949,0.000038,-0.000025,0.000025,0.000000,0.000000|vel|0.001043,-0.000000,0.000000,0.000000,0.000000,0.000000|eff|241.699219,451.171875,-821.777344,112.792969,36.254883,32.226562
cobot_dynamixel_driver/joint_states|name|J1,J2,J3,J4,J5,J6|pos|1.047049,0.000038,-0.000025,0.000025,0.000000,0.000000|vel|0.000626,-0.000000,0.000000,0.000000,0.000000,0.000000|eff|290.039062,451.171875,-837.890625,80.566406,36.254883,28.198242
cobot_dynamixel_driver/joint_states|name|J1,J2,J3,J4,J5,J6|pos|1.047074,0.000025,-0.000025,0.000025,0.000000,0.000000|vel|0.000417,-0.000000,0.000000,0.000000,0.000000,0.000000|eff|257.812500,451.171875,-837.890625,64.453125,48.339844,36.254883
cobot_dynamixel_driver/joint_states|name|J1,J2,J3,J4,J5,J6|pos|1.047112,0.000025,-0.000025,0.000025,0.000000,0.000000|vel|0.000209,-0.000000,0.000000,0.000000,0.000000,0.000000|eff|322.265625,515.625000,-789.550781,96.679688,36.254883,8.056641
cobot_dynamixel_driver/joint_states|name|J1,J2,J3,J4,J5,J6|pos|1.047137,0.000025,-0.000025,0.000025,0.000000,0.000000|vel|0.000209,-0.000000,0.000000,0.000000,0.000000,0.000000|eff|177.246094,563.964844,-821.777344,96.679688,32.226562,0.000000
cobot_dynamixel_driver/joint_states|name|J1,J2,J3,J4,J5,J6|pos|1.047187,0.000025,-0.000025,0.000025,0.000000,0.000000|vel|0.000417,-0.000000,0.000000,0.000000,0.000000,0.000000|eff|177.246094,483.398438,-821.777344,128.906250,36.254883,20.141602
cobot_dynamixel_driver/joint_states|name|J1,J2,J3,J4,J5,J6|pos|1.047212,0.000025,-0.000025,0.000025,0.000000,0.000000|vel|0.000417,-0.000000,0.000000,0.000000,0.000000,0.000000|eff|177.246094,531.738281,-789.550781,32.226562,24.169922,0.000000
cobot_dynamixel_driver/joint_states|name|J1,J2,J3,J4,J5,J6|pos|1.047250,0.000025,-0.000025,0.000025,0.000000,0.000000|vel|0.000417,-0.000000,0.000000,0.000000,0.000000,0.000000|eff|161.132812,451.171875,-757.324219,128.906250,24.169922,0.000000
cobot_dynamixel_driver/joint_states|name|J1,J2,J3,J4,J5,J6|pos|1.047262,0.000025,-0.000025,0.000025,0.000000,0.000000|vel|0.000417,-0.000000,0.000000,0.000000,0.000000,0.000000|eff|177.246094,483.398438,-789.550781,64.453125,44.311523,0.000000
cobot_dynamixel_driver/joint_states|name|J1,J2,J3,J4,J5,J6|pos|1.047262,0.000025,-0.000025,0.000025,0.000000,0.000000|vel|0.000000,-0.000000,0.000000,0.000000,0.000000,0.000000|eff|177.246094,563.964844,-805.664062,128.906250,24.169922,0.000000
cobot_dynamixel_driver/joint_states|name|J1,J2,J3,J4,J5,J6|pos|1.047262,0.000025,-0.000025,0.000025,0.000000,0.000000|vel|0.000000,-0.000000,0.000000,0.000000,0.000000,0.000000|eff|145.019531,483.398438,-821.777344,112.792969,36.254883,0.000000
cobot_dynamixel_driver/joint_states|name|J1,J2,J3,J4,J5,J6|pos|1.047262,0.000025,-0.000025,0.000025,0.000000,0.000000|vel|0.000000,-0.000000,0.000000,0.000000,0.000000,0.000000|eff|177.246094,451.171875,-821.777344,96.679688,24.169922,0.000000
cobot_dynamixel_driver/joint_states|name|J1,J2,J3,J4,J5,J6|pos|1.047262,0.000025,-0.000025,0.000025,0.000000,0.000000|vel|0.000000,-0.000000,0.000000,0.000000,0.000000,0.000000|eff|80.566406,451.171875,-805.664062,64.453125,24.169922,20.141602
cobot_dynamixel_driver/joint_states|name|J1,J2,J3,J4,J5,J6|pos|1.047262,0.000025,-0.000025,0.000025,0.000000,0.000000|vel|0.000000,-0.000000,0.000000,0.000000,0.000000,0.000000|eff|128.906250,563.964844,-805.664062,64.453125,24.169922,0.000000
cobot_dynamixel_driver/joint_states|name|J1,J2,J3,J4,J5,J6|pos|1.047262,0.000025,-0.000025,0.000025,0.000000,0.000000|vel|0.000000,-0.000000,0.000000,0.000000,0.000000,0.000000|eff|177.246094,451.171875,-773.437500,32.226562,24.169922,0.000000
cobot_dynamixel_driver/joint_states|name|J1,J2,J3,J4,J5,J6|pos|1.047250,0.000025,-0.000025,0.000025,0.000000,0.000000|vel|0.000000,-0.000000,0.000000,0.000000,0.000000,0.000000|eff|0.000000,531.738281,-821.777344,32.226562,24.169922,0.000000
cobot_dynamixel_driver/joint_states|name|J1,J2,J3,J4,J5,J6|pos|1.047250,0.000025,-0.000025,0.000025,0.000000,0.000000|vel|0.000000,-0.000000,0.000000,0.000000,0.000000,0.000000|eff|128.906250,499.511719,-821.777344,0.000000,28.198242,32.226562
cobot_dynamixel_driver/joint_states|name|J1,J2,J3,J4,J5,J6|pos|1.047250,0.000013,-0.000025,0.000025,0.000000,0.000000|vel|0.000000,-0.000000,0.000000,0.000000,0.000000,0.000000|eff|80.566406,499.511719,-789.550781,32.226562,36.254883,24.169922
cobot_dynamixel_driver/joint_states|name|J1,J2,J3,J4,J5,J6|pos|1.047250,0.000013,-0.000025,0.000025,0.000000,0.000000|vel|0.000000,-0.000000,0.000000,0.000000,0.000000,0.000000|eff|80.566406,515.625000,-757.324219,128.906250,48.339844,20.141602
cobot_dynamixel_driver/joint_states|name|J1,J2,J3,J4,J5,J6|pos|1.047250,0.000013,-0.000025,0.000025,0.000000,0.000000|vel|0.000000,-0.000000,0.000000,0.000000,0.000000,0.000000|eff|32.226562,467.285156,-821.777344,128.906250,36.254883,20.141602
cobot_dynamixel_driver/joint_states|name|J1,J2,J3,J4,J5,J6|pos|1.047250,0.000013,-0.000025,0.000025,0.000000,0.000000|vel|0.000000,-0.000000,0.000000,0.000000,0.000000,0.000000|eff|0.000000,499.511719,-821.777344,96.679688,32.226562,0.000000
cobot_dynamixel_driver/goal|-:J1,J2,J3,J4,J5,J6:1.047198,0.000000,0.000000,0.000000,0.000000,0.000000:0.500000,0.500000,0.500000,0.500000,0.500000,0.500000:pos_vel_
cobot_dynamixel_driver/joint_states|name|J1,J2,J3,J4,J5,J6|pos|1.047250,0.000013,-0.000025,0.000025,0.000000,0.000000|vel|0.000000,-0.000000,0.000000,0.000000,0.000000,0.000000|eff|0.000000,515.625000,-821.777344,112.792969,24.169922,36.254883
cobot_dynamixel_driver/joint_states|name|J1,J2,J3,J4,J5,J6|pos|1.047237,0.000013,-0.000025,0.000025,0.000000,0.000000|vel|0.000000,-0.000000,0.000000,0.000000,0.000000,0.000000|eff|112.792969,483.398438,-821.777344,112.792969,28.198242,8.056641
cobot_dynamixel_driver/joint_states|name|J1,J2,J3,J4,J5,J6|pos|1.047237,0.000013,-0.000025,0.000025,0.000000,0.000000|vel|0.000000,-0.000000,0.000000,0.000000,0.000000,0.000000|eff|0.000000,467.285156,-805.664062,112.792969,24.169922,24.169922
cobot_dynamixel_driver/joint_states|name|J1,J2,J3,J4,J5,J6|pos|1.047237,0.000013,-0.000025,0.000025,0.000000,0.000000|vel|0.000000,-0.000000,0.000000,0.000000,0.000000,0.000000|eff|64.453125,467.285156,-773.437500,64.453125,36.254883,8.056641
cobot_dynamixel_driver/joint_states|name|J1,J2,J3,J4,J5,J6|pos|1.047237,0.000013,-0.000025,0.000025,0.000000,0.000000|vel|0.000000,-0.000000,0.000000,0.000000,0.000000,0.000000|eff|64.453125,451.171875,-821.777344,128.906250,36.254883,24.169922
cobot_dynamixel_driver/joint_states|name|J1,J2,J3,J4,J5,J6|pos|1.047225,0.000013,-0.000025,0.000025,0.000000,0.000000|vel|0.000000,-0.000000,0.000000,0.000000,0.000000,0.000000|eff|0.000000,451.171875,-821.777344,0.000000,36.254883,12.084961
cobot_dynamixel_driver/joint_states|name|J1,J2,J3,J4,J5,J6|pos|1.047225,0.000013,-0.000025,0.000025,0.000000,0.000000|vel|0.000000,-0.000000,0.000000,0.000000,0.000000,0.000000|eff|0.000000,451.171875,-837.890625,64.453125,32.226562,0.000000
cobot_dynamixel_driver/joint_states|name|J1,J2,J3,J4,J5,J6|pos|1.047225,0.000013,-0.000025,0.000025,0.000000,0.000000|vel|0.000000,-0.000000,0.000000,0.000000,0.000000,0.000000|eff|0.000000,451.171875,-821.777344,128.906250,24.169922,20.141602
cobot_dynamixel_driver/joint_states|name|J1,J2,J3,J4,J5,J6|pos|1.047200,0.000013,-0.000025,0.000025,0.000000,0.000000|vel|0.000000,-0.000000,0.000000,0.000000,0.000000,0.000000|eff|48.339844,515.625000,-805.664062,32.226562,24.169922,28.198242
cobot_dynamixel_driver/joint_states|name|J1,J2,J3,J4,J5,J6|pos|1.047187,0.000013,-0.000025,0.000025,0.000000,0.000000|vel|0.000000,-0.000000,0.000000,0.000000,0.000000,0.000000|eff|0.000000,451.171875,-821.777344,112.792969,44.311523,20.141602
cobot_dynamixel_driver/joint_states|name|J1,J2,J3,J4,J5,J6|pos|1.047187,0.000013,-0.000025,0.000025,0.000000,0.000000|vel|0.000000,-0.000000,0.000000,0.000000,0.000000,0.000000|eff|0.000000,483.398438,-821.777344,112.792969,24.169922,20.141602
cobot_dynamixel_driver/joint_states|name|J1,J2,J3,J4,J5,J6|pos|1.047175,0.000013,-0.000025,0.000025,0.000000,0.000000|vel|0.000000,-0.000000,0.000000,0.000000,0.000000,0.000000|eff|0.000000,515.625000,-805.664062,64.453125,28.198242,8.056641
cobot_dynamixel_driver/joint_states|name|J1,J2,J3,J4,J5,J6|pos|1.047175,0.000013,-0.000025,0.000025,0.000000,0.000000|vel|0.000000,-0.000000,0.000000,0.000000,0.000000,0.000000|eff|0.000000,451.171875,-821.777344,64.453125,24.169922,0.000000
cobot_dynamixel_driver/joint_states|name|J1,J2,J3,J4,J5,J6|pos|1.047175,0.000013,-0.000025,0.000025,0.000000,0.000000|vel|0.000000,-0.000000,0.000000,0.000000,0.000000,0.000000|eff|0.000000,451.171875,-741.210938,96.679688,28.198242,0.000000
cobot_dynamixel_driver/joint_states|name|J1,J2,J3,J4,J5,J6|pos|1.047175,0.000013,-0.000025,0.000025,0.000000,0.000000|vel|0.000000,-0.000000,0.000000,0.000000,0.000000,0.000000|eff|0.000000,515.625000,-757.324219,128.906250,36.254883,0.000000
cobot_dynamixel_driver/joint_states|name|J1,J2,J3,J4,J5,J6|pos|1.047175,0.000013,-0.000025,0.000025,0.000000,0.000000|vel|0.000000,-0.000000,0.000000,0.000000,0.000000,0.000000|eff|0.000000,563.964844,-837.890625,128.906250,36.254883,32.226562
cobot_dynamixel_driver/joint_states|name|J1,J2,J3,J4,J5,J6|pos|1.047175,0.000013,-0.000025,0.000025,0.000000,0.000000|vel|0.000000,-0.000000,0.000000,0.000000,0.000000,0.000000|eff|0.000000,467.285156,-821.777344,112.792969,28.198242,24.169922
cobot_dynamixel_driver/joint_states|name|J1,J2,J3,J4,J5,J6|pos|1.047175,0.000013,-0.000025,0.000025,0.000000,0.000000|vel|0.000000,-0.000000,0.000000,0.000000,0.000000,0.000000|eff|0.000000,547.851562,-821.777344,64.453125,44.311523,20.141602
cobot_dynamixel_driver/joint_states|name|J1,J2,J3,J4,J5,J6|pos|1.047175,0.000013,-0.000025,0.000025,0.000000,0.000000|vel|0.000000,-0.000000,0.000000,0.000000,0.000000,0.000000|eff|0.000000,563.964844,-821.777344,128.906250,44.311523,12.084961
cobot_dynamixel_driver/joint_states|name|J1,J2,J3,J4,J5,J6|pos|1.047175,0.000013,-0.000025,0.000025,0.000000,0.000000|vel|0.000000,-0.000000,0.000000,0.000000,0.000000,0.000000|eff|0.000000,467.285156,-805.664062,112.792969,24.169922,0.000000
cobot_dynamixel_driver/joint_states|name|J1,J2,J3,J4,J5,J6|pos|1.047175,0.000013,-0.000025,0.000025,0.000000,0.000000|vel|0.000000,-0.000000,0.000000,0.000000,0.000000,0.000000|eff|0.000000,467.285156,-789.550781,128.906250,48.339844,0.000000
cobot_dynamixel_driver/joint_states|name|J1,J2,J3,J4,J5,J6|pos|1.047175,0.000013,-0.000025,0.000025,0.000000,0.000000|vel|0.000000,-0.000000,0.000000,0.000000,0.000000,0.000000|eff|0.000000,612.304688,-821.777344,112.792969,48.339844,28.198242
cobot_dynamixel_driver/joint_states|name|J1,J2,J3,J4,J5,J6|pos|1.047175,0.000013,-0.000025,0.000025,0.000000,0.000000|vel|0.000000,-0.000000,0.000000,0.000000,0.000000,0.000000|eff|0.000000,451.171875,-821.777344,96.679688,36.254883,0.000000
cobot_dynamixel_driver/joint_states|name|J1,J2,J3,J4,J5,J6|pos|1.047175,0.000013,-0.000025,0.000025,0.000000,0.000000|vel|0.000000,-0.000000,0.000000,0.000000,0.000000,0.000000|eff|0.000000,531.738281,-837.890625,112.792969,36.254883,8.056641
cobot_dynamixel_driver/joint_states|name|J1,J2,J3,J4,J5,J6|pos|1.047175,0.000013,-0.000025,0.000025,0.000000,0.000000|vel|0.000000,-0.000000,0.000000,0.000000,0.000000,0.000000|eff|0.000000,499.511719,-757.324219,128.906250,24.169922,36.254883
cobot_dynamixel_driver/joint_states|name|J1,J2,J3,J4,J5,J6|pos|1.047175,0.000013,-0.000025,0.000025,0.000000,0.000000|vel|0.000000,-0.000000,0.000000,0.000000,0.000000,0.000000|eff|0.000000,451.171875,-821.777344,112.792969,32.226562,0.000000
cobot_dynamixel_driver/joint_states|name|J1,J2,J3,J4,J5,J6|pos|1.047175,0.000013,-0.000025,0.000025,0.000000,0.000000|vel|0.000000,-0.000000,0.000000,0.000000,0.000000,0.000000|eff|48.339844,451.171875,-789.550781,128.906250,36.254883,0.000000
cobot_dynamixel_driver/joint_states|name|J1,J2,J3,J4,J5,J6|pos|1.047162,0.000013,-0.000025,0.000025,0.000000,0.000000|vel|0.000000,-0.000000,0.000000,0.000000,0.000000,0.000000|eff|0.000000,451.171875,-821.777344,112.792969,28.198242,32.226562
cobot_dynamixel_driver/joint_states|name|J1,J2,J3,J4,J5,J6|pos|1.047162,0.000013,-0.000025,0.000025,0.000000,0.000000|vel|0.000000,-0.000000,0.000000,0.000000,0.000000,0.000000|eff|0.000000,451.171875,-805.664062,112.792969,44.311523,32.226562
cobot_dynamixel_driver/joint_states|name|J1,J2,J3,J4,J5,J6|pos|1.047162,0.000013,-0.000025,0.000025,0.000000,0.000000|vel|0.000000,-0.000000,0.000000,0.000000,0.000000,0.000000|eff|0.000000,451.171875,-837.890625,112.792969,48.339844,32.226562
cobot_dynamixel_driver/joint_states|name|J1,J2,J3,J4,J5,J6|pos|1.047162,0.000013,-0.000025,0.000025,0.000000,0.000000|vel|0.000000,-0.000000,0.000000,0.000000,0.000000,0.000000|eff|0.000000,451.171875,-805.664062,128.906250,24.169922,8.056641
cobot_dynamixel_driver/joint_states|name|J1,J2,J3,J4,J5,J6|pos|1.047162,0.000013,-0.000025,0.000025,0.000000,0.000000|vel|0.000000,-0.000000,0.000000,0.000000,0.000000,0.000000|eff|0.000000,451.171875,-821.777344,112.792969,28.198242,0.000000
cobot_dynamixel_driver/joint_states|name|J1,J2,J3,J4,J5,J6|pos|1.047162,0.000013,-0.000025,0.000025,0.000000,0.000000|vel|0.000000,-0.000000,0.000000,0.000000,0.000000,0.000000|eff|0.000000,451.171875,-773.437500,112.792969,48.339844,36.254883
cobot_dynamixel_driver/joint_states|name|J1,J2,J3,J4,J5,J6|pos|1.047162,0.000013,-0.000025,0.000025,0.000000,0.000000|vel|0.000000,-0.000000,0.000000,0.000000,0.000000,0.000000|eff|0.000000,531.738281,-821.777344,96.679688,32.226562,20.141602
cobot_dynamixel_driver/joint_states|name|J1,J2,J3,J4,J5,J6|pos|1.047162,0.000013,-0.000025,0.000025,0.000000,0.000000|vel|0.000000,-0.000000,0.000000,0.000000,0.000000,0.000000|eff|0.000000,467.285156,-837.890625,112.792969,24.169922,32.226562
cobot_dynamixel_driver/joint_states|name|J1,J2,J3,J4,J5,J6|pos|1.047162,0.000013,-0.000025,0.000025,0.000000,0.000000|vel|0.000000,-0.000000,0.000000,0.000000,0.000000,0.000000|eff|0.000000,451.171875,-837.890625,112.792969,36.254883,8.056641
cobot_dynamixel_driver/joint_states|name|J1,J2,J3,J4,J5,J6|pos|1.047162,0.000013,-0.000025,0.000025,0.000000,0.000000|vel|0.000000,-0.000000,0.000000,0.000000,0.000000,0.000000|eff|0.000000,451.171875,-805.664062,64.453125,24.169922,32.226562
cobot_dynamixel_driver/joint_states|name|J1,J2,J3,J4,J5,J6|pos|1.047162,0.000013,-0.000025,0.000025,0.000000,0.000000|vel|0.000000,-0.000000,0.000000,0.000000,0.000000,0.000000|eff|0.000000,580.078125,-805.664062,32.226562,24.169922,32.226562
cobot_dynamixel_driver/joint_states|name|J1,J2,J3,J4,J5,J6|pos|1.047162,0.000013,-0.000025,0.000025,0.000000,0.000000|vel|0.000000,-0.000000,0.000000,0.000000,0.000000,0.000000|eff|0.000000,451.171875,-757.324219,96.679688,32.226562,36.254883
cobot_dynamixel_driver/joint_states|name|J1,J2,J3,J4,J5,J6|pos|1.047162,0.000013,-0.000025,0.000025,0.000000,0.000000|vel|0.000000,-0.000000,0.000000,0.000000,0.000000,0.000000|eff|0.000000,467.285156,-821.777344,112.792969,24.169922,32.226562
cobot_dynamixel_driver/joint_states|name|J1,J2,J3,J4,J5,J6|pos|1.047162,0.000013,-0.000025,0.000025,0.000000,0.000000|vel|0.000000,-0.000000,0.000000,0.000000,0.000000,0.000000|eff|0.000000,612.304688,-757.324219,80.566406,24.169922,0.000000
cobot_dynamixel_driver/joint_states|name|J1,J2,J3,J4,J5,J6|pos|1.047162,0.000013,-0.000025,0.000025,0.000000,0.000000|vel|0.000000,-0.000000,0.000000,0.000000,0.000000,0.000000|eff|0.000000,467.285156,-757.324219,128.906250,24.169922,0.000000
cobot_dynamixel_driver/joint_states|name|J1,J2,J3,J4,J5,J6|pos|1.047162,0.000013,-0.000025,0.000025,0.000000,0.000000|vel|0.000000,-0.000000,0.000000,0.000000,0.000000,0.000000|eff|0.000000,467.285156,-805.664062,128.906250,28.198242,0.000000
cobot_dynamixel_driver/joint_states|name|J1,J2,J3,J4,J5,J6|pos|1.047162,0.000013,-0.000025,0.000025,0.000000,0.000000|vel|0.000000,-0.000000,0.000000,0.000000,0.000000,0.000000|eff|0.000000,580.078125,-805.664062,0.000000,24.169922,32.226562
cobot_dynamixel_driver/joint_states|name|J1,J2,J3,J4,J5,J6|pos|1.047162,0.000013,-0.000025,0.000025,0.000000,0.000000|vel|0.000000,-0.000000,0.000000,0.000000,0.000000,0.000000|eff|0.000000,499.511719,-821.777344,128.906250,36.254883,20.141602
cobot_dynamixel_driver/joint_states|name|J1,J2,J3,J4,J5,J6|pos|1.047162,0.000013,-0.000025,0.000025,0.000000,0.000000|vel|0.000000,-0.000000,0.000000,0.000000,0.000000,0.000000|eff|0.000000,451.171875,-821.777344,128.906250,36.254883,0.000000
cobot_dynamixel_driver/joint_states|name|J1,J2,J3,J4,J5,J6|pos|1.047162,0.000013,-0.000025,0.000025,0.000000,0.000000|vel|0.000000,-0.000000,0.000000,0.000000,0.000000,0.000000|eff|0.000000,467.285156,-773.437500,128.906250,48.339844,12.084961
cobot_dynamixel_driver/joint_states|name|J1,J2,J3,J4,J5,J6|pos|1.047162,0.000013,-0.000025,0.000025,0.000000,0.000000|vel|0.000000,-0.000000,0.000000,0.000000,0.000000,0.000000|eff|0.000000,580.078125,-821.777344,32.226562,48.339844,28.198242
cobot_dynamixel_driver/joint_states|name|J1,J2,J3,J4,J5,J6|pos|1.047162,0.000013,-0.000025,0.000025,0.000000,0.000000|vel|0.000000,-0.000000,0.000000,0.000000,0.000000,0.000000|eff|0.000000,628.417969,-773.437500,128.906250,24.169922,0.000000
cobot_dynamixel_driver/joint_states|name|J1,J2,J3,J4,J5,J6|pos|1.047162,0.000013,-0.000025,0.000025,0.000000,0.000000|vel|0.000000,-0.000000,0.000000,0.000000,0.000000,0.000000|eff|0.000000,451.171875,-821.777344,128.906250,24.169922,20.141602
