surachairobotic/cobot/cobot_dynamixel_driver/log/2018-12-19T09:18:22.077974_driver_log.txt
cobot_dynamixel_driver/joint_states|name|J1,J2,J3,J4,J5,J6|pos|0.001339,-1.268785,1.296275,0.001014,-1.180929,-0.000083|vel|0.000000,-0.000000,0.000000,0.000000,0.000000,0.000000|eff|0.000000,0.000000,0.000000,0.000000,0.000000,0.000000
cobot_dynamixel_driver/joint_states|name|J1,J2,J3,J4,J5,J6|pos|0.001339,-1.268785,1.296275,0.001014,-1.180929,-0.000083|vel|0.000000,-0.000000,0.000000,0.000000,0.000000,0.000000|eff|0.000000,0.000000,0.000000,0.000000,0.000000,0.000000
cobot_dynamixel_driver/joint_states|name|J1,J2,J3,J4,J5,J6|pos|0.001339,-1.268785,1.296275,0.001014,-1.180929,-0.000083|vel|0.000000,-0.000000,0.000000,0.000000,0.000000,0.000000|eff|0.000000,0.000000,0.000000,0.000000,0.000000,0.000000
cobot_dynamixel_driver/joint_states|name|J1,J2,J3,J4,J5,J6|pos|0.001339,-1.268785,1.296275,0.001014,-1.180929,-0.000083|vel|0.000000,-0.000000,0.000000,0.000000,0.000000,0.000000|eff|0.000000,0.000000,0.000000,0.000000,0.000000,0.000000
cobot_dynamixel_driver/joint_states|name|J1,J2,J3,J4,J5,J6|pos|0.001339,-1.268785,1.296275,0.001014,-1.180929,-0.000083|vel|0.000000,-0.000000,0.000000,0.000000,0.000000,0.000000|eff|0.000000,0.000000,0.000000,0.000000,0.000000,0.000000
cobot_dynamixel_driver/joint_states|name|J1,J2,J3,J4,J5,J6|pos|0.001339,-1.268785,1.296275,0.001014,-1.180929,-0.000083|vel|0.000000,-0.000000,0.000000,0.000000,0.000000,0.000000|eff|0.000000,0.000000,0.000000,0.000000,0.000000,0.000000
cobot_dynamixel_driver/joint_states|name|J1,J2,J3,J4,J5,J6|pos|0.001339,-1.268785,1.296275,0.001014,-1.180929,-0.000083|vel|0.000000,-0.000000,0.000000,0.000000,0.000000,0.000000|eff|0.000000,0.000000,0.000000,0.000000,0.000000,0.000000
cobot_dynamixel_driver/joint_states|name|J1,J2,J3,J4,J5,J6|pos|0.001339,-1.268785,1.296275,0.001014,-1.180929,-0.000083|vel|0.000000,-0.000000,0.000000,0.000000,0.000000,0.000000|eff|0.000000,0.000000,0.000000,0.000000,0.000000,0.000000
cobot_dynamixel_driver/joint_states|name|J1,J2,J3,J4,J5,J6|pos|0.001339,-1.268785,1.296275,0.001014,-1.180929,-0.000083|vel|0.000000,-0.000000,0.000000,0.000000,0.000000,0.000000|eff|0.000000,0.000000,0.000000,0.000000,0.000000,0.000000
cobot_dynamixel_driver/joint_states|name|J1,J2,J3,J4,J5,J6|pos|0.001339,-1.268785,1.296275,0.001014,-1.180929,-0.000083|vel|0.000000,-0.000000,0.000000,0.000000,0.000000,0.000000|eff|0.000000,0.000000,0.000000,0.000000,0.000000,0.000000
cobot_dynamixel_driver/joint_states|name|J1,J2,J3,J4,J5,J6|pos|0.001339,-1.268785,1.296275,0.001014,-1.180929,-0.000083|vel|0.000000,-0.000000,0.000000,0.000000,0.000000,0.000000|eff|0.000000,0.000000,0.000000,0.000000,0.000000,0.000000
cobot_dynamixel_driver/joint_states|name|J1,J2,J3,J4,J5,J6|pos|0.001339,-1.268785,1.296275,0.001014,-1.180929,-0.000083|vel|0.000000,-0.000000,0.000000,0.000000,0.000000,0.000000|eff|0.000000,0.000000,0.000000,0.000000,0.000000,0.000000
cobot_dynamixel_driver/joint_states|name|J1,J2,J3,J4,J5,J6|pos|0.001339,-1.268785,1.296275,0.001014,-1.180929,-0.000083|vel|0.000000,-0.000000,0.000000,0.000000,0.000000,0.000000|eff|0.000000,0.000000,0.000000,0.000000,0.000000,0.000000
cobot_dynamixel_driver/joint_states|name|J1,J2,J3,J4,J5,J6|pos|0.001339,-1.268785,1.296275,0.001014,-1.180929,-0.000083|vel|0.000000,-0.000000,0.000000,0.000000,0.000000,0.000000|eff|0.000000,0.000000,0.000000,0.000000,0.000000,0.000000
cobot_dynamixel_driver/joint_states|name|J1,J2,J3,J4,J5,J6|pos|0.001339,-1.268785,1.296275,0.001014,-1.180929,-0.000083|vel|0.000000,-0.000000,0.000000,0.000000,0.000000,0.000000|eff|0.000000,0.000000,0.000000,0.000000,0.000000,0.000000
cobot_dynamixel_driver/joint_states|name|J1,J2,J3,J4,J5,J6|pos|0.001339,-1.268785,1.296275,0.001014,-1.180929,-0.000083|vel|0.000000,-0.000000,0.000000,0.000000,0.000000,0.000000|eff|0.000000,0.000000,0.000000,0.000000,0.000000,0.000000
cobot_dynamixel_driver/joint_states|name|J1,J2,J3,J4,J5,J6|pos|0.001339,-1.268785,1.296275,0.001014,-1.180929,-0.000083|vel|0.000000,-0.000000,0.000000,0.000000,0.000000,0.000000|eff|0.000000,0.000000,0.000000,0.000000,0.000000,0.000000
cobot_dynamixel_driver/joint_states|name|J1,J2,J3,J4,J5,J6|pos|0.001339,-1.268785,1.296275,0.001014,-1.180929,-0.000083|vel|0.000000,-0.000000,0.000000,0.000000,0.000000,0.000000|eff|0.000000,0.000000,0.000000,0.000000,0.000000,0.000000
cobot_dynamixel_driver/joint_states|name|J1,J2,J3,J4,J5,J6|pos|0.001339,-1.268785,1.296275,0.001014,-1.180929,-0.000083|vel|0.000000,-0.000000,0.000000,0.000000,0.000000,0.000000|eff|0.000000,0.000000,0.000000,0.000000,0.000000,0.000000
cobot_dynamixel_driver/joint_states|name|J1,J2,J3,J4,J5,J6|pos|0.001339,-1.268785,1.296275,0.001014,-1.180929,-0.000083|vel|0.000000,-0.000000,0.000000,0.000000,0.000000,0.000000|eff|0.000000,0.000000,0.000000,0.000000,0.000000,0.000000
cobot_dynamixel_driver/joint_states|name|J1,J2,J3,J4,J5,J6|pos|0.001339,-1.268785,1.296275,0.001014,-1.180929,-0.000083|vel|0.000000,-0.000000,0.000000,0.000000,0.000000,0.000000|eff|0.000000,0.000000,0.000000,0.000000,0.000000,0.000000
cobot_dynamixel_driver/joint_states|name|J1,J2,J3,J4,J5,J6|pos|0.001339,-1.268785,1.296275,0.001014,-1.180929,-0.000083|vel|0.000000,-0.000000,0.000000,0.000000,0.000000,0.000000|eff|0.000000,0.000000,0.000000,0.000000,0.000000,0.000000
cobot_dynamixel_driver/joint_states|name|J1,J2,J3,J4,J5,J6|pos|0.001339,-1.268785,1.296275,0.001014,-1.180929,-0.000083|vel|0.000000,-0.000000,0.000000,0.000000,0.000000,0.000000|eff|0.000000,0.000000,0.000000,0.000000,0.000000,0.000000
cobot_dynamixel_driver/joint_states|name|J1,J2,J3,J4,J5,J6|pos|0.001339,-1.268785,1.296275,0.001014,-1.180929,-0.000083|vel|0.000000,-0.000000,0.000000,0.000000,0.000000,0.000000|eff|0.000000,0.000000,0.000000,0.000000,0.000000,0.000000
cobot_dynamixel_driver/joint_states|name|J1,J2,J3,J4,J5,J6|pos|0.001339,-1.268785,1.296275,0.001014,-1.180929,-0.000083|vel|0.000000,-0.000000,0.000000,0.000000,0.000000,0.000000|eff|0.000000,0.000000,0.000000,0.000000,0.000000,0.000000
cobot_dynamixel_driver/joint_states|name|J1,J2,J3,J4,J5,J6|pos|0.001339,-1.268785,1.296275,0.001014,-1.180929,-0.000083|vel|0.000000,-0.000000,0.000000,0.000000,0.000000,0.000000|eff|0.000000,0.000000,0.000000,0.000000,0.000000,0.000000
cobot_dynamixel_driver/joint_states|name|J1,J2,J3,J4,J5,J6|pos|0.001339,-1.268785,1.296275,0.001014,-1.180929,-0.000083|vel|0.000000,-0.000000,0.000000,0.000000,0.000000,0.000000|eff|0.000000,0.000000,0.000000,0.000000,0.000000,0.000000
cobot_dynamixel_driver/joint_states|name|J1,J2,J3,J4,J5,J6|pos|0.001339,-1.268785,1.296275,0.001014,-1.180929,-0.000083|vel|0.000000,-0.000000,0.000000,0.000000,0.000000,0.000000|eff|0.000000,0.000000,0.000000,0.000000,0.000000,0.000000
cobot_dynamixel_driver/joint_states|name|J1,J2,J3,J4,J5,J6|pos|0.001339,-1.268785,1.296275,0.001014,-1.180929,-0.000083|vel|0.000000,-0.000000,0.000000,0.000000,0.000000,0.000000|eff|0.000000,0.000000,0.000000,0.000000,0.000000,0.000000
cobot_dynamixel_driver/joint_states|name|J1,J2,J3,J4,J5,J6|pos|0.001339,-1.268785,1.296275,0.001014,-1.180929,-0.000083|vel|0.000000,-0.000000,0.000000,0.000000,0.000000,0.000000|eff|0.000000,0.000000,0.000000,0.000000,0.000000,0.000000
cobot_dynamixel_driver/joint_states|name|J1,J2,J3,J4,J5,J6|pos|0.001339,-1.268785,1.296275,0.001014,-1.180929,-0.000083|vel|0.000000,-0.000000,0.000000,0.000000,0.000000,0.000000|eff|0.000000,0.000000,0.000000,0.000000,0.000000,0.000000
cobot_dynamixel_driver/joint_states|name|J1,J2,J3,J4,J5,J6|pos|0.001339,-1.268785,1.296275,0.001014,-1.180929,-0.000083|vel|0.000000,-0.000000,0.000000,0.000000,0.000000,0.000000|eff|0.000000,0.000000,0.000000,0.000000,0.000000,0.000000
cobot_dynamixel_driver/joint_states|name|J1,J2,J3,J4,J5,J6|pos|0.001339,-1.268785,1.296275,0.001014,-1.180929,-0.000083|vel|0.000000,-0.000000,0.000000,0.000000,0.000000,0.000000|eff|0.000000,0.000000,0.000000,0.000000,0.000000,0.000000
cobot_dynamixel_driver/joint_states|name|J1,J2,J3,J4,J5,J6|pos|0.001339,-1.268785,1.296275,0.001014,-1.180929,-0.000083|vel|0.000000,-0.000000,0.000000,0.000000,0.000000,0.000000|eff|0.000000,0.000000,0.000000,0.000000,0.000000,0.000000
cobot_dynamixel_driver/joint_states|name|J1,J2,J3,J4,J5,J6|pos|0.001339,-1.268785,1.296275,0.001014,-1.180929,-0.000083|vel|0.000000,-0.000000,0.000000,0.000000,0.000000,0.000000|eff|0.000000,0.000000,0.000000,0.000000,0.000000,0.000000
cobot_dynamixel_driver/joint_states|name|J1,J2,J3,J4,J5,J6|pos|0.001339,-1.268785,1.296275,0.001014,-1.180929,-0.000083|vel|0.000000,-0.000000,0.000000,0.000000,0.000000,0.000000|eff|0.000000,0.000000,0.000000,0.000000,0.000000,0.000000
cobot_dynamixel_driver/joint_states|name|J1,J2,J3,J4,J5,J6|pos|0.001339,-1.268785,1.296275,0.001014,-1.180929,-0.000083|vel|0.000000,-0.000000,0.000000,0.000000,0.000000,0.000000|eff|0.000000,0.000000,0.000000,0.000000,0.000000,0.000000
cobot_dynamixel_driver/joint_states|name|J1,J2,J3,J4,J5,J6|pos|0.001339,-1.268785,1.296275,0.001014,-1.180929,-0.000083|vel|0.000000,-0.000000,0.000000,0.000000,0.000000,0.000000|eff|0.000000,0.000000,0.000000,0.000000,0.000000,0.000000
cobot_dynamixel_driver/joint_states|name|J1,J2,J3,J4,J5,J6|pos|0.001339,-1.268785,1.296275,0.001014,-1.180929,-0.000083|vel|0.000000,-0.000000,0.000000,0.000000,0.000000,0.000000|eff|0.000000,0.000000,0.000000,0.000000,0.000000,0.000000
cobot_dynamixel_driver/joint_states|name|J1,J2,J3,J4,J5,J6|pos|0.001339,-1.268785,1.296275,0.001014,-1.180929,-0.000083|vel|0.000000,-0.000000,0.000000,0.000000,0.000000,0.000000|eff|0.000000,0.000000,0.000000,0.000000,0.000000,0.000000
cobot_dynamixel_driver/joint_states|name|J1,J2,J3,J4,J5,J6|pos|0.001339,-1.268785,1.296275,0.001014,-1.180929,-0.000083|vel|0.000000,-0.000000,0.000000,0.000000,0.000000,0.000000|eff|0.000000,0.000000,0.000000,0.000000,0.000000,0.000000
cobot_dynamixel_driver/joint_states|name|J1,J2,J3,J4,J5,J6|pos|0.001339,-1.268785,1.296275,0.001014,-1.180929,-0.000083|vel|0.000000,-0.000000,0.000000,0.000000,0.000000,0.000000|eff|0.000000,0.000000,0.000000,0.000000,0.000000,0.000000
cobot_dynamixel_driver/joint_states|name|J1,J2,J3,J4,J5,J6|pos|0.001339,-1.268785,1.296275,0.001014,-1.180929,-0.000083|vel|0.000000,-0.000000,0.000000,0.000000,0.000000,0.000000|eff|0.000000,0.000000,0.000000,0.000000,0.000000,0.000000
cobot_dynamixel_driver/joint_states|name|J1,J2,J3,J4,J5,J6|pos|0.001339,-1.268785,1.296275,0.001014,-1.180929,-0.000083|vel|0.000000,-0.000000,0.000000,0.000000,0.000000,0.000000|eff|0.000000,0.000000,0.000000,0.000000,0.000000,0.000000
cobot_dynamixel_driver/joint_states|name|J1,J2,J3,J4,J5,J6|pos|0.001339,-1.268785,1.296275,0.001014,-1.180929,-0.000083|vel|0.000000,-0.000000,0.000000,0.000000,0.000000,0.000000|eff|0.000000,0.000000,0.000000,0.000000,0.000000,0.000000
cobot_dynamixel_driver/joint_states|name|J1,J2,J3,J4,J5,J6|pos|0.001339,-1.268785,1.296275,0.001014,-1.180929,-0.000083|vel|0.000000,-0.000000,0.000000,0.000000,0.000000,0.000000|eff|0.000000,0.000000,0.000000,0.000000,0.000000,0.000000
cobot_dynamixel_driver/joint_states|name|J1,J2,J3,J4,J5,J6|pos|0.001339,-1.268785,1.296275,0.001014,-1.180929,-0.000083|vel|0.000000,-0.000000,0.000000,0.000000,0.000000,0.000000|eff|0.000000,0.000000,0.000000,0.000000,0.000000,0.000000
cobot_dynamixel_driver/joint_states|name|J1,J2,J3,J4,J5,J6|pos|0.001339,-1.268785,1.296275,0.001014,-1.180929,-0.000083|vel|0.000000,-0.000000,0.000000,0.000000,0.000000,0.000000|eff|0.000000,0.000000,0.000000,0.000000,0.000000,0.000000
cobot_dynamixel_driver/joint_states|name|J1,J2,J3,J4,J5,J6|pos|0.001339,-1.268785,1.296275,0.001014,-1.180929,-0.000083|vel|0.000000,-0.000000,0.000000,0.000000,0.000000,0.000000|eff|0.000000,0.000000,0.000000,0.000000,0.000000,0.000000
cobot_dynamixel_driver/joint_states|name|J1,J2,J3,J4,J5,J6|pos|0.001339,-1.268785,1.296275,0.001014,-1.180929,-0.000083|vel|0.000000,-0.000000,0.000000,0.000000,0.000000,0.000000|eff|0.000000,0.000000,0.000000,0.000000,0.000000,0.000000
cobot_dynamixel_driver/joint_states|name|J1,J2,J3,J4,J5,J6|pos|0.001339,-1.268785,1.296275,0.001014,-1.180929,-0.000083|vel|0.000000,-0.000000,0.000000,0.000000,0.000000,0.000000|eff|0.000000,0.000000,0.000000,0.000000,0.000000,0.000000
cobot_dynamixel_driver/joint_states|name|J1,J2,J3,J4,J5,J6|pos|0.001339,-1.268785,1.296275,0.001014,-1.180929,-0.000083|vel|0.000000,-0.000000,0.000000,0.000000,0.000000,0.000000|eff|0.000000,0.000000,0.000000,0.000000,0.000000,0.000000
cobot_dynamixel_driver/joint_states|name|J1,J2,J3,J4,J5,J6|pos|0.001339,-1.268785,1.296275,0.001014,-1.180929,-0.000083|vel|0.000000,-0.000000,0.000000,0.000000,0.000000,0.000000|eff|0.000000,0.000000,0.000000,0.000000,0.000000,0.000000
cobot_dynamixel_driver/joint_states|name|J1,J2,J3,J4,J5,J6|pos|0.001339,-1.268785,1.296275,0.001014,-1.180929,-0.000083|vel|0.000000,-0.000000,0.000000,0.000000,0.000000,0.000000|eff|0.000000,0.000000,0.000000,0.000000,0.000000,0.000000
cobot_dynamixel_driver/joint_states|name|J1,J2,J3,J4,J5,J6|pos|0.001339,-1.268785,1.296275,0.001014,-1.180929,-0.000083|vel|0.000000,-0.000000,0.000000,0.000000,0.000000,0.000000|eff|0.000000,0.000000,0.000000,0.000000,0.000000,0.000000
cobot_dynamixel_driver/joint_states|name|J1,J2,J3,J4,J5,J6|pos|0.001339,-1.268785,1.296275,0.001014,-1.180929,-0.000083|vel|0.000000,-0.000000,0.000000,0.000000,0.000000,0.000000|eff|0.000000,0.000000,0.000000,0.000000,0.000000,0.000000
cobot_dynamixel_driver/joint_states|name|J1,J2,J3,J4,J5,J6|pos|0.001339,-1.268785,1.296275,0.001014,-1.180929,-0.000083|vel|0.000000,-0.000000,0.000000,0.000000,0.000000,0.000000|eff|0.000000,0.000000,0.000000,0.000000,0.000000,0.000000
cobot_dynamixel_driver/joint_states|name|J1,J2,J3,J4,J5,J6|pos|0.001339,-1.268785,1.296275,0.001014,-1.180929,-0.000083|vel|0.000000,-0.000000,0.000000,0.000000,0.000000,0.000000|eff|0.000000,0.000000,0.000000,0.000000,0.000000,0.000000
cobot_dynamixel_driver/joint_states|name|J1,J2,J3,J4,J5,J6|pos|0.001339,-1.268785,1.296275,0.001014,-1.180929,-0.000083|vel|0.000000,-0.000000,0.000000,0.000000,0.000000,0.000000|eff|0.000000,0.000000,0.000000,0.000000,0.000000,0.000000
cobot_dynamixel_driver/joint_states|name|J1,J2,J3,J4,J5,J6|pos|0.001339,-1.268785,1.296275,0.001014,-1.180929,-0.000083|vel|0.000000,-0.000000,0.000000,0.000000,0.000000,0.000000|eff|0.000000,0.000000,0.000000,0.000000,0.000000,0.000000
cobot_dynamixel_driver/joint_states|name|J1,J2,J3,J4,J5,J6|pos|0.001339,-1.268785,1.296275,0.001014,-1.180929,-0.000083|vel|0.000000,-0.000000,0.000000,0.000000,0.000000,0.000000|eff|0.000000,0.000000,0.000000,0.000000,0.000000,0.000000
cobot_dynamixel_driver/joint_states|name|J1,J2,J3,J4,J5,J6|pos|0.001339,-1.268785,1.296275,0.001014,-1.180929,-0.000083|vel|0.000000,-0.000000,0.000000,0.000000,0.000000,0.000000|eff|0.000000,0.000000,0.000000,0.000000,0.000000,0.000000
cobot_dynamixel_driver/joint_states|name|J1,J2,J3,J4,J5,J6|pos|0.001339,-1.268785,1.296275,0.001014,-1.180929,-0.000083|vel|0.000000,-0.000000,0.000000,0.000000,0.000000,0.000000|eff|0.000000,0.000000,0.000000,0.000000,0.000000,0.000000
cobot_dynamixel_driver/joint_states|name|J1,J2,J3,J4,J5,J6|pos|0.001339,-1.268785,1.296275,0.001014,-1.180929,-0.000083|vel|0.000000,-0.000000,0.000000,0.000000,0.000000,0.000000|eff|0.000000,0.000000,0.000000,0.000000,0.000000,0.000000
cobot_dynamixel_driver/joint_states|name|J1,J2,J3,J4,J5,J6|pos|0.001339,-1.268785,1.296275,0.001014,-1.180929,-0.000083|vel|0.000000,-0.000000,0.000000,0.000000,0.000000,0.000000|eff|0.000000,0.000000,0.000000,0.000000,0.000000,0.000000
cobot_dynamixel_driver/joint_states|name|J1,J2,J3,J4,J5,J6|pos|0.001339,-1.268785,1.296275,0.001014,-1.180929,-0.000083|vel|0.000000,-0.000000,0.000000,0.000000,0.000000,0.000000|eff|0.000000,0.000000,0.000000,0.000000,0.000000,0.000000
cobot_dynamixel_driver/joint_states|name|J1,J2,J3,J4,J5,J6|pos|0.001339,-1.268785,1.296275,0.001014,-1.180929,-0.000083|vel|0.000000,-0.000000,0.000000,0.000000,0.000000,0.000000|eff|0.000000,0.000000,0.000000,0.000000,0.000000,0.000000
cobot_dynamixel_driver/joint_states|name|J1,J2,J3,J4,J5,J6|pos|0.001339,-1.268785,1.296275,0.001014,-1.180929,-0.000083|vel|0.000000,-0.000000,0.000000,0.000000,0.000000,0.000000|eff|0.000000,0.000000,0.000000,0.000000,0.000000,0.000000
cobot_dynamixel_driver/joint_states|name|J1,J2,J3,J4,J5,J6|pos|0.001339,-1.268785,1.296275,0.001014,-1.180929,-0.000083|vel|0.000000,-0.000000,0.000000,0.000000,0.000000,0.000000|eff|0.000000,0.000000,0.000000,0.000000,0.000000,0.000000
cobot_dynamixel_driver/joint_states|name|J1,J2,J3,J4,J5,J6|pos|0.001339,-1.268785,1.296275,0.001014,-1.180929,-0.000083|vel|0.000000,-0.000000,0.000000,0.000000,0.000000,0.000000|eff|0.000000,0.000000,0.000000,0.000000,0.000000,0.000000
cobot_dynamixel_driver/joint_states|name|J1,J2,J3,J4,J5,J6|pos|0.001339,-1.268785,1.296275,0.001014,-1.180929,-0.000083|vel|0.000000,-0.000000,0.000000,0.000000,0.000000,0.000000|eff|0.000000,0.000000,0.000000,0.000000,0.000000,0.000000
cobot_dynamixel_driver/joint_states|name|J1,J2,J3,J4,J5,J6|pos|0.001339,-1.268785,1.296275,0.001014,-1.180929,-0.000083|vel|0.000000,-0.000000,0.000000,0.000000,0.000000,0.000000|eff|0.000000,0.000000,0.000000,0.000000,0.000000,0.000000
cobot_dynamixel_driver/joint_states|name|J1,J2,J3,J4,J5,J6|pos|0.001339,-1.268785,1.296275,0.001014,-1.180929,-0.000083|vel|0.000000,-0.000000,0.000000,0.000000,0.000000,0.000000|eff|0.000000,0.000000,0.000000,0.000000,0.000000,0.000000
cobot_dynamixel_driver/joint_states|name|J1,J2,J3,J4,J5,J6|pos|0.001339,-1.268785,1.296275,0.001014,-1.180929,-0.000083|vel|0.000000,-0.000000,0.000000,0.000000,0.000000,0.000000|eff|0.000000,0.000000,0.000000,0.000000,0.000000,0.000000
cobot_dynamixel_driver/joint_states|name|J1,J2,J3,J4,J5,J6|pos|0.001339,-1.268785,1.296275,0.001014,-1.180929,-0.000083|vel|0.000000,-0.000000,0.000000,0.000000,0.000000,0.000000|eff|0.000000,0.000000,0.000000,0.000000,0.000000,0.000000
cobot_dynamixel_driver/joint_states|name|J1,J2,J3,J4,J5,J6|pos|0.001339,-1.268785,1.296275,0.001014,-1.180929,-0.000083|vel|0.000000,-0.000000,0.000000,0.000000,0.000000,0.000000|eff|0.000000,0.000000,0.000000,0.000000,0.000000,0.000000
cobot_dynamixel_driver/joint_states|name|J1,J2,J3,J4,J5,J6|pos|0.001339,-1.268785,1.296275,0.001014,-1.180929,-0.000083|vel|0.000000,-0.000000,0.000000,0.000000,0.000000,0.000000|eff|0.000000,0.000000,0.000000,0.000000,0.000000,0.000000
cobot_dynamixel_driver/joint_states|name|J1,J2,J3,J4,J5,J6|pos|0.001339,-1.268785,1.296275,0.001014,-1.180929,-0.000083|vel|0.000000,-0.000000,0.000000,0.000000,0.000000,0.000000|eff|0.000000,0.000000,0.000000,0.000000,0.000000,0.000000
cobot_dynamixel_driver/joint_states|name|J1,J2,J3,J4,J5,J6|pos|0.001339,-1.268785,1.296275,0.001014,-1.180929,-0.000083|vel|0.000000,-0.000000,0.000000,0.000000,0.000000,0.000000|eff|0.000000,0.000000,0.000000,0.000000,0.000000,0.000000
cobot_dynamixel_driver/joint_states|name|J1,J2,J3,J4,J5,J6|pos|0.001339,-1.268785,1.296275,0.001014,-1.180929,-0.000083|vel|0.000000,-0.000000,0.000000,0.000000,0.000000,0.000000|eff|0.000000,0.000000,0.000000,0.000000,0.000000,0.000000
cobot_dynamixel_driver/joint_states|name|J1,J2,J3,J4,J5,J6|pos|0.001339,-1.268785,1.296275,0.001014,-1.180929,-0.000083|vel|0.000000,-0.000000,0.000000,0.000000,0.000000,0.000000|eff|0.000000,0.000000,0.000000,0.000000,0.000000,0.000000
cobot_dynamixel_driver/joint_states|name|J1,J2,J3,J4,J5,J6|pos|0.001339,-1.268785,1.296275,0.001014,-1.180929,-0.000083|vel|0.000000,-0.000000,0.000000,0.000000,0.000000,0.000000|eff|0.000000,0.000000,0.000000,0.000000,0.000000,0.000000
cobot_dynamixel_driver/joint_states|name|J1,J2,J3,J4,J5,J6|pos|0.001339,-1.268785,1.296275,0.001014,-1.180929,-0.000083|vel|0.000000,-0.000000,0.000000,0.000000,0.000000,0.000000|eff|0.000000,0.000000,0.000000,0.000000,0.000000,0.000000
cobot_dynamixel_driver/joint_states|name|J1,J2,J3,J4,J5,J6|pos|0.001339,-1.268785,1.296275,0.001014,-1.180929,-0.000083|vel|0.000000,-0.000000,0.000000,0.000000,0.000000,0.000000|eff|0.000000,0.000000,0.000000,0.000000,0.000000,0.000000
cobot_dynamixel_driver/joint_states|name|J1,J2,J3,J4,J5,J6|pos|0.001339,-1.268785,1.296275,0.001014,-1.180929,-0.000083|vel|0.000000,-0.000000,0.000000,0.000000,0.000000,0.000000|eff|0.000000,0.000000,0.000000,0.000000,0.000000,0.000000
cobot_dynamixel_driver/joint_states|name|J1,J2,J3,J4,J5,J6|pos|0.001339,-1.268785,1.296275,0.001014,-1.180929,-0.000083|vel|0.000000,-0.000000,0.000000,0.000000,0.000000,0.000000|eff|0.000000,0.000000,0.000000,0.000000,0.000000,0.000000
cobot_dynamixel_driver/joint_states|name|J1,J2,J3,J4,J5,J6|pos|0.001339,-1.268785,1.296275,0.001014,-1.180929,-0.000083|vel|0.000000,-0.000000,0.000000,0.000000,0.000000,0.000000|eff|0.000000,0.000000,0.000000,0.000000,0.000000,0.000000
cobot_dynamixel_driver/joint_states|name|J1,J2,J3,J4,J5,J6|pos|0.001339,-1.268785,1.296275,0.001014,-1.180929,-0.000083|vel|0.000000,-0.000000,0.000000,0.000000,0.000000,0.000000|eff|0.000000,0.000000,0.000000,0.000000,0.000000,0.000000
cobot_dynamixel_driver/joint_states|name|J1,J2,J3,J4,J5,J6|pos|0.001339,-1.268785,1.296275,0.001014,-1.180929,-0.000083|vel|0.000000,-0.000000,0.000000,0.000000,0.000000,0.000000|eff|0.000000,0.000000,0.000000,0.000000,0.000000,0.000000
cobot_dynamixel_driver/joint_states|name|J1,J2,J3,J4,J5,J6|pos|0.001339,-1.268785,1.296275,0.001014,-1.180929,-0.000083|vel|0.000000,-0.000000,0.000000,0.000000,0.000000,0.000000|eff|0.000000,0.000000,0.000000,0.000000,0.000000,0.000000
cobot_dynamixel_driver/joint_states|name|J1,J2,J3,J4,J5,J6|pos|0.001339,-1.268785,1.296275,0.001014,-1.180929,-0.000083|vel|0.000000,-0.000000,0.000000,0.000000,0.000000,0.000000|eff|0.000000,0.000000,0.000000,0.000000,0.000000,0.000000
cobot_dynamixel_driver/joint_states|name|J1,J2,J3,J4,J5,J6|pos|0.001339,-1.268785,1.296275,0.001014,-1.180929,-0.000083|vel|0.000000,-0.000000,0.000000,0.000000,0.000000,0.000000|eff|0.000000,0.000000,0.000000,0.000000,0.000000,0.000000
cobot_dynamixel_driver/joint_states|name|J1,J2,J3,J4,J5,J6|pos|0.001339,-1.268785,1.296275,0.001014,-1.180929,-0.000083|vel|0.000000,-0.000000,0.000000,0.000000,0.000000,0.000000|eff|0.000000,0.000000,0.000000,0.000000,0.000000,0.000000
cobot_dynamixel_driver/joint_states|name|J1,J2,J3,J4,J5,J6|pos|0.001339,-1.268785,1.296275,0.001014,-1.180929,-0.000083|vel|0.000000,-0.000000,0.000000,0.000000,0.000000,0.000000|eff|0.000000,0.000000,0.000000,0.000000,0.000000,0.000000
cobot_dynamixel_driver/joint_states|name|J1,J2,J3,J4,J5,J6|pos|0.001339,-1.268785,1.296275,0.001014,-1.180929,-0.000083|vel|0.000000,-0.000000,0.000000,0.000000,0.000000,0.000000|eff|0.000000,0.000000,0.000000,0.000000,0.000000,0.000000
cobot_dynamixel_driver/joint_states|name|J1,J2,J3,J4,J5,J6|pos|0.001339,-1.268785,1.296275,0.001014,-1.180929,-0.000083|vel|0.000000,-0.000000,0.000000,0.000000,0.000000,0.000000|eff|0.000000,0.000000,0.000000,0.000000,0.000000,0.000000
cobot_dynamixel_driver/joint_states|name|J1,J2,J3,J4,J5,J6|pos|0.001339,-1.268785,1.296275,0.001014,-1.180929,-0.000083|vel|0.000000,-0.000000,0.000000,0.000000,0.000000,0.000000|eff|0.000000,0.000000,0.000000,0.000000,0.000000,0.000000
cobot_dynamixel_driver/joint_states|name|J1,J2,J3,J4,J5,J6|pos|0.001339,-1.268785,1.296275,0.001014,-1.180929,-0.000083|vel|0.000000,-0.000000,0.000000,0.000000,0.000000,0.000000|eff|0.000000,0.000000,0.000000,0.000000,0.000000,0.000000
cobot_dynamixel_driver/joint_states|name|J1,J2,J3,J4,J5,J6|pos|0.001339,-1.268785,1.296275,0.001014,-1.180929,-0.000083|vel|0.000000,-0.000000,0.000000,0.000000,0.000000,0.000000|eff|0.000000,0.000000,0.000000,0.000000,0.000000,0.000000
cobot_dynamixel_driver/joint_states|name|J1,J2,J3,J4,J5,J6|pos|0.001339,-1.268785,1.296275,0.001014,-1.180929,-0.000083|vel|0.000000,-0.000000,0.000000,0.000000,0.000000,0.000000|eff|0.000000,0.000000,0.000000,0.000000,0.000000,0.000000
cobot_dynamixel_driver/joint_states|name|J1,J2,J3,J4,J5,J6|pos|0.001339,-1.268785,1.296275,0.001014,-1.180929,-0.000083|vel|0.000000,-0.000000,0.000000,0.000000,0.000000,0.000000|eff|0.000000,0.000000,0.000000,0.000000,0.000000,0.000000
cobot_dynamixel_driver/joint_states|name|J1,J2,J3,J4,J5,J6|pos|0.001339,-1.268785,1.296275,0.001014,-1.180929,-0.000083|vel|0.000000,-0.000000,0.000000,0.000000,0.000000,0.000000|eff|0.000000,0.000000,0.000000,0.000000,0.000000,0.000000
cobot_dynamixel_driver/joint_states|name|J1,J2,J3,J4,J5,J6|pos|0.001339,-1.268785,1.296275,0.001014,-1.180929,-0.000083|vel|0.000000,-0.000000,0.000000,0.000000,0.000000,0.000000|eff|0.000000,0.000000,0.000000,0.000000,0.000000,0.000000
cobot_dynamixel_driver/joint_states|name|J1,J2,J3,J4,J5,J6|pos|0.001339,-1.268785,1.296275,0.001014,-1.180929,-0.000083|vel|0.000000,-0.000000,0.000000,0.000000,0.000000,0.000000|eff|0.000000,0.000000,0.000000,0.000000,0.000000,0.000000
cobot_dynamixel_driver/joint_states|name|J1,J2,J3,J4,J5,J6|pos|0.001339,-1.268785,1.296275,0.001014,-1.180929,-0.000083|vel|0.000000,-0.000000,0.000000,0.000000,0.000000,0.000000|eff|0.000000,0.000000,0.000000,0.000000,0.000000,0.000000
cobot_dynamixel_driver/joint_states|name|J1,J2,J3,J4,J5,J6|pos|0.001339,-1.268785,1.296275,0.001014,-1.180929,-0.000083|vel|0.000000,-0.000000,0.000000,0.000000,0.000000,0.000000|eff|0.000000,0.000000,0.000000,0.000000,0.000000,0.000000
cobot_dynamixel_driver/joint_states|name|J1,J2,J3,J4,J5,J6|pos|0.001339,-1.268785,1.296275,0.001014,-1.180929,-0.000083|vel|0.000000,-0.000000,0.000000,0.000000,0.000000,0.000000|eff|0.000000,0.000000,0.000000,0.000000,0.000000,0.000000
cobot_dynamixel_driver/joint_states|name|J1,J2,J3,J4,J5,J6|pos|0.001339,-1.268785,1.296275,0.001014,-1.180929,-0.000083|vel|0.000000,-0.000000,0.000000,0.000000,0.000000,0.000000|eff|0.000000,0.000000,0.000000,0.000000,0.000000,0.000000
cobot_dynamixel_driver/joint_states|name|J1,J2,J3,J4,J5,J6|pos|0.001339,-1.268785,1.296275,0.001014,-1.180929,-0.000083|vel|0.000000,-0.000000,0.000000,0.000000,0.000000,0.000000|eff|0.000000,0.000000,0.000000,0.000000,0.000000,0.000000
cobot_dynamixel_driver/joint_states|name|J1,J2,J3,J4,J5,J6|pos|0.001339,-1.268785,1.296275,0.001014,-1.180929,-0.000083|vel|0.000000,-0.000000,0.000000,0.000000,0.000000,0.000000|eff|0.000000,0.000000,0.000000,0.000000,0.000000,0.000000
cobot_dynamixel_driver/joint_states|name|J1,J2,J3,J4,J5,J6|pos|0.001339,-1.268785,1.296275,0.001014,-1.180929,-0.000083|vel|0.000000,-0.000000,0.000000,0.000000,0.000000,0.000000|eff|0.000000,0.000000,0.000000,0.000000,0.000000,0.000000
cobot_dynamixel_driver/joint_states|name|J1,J2,J3,J4,J5,J6|pos|0.001339,-1.268785,1.296275,0.001014,-1.180929,-0.000083|vel|0.000000,-0.000000,0.000000,0.000000,0.000000,0.000000|eff|0.000000,0.000000,0.000000,0.000000,0.000000,0.000000
cobot_dynamixel_driver/joint_states|name|J1,J2,J3,J4,J5,J6|pos|0.001339,-1.268785,1.296275,0.001014,-1.180929,-0.000083|vel|0.000000,-0.000000,0.000000,0.000000,0.000000,0.000000|eff|0.000000,0.000000,0.000000,0.000000,0.000000,0.000000
cobot_dynamixel_driver/joint_states|name|J1,J2,J3,J4,J5,J6|pos|0.001339,-1.268785,1.296275,0.001014,-1.180929,-0.000083|vel|0.000000,-0.000000,0.000000,0.000000,0.000000,0.000000|eff|0.000000,0.000000,0.000000,0.000000,0.000000,0.000000
cobot_dynamixel_driver/joint_states|name|J1,J2,J3,J4,J5,J6|pos|0.001339,-1.268785,1.296275,0.001014,-1.180929,-0.000083|vel|0.000000,-0.000000,0.000000,0.000000,0.000000,0.000000|eff|0.000000,0.000000,0.000000,0.000000,0.000000,0.000000
cobot_dynamixel_driver/joint_states|name|J1,J2,J3,J4,J5,J6|pos|0.001339,-1.268785,1.296275,0.001014,-1.180929,-0.000083|vel|0.000000,-0.000000,0.000000,0.000000,0.000000,0.000000|eff|0.000000,0.000000,0.000000,0.000000,0.000000,0.000000
cobot_dynamixel_driver/joint_states|name|J1,J2,J3,J4,J5,J6|pos|0.001339,-1.268785,1.296275,0.001014,-1.180929,-0.000083|vel|0.000000,-0.000000,0.000000,0.000000,0.000000,0.000000|eff|0.000000,0.000000,0.000000,0.000000,0.000000,0.000000
cobot_dynamixel_driver/joint_states|name|J1,J2,J3,J4,J5,J6|pos|0.001339,-1.268785,1.296275,0.001014,-1.180929,-0.000083|vel|0.000000,-0.000000,0.000000,0.000000,0.000000,0.000000|eff|0.000000,0.000000,0.000000,0.000000,0.000000,0.000000
cobot_dynamixel_driver/joint_states|name|J1,J2,J3,J4,J5,J6|pos|0.001339,-1.268785,1.296275,0.001014,-1.180929,-0.000083|vel|0.000000,-0.000000,0.000000,0.000000,0.000000,0.000000|eff|0.000000,0.000000,0.000000,0.000000,0.000000,0.000000
cobot_dynamixel_driver/joint_states|name|J1,J2,J3,J4,J5,J6|pos|0.001339,-1.268785,1.296275,0.001014,-1.180929,-0.000083|vel|0.000000,-0.000000,0.000000,0.000000,0.000000,0.000000|eff|0.000000,0.000000,0.000000,0.000000,0.000000,0.000000
cobot_dynamixel_driver/joint_states|name|J1,J2,J3,J4,J5,J6|pos|0.001339,-1.268785,1.296275,0.001014,-1.180929,-0.000083|vel|0.000000,-0.000000,0.000000,0.000000,0.000000,0.000000|eff|0.000000,0.000000,0.000000,0.000000,0.000000,0.000000
cobot_dynamixel_driver/joint_states|name|J1,J2,J3,J4,J5,J6|pos|0.001339,-1.268785,1.296275,0.001014,-1.180929,-0.000083|vel|0.000000,-0.000000,0.000000,0.000000,0.000000,0.000000|eff|0.000000,0.000000,0.000000,0.000000,0.000000,0.000000
cobot_dynamixel_driver/joint_states|name|J1,J2,J3,J4,J5,J6|pos|0.001339,-1.268785,1.296275,0.001014,-1.180929,-0.000083|vel|0.000000,-0.000000,0.000000,0.000000,0.000000,0.000000|eff|0.000000,0.000000,0.000000,0.000000,0.000000,0.000000
cobot_dynamixel_driver/joint_states|name|J1,J2,J3,J4,J5,J6|pos|0.001339,-1.268785,1.296275,0.001014,-1.180929,-0.000083|vel|0.000000,-0.000000,0.000000,0.000000,0.000000,0.000000|eff|0.000000,0.000000,0.000000,0.000000,0.000000,0.000000
cobot_dynamixel_driver/joint_states|name|J1,J2,J3,J4,J5,J6|pos|0.001339,-1.268785,1.296275,0.001014,-1.180929,-0.000083|vel|0.000000,-0.000000,0.000000,0.000000,0.000000,0.000000|eff|0.000000,0.000000,0.000000,0.000000,0.000000,0.000000
cobot_dynamixel_driver/joint_states|name|J1,J2,J3,J4,J5,J6|pos|0.001339,-1.268785,1.296275,0.001014,-1.180929,-0.000083|vel|0.000000,-0.000000,0.000000,0.000000,0.000000,0.000000|eff|0.000000,0.000000,0.000000,0.000000,0.000000,0.000000
cobot_dynamixel_driver/joint_states|name|J1,J2,J3,J4,J5,J6|pos|0.001339,-1.268785,1.296275,0.001014,-1.180929,-0.000083|vel|0.000000,-0.000000,0.000000,0.000000,0.000000,0.000000|eff|0.000000,0.000000,0.000000,0.000000,0.000000,0.000000
cobot_dynamixel_driver/joint_states|name|J1,J2,J3,J4,J5,J6|pos|0.001339,-1.268785,1.296275,0.001014,-1.180929,-0.000083|vel|0.000000,-0.000000,0.000000,0.000000,0.000000,0.000000|eff|0.000000,0.000000,0.000000,0.000000,0.000000,0.000000
cobot_dynamixel_driver/joint_states|name|J1,J2,J3,J4,J5,J6|pos|0.001339,-1.268785,1.296275,0.001014,-1.180929,-0.000083|vel|0.000000,-0.000000,0.000000,0.000000,0.000000,0.000000|eff|0.000000,0.000000,0.000000,0.000000,0.000000,0.000000
cobot_dynamixel_driver/joint_states|name|J1,J2,J3,J4,J5,J6|pos|0.001339,-1.268785,1.296275,0.001014,-1.180929,-0.000083|vel|0.000000,-0.000000,0.000000,0.000000,0.000000,0.000000|eff|0.000000,0.000000,0.000000,0.000000,0.000000,0.000000
cobot_dynamixel_driver/joint_states|name|J1,J2,J3,J4,J5,J6|pos|0.001339,-1.268785,1.296275,0.001014,-1.180929,-0.000083|vel|0.000000,-0.000000,0.000000,0.000000,0.000000,0.000000|eff|0.000000,0.000000,0.000000,0.000000,0.000000,0.000000
cobot_dynamixel_driver/joint_states|name|J1,J2,J3,J4,J5,J6|pos|0.001339,-1.268785,1.296275,0.001014,-1.180929,-0.000083|vel|0.000000,-0.000000,0.000000,0.000000,0.000000,0.000000|eff|0.000000,0.000000,0.000000,0.000000,0.000000,0.000000
cobot_dynamixel_driver/joint_states|name|J1,J2,J3,J4,J5,J6|pos|0.001339,-1.268785,1.296275,0.001014,-1.180929,-0.000083|vel|0.000000,-0.000000,0.000000,0.000000,0.000000,0.000000|eff|0.000000,0.000000,0.000000,0.000000,0.000000,0.000000
cobot_dynamixel_driver/joint_states|name|J1,J2,J3,J4,J5,J6|pos|0.001339,-1.268785,1.296275,0.001014,-1.180929,-0.000083|vel|0.000000,-0.000000,0.000000,0.000000,0.000000,0.000000|eff|0.000000,0.000000,0.000000,0.000000,0.000000,0.000000
cobot_dynamixel_driver/joint_states|name|J1,J2,J3,J4,J5,J6|pos|0.001339,-1.268785,1.296275,0.001014,-1.180929,-0.000083|vel|0.000000,-0.000000,0.000000,0.000000,0.000000,0.000000|eff|0.000000,0.000000,0.000000,0.000000,0.000000,0.000000
cobot_dynamixel_driver/joint_states|name|J1,J2,J3,J4,J5,J6|pos|0.001339,-1.268785,1.296275,0.001014,-1.180929,-0.000083|vel|0.000000,-0.000000,0.000000,0.000000,0.000000,0.000000|eff|0.000000,0.000000,0.000000,0.000000,0.000000,0.000000
cobot_dynamixel_driver/joint_states|name|J1,J2,J3,J4,J5,J6|pos|0.001339,-1.268785,1.296275,0.001014,-1.180929,-0.000083|vel|0.000000,-0.000000,0.000000,0.000000,0.000000,0.000000|eff|0.000000,0.000000,0.000000,0.000000,0.000000,0.000000
cobot_dynamixel_driver/joint_states|name|J1,J2,J3,J4,J5,J6|pos|0.001339,-1.268785,1.296275,0.001014,-1.180929,-0.000083|vel|0.000000,-0.000000,0.000000,0.000000,0.000000,0.000000|eff|0.000000,0.000000,0.000000,0.000000,0.000000,0.000000
cobot_dynamixel_driver/joint_states|name|J1,J2,J3,J4,J5,J6|pos|0.001339,-1.268785,1.296275,0.001014,-1.180929,-0.000083|vel|0.000000,-0.000000,0.000000,0.000000,0.000000,0.000000|eff|0.000000,0.000000,0.000000,0.000000,0.000000,0.000000
cobot_dynamixel_driver/joint_states|name|J1,J2,J3,J4,J5,J6|pos|0.001339,-1.268785,1.296275,0.001014,-1.180929,-0.000083|vel|0.000000,-0.000000,0.000000,0.000000,0.000000,0.000000|eff|0.000000,0.000000,0.000000,0.000000,0.000000,0.000000
cobot_dynamixel_driver/joint_states|name|J1,J2,J3,J4,J5,J6|pos|0.001339,-1.268785,1.296275,0.001014,-1.180929,-0.000083|vel|0.000000,-0.000000,0.000000,0.000000,0.000000,0.000000|eff|0.000000,0.000000,0.000000,0.000000,0.000000,0.000000
cobot_dynamixel_driver/joint_states|name|J1,J2,J3,J4,J5,J6|pos|0.001339,-1.268785,1.296275,0.001014,-1.180929,-0.000083|vel|0.000000,-0.000000,0.000000,0.000000,0.000000,0.000000|eff|0.000000,0.000000,0.000000,0.000000,0.000000,0.000000
cobot_dynamixel_driver/joint_states|name|J1,J2,J3,J4,J5,J6|pos|0.001339,-1.268785,1.296275,0.001014,-1.180929,-0.000083|vel|0.000000,-0.000000,0.000000,0.000000,0.000000,0.000000|eff|0.000000,0.000000,0.000000,0.000000,0.000000,0.000000
cobot_dynamixel_driver/joint_states|name|J1,J2,J3,J4,J5,J6|pos|0.001339,-1.268785,1.296275,0.001014,-1.180929,-0.000083|vel|0.000000,-0.000000,0.000000,0.000000,0.000000,0.000000|eff|0.000000,0.000000,0.000000,0.000000,0.000000,0.000000
cobot_dynamixel_driver/joint_states|name|J1,J2,J3,J4,J5,J6|pos|0.001339,-1.268785,1.296275,0.001014,-1.180929,-0.000083|vel|0.000000,-0.000000,0.000000,0.000000,0.000000,0.000000|eff|0.000000,0.000000,0.000000,0.000000,0.000000,0.000000
cobot_dynamixel_driver/joint_states|name|J1,J2,J3,J4,J5,J6|pos|0.001339,-1.268785,1.296275,0.001014,-1.180929,-0.000083|vel|0.000000,-0.000000,0.000000,0.000000,0.000000,0.000000|eff|0.000000,0.000000,0.000000,0.000000,0.000000,0.000000
cobot_dynamixel_driver/joint_states|name|J1,J2,J3,J4,J5,J6|pos|0.001339,-1.268785,1.296275,0.001014,-1.180929,-0.000083|vel|0.000000,-0.000000,0.000000,0.000000,0.000000,0.000000|eff|0.000000,0.000000,0.000000,0.000000,0.000000,0.000000
cobot_dynamixel_driver/joint_states|name|J1,J2,J3,J4,J5,J6|pos|0.001339,-1.268785,1.296275,0.001014,-1.180929,-0.000083|vel|0.000000,-0.000000,0.000000,0.000000,0.000000,0.000000|eff|0.000000,0.000000,0.000000,0.000000,0.000000,0.000000
cobot_dynamixel_driver/joint_states|name|J1,J2,J3,J4,J5,J6|pos|0.001339,-1.268785,1.296275,0.001014,-1.180929,-0.000083|vel|0.000000,-0.000000,0.000000,0.000000,0.000000,0.000000|eff|0.000000,0.000000,0.000000,0.000000,0.000000,0.000000
cobot_dynamixel_driver/joint_states|name|J1,J2,J3,J4,J5,J6|pos|0.001339,-1.268785,1.296275,0.001014,-1.180929,-0.000083|vel|0.000000,-0.000000,0.000000,0.000000,0.000000,0.000000|eff|0.000000,0.000000,0.000000,0.000000,0.000000,0.000000
cobot_dynamixel_driver/joint_states|name|J1,J2,J3,J4,J5,J6|pos|0.001339,-1.268785,1.296275,0.001014,-1.180929,-0.000083|vel|0.000000,-0.000000,0.000000,0.000000,0.000000,0.000000|eff|0.000000,0.000000,0.000000,0.000000,0.000000,0.000000
cobot_dynamixel_driver/joint_states|name|J1,J2,J3,J4,J5,J6|pos|0.001339,-1.268785,1.296275,0.001014,-1.180929,-0.000083|vel|0.000000,-0.000000,0.000000,0.000000,0.000000,0.000000|eff|0.000000,0.000000,0.000000,0.000000,0.000000,0.000000
cobot_dynamixel_driver/joint_states|name|J1,J2,J3,J4,J5,J6|pos|0.001339,-1.268785,1.296275,0.001014,-1.180929,-0.000083|vel|0.000000,-0.000000,0.000000,0.000000,0.000000,0.000000|eff|0.000000,0.000000,0.000000,0.000000,0.000000,0.000000
cobot_dynamixel_driver/joint_states|name|J1,J2,J3,J4,J5,J6|pos|0.001339,-1.268785,1.296275,0.001014,-1.180929,-0.000083|vel|0.000000,-0.000000,0.000000,0.000000,0.000000,0.000000|eff|0.000000,0.000000,0.000000,0.000000,0.000000,0.000000
cobot_dynamixel_driver/joint_states|name|J1,J2,J3,J4,J5,J6|pos|0.001339,-1.268785,1.296275,0.001014,-1.180929,-0.000083|vel|0.000000,-0.000000,0.000000,0.000000,0.000000,0.000000|eff|0.000000,0.000000,0.000000,0.000000,0.000000,0.000000
cobot_dynamixel_driver/joint_states|name|J1,J2,J3,J4,J5,J6|pos|0.001339,-1.268785,1.296275,0.001014,-1.180929,-0.000083|vel|0.000000,-0.000000,0.000000,0.000000,0.000000,0.000000|eff|0.000000,0.000000,0.000000,0.000000,0.000000,0.000000
cobot_dynamixel_driver/joint_states|name|J1,J2,J3,J4,J5,J6|pos|0.001339,-1.268785,1.296275,0.001014,-1.180929,-0.000083|vel|0.000000,-0.000000,0.000000,0.000000,0.000000,0.000000|eff|0.000000,0.000000,0.000000,0.000000,0.000000,0.000000
cobot_dynamixel_driver/joint_states|name|J1,J2,J3,J4,J5,J6|pos|0.001339,-1.268785,1.296275,0.001014,-1.180929,-0.000083|vel|0.000000,-0.000000,0.000000,0.000000,0.000000,0.000000|eff|0.000000,0.000000,0.000000,0.000000,0.000000,0.000000
cobot_dynamixel_driver/joint_states|name|J1,J2,J3,J4,J5,J6|pos|0.001339,-1.268785,1.296275,0.001014,-1.180929,-0.000083|vel|0.000000,-0.000000,0.000000,0.000000,0.000000,0.000000|eff|0.000000,0.000000,0.000000,0.000000,0.000000,0.000000
cobot_dynamixel_driver/joint_states|name|J1,J2,J3,J4,J5,J6|pos|0.001339,-1.268785,1.296275,0.001014,-1.180929,-0.000083|vel|0.000000,-0.000000,0.000000,0.000000,0.000000,0.000000|eff|0.000000,0.000000,0.000000,0.000000,0.000000,0.000000
cobot_dynamixel_driver/joint_states|name|J1,J2,J3,J4,J5,J6|pos|0.001339,-1.268785,1.296275,0.001014,-1.180929,-0.000083|vel|0.000000,-0.000000,0.000000,0.000000,0.000000,0.000000|eff|0.000000,0.000000,0.000000,0.000000,0.000000,0.000000
cobot_dynamixel_driver/joint_states|name|J1,J2,J3,J4,J5,J6|pos|0.001339,-1.268785,1.296275,0.001014,-1.180929,-0.000083|vel|0.000000,-0.000000,0.000000,0.000000,0.000000,0.000000|eff|0.000000,0.000000,0.000000,0.000000,0.000000,0.000000
cobot_dynamixel_driver/joint_states|name|J1,J2,J3,J4,J5,J6|pos|0.001339,-1.268785,1.296275,0.001014,-1.180929,-0.000083|vel|0.000000,-0.000000,0.000000,0.000000,0.000000,0.000000|eff|0.000000,0.000000,0.000000,0.000000,0.000000,0.000000
cobot_dynamixel_driver/joint_states|name|J1,J2,J3,J4,J5,J6|pos|0.001339,-1.268785,1.296275,0.001014,-1.180929,-0.000083|vel|0.000000,-0.000000,0.000000,0.000000,0.000000,0.000000|eff|0.000000,0.000000,0.000000,0.000000,0.000000,0.000000
cobot_dynamixel_driver/joint_states|name|J1,J2,J3,J4,J5,J6|pos|0.001339,-1.268785,1.296275,0.001014,-1.180929,-0.000083|vel|0.000000,-0.000000,0.000000,0.000000,0.000000,0.000000|eff|0.000000,0.000000,0.000000,0.000000,0.000000,0.000000
cobot_dynamixel_driver/joint_states|name|J1,J2,J3,J4,J5,J6|pos|0.001339,-1.268785,1.296275,0.001014,-1.180929,-0.000083|vel|0.000000,-0.000000,0.000000,0.000000,0.000000,0.000000|eff|0.000000,0.000000,0.000000,0.000000,0.000000,0.000000
cobot_dynamixel_driver/joint_states|name|J1,J2,J3,J4,J5,J6|pos|0.001339,-1.268785,1.296275,0.001014,-1.180929,-0.000083|vel|0.000000,-0.000000,0.000000,0.000000,0.000000,0.000000|eff|0.000000,0.000000,0.000000,0.000000,0.000000,0.000000
cobot_dynamixel_driver/joint_states|name|J1,J2,J3,J4,J5,J6|pos|0.001339,-1.268785,1.296275,0.001014,-1.180929,-0.000083|vel|0.000000,-0.000000,0.000000,0.000000,0.000000,0.000000|eff|0.000000,0.000000,0.000000,0.000000,0.000000,0.000000
cobot_dynamixel_driver/joint_states|name|J1,J2,J3,J4,J5,J6|pos|0.001339,-1.268785,1.296275,0.001014,-1.180929,-0.000083|vel|0.000000,-0.000000,0.000000,0.000000,0.000000,0.000000|eff|0.000000,0.000000,0.000000,0.000000,0.000000,0.000000
cobot_dynamixel_driver/joint_states|name|J1,J2,J3,J4,J5,J6|pos|0.001339,-1.268785,1.296275,0.001014,-1.180929,-0.000083|vel|0.000000,-0.000000,0.000000,0.000000,0.000000,0.000000|eff|0.000000,0.000000,0.000000,0.000000,0.000000,0.000000
cobot_dynamixel_driver/joint_states|name|J1,J2,J3,J4,J5,J6|pos|0.001339,-1.268785,1.296275,0.001014,-1.180929,-0.000083|vel|0.000000,-0.000000,0.000000,0.000000,0.000000,0.000000|eff|0.000000,0.000000,0.000000,0.000000,0.000000,0.000000
cobot_dynamixel_driver/joint_states|name|J1,J2,J3,J4,J5,J6|pos|0.001339,-1.268785,1.296275,0.001014,-1.180929,-0.000083|vel|0.000000,-0.000000,0.000000,0.000000,0.000000,0.000000|eff|0.000000,0.000000,0.000000,0.000000,0.000000,0.000000
cobot_dynamixel_driver/joint_states|name|J1,J2,J3,J4,J5,J6|pos|0.001339,-1.268785,1.296275,0.001014,-1.180929,-0.000083|vel|0.000000,-0.000000,0.000000,0.000000,0.000000,0.000000|eff|0.000000,0.000000,0.000000,0.000000,0.000000,0.000000
cobot_dynamixel_driver/joint_states|name|J1,J2,J3,J4,J5,J6|pos|0.001339,-1.268785,1.296275,0.001014,-1.180929,-0.000083|vel|0.000000,-0.000000,0.000000,0.000000,0.000000,0.000000|eff|0.000000,0.000000,0.000000,0.000000,0.000000,0.000000
cobot_dynamixel_driver/joint_states|name|J1,J2,J3,J4,J5,J6|pos|0.001339,-1.268785,1.296275,0.001014,-1.180929,-0.000083|vel|0.000000,-0.000000,0.000000,0.000000,0.000000,0.000000|eff|0.000000,0.000000,0.000000,0.000000,0.000000,0.000000
cobot_dynamixel_driver/joint_states|name|J1,J2,J3,J4,J5,J6|pos|0.001339,-1.268785,1.296275,0.001014,-1.180929,-0.000083|vel|0.000000,-0.000000,0.000000,0.000000,0.000000,0.000000|eff|0.000000,0.000000,0.000000,0.000000,0.000000,0.000000
cobot_dynamixel_driver/joint_states|name|J1,J2,J3,J4,J5,J6|pos|0.001339,-1.268785,1.296275,0.001014,-1.180929,-0.000083|vel|0.000000,-0.000000,0.000000,0.000000,0.000000,0.000000|eff|0.000000,0.000000,0.000000,0.000000,0.000000,0.000000
cobot_dynamixel_driver/joint_states|name|J1,J2,J3,J4,J5,J6|pos|0.001339,-1.268785,1.296275,0.001014,-1.180929,-0.000083|vel|0.000000,-0.000000,0.000000,0.000000,0.000000,0.000000|eff|0.000000,0.000000,0.000000,0.000000,0.000000,0.000000
cobot_dynamixel_driver/joint_states|name|J1,J2,J3,J4,J5,J6|pos|0.001339,-1.268785,1.296275,0.001014,-1.180929,-0.000083|vel|0.000000,-0.000000,0.000000,0.000000,0.000000,0.000000|eff|0.000000,0.000000,0.000000,0.000000,0.000000,0.000000
cobot_dynamixel_driver/joint_states|name|J1,J2,J3,J4,J5,J6|pos|0.001339,-1.268785,1.296275,0.001014,-1.180929,-0.000083|vel|0.000000,-0.000000,0.000000,0.000000,0.000000,0.000000|eff|0.000000,0.000000,0.000000,0.000000,0.000000,0.000000
cobot_dynamixel_driver/joint_states|name|J1,J2,J3,J4,J5,J6|pos|0.001339,-1.268785,1.296275,0.001014,-1.180929,-0.000083|vel|0.000000,-0.000000,0.000000,0.000000,0.000000,0.000000|eff|0.000000,0.000000,0.000000,0.000000,0.000000,0.000000
cobot_dynamixel_driver/joint_states|name|J1,J2,J3,J4,J5,J6|pos|0.001339,-1.268785,1.296275,0.001014,-1.180929,-0.000083|vel|0.000000,-0.000000,0.000000,0.000000,0.000000,0.000000|eff|0.000000,0.000000,0.000000,0.000000,0.000000,0.000000
cobot_dynamixel_driver/joint_states|name|J1,J2,J3,J4,J5,J6|pos|0.001339,-1.268785,1.296275,0.001014,-1.180929,-0.000083|vel|0.000000,-0.000000,0.000000,0.000000,0.000000,0.000000|eff|0.000000,0.000000,0.000000,0.000000,0.000000,0.000000
cobot_dynamixel_driver/joint_states|name|J1,J2,J3,J4,J5,J6|pos|0.001339,-1.268785,1.296275,0.001014,-1.180929,-0.000083|vel|0.000000,-0.000000,0.000000,0.000000,0.000000,0.000000|eff|0.000000,0.000000,0.000000,0.000000,0.000000,0.000000
cobot_dynamixel_driver/joint_states|name|J1,J2,J3,J4,J5,J6|pos|0.001339,-1.268785,1.296275,0.001014,-1.180929,-0.000083|vel|0.000000,-0.000000,0.000000,0.000000,0.000000,0.000000|eff|0.000000,0.000000,0.000000,0.000000,0.000000,0.000000
cobot_dynamixel_driver/joint_states|name|J1,J2,J3,J4,J5,J6|pos|0.001339,-1.268785,1.296275,0.001014,-1.180929,-0.000083|vel|0.000000,-0.000000,0.000000,0.000000,0.000000,0.000000|eff|0.000000,0.000000,0.000000,0.000000,0.000000,0.000000
cobot_dynamixel_driver/joint_states|name|J1,J2,J3,J4,J5,J6|pos|0.001339,-1.268785,1.296275,0.001014,-1.180929,-0.000083|vel|0.000000,-0.000000,0.000000,0.000000,0.000000,0.000000|eff|0.000000,0.000000,0.000000,0.000000,0.000000,0.000000
cobot_dynamixel_driver/joint_states|name|J1,J2,J3,J4,J5,J6|pos|0.001339,-1.268785,1.296275,0.001014,-1.180929,-0.000083|vel|0.000000,-0.000000,0.000000,0.000000,0.000000,0.000000|eff|0.000000,0.000000,0.000000,0.000000,0.000000,0.000000
cobot_dynamixel_driver/joint_states|name|J1,J2,J3,J4,J5,J6|pos|0.001339,-1.268785,1.296275,0.001014,-1.180929,-0.000083|vel|0.000000,-0.000000,0.000000,0.000000,0.000000,0.000000|eff|0.000000,0.000000,0.000000,0.000000,0.000000,0.000000
cobot_dynamixel_driver/joint_states|name|J1,J2,J3,J4,J5,J6|pos|0.001339,-1.268785,1.296275,0.001014,-1.180929,-0.000083|vel|0.000000,-0.000000,0.000000,0.000000,0.000000,0.000000|eff|0.000000,0.000000,0.000000,0.000000,0.000000,0.000000
cobot_dynamixel_driver/joint_states|name|J1,J2,J3,J4,J5,J6|pos|0.001339,-1.268785,1.296275,0.001014,-1.180929,-0.000083|vel|0.000000,-0.000000,0.000000,0.000000,0.000000,0.000000|eff|0.000000,0.000000,0.000000,0.000000,0.000000,0.000000
cobot_dynamixel_driver/joint_states|name|J1,J2,J3,J4,J5,J6|pos|0.001339,-1.268785,1.296275,0.001014,-1.180929,-0.000083|vel|0.000000,-0.000000,0.000000,0.000000,0.000000,0.000000|eff|0.000000,0.000000,0.000000,0.000000,0.000000,0.000000
cobot_dynamixel_driver/joint_states|name|J1,J2,J3,J4,J5,J6|pos|0.001339,-1.268785,1.296275,0.001014,-1.180929,-0.000083|vel|0.000000,-0.000000,0.000000,0.000000,0.000000,0.000000|eff|0.000000,0.000000,0.000000,0.000000,0.000000,0.000000
cobot_dynamixel_driver/joint_states|name|J1,J2,J3,J4,J5,J6|pos|0.001339,-1.268785,1.296275,0.001014,-1.180929,-0.000083|vel|0.000000,-0.000000,0.000000,0.000000,0.000000,0.000000|eff|0.000000,0.000000,0.000000,0.000000,0.000000,0.000000
cobot_dynamixel_driver/joint_states|name|J1,J2,J3,J4,J5,J6|pos|0.001339,-1.268785,1.296275,0.001014,-1.180929,-0.000083|vel|0.000000,-0.000000,0.000000,0.000000,0.000000,0.000000|eff|0.000000,0.000000,0.000000,0.000000,0.000000,0.000000
cobot_dynamixel_driver/goal|-:J1,J2,J3,J4,J5,J6:0.000000,0.000000,0.000000,0.000000,0.000000,0.000000:0.700000,0.700000,0.700000,0.700000,0.700000,0.700000:pos_vel_
cobot_dynamixel_driver/joint_states|name|J1,J2,J3,J4,J5,J6|pos|0.000839,-1.268785,1.296275,0.001014,-1.180929,-0.000083|vel|0.000000,-0.000000,0.000000,0.000000,0.000000,0.000000|eff|0.000000,0.000000,0.000000,0.000000,0.000000,0.000000
cobot_dynamixel_driver/joint_states|name|J1,J2,J3,J4,J5,J6|pos|0.000839,-1.268772,1.296262,0.001014,-1.180887,-0.000083|vel|0.000000,-0.000000,0.000000,0.000000,0.000000,0.000000|eff|-161.132812,-273.925781,-193.359375,-64.453125,100.708008,0.000000
cobot_dynamixel_driver/joint_states|name|J1,J2,J3,J4,J5,J6|pos|0.000814,-1.268284,1.295837,0.000889,-1.179791,-0.000083|vel|0.000000,0.040895,-0.045694,-0.007511,0.104789,0.000000|eff|-145.019531,-612.304688,-483.398438,0.000000,140.991211,0.000000
cobot_dynamixel_driver/joint_states|name|J1,J2,J3,J4,J5,J6|pos|0.000789,-1.266832,1.294422,0.000876,-1.176833,-0.000083|vel|-0.001043,0.108914,-0.100150,-0.002086,0.193032,0.000000|eff|-128.906250,-1192.382812,-999.023438,-96.679688,120.849609,0.000000
cobot_dynamixel_driver/joint_states|name|J1,J2,J3,J4,J5,J6|pos|0.000764,-1.264153,1.292006,0.000876,-1.172261,-0.000083|vel|-0.001461,0.177350,-0.181731,-0.002086,0.263351,0.000000|eff|-112.792969,-1917.480469,-1562.988281,-145.019531,92.651367,0.000000
cobot_dynamixel_driver/joint_states|name|J1,J2,J3,J4,J5,J6|pos|0.000739,-1.260197,1.288013,0.000826,-1.166552,-0.000083|vel|-0.001461,0.247455,-0.262477,-0.002295,0.342631,0.000000|eff|-112.792969,-2046.386719,-1450.195312,-145.019531,84.594727,0.000000
cobot_dynamixel_driver/joint_states|name|J1,J2,J3,J4,J5,J6|pos|0.000689,-1.254652,1.281966,0.000751,-1.159912,-0.000083|vel|-0.002504,0.315682,-0.353656,-0.004382,0.374344,0.000000|eff|-145.019531,-2030.273438,-1272.949219,-145.019531,60.424805,0.000000
cobot_dynamixel_driver/joint_states|name|J1,J2,J3,J4,J5,J6|pos|0.000651,-1.247867,1.274668,0.000663,-1.152486,-0.000083|vel|-0.001878,0.348649,-0.414164,-0.003964,0.423291,0.000000|eff|-209.472656,-1820.800781,-1482.421875,-112.792969,72.509766,24.169922
cobot_dynamixel_driver/joint_states|name|J1,J2,J3,J4,J5,J6|pos|0.000601,-1.239968,1.266594,0.000613,-1.144295,-0.000083|vel|-0.002712,0.423344,-0.469872,-0.002504,0.436390,0.000000|eff|-96.679688,-1450.195312,-1530.761719,-80.566406,88.623047,24.169922
cobot_dynamixel_driver/joint_states|name|J1,J2,J3,J4,J5,J6|pos|0.000563,-1.231280,1.257794,0.000551,-1.135483,-0.000083|vel|-0.001878,0.497831,-0.480096,-0.003130,0.476720,0.000000|eff|-112.792969,-1434.082031,-1047.363281,-145.019531,68.481445,24.169922
cobot_dynamixel_driver/joint_states|name|J1,J2,J3,J4,J5,J6|pos|0.000513,-1.221879,1.248380,0.000488,-1.125988,-0.000083|vel|-0.002295,0.498457,-0.503882,-0.002921,0.539800,0.000000|eff|-225.585938,-1498.535156,-999.023438,-177.246094,56.396484,0.000000
cobot_dynamixel_driver/joint_states|name|J1,J2,J3,J4,J5,J6|pos|0.000451,-1.211789,1.238453,0.000463,-1.116059,-0.000083|vel|-0.002921,0.521199,-0.469246,-0.001669,0.511190,0.000000|eff|-193.359375,-1208.496094,-1691.894531,-161.132812,44.311523,0.000000
cobot_dynamixel_driver/joint_states|name|J1,J2,J3,J4,J5,J6|pos|0.000388,-1.201199,1.228013,0.000426,-1.105696,-0.000083|vel|-0.002921,0.560634,-0.491780,-0.001461,0.550141,0.000000|eff|-80.566406,-870.117188,-1659.667969,-193.359375,72.509766,0.000000
cobot_dynamixel_driver/joint_states|name|J1,J2,J3,J4,J5,J6|pos|0.000325,-1.190321,1.217147,0.000376,-1.094898,-0.000083|vel|-0.003130,0.582124,-0.582124,-0.002712,0.569789,0.000000|eff|-145.019531,-2288.085938,-982.910156,-177.246094,64.453125,24.169922
cobot_dynamixel_driver/joint_states|name|J1,J2,J3,J4,J5,J6|pos|0.000275,-1.178929,1.205906,0.000313,-1.083707,-0.000083|vel|-0.002921,0.619055,-0.598607,-0.002921,0.564963,0.000000|eff|-112.792969,-1869.140625,-1643.554688,-161.132812,28.198242,0.000000
cobot_dynamixel_driver/joint_states|name|J1,J2,J3,J4,J5,J6|pos|0.000225,-1.167337,1.194527,0.000263,-1.072372,-0.000083|vel|-0.002086,0.571066,-0.611752,-0.002712,0.578751,0.000000|eff|-96.679688,-2465.332031,-1530.761719,-177.246094,64.453125,0.000000
cobot_dynamixel_driver/joint_states|name|J1,J2,J3,J4,J5,J6|pos|0.000188,-1.155520,1.182847,0.000213,-1.060726,-0.000083|vel|-0.002295,0.622393,-0.583167,-0.002295,0.638039,0.000000|eff|-128.906250,-1111.816406,-1127.929688,-96.679688,52.368164,16.113281
cobot_dynamixel_driver/joint_states|name|J1,J2,J3,J4,J5,J6|pos|0.000138,-1.143527,1.170905,0.000188,-1.048914,-0.000083|vel|-0.002295,0.629278,-0.615716,-0.001252,0.526012,0.000000|eff|-96.679688,-1740.234375,-1353.515625,-128.906250,44.311523,0.000000
cobot_dynamixel_driver/joint_states|name|J1,J2,J3,J4,J5,J6|pos|0.000113,-1.131234,1.158787,0.000175,-1.036917,-0.000083|vel|-0.002295,0.657237,-0.644301,-0.001252,0.702498,0.000000|eff|-112.792969,-902.343750,-708.984375,-112.792969,32.226562,0.000000
cobot_dynamixel_driver/joint_states|name|J1,J2,J3,J4,J5,J6|pos|0.000100,-1.118816,1.146357,0.000163,-1.024775,-0.000083|vel|-0.000835,0.655568,-0.646805,-0.000626,0.674233,0.000000|eff|-48.339844,-596.191406,-1015.136719,-112.792969,68.481445,24.169922
cobot_dynamixel_driver/joint_states|name|J1,J2,J3,J4,J5,J6|pos|0.000088,-1.106160,1.133988,0.000150,-1.012425,-0.000083|vel|-0.000835,0.550410,-0.667043,-0.000626,0.616323,0.000000|eff|-128.906250,-982.910156,-1450.195312,-161.132812,72.509766,20.141602
cobot_dynamixel_driver/joint_states|name|J1,J2,J3,J4,J5,J6|pos|0.000063,-1.093505,1.121420,0.000150,-0.999994,-0.000083|vel|-0.001043,0.639711,-0.688534,-0.000626,0.583232,0.000000|eff|-145.019531,-1643.554688,-1611.328125,-193.359375,48.339844,12.084961
cobot_dynamixel_driver/joint_states|name|J1,J2,J3,J4,J5,J6|pos|0.000038,-1.080611,1.108839,0.000138,-0.987313,-0.000083|vel|-0.001043,0.600276,-0.602780,-0.000417,0.675956,0.000000|eff|-145.019531,-3367.675781,-854.003906,-177.246094,48.339844,0.000000
cobot_dynamixel_driver/joint_states|name|J1,J2,J3,J4,J5,J6|pos|0.000025,-1.067667,1.095921,0.000113,-0.974633,-0.000083|vel|-0.001043,0.685613,-0.701887,-0.000417,0.576683,0.000000|eff|-161.132812,-757.324219,-1176.269531,-193.359375,56.396484,0.000000
cobot_dynamixel_driver/joint_states|name|J1,J2,J3,J4,J5,J6|pos|0.000013,-1.054623,1.082989,0.000088,-0.961808,-0.000083|vel|-0.001043,0.688951,-0.670382,-0.001043,0.613910,0.000000|eff|-161.132812,-2819.824219,-966.796875,-145.019531,0.000000,0.000000
cobot_dynamixel_driver/joint_states|name|J1,J2,J3,J4,J5,J6|pos|0.000013,-1.041554,1.069833,0.000063,-0.948942,-0.000083|vel|-0.000417,0.649100,-0.597773,-0.001461,0.570133,0.000000|eff|-177.246094,-757.324219,-1208.496094,-96.679688,48.339844,24.169922
cobot_dynamixel_driver/joint_states|name|J1,J2,J3,J4,J5,J6|pos|0.000000,-1.028610,1.056751,0.000050,-0.936096,-0.000083|vel|-0.000417,0.695628,-0.686656,-0.001461,0.771783,0.000000|eff|-128.906250,-3544.921875,-982.910156,-112.792969,76.538086,20.141602
cobot_dynamixel_driver/joint_states|name|J1,J2,J3,J4,J5,J6|pos|0.000000,-1.015491,1.043682,0.000050,-0.922899,-0.000083|vel|-0.000417,0.683735,-0.658072,-0.001461,0.776953,0.000000|eff|-177.246094,-741.210938,-1627.441406,-161.132812,32.226562,12.084961
cobot_dynamixel_driver/joint_states|name|J1,J2,J3,J4,J5,J6|pos|-0.000013,-1.002159,1.030525,0.000038,-0.909557,-0.000083|vel|-0.000417,0.647431,-0.737566,-0.001461,0.654585,0.000000|eff|-145.019531,-676.757812,-435.058594,-112.792969,32.226562,28.198242
cobot_dynamixel_driver/joint_states|name|J1,J2,J3,J4,J5,J6|pos|-0.000013,-0.988802,1.017419,0.000038,-0.896546,-0.000083|vel|-0.000417,0.698340,-0.694585,-0.001461,0.675956,0.000000|eff|-161.132812,-2126.953125,-2126.953125,-112.792969,24.169922,28.198242
cobot_dynamixel_driver/joint_states|name|J1,J2,J3,J4,J5,J6|pos|-0.000013,-0.975395,1.003411,0.000038,-0.883535,-0.000083|vel|-0.000209,0.665374,-0.714615,-0.001461,0.552554,0.000000|eff|-177.246094,-2094.726562,-1627.441406,-112.792969,0.000000,0.000000
cobot_dynamixel_driver/joint_states|name|J1,J2,J3,J4,J5,J6|pos|-0.000013,-0.962138,0.990642,0.000038,-0.870524,-0.000083|vel|-0.000209,0.641171,-0.672051,0.000000,0.662513,0.000000|eff|-177.246094,-1305.175781,-1079.589844,-112.792969,112.792969,28.198242
cobot_dynamixel_driver/joint_states|name|J1,J2,J3,J4,J5,J6|pos|-0.000025,-0.948656,0.976647,0.000038,-0.857016,-0.000083|vel|-0.000209,0.690620,-0.713154,0.000000,0.722490,0.000000|eff|-161.132812,-789.550781,-773.437500,-112.792969,-8.056641,24.169922
cobot_dynamixel_driver/joint_states|name|J1,J2,J3,J4,J5,J6|pos|-0.000025,-0.935387,0.963803,0.000038,-0.843881,-0.000083|vel|-0.000209,0.699384,-0.715867,0.000000,0.618046,0.000000|eff|-80.566406,-821.777344,-628.417969,-112.792969,72.509766,32.226562
cobot_dynamixel_driver/joint_states|name|J1,J2,J3,J4,J5,J6|pos|-0.000025,-0.921942,0.949658,0.000038,-0.830394,-0.000083|vel|-0.000209,0.678936,-0.630113,0.000000,0.677335,0.000000|eff|-177.246094,-966.796875,-612.304688,-112.792969,84.594727,24.169922
cobot_dynamixel_driver/joint_states|name|J1,J2,J3,J4,J5,J6|pos|-0.000025,-0.908573,0.936238,0.000038,-0.817052,-0.000083|vel|-0.000209,0.703139,-0.689994,0.000000,0.705945,0.000000|eff|0.000000,-2690.917969,-1095.703125,-128.906250,92.651367,28.198242
cobot_dynamixel_driver/joint_states|name|J1,J2,J3,J4,J5,J6|pos|-0.000038,-0.895103,0.922894,0.000038,-0.803586,-0.000083|vel|0.000000,0.676850,-0.692290,0.000000,0.781089,0.000000|eff|-112.792969,-3577.148438,-2062.500000,-112.792969,-8.056641,24.169922
cobot_dynamixel_driver/joint_states|name|J1,J2,J3,J4,J5,J6|pos|-0.000038,-0.881609,0.909587,0.000038,-0.790140,-0.000062|vel|0.000000,0.683526,-0.630322,0.000000,0.655274,0.000000|eff|-96.679688,-2997.070312,-1434.082031,-112.792969,20.141602,32.226562
cobot_dynamixel_driver/joint_states|name|J1,J2,J3,J4,J5,J6|pos|-0.000038,-0.868139,0.896292,0.000038,-0.777129,-0.000021|vel|0.000000,0.734854,-0.658072,0.000000,0.672509,0.000000|eff|-161.132812,-2739.257812,-982.910156,-112.792969,8.056641,0.000000
cobot_dynamixel_driver/joint_states|name|J1,J2,J3,J4,J5,J6|pos|-0.000050,-0.854594,0.882986,0.000038,-0.763808,0.000000|vel|0.000000,0.680397,-0.692081,0.000000,0.744896,0.001034|eff|-161.132812,-2143.066406,-837.890625,-112.792969,28.198242,28.198242
cobot_dynamixel_driver/joint_states|name|J1,J2,J3,J4,J5,J6|pos|-0.000050,-0.841075,0.869741,0.000038,-0.750176,0.000000|vel|0.000000,0.682066,-0.679145,0.000000,0.640797,0.001034|eff|-112.792969,-2336.425781,-2497.558594,-112.792969,48.339844,28.198242
cobot_dynamixel_driver/joint_states|name|J1,J2,J3,J4,J5,J6|pos|-0.000050,-0.827467,0.856084,0.000038,-0.736834,0.000000|vel|0.000000,0.710025,-0.759682,0.000000,0.676645,0.001034|eff|0.000000,-2062.500000,-1691.894531,-112.792969,44.311523,0.000000
cobot_dynamixel_driver/joint_states|name|J1,J2,J3,J4,J5,J6|pos|-0.000050,-0.813935,0.842276,0.000038,-0.723533,0.000000|vel|0.000000,0.702513,-0.706060,0.000000,0.686297,0.001034|eff|-32.226562,-2368.652344,-644.531250,-112.792969,104.736328,28.198242
cobot_dynamixel_driver/joint_states|name|J1,J2,J3,J4,J5,J6|pos|-0.000050,-0.800440,0.828669,0.000038,-0.710046,0.000000|vel|0.000000,0.697506,-0.724421,0.000000,0.716286,0.001034|eff|-177.246094,-1579.101562,-612.304688,-112.792969,40.283203,20.141602
cobot_dynamixel_driver/joint_states|name|J1,J2,J3,J4,J5,J6|pos|-0.000063,-0.786946,0.815124,0.000038,-0.696498,0.000000|vel|0.000000,0.693959,-0.694585,0.000000,0.709737,0.001034|eff|-161.132812,-1337.402344,-612.304688,-128.906250,-8.056641,16.113281
cobot_dynamixel_driver/joint_states|name|J1,J2,J3,J4,J5,J6|pos|-0.000063,-0.773539,0.801442,0.000038,-0.682949,0.000000|vel|0.000000,0.685822,-0.601320,0.000000,0.770404,0.000000|eff|0.000000,-660.644531,-741.210938,-112.792969,100.708008,16.113281
cobot_dynamixel_driver/joint_states|name|J1,J2,J3,J4,J5,J6|pos|-0.000063,-0.759931,0.787947,0.000038,-0.669482,0.000000|vel|0.000000,0.684361,-0.656611,0.000000,0.663202,0.000000|eff|-128.906250,-966.796875,-628.417969,-112.792969,40.283203,32.226562
cobot_dynamixel_driver/joint_states|name|J1,J2,J3,J4,J5,J6|pos|-0.000063,-0.746387,0.774352,0.000038,-0.656430,0.000000|vel|0.000000,0.656194,-0.705017,0.000000,0.712149,0.000000|eff|-177.246094,-854.003906,-596.191406,-112.792969,88.623047,16.113281
cobot_dynamixel_driver/joint_states|name|J1,J2,J3,J4,J5,J6|pos|-0.000063,-0.732854,0.760833,0.000038,-0.642860,0.000000|vel|0.000000,0.682275,-0.718370,0.000000,0.595641,0.000000|eff|-177.246094,-451.171875,-531.738281,-177.246094,-8.056641,8.056641
cobot_dynamixel_driver/joint_states|name|J1,J2,J3,J4,J5,J6|pos|-0.000063,-0.719297,0.747351,0.000025,-0.629270,0.000000|vel|0.000000,0.671634,-0.640337,0.000000,0.715252,0.000000|eff|-128.906250,-773.437500,-757.324219,-177.246094,20.141602,0.000000
cobot_dynamixel_driver/joint_states|name|J1,J2,J3,J4,J5,J6|pos|-0.000063,-0.705677,0.733893,0.000025,-0.615887,0.000000|vel|0.000000,0.742991,-0.624479,0.000000,0.715941,0.000000|eff|0.000000,-886.230469,-1111.816406,-145.019531,52.368164,20.141602
cobot_dynamixel_driver/joint_states|name|J1,J2,J3,J4,J5,J6|pos|-0.000063,-0.692058,0.720349,0.000025,-0.602751,0.000000|vel|0.000000,0.735062,-0.625314,0.000000,0.692502,0.000000|eff|-161.132812,-1289.062500,-1015.136719,-161.132812,124.877930,32.226562
cobot_dynamixel_driver/joint_states|name|J1,J2,J3,J4,J5,J6|pos|-0.000063,-0.678438,0.706654,0.000013,-0.589161,0.000000|vel|0.000000,0.665166,-0.710442,0.000000,0.629077,0.000000|eff|-161.132812,-1836.914062,-563.964844,-145.019531,84.594727,28.198242
cobot_dynamixel_driver/joint_states|name|J1,J2,J3,J4,J5,J6|pos|-0.000063,-0.664993,0.693072,0.000013,-0.575591,0.000000|vel|0.000000,0.696463,-0.697923,0.000000,0.713873,0.000000|eff|-145.019531,-1095.703125,-547.851562,-161.132812,64.453125,28.198242
cobot_dynamixel_driver/joint_states|name|J1,J2,J3,J4,J5,J6|pos|-0.000063,-0.651499,0.679464,0.000013,-0.562125,0.000000|vel|0.000000,0.725673,-0.678519,0.000000,0.781434,0.000000|eff|-96.679688,-982.910156,-660.644531,-145.019531,32.226562,0.000000
cobot_dynamixel_driver/joint_states|name|J1,J2,J3,J4,J5,J6|pos|-0.000063,-0.637841,0.665932,0.000000,-0.548659,0.000000|vel|0.000000,0.713780,-0.721500,0.000000,0.577027,0.000000|eff|-112.792969,-982.910156,-660.644531,-128.906250,64.453125,8.056641
cobot_dynamixel_driver/joint_states|name|J1,J2,J3,J4,J5,J6|pos|-0.000063,-0.624334,0.652262,0.000000,-0.535214,0.000000|vel|0.000000,0.685404,-0.724213,0.000000,0.593918,0.000000|eff|-145.019531,-1079.589844,-725.097656,-145.019531,136.962891,0.000000
cobot_dynamixel_driver/joint_states|name|J1,J2,J3,J4,J5,J6|pos|-0.000063,-0.610952,0.638667,0.000000,-0.521685,0.000000|vel|0.000000,0.713780,-0.716493,0.000000,0.683539,0.000000|eff|-96.679688,-531.738281,-902.343750,-209.472656,92.651367,20.141602
cobot_dynamixel_driver/joint_states|name|J1,J2,J3,J4,J5,J6|pos|-0.000063,-0.597407,0.625098,0.000000,-0.508116,0.000000|vel|0.000000,0.680188,-0.663496,0.000000,0.603914,0.000000|eff|0.000000,-354.492188,-886.230469,-112.792969,44.311523,20.141602
cobot_dynamixel_driver/joint_states|name|J1,J2,J3,J4,J5,J6|pos|-0.000063,-0.583775,0.611766,-0.000013,-0.494608,0.000000|vel|0.000000,0.713572,-0.704808,0.000000,0.701464,0.000000|eff|-161.132812,-483.398438,-628.417969,-145.019531,12.084961,20.141602
cobot_dynamixel_driver/joint_states|name|J1,J2,J3,J4,J5,J6|pos|-0.000063,-0.570055,0.598208,-0.000013,-0.481576,0.000000|vel|0.000000,0.689369,-0.649100,0.000000,0.606671,0.000000|eff|-80.566406,-1095.703125,-563.964844,-112.792969,68.481445,8.056641
cobot_dynamixel_driver/joint_states|name|J1,J2,J3,J4,J5,J6|pos|-0.000063,-0.556385,0.584601,-0.000013,-0.468131,0.000000|vel|0.000000,0.706895,-0.735688,0.000000,0.722146,0.000000|eff|-161.132812,-1933.593750,-644.531250,-128.906250,20.141602,0.000000
cobot_dynamixel_driver/joint_states|name|J1,J2,J3,J4,J5,J6|pos|-0.000063,-0.542878,0.570956,-0.000013,-0.454582,0.000000|vel|0.000000,0.685613,-0.713154,0.000000,0.768336,0.000000|eff|0.000000,-2014.160156,-902.343750,-112.792969,84.594727,0.000000
cobot_dynamixel_driver/joint_states|name|J1,J2,J3,J4,J5,J6|pos|-0.000063,-0.529358,0.557374,-0.000025,-0.441157,0.000000|vel|0.000000,0.700427,-0.703557,0.000000,0.658032,0.000000|eff|-80.566406,-999.023438,-837.890625,-177.246094,24.169922,28.198242
cobot_dynamixel_driver/joint_states|name|J1,J2,J3,J4,J5,J6|pos|-0.000063,-0.515738,0.543929,-0.000025,-0.428063,0.000000|vel|0.000000,0.694585,-0.683735,0.000000,0.706979,0.000000|eff|-112.792969,-2110.839844,-725.097656,-112.792969,92.651367,0.000000
cobot_dynamixel_driver/joint_states|name|J1,J2,J3,J4,J5,J6|pos|-0.000063,-0.502131,0.530310,-0.000025,-0.414597,0.000000|vel|0.000000,0.643049,-0.717744,0.000000,0.624596,0.000000|eff|-161.132812,-2030.273438,-773.437500,-145.019531,80.566406,0.000000
cobot_dynamixel_driver/joint_states|name|J1,J2,J3,J4,J5,J6|pos|-0.000063,-0.488636,0.516677,-0.000025,-0.401048,0.000000|vel|0.000000,0.707312,-0.643258,0.000000,0.683195,0.000000|eff|0.000000,-2046.386719,-999.023438,-112.792969,52.368164,28.198242
cobot_dynamixel_driver/joint_states|name|J1,J2,J3,J4,J5,J6|pos|-0.000063,-0.475117,0.503070,-0.000038,-0.387541,0.000000|vel|0.000000,0.716284,-0.642006,0.000000,0.719733,0.000000|eff|-145.019531,-1337.402344,-902.343750,-112.792969,44.311523,16.113281
cobot_dynamixel_driver/joint_states|name|J1,J2,J3,J4,J5,J6|pos|-0.000063,-0.461522,0.489738,-0.000038,-0.373350,0.000000|vel|0.000000,0.703974,-0.710233,0.000000,0.655274,0.000000|eff|-145.019531,-2400.878906,-418.945312,-112.792969,80.566406,16.113281
cobot_dynamixel_driver/joint_states|name|J1,J2,J3,J4,J5,J6|pos|-0.000063,-0.447852,0.476381,-0.000038,-0.360050,0.000000|vel|0.000000,0.679562,-0.678936,0.000000,0.693191,0.000000|eff|-145.019531,-2578.125000,-1063.476562,-128.906250,56.396484,8.056641
cobot_dynamixel_driver/joint_states|name|J1,J2,J3,J4,J5,J6|pos|-0.000063,-0.434207,0.462861,-0.000038,-0.347204,0.000000|vel|0.000000,0.710025,-0.693333,0.000000,0.779711,0.000000|eff|-112.792969,-1192.382812,-1337.402344,-177.246094,104.736328,32.226562
cobot_dynamixel_driver/joint_states|name|J1,J2,J3,J4,J5,J6|pos|-0.000063,-0.420675,0.449141,-0.000038,-0.332952,0.000000|vel|0.000000,0.646387,-0.658906,0.000000,0.629766,0.000000|eff|0.000000,-2545.898438,-515.625000,-177.246094,64.453125,8.056641
cobot_dynamixel_driver/joint_states|name|J1,J2,J3,J4,J5,J6|pos|-0.000063,-0.407180,0.435396,-0.000038,-0.319424,0.000000|vel|0.000000,0.692707,-0.721709,0.000000,0.712839,0.000000|eff|-64.453125,-2578.125000,-821.777344,-112.792969,108.764648,8.056641
cobot_dynamixel_driver/joint_states|name|J1,J2,J3,J4,J5,J6|pos|-0.000063,-0.393636,0.421802,-0.000038,-0.305916,0.000000|vel|0.000000,0.631991,-0.691455,0.000000,0.763510,0.000000|eff|0.000000,-2481.445312,-918.457031,-112.792969,-8.056641,0.000000
cobot_dynamixel_driver/joint_states|name|J1,J2,J3,J4,J5,J6|pos|-0.000063,-0.379916,0.408182,-0.000038,-0.292471,0.000000|vel|0.000000,0.714823,-0.694167,0.000000,0.591849,0.000000|eff|0.000000,-1869.140625,-1127.929688,-112.792969,72.509766,20.141602
cobot_dynamixel_driver/joint_states|name|J1,J2,J3,J4,J5,J6|pos|-0.000063,-0.366321,0.394625,-0.000038,-0.279625,0.000000|vel|0.000000,0.731515,-0.711902,0.000000,0.670096,0.000000|eff|-112.792969,-1144.042969,-1015.136719,-112.792969,28.198242,0.000000
cobot_dynamixel_driver/joint_states|name|J1,J2,J3,J4,J5,J6|pos|-0.000050,-0.352976,0.380955,-0.000038,-0.265786,0.000000|vel|0.000000,0.696880,-0.644092,0.000000,0.566342,0.000000|eff|0.000000,-2497.558594,-1466.308594,-112.792969,64.453125,0.000000
cobot_dynamixel_driver/joint_states|name|J1,J2,J3,J4,J5,J6|pos|-0.000050,-0.339632,0.367573,-0.000038,-0.252403,0.000000|vel|0.000000,0.670799,-0.690412,0.000000,0.748343,0.000000|eff|-128.906250,-918.457031,-805.664062,-112.792969,92.651367,16.113281
cobot_dynamixel_driver/joint_states|name|J1,J2,J3,J4,J5,J6|pos|-0.000050,-0.326062,0.354278,-0.000038,-0.238792,0.000000|vel|0.000000,0.703348,-0.709607,0.000000,0.684574,0.000000|eff|0.000000,-1208.496094,-676.757812,-128.906250,64.453125,0.000000
cobot_dynamixel_driver/joint_states|name|J1,J2,J3,J4,J5,J6|pos|-0.000050,-0.312518,0.340684,-0.000038,-0.225326,0.000000|vel|0.000000,0.637416,-0.756135,0.000000,0.674922,0.000000|eff|0.000000,-1063.476562,-451.171875,-145.019531,64.453125,0.000000
cobot_dynamixel_driver/joint_states|name|J1,J2,J3,J4,J5,J6|pos|-0.000050,-0.298848,0.327001,-0.000038,-0.211818,0.000000|vel|0.000000,0.695837,-0.722752,0.000000,0.807631,0.000000|eff|0.000000,-1643.554688,-563.964844,-177.246094,76.538086,0.000000
cobot_dynamixel_driver/joint_states|name|J1,J2,J3,J4,J5,J6|pos|-0.000050,-0.285278,0.313406,-0.000038,-0.198600,0.000000|vel|0.000000,0.699175,-0.719622,0.000000,0.747654,0.000000|eff|-112.792969,-1836.914062,-966.796875,-145.019531,52.368164,16.113281
cobot_dynamixel_driver/joint_states|name|J1,J2,J3,J4,J5,J6|pos|-0.000050,-0.271645,0.299799,-0.000038,-0.185279,0.000000|vel|0.000000,0.713989,-0.680814,0.000000,0.738691,0.000000|eff|0.000000,-2400.878906,-789.550781,-112.792969,72.509766,0.000000
cobot_dynamixel_driver/joint_states|name|J1,J2,J3,J4,J5,J6|pos|-0.000050,-0.258051,0.286092,-0.000038,-0.171647,0.000000|vel|0.000000,0.687073,-0.745703,0.000000,0.602535,0.000000|eff|-64.453125,-1272.949219,-1305.175781,-112.792969,80.566406,32.226562
cobot_dynamixel_driver/joint_states|name|J1,J2,J3,J4,J5,J6|pos|-0.000050,-0.244556,0.272484,-0.000038,-0.158347,0.000000|vel|0.000000,0.729220,-0.633034,0.000000,0.598054,0.000000|eff|0.000000,-2336.425781,-1466.308594,-112.792969,44.311523,32.226562
cobot_dynamixel_driver/joint_states|name|J1,J2,J3,J4,J5,J6|pos|-0.000050,-0.230936,0.258889,-0.000038,-0.145067,0.000000|vel|0.000000,0.723378,-0.669130,0.000000,0.688710,0.000000|eff|-64.453125,-1917.480469,-1772.460938,-112.792969,40.283203,0.000000
cobot_dynamixel_driver/joint_states|name|J1,J2,J3,J4,J5,J6|pos|-0.000050,-0.217354,0.245345,-0.000038,-0.131414,0.000000|vel|0.000000,0.666626,-0.721083,0.000000,0.696293,0.000000|eff|0.000000,-2014.160156,-1401.855469,-96.679688,104.736328,0.000000
cobot_dynamixel_driver/joint_states|name|J1,J2,J3,J4,J5,J6|pos|-0.000050,-0.203133,0.231750,-0.000038,-0.118196,0.000000|vel|0.000000,0.707729,-0.724630,0.000000,0.656653,0.000000|eff|0.000000,-1192.382812,-2223.632812,-112.792969,169.189453,20.141602
cobot_dynamixel_driver/joint_states|name|J1,J2,J3,J4,J5,J6|pos|-0.000050,-0.190202,0.218193,-0.000038,-0.104668,0.000000|vel|0.000000,0.677267,-0.745912,0.000000,0.597020,0.000000|eff|0.000000,-1659.667969,-1708.007812,-112.792969,60.424805,28.198242
cobot_dynamixel_driver/joint_states|name|J1,J2,J3,J4,J5,J6|pos|-0.000050,-0.176732,0.204598,-0.000038,-0.091326,0.000000|vel|0.000000,0.726508,-0.719831,0.000000,0.698362,0.000000|eff|0.000000,-3480.468750,-1981.933594,-112.792969,-20.141602,0.000000
cobot_dynamixel_driver/joint_states|name|J1,J2,J3,J4,J5,J6|pos|-0.000050,-0.163163,0.190953,-0.000038,-0.079494,0.000000|vel|0.000000,0.702931,-0.740904,0.000000,0.571167,0.000000|eff|0.000000,-2320.312500,-2255.859375,-112.792969,0.000000,0.000000
cobot_dynamixel_driver/joint_states|name|J1,J2,J3,J4,J5,J6|pos|-0.000050,-0.149605,0.177396,-0.000038,-0.069482,0.000000|vel|0.000000,0.665583,-0.629696,0.000000,0.469826,0.000000|eff|-80.566406,-2062.500000,-2304.199219,-112.792969,20.141602,0.000000
cobot_dynamixel_driver/joint_states|name|J1,J2,J3,J4,J5,J6|pos|-0.000050,-0.135272,0.163701,-0.000038,-0.060836,0.000000|vel|0.000000,0.718996,-0.728594,0.000000,0.368484,0.000000|eff|0.000000,-1321.289062,-1305.175781,-112.792969,24.169922,28.198242
cobot_dynamixel_driver/joint_states|name|J1,J2,J3,J4,J5,J6|pos|-0.000050,-0.121740,0.150231,-0.000038,-0.053286,0.000000|vel|0.000000,0.641380,-0.666000,0.000000,0.341253,0.000000|eff|0.000000,-660.644531,-1579.101562,-112.792969,28.198242,20.141602
cobot_dynamixel_driver/joint_states|name|J1,J2,J3,J4,J5,J6|pos|-0.000038,-0.108120,0.136712,-0.000038,-0.046646,0.000000|vel|0.000000,0.713363,-0.669547,0.000000,0.295063,0.000000|eff|0.000000,-837.890625,-2271.972656,-112.792969,28.198242,24.169922
cobot_dynamixel_driver/joint_states|name|J1,J2,J3,J4,J5,J6|pos|-0.000038,-0.094688,0.123242,-0.000038,-0.040854,0.000000|vel|0.000000,0.633660,-0.724213,0.000000,0.268866,0.000000|eff|0.000000,-1885.253906,-2207.519531,-112.792969,36.254883,20.141602
cobot_dynamixel_driver/joint_states|name|J1,J2,J3,J4,J5,J6|pos|-0.000038,-0.082095,0.109509,-0.000038,-0.035806,0.000000|vel|0.000000,0.638459,-0.745703,0.000000,0.249907,0.000000|eff|-48.339844,-177.246094,-1176.269531,-112.792969,44.311523,16.113281
cobot_dynamixel_driver/joint_states|name|J1,J2,J3,J4,J5,J6|pos|-0.000038,-0.071053,0.096253,-0.000038,-0.031338,0.000000|vel|0.000000,0.500961,-0.593600,0.000000,0.243703,0.000000|eff|0.000000,273.925781,-1369.628906,-112.792969,52.368164,20.141602
cobot_dynamixel_driver/joint_states|name|J1,J2,J3,J4,J5,J6|pos|-0.000038,-0.061414,0.083835,-0.000038,-0.027512,0.000000|vel|0.000000,0.463822,-0.613630,0.000000,0.177176,0.000000|eff|-48.339844,-354.492188,-870.117188,-96.679688,76.538086,28.198242
cobot_dynamixel_driver/joint_states|name|J1,J2,J3,J4,J5,J6|pos|-0.000038,-0.053215,0.072718,-0.000038,-0.024140,0.000000|vel|0.000000,0.367427,-0.541021,0.000000,0.162354,0.000000|eff|0.000000,64.453125,-145.019531,-96.679688,76.538086,0.000000
cobot_dynamixel_driver/joint_states|name|J1,J2,J3,J4,J5,J6|pos|-0.000038,-0.046280,0.063342,-0.000038,-0.021099,0.000000|vel|0.000000,0.344267,-0.484686,0.000000,0.124437,0.000000|eff|0.000000,499.511719,-354.492188,-64.453125,48.339844,0.000000
cobot_dynamixel_driver/joint_states|name|J1,J2,J3,J4,J5,J6|pos|-0.000038,-0.040309,0.055343,-0.000038,-0.018513,0.000000|vel|0.000000,0.290645,-0.374729,0.000000,0.121679,0.000000|eff|0.000000,660.644531,-999.023438,-96.679688,68.481445,16.113281
cobot_dynamixel_driver/joint_states|name|J1,J2,J3,J4,J5,J6|pos|-0.000025,-0.035101,0.048383,-0.000038,-0.016217,0.000000|vel|0.000000,0.233476,-0.340720,0.000000,0.108236,0.000000|eff|0.000000,692.871094,-692.871094,-112.792969,72.509766,0.000000
cobot_dynamixel_driver/joint_states|name|J1,J2,J3,J4,J5,J6|pos|-0.000025,-0.030582,0.042299,-0.000038,-0.014211,0.000000|vel|0.000000,0.187782,-0.287306,0.000000,0.098929,0.000000|eff|0.000000,386.718750,-612.304688,-32.226562,72.509766,24.169922
cobot_dynamixel_driver/joint_states|name|J1,J2,J3,J4,J5,J6|pos|-0.000025,-0.026651,0.037016,-0.000038,-0.012411,0.000000|vel|0.000000,0.187991,-0.232432,0.000000,0.096516,0.000000|eff|0.000000,467.285156,-708.984375,-112.792969,68.481445,28.198242
cobot_dynamixel_driver/joint_states|name|J1,J2,J3,J4,J5,J6|pos|-0.000025,-0.023296,0.032422,-0.000038,-0.010860,0.000000|vel|0.000000,0.159615,-0.194876,0.000000,0.074800,0.000000|eff|0.000000,306.152344,-789.550781,-112.792969,72.509766,0.000000
cobot_dynamixel_driver/joint_states|name|J1,J2,J3,J4,J5,J6|pos|-0.000025,-0.020430,0.028291,-0.000038,-0.009495,0.000000|vel|0.000000,0.139793,-0.205308,0.000000,0.056875,0.000000|eff|-80.566406,386.718750,-757.324219,-112.792969,64.453125,0.000000
cobot_dynamixel_driver/joint_states|name|J1,J2,J3,J4,J5,J6|pos|-0.000025,-0.017939,0.024673,-0.000038,-0.008316,0.000000|vel|0.000000,0.116425,-0.168378,0.000000,0.063769,0.000000|eff|0.000000,193.359375,-741.210938,-96.679688,72.509766,32.226562
cobot_dynamixel_driver/joint_states|name|J1,J2,J3,J4,J5,J6|pos|-0.000025,-0.015698,0.021581,-0.000038,-0.007261,0.000000|vel|0.000000,0.107453,-0.148765,0.000000,0.050326,0.000000|eff|0.000000,241.699219,-757.324219,-64.453125,68.481445,0.000000
cobot_dynamixel_driver/joint_states|name|J1,J2,J3,J4,J5,J6|pos|-0.000025,-0.013695,0.018965,-0.000038,-0.006371,0.000000|vel|0.000000,0.094517,-0.136664,0.000000,0.042053,0.000000|eff|0.000000,273.925781,-821.777344,-112.792969,80.566406,8.056641
cobot_dynamixel_driver/joint_states|name|J1,J2,J3,J4,J5,J6|pos|-0.000025,-0.012017,0.016587,-0.000038,-0.005606,0.000000|vel|0.000000,0.083667,-0.112669,0.000000,0.038951,0.000000|eff|0.000000,257.812500,-805.664062,-96.679688,76.538086,20.141602
cobot_dynamixel_driver/joint_states|name|J1,J2,J3,J4,J5,J6|pos|-0.000025,-0.010578,0.014559,-0.000038,-0.004923,0.000000|vel|0.000000,0.065098,-0.097647,0.000000,0.036193,0.000000|eff|0.000000,225.585938,-870.117188,-96.679688,72.509766,0.000000
cobot_dynamixel_driver/joint_states|name|J1,J2,J3,J4,J5,J6|pos|-0.000025,-0.009263,0.012806,-0.000038,-0.004323,0.000000|vel|0.000000,0.064680,-0.086171,0.000000,0.028265,0.000000|eff|0.000000,241.699219,-854.003906,-112.792969,80.566406,32.226562
cobot_dynamixel_driver/joint_states|name|J1,J2,J3,J4,J5,J6|pos|-0.000025,-0.008087,0.011191,-0.000038,-0.003806,0.000000|vel|0.000000,0.057586,-0.079703,0.000000,0.023784,0.000000|eff|0.000000,273.925781,-821.777344,-112.792969,80.566406,16.113281
cobot_dynamixel_driver/joint_states|name|J1,J2,J3,J4,J5,J6|pos|-0.000025,-0.007048,0.009802,-0.000038,-0.003372,0.000000|vel|0.000000,0.047154,-0.066558,0.000000,0.022405,0.000000|eff|-48.339844,193.359375,-870.117188,-112.792969,96.679688,28.198242
cobot_dynamixel_driver/joint_states|name|J1,J2,J3,J4,J5,J6|pos|-0.000025,-0.006171,0.008663,-0.000038,-0.002958,0.000000|vel|0.000000,0.041729,-0.052579,0.000000,0.019648,0.000000|eff|0.000000,257.812500,-918.457031,-96.679688,88.623047,8.056641
cobot_dynamixel_driver/joint_states|name|J1,J2,J3,J4,J5,J6|pos|-0.000025,-0.005433,0.007636,-0.000038,-0.002586,0.000000|vel|0.000000,0.033801,-0.048615,0.000000,0.020337,0.000000|eff|0.000000,193.359375,-950.683594,-112.792969,84.594727,20.141602
cobot_dynamixel_driver/joint_states|name|J1,J2,J3,J4,J5,J6|pos|-0.000025,-0.004769,0.006672,-0.000038,-0.002234,0.000000|vel|0.000000,0.034635,-0.045068,0.000000,0.013788,0.000000|eff|-80.566406,225.585938,-854.003906,-80.566406,84.594727,28.198242
cobot_dynamixel_driver/joint_states|name|J1,J2,J3,J4,J5,J6|pos|-0.000025,-0.004194,0.005821,-0.000038,-0.002027,0.000000|vel|0.000000,0.028585,-0.034844,0.000000,0.011030,0.000000|eff|0.000000,257.812500,-854.003906,-112.792969,96.679688,0.000000
cobot_dynamixel_driver/joint_states|name|J1,J2,J3,J4,J5,J6|pos|-0.000025,-0.003668,0.005020,-0.000038,-0.001758,0.000000|vel|0.000000,0.026707,-0.040686,0.000000,0.013443,0.000000|eff|0.000000,273.925781,-805.664062,-96.679688,92.651367,8.056641
cobot_dynamixel_driver/joint_states|name|J1,J2,J3,J4,J5,J6|pos|-0.000025,-0.003192,0.004356,-0.000038,-0.001531,0.000000|vel|0.000000,0.022117,-0.035887,0.000000,0.007928,0.000000|eff|0.000000,209.472656,-821.777344,-112.792969,88.623047,24.169922
cobot_dynamixel_driver/joint_states|name|J1,J2,J3,J4,J5,J6|pos|-0.000025,-0.002754,0.003768,-0.000038,-0.001365,0.000000|vel|0.000000,0.021908,-0.023994,0.000000,0.009652,0.000000|eff|0.000000,257.812500,-821.777344,-96.679688,92.651367,28.198242
cobot_dynamixel_driver/joint_states|name|J1,J2,J3,J4,J5,J6|pos|-0.000013,-0.002391,0.003380,-0.000038,-0.001200,0.000000|vel|0.000000,0.016274,-0.020030,0.000000,0.009307,0.000000|eff|-80.566406,225.585938,-886.230469,-112.792969,96.679688,20.141602
cobot_dynamixel_driver/joint_states|name|J1,J2,J3,J4,J5,J6|pos|-0.000013,-0.002078,0.002892,-0.000038,-0.000993,0.000000|vel|0.000000,0.015648,-0.022534,0.000000,0.009307,0.000000|eff|0.000000,225.585938,-821.777344,0.000000,84.594727,0.000000
cobot_dynamixel_driver/joint_states|name|J1,J2,J3,J4,J5,J6|pos|-0.000013,-0.001803,0.002604,-0.000038,-0.000848,0.000000|vel|0.000000,0.013562,-0.013562,0.000000,0.006549,0.000000|eff|0.000000,177.246094,-902.343750,-112.792969,84.594727,0.000000
cobot_dynamixel_driver/joint_states|name|J1,J2,J3,J4,J5,J6|pos|-0.000013,-0.001602,0.002328,-0.000038,-0.000786,0.000000|vel|0.000000,0.008972,-0.016483,0.000000,0.003102,0.000000|eff|0.000000,161.132812,-934.570312,-64.453125,88.623047,20.141602
cobot_dynamixel_driver/joint_states|name|J1,J2,J3,J4,J5,J6|pos|-0.000013,-0.001427,0.001978,-0.000038,-0.000703,0.000000|vel|0.000000,0.008555,-0.017109,0.000000,0.005170,0.000000|eff|0.000000,225.585938,-870.117188,-96.679688,84.594727,28.198242
cobot_dynamixel_driver/joint_states|name|J1,J2,J3,J4,J5,J6|pos|-0.000013,-0.001289,0.001753,-0.000038,-0.000579,0.000000|vel|0.000000,0.006885,-0.007303,0.000000,0.006549,0.000000|eff|-48.339844,273.925781,-950.683594,-96.679688,84.594727,0.000000
cobot_dynamixel_driver/joint_states|name|J1,J2,J3,J4,J5,J6|pos|-0.000013,-0.001164,0.001640,-0.000038,-0.000559,0.000000|vel|0.000000,0.006468,-0.006677,0.000000,0.003792,0.000000|eff|0.000000,177.246094,-966.796875,-64.453125,88.623047,0.000000
cobot_dynamixel_driver/joint_states|name|J1,J2,J3,J4,J5,J6|pos|-0.000013,-0.001039,0.001465,-0.000038,-0.000538,0.000000|vel|0.000000,0.006259,-0.010015,0.000000,0.003792,0.000000|eff|0.000000,193.359375,-918.457031,-96.679688,84.594727,8.056641
cobot_dynamixel_driver/joint_states|name|J1,J2,J3,J4,J5,J6|pos|-0.000013,-0.000876,0.001189,-0.000038,-0.000517,0.000000|vel|0.000000,0.008972,-0.016274,0.000000,0.001034,0.000000|eff|0.000000,209.472656,-821.777344,-96.679688,92.651367,20.141602
cobot_dynamixel_driver/joint_states|name|J1,J2,J3,J4,J5,J6|pos|-0.000013,-0.000726,0.000876,-0.000038,-0.000434,0.000000|vel|0.000000,0.006468,-0.012727,0.000000,0.003792,0.000000|eff|-48.339844,290.039062,-789.550781,0.000000,100.708008,24.169922
cobot_dynamixel_driver/joint_states|name|J1,J2,J3,J4,J5,J6|pos|-0.000013,-0.000638,0.000726,-0.000038,-0.000331,0.000000|vel|0.000000,0.004382,-0.006885,0.000000,0.004826,0.000000|eff|0.000000,225.585938,-805.664062,-96.679688,80.566406,0.000000
cobot_dynamixel_driver/joint_states|name|J1,J2,J3,J4,J5,J6|pos|-0.000013,-0.000551,0.000714,-0.000038,-0.000310,0.000000|vel|0.000000,0.003756,-0.004173,0.000000,0.004481,0.000000|eff|0.000000,193.359375,-789.550781,-112.792969,80.566406,16.113281
cobot_dynamixel_driver/joint_states|name|J1,J2,J3,J4,J5,J6|pos|-0.000013,-0.000451,0.000714,-0.000038,-0.000310,0.000000|vel|0.000000,0.005633,-0.004173,0.000000,0.004481,0.000000|eff|0.000000,322.265625,-837.890625,0.000000,80.566406,16.113281
cobot_dynamixel_driver/joint_states|name|J1,J2,J3,J4,J5,J6|pos|-0.000013,-0.000438,0.000714,-0.000038,-0.000310,0.000000|vel|0.000000,0.003756,-0.004173,0.000000,0.004481,0.000000|eff|-48.339844,225.585938,-854.003906,-96.679688,68.481445,0.000000
cobot_dynamixel_driver/joint_states|name|J1,J2,J3,J4,J5,J6|pos|-0.000013,-0.000438,0.000714,-0.000038,-0.000310,0.000000|vel|0.000000,0.003756,-0.004173,0.000000,0.004481,0.000000|eff|0.000000,225.585938,-854.003906,-80.566406,68.481445,0.000000
cobot_dynamixel_driver/joint_states|name|J1,J2,J3,J4,J5,J6|pos|-0.000013,-0.000438,0.000714,-0.000038,-0.000310,0.000000|vel|0.000000,0.003756,-0.004173,0.000000,0.004481,0.000000|eff|0.000000,306.152344,-854.003906,-96.679688,60.424805,28.198242
cobot_dynamixel_driver/joint_states|name|J1,J2,J3,J4,J5,J6|pos|-0.000013,-0.000438,0.000714,-0.000038,-0.000310,0.000000|vel|0.000000,0.003756,-0.004173,0.000000,0.004481,0.000000|eff|0.000000,241.699219,-870.117188,0.000000,56.396484,0.000000
cobot_dynamixel_driver/joint_states|name|J1,J2,J3,J4,J5,J6|pos|-0.000013,-0.000438,0.000689,-0.000038,-0.000310,0.000000|vel|0.000000,0.003756,0.000000,0.000000,0.000000,0.000000|eff|-48.339844,354.492188,-902.343750,-80.566406,60.424805,28.198242
cobot_dynamixel_driver/joint_states|name|J1,J2,J3,J4,J5,J6|pos|-0.000013,-0.000438,0.000613,-0.000038,-0.000310,0.000000|vel|0.000000,0.003756,-0.004382,0.000000,0.000000,0.000000|eff|0.000000,225.585938,-902.343750,0.000000,68.481445,0.000000
cobot_dynamixel_driver/joint_states|name|J1,J2,J3,J4,J5,J6|pos|-0.000013,-0.000438,0.000513,-0.000025,-0.000310,0.000000|vel|0.000000,-0.000000,-0.005633,0.000000,0.000000,0.000000|eff|0.000000,225.585938,-821.777344,-32.226562,72.509766,0.000000
cobot_dynamixel_driver/joint_states|name|J1,J2,J3,J4,J5,J6|pos|-0.000013,-0.000426,0.000388,-0.000025,-0.000310,0.000000|vel|0.000000,-0.000000,-0.006468,0.000000,0.000000,0.000000|eff|-80.566406,161.132812,-854.003906,0.000000,80.566406,8.056641
cobot_dynamixel_driver/joint_states|name|J1,J2,J3,J4,J5,J6|pos|-0.000013,-0.000413,0.000238,-0.000025,-0.000310,0.000000|vel|0.000000,-0.000000,-0.008346,0.000000,0.000000,0.000000|eff|0.000000,241.699219,-757.324219,-32.226562,84.594727,0.000000
cobot_dynamixel_driver/joint_states|name|J1,J2,J3,J4,J5,J6|pos|-0.000013,-0.000401,0.000100,-0.000025,-0.000310,0.000000|vel|0.000000,-0.000000,-0.006259,0.000000,0.000000,0.000000|eff|0.000000,177.246094,-757.324219,0.000000,84.594727,24.169922
cobot_dynamixel_driver/joint_states|name|J1,J2,J3,J4,J5,J6|pos|-0.000013,-0.000376,0.000025,-0.000025,-0.000269,0.000000|vel|0.000000,0.001252,-0.003130,0.000000,0.000000,0.000000|eff|-80.566406,64.453125,-789.550781,-64.453125,92.651367,0.000000
cobot_dynamixel_driver/joint_states|name|J1,J2,J3,J4,J5,J6|pos|-0.000013,-0.000351,-0.000013,-0.000025,-0.000228,0.000000|vel|0.000000,0.001461,-0.001878,0.000000,0.002068,0.000000|eff|-112.792969,225.585938,-741.210938,-48.339844,92.651367,32.226562
cobot_dynamixel_driver/joint_states|name|J1,J2,J3,J4,J5,J6|pos|-0.000013,-0.000313,-0.000013,-0.000025,-0.000165,0.000000|vel|0.000000,0.001669,-0.001878,0.000000,0.002758,0.000000|eff|0.000000,128.906250,-692.871094,0.000000,84.594727,32.226562
cobot_dynamixel_driver/joint_states|name|J1,J2,J3,J4,J5,J6|pos|-0.000013,-0.000275,-0.000013,-0.000025,-0.000165,0.000000|vel|0.000000,0.001878,-0.001878,0.000000,0.002758,0.000000|eff|0.000000,80.566406,-757.324219,0.000000,76.538086,0.000000
cobot_dynamixel_driver/joint_states|name|J1,J2,J3,J4,J5,J6|pos|-0.000013,-0.000225,-0.000013,-0.000025,-0.000165,0.000000|vel|0.000000,0.002086,-0.001878,0.000000,0.002758,0.000000|eff|0.000000,273.925781,-676.757812,-80.566406,72.509766,32.226562
cobot_dynamixel_driver/joint_states|name|J1,J2,J3,J4,J5,J6|pos|-0.000013,-0.000175,-0.000013,-0.000025,-0.000165,0.000000|vel|0.000000,0.002712,-0.001878,0.000000,0.002758,0.000000|eff|0.000000,177.246094,-725.097656,-64.453125,64.453125,28.198242
cobot_dynamixel_driver/joint_states|name|J1,J2,J3,J4,J5,J6|pos|-0.000013,-0.000138,-0.000013,-0.000025,-0.000165,0.000000|vel|0.000000,0.002086,-0.001878,0.000000,0.002758,0.000000|eff|0.000000,145.019531,-757.324219,-80.566406,68.481445,0.000000
cobot_dynamixel_driver/joint_states|name|J1,J2,J3,J4,J5,J6|pos|-0.000013,-0.000100,-0.000013,-0.000025,-0.000165,0.000000|vel|0.000000,0.001878,0.000000,0.000000,0.002758,0.000000|eff|0.000000,209.472656,-708.984375,0.000000,60.424805,0.000000
cobot_dynamixel_driver/joint_states|name|J1,J2,J3,J4,J5,J6|pos|-0.000013,-0.000075,-0.000013,-0.000025,-0.000165,0.000000|vel|0.000000,0.001878,0.000000,0.000000,0.000000,0.000000|eff|0.000000,241.699219,-757.324219,-80.566406,68.481445,0.000000
cobot_dynamixel_driver/joint_states|name|J1,J2,J3,J4,J5,J6|pos|-0.000013,-0.000063,-0.000013,-0.000025,-0.000165,0.000000|vel|0.000000,0.001043,0.000000,0.000000,0.000000,0.000000|eff|0.000000,273.925781,-741.210938,0.000000,68.481445,0.000000
cobot_dynamixel_driver/joint_states|name|J1,J2,J3,J4,J5,J6|pos|-0.000013,-0.000038,-0.000013,-0.000025,-0.000165,0.000000|vel|0.000000,0.000835,0.000000,0.000000,0.000000,0.000000|eff|0.000000,257.812500,-741.210938,-32.226562,80.566406,24.169922
cobot_dynamixel_driver/joint_states|name|J1,J2,J3,J4,J5,J6|pos|-0.000013,-0.000013,-0.000013,-0.000025,-0.000165,0.000000|vel|0.000000,0.001043,0.000000,0.000000,0.000000,0.000000|eff|0.000000,241.699219,-676.757812,-48.339844,76.538086,20.141602
cobot_dynamixel_driver/joint_states|name|J1,J2,J3,J4,J5,J6|pos|-0.000013,-0.000000,-0.000013,-0.000025,-0.000165,0.000000|vel|0.000000,0.001043,0.000000,0.000000,0.000000,0.000000|eff|-112.792969,225.585938,-692.871094,-48.339844,80.566406,8.056641
cobot_dynamixel_driver/joint_states|name|J1,J2,J3,J4,J5,J6|pos|-0.000013,-0.000000,-0.000013,-0.000025,-0.000165,0.000000|vel|0.000000,0.000417,0.000000,0.000000,0.000000,0.000000|eff|0.000000,80.566406,-676.757812,-96.679688,76.538086,0.000000
cobot_dynamixel_driver/joint_states|name|J1,J2,J3,J4,J5,J6|pos|-0.000013,0.000013,-0.000013,-0.000025,-0.000165,0.000000|vel|0.000000,0.000417,0.000000,0.000000,0.000000,0.000000|eff|0.000000,225.585938,-708.984375,0.000000,80.566406,0.000000
cobot_dynamixel_driver/joint_states|name|J1,J2,J3,J4,J5,J6|pos|-0.000013,0.000025,-0.000013,-0.000025,-0.000165,0.000000|vel|0.000000,0.000417,0.000000,0.000000,0.000000,0.000000|eff|-112.792969,225.585938,-741.210938,0.000000,80.566406,24.169922
cobot_dynamixel_driver/joint_states|name|J1,J2,J3,J4,J5,J6|pos|-0.000013,0.000025,-0.000013,-0.000025,-0.000165,0.000000|vel|0.000000,0.000209,0.000000,0.000000,0.000000,0.000000|eff|0.000000,225.585938,-725.097656,0.000000,84.594727,0.000000
cobot_dynamixel_driver/joint_states|name|J1,J2,J3,J4,J5,J6|pos|-0.000013,0.000025,-0.000013,-0.000025,-0.000145,0.000000|vel|0.000000,0.000209,0.000000,0.000000,0.000000,0.000000|eff|0.000000,225.585938,-708.984375,-96.679688,84.594727,16.113281
cobot_dynamixel_driver/joint_states|name|J1,J2,J3,J4,J5,J6|pos|-0.000013,0.000038,-0.000013,-0.000025,-0.000145,0.000000|vel|0.000000,0.000209,0.000000,0.000000,0.000000,0.000000|eff|0.000000,225.585938,-757.324219,0.000000,84.594727,32.226562
cobot_dynamixel_driver/joint_states|name|J1,J2,J3,J4,J5,J6|pos|-0.000013,0.000038,-0.000013,-0.000025,-0.000124,0.000000|vel|0.000000,0.000209,0.000000,0.000000,0.000689,0.000000|eff|-80.566406,225.585938,-757.324219,-64.453125,88.623047,0.000000
cobot_dynamixel_driver/joint_states|name|J1,J2,J3,J4,J5,J6|pos|-0.000013,0.000038,-0.000013,-0.000025,-0.000083,0.000000|vel|0.000000,0.000209,0.000000,0.000000,0.000689,0.000000|eff|0.000000,225.585938,-741.210938,-48.339844,84.594727,16.113281
cobot_dynamixel_driver/joint_states|name|J1,J2,J3,J4,J5,J6|pos|-0.000013,0.000050,-0.000013,-0.000025,-0.000083,0.000000|vel|0.000000,0.000209,0.000000,0.000000,0.001034,0.000000|eff|0.000000,225.585938,-757.324219,-96.679688,92.651367,20.141602
cobot_dynamixel_driver/joint_states|name|J1,J2,J3,J4,J5,J6|pos|-0.000013,0.000050,-0.000013,-0.000025,-0.000062,0.000000|vel|0.000000,0.000209,0.000000,0.000000,0.001034,0.000000|eff|0.000000,257.812500,-757.324219,0.000000,88.623047,0.000000
cobot_dynamixel_driver/joint_states|name|J1,J2,J3,J4,J5,J6|pos|-0.000013,0.000050,-0.000013,-0.000025,-0.000062,0.000000|vel|0.000000,0.000209,0.000000,0.000000,0.001034,0.000000|eff|-48.339844,209.472656,-741.210938,0.000000,84.594727,0.000000
cobot_dynamixel_driver/joint_states|name|J1,J2,J3,J4,J5,J6|pos|-0.000013,0.000050,-0.000013,-0.000025,-0.000062,0.000000|vel|0.000000,0.000209,0.000000,0.000000,0.001034,0.000000|eff|0.000000,209.472656,-708.984375,-48.339844,80.566406,0.000000
cobot_dynamixel_driver/joint_states|name|J1,J2,J3,J4,J5,J6|pos|-0.000013,0.000050,-0.000013,-0.000025,-0.000062,0.000000|vel|0.000000,0.000209,0.000000,0.000000,0.001034,0.000000|eff|0.000000,241.699219,-757.324219,-80.566406,76.538086,0.000000
cobot_dynamixel_driver/joint_states|name|J1,J2,J3,J4,J5,J6|pos|-0.000013,0.000050,-0.000013,-0.000025,-0.000062,0.000000|vel|0.000000,0.000209,0.000000,0.000000,0.001034,0.000000|eff|0.000000,209.472656,-741.210938,-96.679688,76.538086,20.141602
cobot_dynamixel_driver/joint_states|name|J1,J2,J3,J4,J5,J6|pos|-0.000013,0.000050,-0.000013,-0.000025,-0.000062,0.000000|vel|0.000000,0.000209,0.000000,0.000000,0.000000,0.000000|eff|-112.792969,225.585938,-692.871094,-48.339844,80.566406,24.169922
cobot_dynamixel_driver/joint_states|name|J1,J2,J3,J4,J5,J6|pos|-0.000013,0.000050,-0.000013,-0.000025,-0.000062,0.000000|vel|0.000000,-0.000000,0.000000,0.000000,0.000000,0.000000|eff|0.000000,225.585938,-725.097656,-48.339844,84.594727,0.000000
cobot_dynamixel_driver/joint_states|name|J1,J2,J3,J4,J5,J6|pos|-0.000013,0.000050,-0.000025,-0.000025,-0.000062,0.000000|vel|0.000000,-0.000000,0.000000,0.000000,0.000000,0.000000|eff|0.000000,241.699219,-741.210938,-64.453125,80.566406,24.169922
cobot_dynamixel_driver/joint_states|name|J1,J2,J3,J4,J5,J6|pos|-0.000013,0.000050,-0.000025,-0.000025,-0.000062,0.000000|vel|0.000000,-0.000000,0.000000,0.000000,0.000000,0.000000|eff|0.000000,370.605469,-725.097656,-80.566406,80.566406,0.000000
cobot_dynamixel_driver/joint_states|name|J1,J2,J3,J4,J5,J6|pos|-0.000013,0.000063,-0.000025,-0.000025,-0.000062,0.000000|vel|0.000000,-0.000000,0.000000,0.000000,0.000000,0.000000|eff|-48.339844,241.699219,-725.097656,0.000000,80.566406,0.000000
cobot_dynamixel_driver/joint_states|name|J1,J2,J3,J4,J5,J6|pos|-0.000013,0.000063,-0.000025,-0.000025,-0.000062,0.000000|vel|0.000000,-0.000000,0.000000,0.000000,0.000000,0.000000|eff|0.000000,225.585938,-708.984375,-48.339844,76.538086,0.000000
cobot_dynamixel_driver/joint_states|name|J1,J2,J3,J4,J5,J6|pos|-0.000013,0.000063,-0.000025,-0.000025,-0.000062,0.000000|vel|0.000000,-0.000000,0.000000,0.000000,0.000000,0.000000|eff|0.000000,225.585938,-741.210938,-80.566406,84.594727,32.226562
cobot_dynamixel_driver/joint_states|name|J1,J2,J3,J4,J5,J6|pos|-0.000013,0.000063,-0.000025,-0.000025,-0.000062,0.000000|vel|0.000000,-0.000000,0.000000,0.000000,0.000000,0.000000|eff|-80.566406,257.812500,-757.324219,-96.679688,84.594727,0.000000
cobot_dynamixel_driver/joint_states|name|J1,J2,J3,J4,J5,J6|pos|-0.000013,0.000063,-0.000025,-0.000025,-0.000062,0.000000|vel|0.000000,-0.000000,0.000000,0.000000,0.000000,0.000000|eff|0.000000,225.585938,-757.324219,-96.679688,80.566406,8.056641
cobot_dynamixel_driver/joint_states|name|J1,J2,J3,J4,J5,J6|pos|-0.000013,0.000063,-0.000025,-0.000025,-0.000062,0.000000|vel|0.000000,-0.000000,0.000000,0.000000,0.000000,0.000000|eff|0.000000,338.378906,-725.097656,-80.566406,84.594727,32.226562
cobot_dynamixel_driver/joint_states|name|J1,J2,J3,J4,J5,J6|pos|-0.000013,0.000063,-0.000025,-0.000025,-0.000041,0.000000|vel|0.000000,-0.000000,0.000000,0.000000,0.000000,0.000000|eff|0.000000,241.699219,-708.984375,-96.679688,84.594727,20.141602
cobot_dynamixel_driver/joint_states|name|J1,J2,J3,J4,J5,J6|pos|-0.000013,0.000063,-0.000025,-0.000025,-0.000021,0.000000|vel|0.000000,-0.000000,0.000000,0.000000,0.000000,0.000000|eff|-32.226562,209.472656,-676.757812,0.000000,88.623047,0.000000
cobot_dynamixel_driver/joint_states|name|J1,J2,J3,J4,J5,J6|pos|-0.000013,0.000063,-0.000025,-0.000025,0.000000,0.000000|vel|0.000000,-0.000000,0.000000,0.000000,0.001379,0.000000|eff|0.000000,354.492188,-725.097656,-64.453125,84.594727,8.056641
cobot_dynamixel_driver/joint_states|name|J1,J2,J3,J4,J5,J6|pos|-0.000013,0.000063,-0.000025,-0.000025,0.000021,0.000000|vel|0.000000,-0.000000,0.000000,0.000000,0.001379,0.000000|eff|0.000000,225.585938,-741.210938,-96.679688,84.594727,32.226562
cobot_dynamixel_driver/joint_states|name|J1,J2,J3,J4,J5,J6|pos|-0.000013,0.000063,-0.000025,-0.000025,0.000021,0.000000|vel|0.000000,-0.000000,0.000000,0.000000,0.001379,0.000000|eff|0.000000,225.585938,-725.097656,-48.339844,80.566406,28.198242
cobot_dynamixel_driver/joint_states|name|J1,J2,J3,J4,J5,J6|pos|-0.000013,0.000063,-0.000025,-0.000025,0.000021,0.000000|vel|0.000000,-0.000000,0.000000,0.000000,0.001379,0.000000|eff|-48.339844,306.152344,-676.757812,-48.339844,80.566406,32.226562
cobot_dynamixel_driver/joint_states|name|J1,J2,J3,J4,J5,J6|pos|-0.000013,0.000063,-0.000025,-0.000025,0.000021,0.000000|vel|0.000000,-0.000000,0.000000,0.000000,0.001379,0.000000|eff|0.000000,306.152344,-708.984375,-48.339844,76.538086,0.000000
cobot_dynamixel_driver/joint_states|name|J1,J2,J3,J4,J5,J6|pos|-0.000013,0.000063,-0.000025,-0.000025,0.000021,0.000000|vel|0.000000,-0.000000,0.000000,0.000000,0.001379,0.000000|eff|-80.566406,225.585938,-676.757812,-80.566406,64.453125,28.198242
cobot_dynamixel_driver/joint_states|name|J1,J2,J3,J4,J5,J6|pos|-0.000013,0.000063,-0.000025,-0.000025,0.000021,0.000000|vel|0.000000,-0.000000,0.000000,0.000000,0.000000,0.000000|eff|0.000000,209.472656,-708.984375,-96.679688,76.538086,32.226562
cobot_dynamixel_driver/joint_states|name|J1,J2,J3,J4,J5,J6|pos|-0.000013,0.000063,-0.000025,-0.000025,0.000021,0.000000|vel|0.000000,-0.000000,0.000000,0.000000,0.000000,0.000000|eff|-48.339844,225.585938,-708.984375,-96.679688,64.453125,0.000000
cobot_dynamixel_driver/joint_states|name|J1,J2,J3,J4,J5,J6|pos|-0.000013,0.000063,-0.000025,-0.000025,0.000021,0.000000|vel|0.000000,-0.000000,0.000000,0.000000,0.000000,0.000000|eff|0.000000,225.585938,-757.324219,-80.566406,76.538086,8.056641
cobot_dynamixel_driver/joint_states|name|J1,J2,J3,J4,J5,J6|pos|-0.000013,0.000063,-0.000025,-0.000025,0.000021,0.000000|vel|0.000000,-0.000000,0.000000,0.000000,0.000000,0.000000|eff|0.000000,225.585938,-757.324219,-64.453125,76.538086,24.169922
cobot_dynamixel_driver/joint_states|name|J1,J2,J3,J4,J5,J6|pos|-0.000013,0.000063,-0.000025,-0.000025,0.000021,0.000000|vel|0.000000,-0.000000,0.000000,0.000000,0.000000,0.000000|eff|-112.792969,370.605469,-741.210938,-80.566406,76.538086,0.000000
cobot_dynamixel_driver/joint_states|name|J1,J2,J3,J4,J5,J6|pos|-0.000013,0.000063,-0.000025,-0.000025,0.000021,0.000000|vel|0.000000,-0.000000,0.000000,0.000000,0.000000,0.000000|eff|0.000000,273.925781,-741.210938,-80.566406,64.453125,0.000000
cobot_dynamixel_driver/joint_states|name|J1,J2,J3,J4,J5,J6|pos|-0.000013,0.000063,-0.000025,-0.000025,0.000021,0.000000|vel|0.000000,-0.000000,0.000000,0.000000,0.000000,0.000000|eff|0.000000,241.699219,-708.984375,-48.339844,68.481445,32.226562
cobot_dynamixel_driver/joint_states|name|J1,J2,J3,J4,J5,J6|pos|-0.000013,0.000050,-0.000025,-0.000025,0.000021,0.000000|vel|0.000000,-0.000000,0.000000,0.000000,0.000000,0.000000|eff|0.000000,290.039062,-692.871094,0.000000,76.538086,0.000000
cobot_dynamixel_driver/joint_states|name|J1,J2,J3,J4,J5,J6|pos|-0.000013,0.000050,-0.000025,-0.000025,0.000021,0.000000|vel|0.000000,-0.000000,0.000000,0.000000,0.000000,0.000000|eff|-80.566406,402.832031,-692.871094,0.000000,76.538086,16.113281
cobot_dynamixel_driver/joint_states|name|J1,J2,J3,J4,J5,J6|pos|-0.000013,0.000050,-0.000025,-0.000025,0.000021,0.000000|vel|0.000000,-0.000000,0.000000,0.000000,0.000000,0.000000|eff|0.000000,257.812500,-692.871094,-96.679688,68.481445,20.141602
cobot_dynamixel_driver/joint_states|name|J1,J2,J3,J4,J5,J6|pos|-0.000013,0.000050,-0.000025,-0.000025,0.000021,0.000000|vel|0.000000,-0.000000,0.000000,0.000000,0.000000,0.000000|eff|0.000000,257.812500,-741.210938,-96.679688,76.538086,28.198242
cobot_dynamixel_driver/joint_states|name|J1,J2,J3,J4,J5,J6|pos|-0.000013,0.000050,-0.000025,-0.000025,0.000021,0.000000|vel|0.000000,-0.000000,0.000000,0.000000,0.000000,0.000000|eff|0.000000,435.058594,-692.871094,-80.566406,68.481445,20.141602
cobot_dynamixel_driver/joint_states|name|J1,J2,J3,J4,J5,J6|pos|-0.000013,0.000050,-0.000025,-0.000025,0.000021,0.000000|vel|0.000000,-0.000000,0.000000,0.000000,0.000000,0.000000|eff|-112.792969,370.605469,-757.324219,-32.226562,68.481445,0.000000
cobot_dynamixel_driver/joint_states|name|J1,J2,J3,J4,J5,J6|pos|-0.000013,0.000050,-0.000025,-0.000025,0.000021,0.000000|vel|0.000000,-0.000000,0.000000,0.000000,0.000000,0.000000|eff|0.000000,370.605469,-676.757812,-32.226562,72.509766,0.000000
cobot_dynamixel_driver/joint_states|name|J1,J2,J3,J4,J5,J6|pos|-0.000013,0.000050,-0.000025,-0.000025,0.000021,0.000000|vel|0.000000,-0.000000,0.000000,0.000000,0.000000,0.000000|eff|0.000000,435.058594,-757.324219,-48.339844,76.538086,0.000000
cobot_dynamixel_driver/joint_states|name|J1,J2,J3,J4,J5,J6|pos|-0.000013,0.000050,-0.000025,-0.000025,0.000021,0.000000|vel|0.000000,-0.000000,0.000000,0.000000,0.000000,0.000000|eff|-80.566406,306.152344,-757.324219,0.000000,68.481445,0.000000
cobot_dynamixel_driver/joint_states|name|J1,J2,J3,J4,J5,J6|pos|-0.000013,0.000050,-0.000025,-0.000025,0.000021,0.000000|vel|0.000000,-0.000000,0.000000,0.000000,0.000000,0.000000|eff|0.000000,241.699219,-725.097656,0.000000,76.538086,28.198242
cobot_dynamixel_driver/joint_states|name|J1,J2,J3,J4,J5,J6|pos|-0.000013,0.000050,-0.000025,-0.000025,0.000021,0.000000|vel|0.000000,-0.000000,0.000000,0.000000,0.000000,0.000000|eff|0.000000,225.585938,-757.324219,-32.226562,72.509766,0.000000
cobot_dynamixel_driver/joint_states|name|J1,J2,J3,J4,J5,J6|pos|-0.000013,0.000050,-0.000025,-0.000025,0.000021,0.000000|vel|0.000000,-0.000000,0.000000,0.000000,0.000000,0.000000|eff|0.000000,322.265625,-741.210938,-32.226562,68.481445,28.198242
cobot_dynamixel_driver/joint_states|name|J1,J2,J3,J4,J5,J6|pos|-0.000013,0.000050,-0.000025,-0.000025,0.000021,0.000000|vel|0.000000,-0.000000,0.000000,0.000000,0.000000,0.000000|eff|0.000000,225.585938,-708.984375,-32.226562,68.481445,0.000000
cobot_dynamixel_driver/joint_states|name|J1,J2,J3,J4,J5,J6|pos|-0.000013,0.000050,-0.000025,-0.000025,0.000021,0.000000|vel|0.000000,-0.000000,0.000000,0.000000,0.000000,0.000000|eff|0.000000,322.265625,-725.097656,-96.679688,72.509766,0.000000
cobot_dynamixel_driver/joint_states|name|J1,J2,J3,J4,J5,J6|pos|-0.000013,0.000050,-0.000025,-0.000025,0.000021,0.000000|vel|0.000000,-0.000000,0.000000,0.000000,0.000000,0.000000|eff|0.000000,306.152344,-757.324219,-32.226562,76.538086,0.000000
cobot_dynamixel_driver/joint_states|name|J1,J2,J3,J4,J5,J6|pos|-0.000013,0.000050,-0.000025,-0.000025,0.000021,0.000000|vel|0.000000,-0.000000,0.000000,0.000000,0.000000,0.000000|eff|-80.566406,225.585938,-757.324219,0.000000,72.509766,16.113281
cobot_dynamixel_driver/joint_states|name|J1,J2,J3,J4,J5,J6|pos|-0.000013,0.000050,-0.000025,-0.000025,0.000021,0.000000|vel|0.000000,-0.000000,0.000000,0.000000,0.000000,0.000000|eff|0.000000,273.925781,-708.984375,0.000000,76.538086,0.000000
cobot_dynamixel_driver/joint_states|name|J1,J2,J3,J4,J5,J6|pos|-0.000013,0.000050,-0.000025,-0.000025,0.000021,0.000000|vel|0.000000,-0.000000,0.000000,0.000000,0.000000,0.000000|eff|0.000000,225.585938,-757.324219,-48.339844,72.509766,8.056641
