surachairobotic/cobot/cobot_dynamixel_driver/log/2018-12-19T11:23:12.383671_driver_log.txt
cobot_dynamixel_driver/joint_states|name|J1,J2,J3,J4,J5,J6|pos|-0.079203,-1.268785,1.296275,-0.001715,-1.099449,-0.000083|vel|0.000000,-0.000000,0.000000,0.000000,0.000000,0.000000|eff|0.000000,0.000000,0.000000,0.000000,0.000000,0.000000
cobot_dynamixel_driver/joint_states|name|J1,J2,J3,J4,J5,J6|pos|-0.079203,-1.268785,1.296275,-0.001715,-1.099449,-0.000083|vel|0.000000,-0.000000,0.000000,0.000000,0.000000,0.000000|eff|0.000000,0.000000,0.000000,0.000000,0.000000,0.000000
cobot_dynamixel_driver/joint_states|name|J1,J2,J3,J4,J5,J6|pos|-0.079203,-1.268785,1.296275,-0.001715,-1.099449,-0.000083|vel|0.000000,-0.000000,0.000000,0.000000,0.000000,0.000000|eff|0.000000,0.000000,0.000000,0.000000,0.000000,0.000000
cobot_dynamixel_driver/joint_states|name|J1,J2,J3,J4,J5,J6|pos|-0.079203,-1.268785,1.296275,-0.001715,-1.099449,-0.000083|vel|0.000000,-0.000000,0.000000,0.000000,0.000000,0.000000|eff|0.000000,0.000000,0.000000,0.000000,0.000000,0.000000
cobot_dynamixel_driver/joint_states|name|J1,J2,J3,J4,J5,J6|pos|-0.079203,-1.268785,1.296275,-0.001715,-1.099449,-0.000083|vel|0.000000,-0.000000,0.000000,0.000000,0.000000,0.000000|eff|0.000000,0.000000,0.000000,0.000000,0.000000,0.000000
cobot_dynamixel_driver/joint_states|name|J1,J2,J3,J4,J5,J6|pos|-0.079203,-1.268785,1.296275,-0.001715,-1.099449,-0.000083|vel|0.000000,-0.000000,0.000000,0.000000,0.000000,0.000000|eff|0.000000,0.000000,0.000000,0.000000,0.000000,0.000000
cobot_dynamixel_driver/joint_states|name|J1,J2,J3,J4,J5,J6|pos|-0.079203,-1.268785,1.296275,-0.001715,-1.099449,-0.000083|vel|0.000000,-0.000000,0.000000,0.000000,0.000000,0.000000|eff|0.000000,0.000000,0.000000,0.000000,0.000000,0.000000
cobot_dynamixel_driver/joint_states|name|J1,J2,J3,J4,J5,J6|pos|-0.079203,-1.268785,1.296275,-0.001715,-1.099449,-0.000083|vel|0.000000,-0.000000,0.000000,0.000000,0.000000,0.000000|eff|0.000000,0.000000,0.000000,0.000000,0.000000,0.000000
cobot_dynamixel_driver/joint_states|name|J1,J2,J3,J4,J5,J6|pos|-0.079203,-1.268785,1.296275,-0.001715,-1.099449,-0.000083|vel|0.000000,-0.000000,0.000000,0.000000,0.000000,0.000000|eff|0.000000,0.000000,0.000000,0.000000,0.000000,0.000000
cobot_dynamixel_driver/joint_states|name|J1,J2,J3,J4,J5,J6|pos|-0.079203,-1.268785,1.296275,-0.001715,-1.099449,-0.000083|vel|0.000000,-0.000000,0.000000,0.000000,0.000000,0.000000|eff|0.000000,0.000000,0.000000,0.000000,0.000000,0.000000
cobot_dynamixel_driver/joint_states|name|J1,J2,J3,J4,J5,J6|pos|-0.079203,-1.268785,1.296275,-0.001715,-1.099449,-0.000083|vel|0.000000,-0.000000,0.000000,0.000000,0.000000,0.000000|eff|0.000000,0.000000,0.000000,0.000000,0.000000,0.000000
cobot_dynamixel_driver/joint_states|name|J1,J2,J3,J4,J5,J6|pos|-0.079203,-1.268785,1.296275,-0.001715,-1.099449,-0.000083|vel|0.000000,-0.000000,0.000000,0.000000,0.000000,0.000000|eff|0.000000,0.000000,0.000000,0.000000,0.000000,0.000000
cobot_dynamixel_driver/joint_states|name|J1,J2,J3,J4,J5,J6|pos|-0.079203,-1.268785,1.296275,-0.001715,-1.099449,-0.000083|vel|0.000000,-0.000000,0.000000,0.000000,0.000000,0.000000|eff|0.000000,0.000000,0.000000,0.000000,0.000000,0.000000
cobot_dynamixel_driver/joint_states|name|J1,J2,J3,J4,J5,J6|pos|-0.079203,-1.268785,1.296275,-0.001715,-1.099449,-0.000083|vel|0.000000,-0.000000,0.000000,0.000000,0.000000,0.000000|eff|0.000000,0.000000,0.000000,0.000000,0.000000,0.000000
cobot_dynamixel_driver/joint_states|name|J1,J2,J3,J4,J5,J6|pos|-0.079203,-1.268785,1.296275,-0.001715,-1.099449,-0.000083|vel|0.000000,-0.000000,0.000000,0.000000,0.000000,0.000000|eff|0.000000,0.000000,0.000000,0.000000,0.000000,0.000000
cobot_dynamixel_driver/joint_states|name|J1,J2,J3,J4,J5,J6|pos|-0.079203,-1.268785,1.296275,-0.001715,-1.099449,-0.000083|vel|0.000000,-0.000000,0.000000,0.000000,0.000000,0.000000|eff|0.000000,0.000000,0.000000,0.000000,0.000000,0.000000
cobot_dynamixel_driver/joint_states|name|J1,J2,J3,J4,J5,J6|pos|-0.079203,-1.268785,1.296275,-0.001715,-1.099449,-0.000083|vel|0.000000,-0.000000,0.000000,0.000000,0.000000,0.000000|eff|0.000000,0.000000,0.000000,0.000000,0.000000,0.000000
cobot_dynamixel_driver/joint_states|name|J1,J2,J3,J4,J5,J6|pos|-0.079203,-1.268785,1.296275,-0.001715,-1.099449,-0.000083|vel|0.000000,-0.000000,0.000000,0.000000,0.000000,0.000000|eff|0.000000,0.000000,0.000000,0.000000,0.000000,0.000000
cobot_dynamixel_driver/joint_states|name|J1,J2,J3,J4,J5,J6|pos|-0.079203,-1.268785,1.296275,-0.001715,-1.099449,-0.000083|vel|0.000000,-0.000000,0.000000,0.000000,0.000000,0.000000|eff|0.000000,0.000000,0.000000,0.000000,0.000000,0.000000
cobot_dynamixel_driver/joint_states|name|J1,J2,J3,J4,J5,J6|pos|-0.079203,-1.268785,1.296275,-0.001715,-1.099449,-0.000083|vel|0.000000,-0.000000,0.000000,0.000000,0.000000,0.000000|eff|0.000000,0.000000,0.000000,0.000000,0.000000,0.000000
cobot_dynamixel_driver/joint_states|name|J1,J2,J3,J4,J5,J6|pos|-0.079203,-1.268785,1.296275,-0.001715,-1.099449,-0.000083|vel|0.000000,-0.000000,0.000000,0.000000,0.000000,0.000000|eff|0.000000,0.000000,0.000000,0.000000,0.000000,0.000000
cobot_dynamixel_driver/joint_states|name|J1,J2,J3,J4,J5,J6|pos|-0.079203,-1.268785,1.296275,-0.001715,-1.099449,-0.000083|vel|0.000000,-0.000000,0.000000,0.000000,0.000000,0.000000|eff|0.000000,0.000000,0.000000,0.000000,0.000000,0.000000
cobot_dynamixel_driver/joint_states|name|J1,J2,J3,J4,J5,J6|pos|-0.079203,-1.268785,1.296275,-0.001715,-1.099449,-0.000083|vel|0.000000,-0.000000,0.000000,0.000000,0.000000,0.000000|eff|0.000000,0.000000,0.000000,0.000000,0.000000,0.000000
cobot_dynamixel_driver/joint_states|name|J1,J2,J3,J4,J5,J6|pos|-0.079203,-1.268785,1.296275,-0.001715,-1.099449,-0.000083|vel|0.000000,-0.000000,0.000000,0.000000,0.000000,0.000000|eff|0.000000,0.000000,0.000000,0.000000,0.000000,0.000000
cobot_dynamixel_driver/joint_states|name|J1,J2,J3,J4,J5,J6|pos|-0.079203,-1.268785,1.296275,-0.001715,-1.099449,-0.000083|vel|0.000000,-0.000000,0.000000,0.000000,0.000000,0.000000|eff|0.000000,0.000000,0.000000,0.000000,0.000000,0.000000
cobot_dynamixel_driver/joint_states|name|J1,J2,J3,J4,J5,J6|pos|-0.079203,-1.268785,1.296275,-0.001715,-1.099449,-0.000083|vel|0.000000,-0.000000,0.000000,0.000000,0.000000,0.000000|eff|0.000000,0.000000,0.000000,0.000000,0.000000,0.000000
cobot_dynamixel_driver/joint_states|name|J1,J2,J3,J4,J5,J6|pos|-0.079203,-1.268785,1.296275,-0.001715,-1.099449,-0.000083|vel|0.000000,-0.000000,0.000000,0.000000,0.000000,0.000000|eff|0.000000,0.000000,0.000000,0.000000,0.000000,0.000000
cobot_dynamixel_driver/joint_states|name|J1,J2,J3,J4,J5,J6|pos|-0.079203,-1.268785,1.296275,-0.001715,-1.099449,-0.000083|vel|0.000000,-0.000000,0.000000,0.000000,0.000000,0.000000|eff|0.000000,0.000000,0.000000,0.000000,0.000000,0.000000
cobot_dynamixel_driver/joint_states|name|J1,J2,J3,J4,J5,J6|pos|-0.079203,-1.268785,1.296275,-0.001715,-1.099449,-0.000083|vel|0.000000,-0.000000,0.000000,0.000000,0.000000,0.000000|eff|0.000000,0.000000,0.000000,0.000000,0.000000,0.000000
cobot_dynamixel_driver/joint_states|name|J1,J2,J3,J4,J5,J6|pos|-0.079203,-1.268785,1.296275,-0.001715,-1.099449,-0.000083|vel|0.000000,-0.000000,0.000000,0.000000,0.000000,0.000000|eff|0.000000,0.000000,0.000000,0.000000,0.000000,0.000000
cobot_dynamixel_driver/joint_states|name|J1,J2,J3,J4,J5,J6|pos|-0.079203,-1.268785,1.296275,-0.001715,-1.099449,-0.000083|vel|0.000000,-0.000000,0.000000,0.000000,0.000000,0.000000|eff|0.000000,0.000000,0.000000,0.000000,0.000000,0.000000
cobot_dynamixel_driver/joint_states|name|J1,J2,J3,J4,J5,J6|pos|-0.079203,-1.268785,1.296275,-0.001715,-1.099449,-0.000083|vel|0.000000,-0.000000,0.000000,0.000000,0.000000,0.000000|eff|0.000000,0.000000,0.000000,0.000000,0.000000,0.000000
cobot_dynamixel_driver/joint_states|name|J1,J2,J3,J4,J5,J6|pos|-0.079203,-1.268785,1.296275,-0.001715,-1.099449,-0.000083|vel|0.000000,-0.000000,0.000000,0.000000,0.000000,0.000000|eff|0.000000,0.000000,0.000000,0.000000,0.000000,0.000000
cobot_dynamixel_driver/joint_states|name|J1,J2,J3,J4,J5,J6|pos|-0.079203,-1.268785,1.296275,-0.001715,-1.099449,-0.000083|vel|0.000000,-0.000000,0.000000,0.000000,0.000000,0.000000|eff|0.000000,0.000000,0.000000,0.000000,0.000000,0.000000
cobot_dynamixel_driver/joint_states|name|J1,J2,J3,J4,J5,J6|pos|-0.079203,-1.268785,1.296275,-0.001715,-1.099449,-0.000083|vel|0.000000,-0.000000,0.000000,0.000000,0.000000,0.000000|eff|0.000000,0.000000,0.000000,0.000000,0.000000,0.000000
cobot_dynamixel_driver/joint_states|name|J1,J2,J3,J4,J5,J6|pos|-0.079203,-1.268785,1.296275,-0.001715,-1.099449,-0.000083|vel|0.000000,-0.000000,0.000000,0.000000,0.000000,0.000000|eff|0.000000,0.000000,0.000000,0.000000,0.000000,0.000000
cobot_dynamixel_driver/joint_states|name|J1,J2,J3,J4,J5,J6|pos|-0.079203,-1.268785,1.296275,-0.001715,-1.099449,-0.000083|vel|0.000000,-0.000000,0.000000,0.000000,0.000000,0.000000|eff|0.000000,0.000000,0.000000,0.000000,0.000000,0.000000
cobot_dynamixel_driver/joint_states|name|J1,J2,J3,J4,J5,J6|pos|-0.079203,-1.268785,1.296275,-0.001715,-1.099449,-0.000083|vel|0.000000,-0.000000,0.000000,0.000000,0.000000,0.000000|eff|0.000000,0.000000,0.000000,0.000000,0.000000,0.000000
cobot_dynamixel_driver/joint_states|name|J1,J2,J3,J4,J5,J6|pos|-0.079203,-1.268785,1.296275,-0.001715,-1.099449,-0.000083|vel|0.000000,-0.000000,0.000000,0.000000,0.000000,0.000000|eff|0.000000,0.000000,0.000000,0.000000,0.000000,0.000000
cobot_dynamixel_driver/joint_states|name|J1,J2,J3,J4,J5,J6|pos|-0.079203,-1.268785,1.296275,-0.001715,-1.099449,-0.000083|vel|0.000000,-0.000000,0.000000,0.000000,0.000000,0.000000|eff|0.000000,0.000000,0.000000,0.000000,0.000000,0.000000
cobot_dynamixel_driver/joint_states|name|J1,J2,J3,J4,J5,J6|pos|-0.079203,-1.268785,1.296275,-0.001715,-1.099449,-0.000083|vel|0.000000,-0.000000,0.000000,0.000000,0.000000,0.000000|eff|0.000000,0.000000,0.000000,0.000000,0.000000,0.000000
cobot_dynamixel_driver/joint_states|name|J1,J2,J3,J4,J5,J6|pos|-0.079203,-1.268785,1.296275,-0.001715,-1.099449,-0.000083|vel|0.000000,-0.000000,0.000000,0.000000,0.000000,0.000000|eff|0.000000,0.000000,0.000000,0.000000,0.000000,0.000000
cobot_dynamixel_driver/joint_states|name|J1,J2,J3,J4,J5,J6|pos|-0.079203,-1.268785,1.296275,-0.001715,-1.099449,-0.000083|vel|0.000000,-0.000000,0.000000,0.000000,0.000000,0.000000|eff|0.000000,0.000000,0.000000,0.000000,0.000000,0.000000
cobot_dynamixel_driver/joint_states|name|J1,J2,J3,J4,J5,J6|pos|-0.079203,-1.268785,1.296275,-0.001715,-1.099449,-0.000083|vel|0.000000,-0.000000,0.000000,0.000000,0.000000,0.000000|eff|0.000000,0.000000,0.000000,0.000000,0.000000,0.000000
cobot_dynamixel_driver/joint_states|name|J1,J2,J3,J4,J5,J6|pos|-0.079203,-1.268785,1.296275,-0.001715,-1.099449,-0.000083|vel|0.000000,-0.000000,0.000000,0.000000,0.000000,0.000000|eff|0.000000,0.000000,0.000000,0.000000,0.000000,0.000000
cobot_dynamixel_driver/joint_states|name|J1,J2,J3,J4,J5,J6|pos|-0.079203,-1.268785,1.296275,-0.001715,-1.099449,-0.000083|vel|0.000000,-0.000000,0.000000,0.000000,0.000000,0.000000|eff|0.000000,0.000000,0.000000,0.000000,0.000000,0.000000
cobot_dynamixel_driver/joint_states|name|J1,J2,J3,J4,J5,J6|pos|-0.079203,-1.268785,1.296275,-0.001715,-1.099449,-0.000083|vel|0.000000,-0.000000,0.000000,0.000000,0.000000,0.000000|eff|0.000000,0.000000,0.000000,0.000000,0.000000,0.000000
cobot_dynamixel_driver/joint_states|name|J1,J2,J3,J4,J5,J6|pos|-0.079203,-1.268785,1.296275,-0.001715,-1.099449,-0.000083|vel|0.000000,-0.000000,0.000000,0.000000,0.000000,0.000000|eff|0.000000,0.000000,0.000000,0.000000,0.000000,0.000000
cobot_dynamixel_driver/joint_states|name|J1,J2,J3,J4,J5,J6|pos|-0.079203,-1.268785,1.296275,-0.001715,-1.099449,-0.000083|vel|0.000000,-0.000000,0.000000,0.000000,0.000000,0.000000|eff|0.000000,0.000000,0.000000,0.000000,0.000000,0.000000
cobot_dynamixel_driver/joint_states|name|J1,J2,J3,J4,J5,J6|pos|-0.079203,-1.268785,1.296275,-0.001715,-1.099449,-0.000083|vel|0.000000,-0.000000,0.000000,0.000000,0.000000,0.000000|eff|0.000000,0.000000,0.000000,0.000000,0.000000,0.000000
cobot_dynamixel_driver/joint_states|name|J1,J2,J3,J4,J5,J6|pos|-0.079203,-1.268785,1.296275,-0.001715,-1.099449,-0.000083|vel|0.000000,-0.000000,0.000000,0.000000,0.000000,0.000000|eff|0.000000,0.000000,0.000000,0.000000,0.000000,0.000000
cobot_dynamixel_driver/joint_states|name|J1,J2,J3,J4,J5,J6|pos|-0.079203,-1.268785,1.296275,-0.001715,-1.099449,-0.000083|vel|0.000000,-0.000000,0.000000,0.000000,0.000000,0.000000|eff|0.000000,0.000000,0.000000,0.000000,0.000000,0.000000
cobot_dynamixel_driver/joint_states|name|J1,J2,J3,J4,J5,J6|pos|-0.079203,-1.268785,1.296275,-0.001715,-1.099449,-0.000083|vel|0.000000,-0.000000,0.000000,0.000000,0.000000,0.000000|eff|0.000000,0.000000,0.000000,0.000000,0.000000,0.000000
cobot_dynamixel_driver/joint_states|name|J1,J2,J3,J4,J5,J6|pos|-0.079203,-1.268785,1.296275,-0.001715,-1.099449,-0.000083|vel|0.000000,-0.000000,0.000000,0.000000,0.000000,0.000000|eff|0.000000,0.000000,0.000000,0.000000,0.000000,0.000000
cobot_dynamixel_driver/joint_states|name|J1,J2,J3,J4,J5,J6|pos|-0.079203,-1.268785,1.296275,-0.001715,-1.099449,-0.000083|vel|0.000000,-0.000000,0.000000,0.000000,0.000000,0.000000|eff|0.000000,0.000000,0.000000,0.000000,0.000000,0.000000
cobot_dynamixel_driver/joint_states|name|J1,J2,J3,J4,J5,J6|pos|-0.079203,-1.268785,1.296275,-0.001715,-1.099449,-0.000083|vel|0.000000,-0.000000,0.000000,0.000000,0.000000,0.000000|eff|0.000000,0.000000,0.000000,0.000000,0.000000,0.000000
cobot_dynamixel_driver/joint_states|name|J1,J2,J3,J4,J5,J6|pos|-0.079203,-1.268785,1.296275,-0.001715,-1.099449,-0.000083|vel|0.000000,-0.000000,0.000000,0.000000,0.000000,0.000000|eff|0.000000,0.000000,0.000000,0.000000,0.000000,0.000000
cobot_dynamixel_driver/joint_states|name|J1,J2,J3,J4,J5,J6|pos|-0.079203,-1.268785,1.296275,-0.001715,-1.099449,-0.000083|vel|0.000000,-0.000000,0.000000,0.000000,0.000000,0.000000|eff|0.000000,0.000000,0.000000,0.000000,0.000000,0.000000
cobot_dynamixel_driver/joint_states|name|J1,J2,J3,J4,J5,J6|pos|-0.079203,-1.268785,1.296275,-0.001715,-1.099449,-0.000083|vel|0.000000,-0.000000,0.000000,0.000000,0.000000,0.000000|eff|0.000000,0.000000,0.000000,0.000000,0.000000,0.000000
cobot_dynamixel_driver/joint_states|name|J1,J2,J3,J4,J5,J6|pos|-0.079203,-1.268785,1.296275,-0.001715,-1.099449,-0.000083|vel|0.000000,-0.000000,0.000000,0.000000,0.000000,0.000000|eff|0.000000,0.000000,0.000000,0.000000,0.000000,0.000000
cobot_dynamixel_driver/joint_states|name|J1,J2,J3,J4,J5,J6|pos|-0.079203,-1.268785,1.296275,-0.001715,-1.099449,-0.000083|vel|0.000000,-0.000000,0.000000,0.000000,0.000000,0.000000|eff|0.000000,0.000000,0.000000,0.000000,0.000000,0.000000
cobot_dynamixel_driver/joint_states|name|J1,J2,J3,J4,J5,J6|pos|-0.079203,-1.268785,1.296275,-0.001715,-1.099449,-0.000083|vel|0.000000,-0.000000,0.000000,0.000000,0.000000,0.000000|eff|0.000000,0.000000,0.000000,0.000000,0.000000,0.000000
cobot_dynamixel_driver/joint_states|name|J1,J2,J3,J4,J5,J6|pos|-0.079203,-1.268785,1.296275,-0.001715,-1.099449,-0.000083|vel|0.000000,-0.000000,0.000000,0.000000,0.000000,0.000000|eff|0.000000,0.000000,0.000000,0.000000,0.000000,0.000000
cobot_dynamixel_driver/joint_states|name|J1,J2,J3,J4,J5,J6|pos|-0.079203,-1.268785,1.296275,-0.001715,-1.099449,-0.000083|vel|0.000000,-0.000000,0.000000,0.000000,0.000000,0.000000|eff|0.000000,0.000000,0.000000,0.000000,0.000000,0.000000
cobot_dynamixel_driver/joint_states|name|J1,J2,J3,J4,J5,J6|pos|-0.079203,-1.268785,1.296275,-0.001715,-1.099449,-0.000083|vel|0.000000,-0.000000,0.000000,0.000000,0.000000,0.000000|eff|0.000000,0.000000,0.000000,0.000000,0.000000,0.000000
cobot_dynamixel_driver/joint_states|name|J1,J2,J3,J4,J5,J6|pos|-0.079203,-1.268785,1.296275,-0.001715,-1.099449,-0.000083|vel|0.000000,-0.000000,0.000000,0.000000,0.000000,0.000000|eff|0.000000,0.000000,0.000000,0.000000,0.000000,0.000000
cobot_dynamixel_driver/joint_states|name|J1,J2,J3,J4,J5,J6|pos|-0.079203,-1.268785,1.296275,-0.001715,-1.099449,-0.000083|vel|0.000000,-0.000000,0.000000,0.000000,0.000000,0.000000|eff|0.000000,0.000000,0.000000,0.000000,0.000000,0.000000
cobot_dynamixel_driver/joint_states|name|J1,J2,J3,J4,J5,J6|pos|-0.079203,-1.268785,1.296275,-0.001715,-1.099449,-0.000083|vel|0.000000,-0.000000,0.000000,0.000000,0.000000,0.000000|eff|0.000000,0.000000,0.000000,0.000000,0.000000,0.000000
cobot_dynamixel_driver/joint_states|name|J1,J2,J3,J4,J5,J6|pos|-0.079203,-1.268785,1.296275,-0.001715,-1.099449,-0.000083|vel|0.000000,-0.000000,0.000000,0.000000,0.000000,0.000000|eff|0.000000,0.000000,0.000000,0.000000,0.000000,0.000000
cobot_dynamixel_driver/joint_states|name|J1,J2,J3,J4,J5,J6|pos|-0.079203,-1.268785,1.296275,-0.001715,-1.099449,-0.000083|vel|0.000000,-0.000000,0.000000,0.000000,0.000000,0.000000|eff|0.000000,0.000000,0.000000,0.000000,0.000000,0.000000
cobot_dynamixel_driver/joint_states|name|J1,J2,J3,J4,J5,J6|pos|-0.079203,-1.268785,1.296275,-0.001715,-1.099449,-0.000083|vel|0.000000,-0.000000,0.000000,0.000000,0.000000,0.000000|eff|0.000000,0.000000,0.000000,0.000000,0.000000,0.000000
cobot_dynamixel_driver/joint_states|name|J1,J2,J3,J4,J5,J6|pos|-0.079203,-1.268785,1.296275,-0.001715,-1.099449,-0.000083|vel|0.000000,-0.000000,0.000000,0.000000,0.000000,0.000000|eff|0.000000,0.000000,0.000000,0.000000,0.000000,0.000000
cobot_dynamixel_driver/joint_states|name|J1,J2,J3,J4,J5,J6|pos|-0.079203,-1.268785,1.296275,-0.001715,-1.099449,-0.000083|vel|0.000000,-0.000000,0.000000,0.000000,0.000000,0.000000|eff|0.000000,0.000000,0.000000,0.000000,0.000000,0.000000
cobot_dynamixel_driver/joint_states|name|J1,J2,J3,J4,J5,J6|pos|-0.079203,-1.268785,1.296275,-0.001715,-1.099449,-0.000083|vel|0.000000,-0.000000,0.000000,0.000000,0.000000,0.000000|eff|0.000000,0.000000,0.000000,0.000000,0.000000,0.000000
cobot_dynamixel_driver/joint_states|name|J1,J2,J3,J4,J5,J6|pos|-0.079203,-1.268785,1.296275,-0.001715,-1.099449,-0.000083|vel|0.000000,-0.000000,0.000000,0.000000,0.000000,0.000000|eff|0.000000,0.000000,0.000000,0.000000,0.000000,0.000000
cobot_dynamixel_driver/joint_states|name|J1,J2,J3,J4,J5,J6|pos|-0.079203,-1.268785,1.296275,-0.001715,-1.099449,-0.000083|vel|0.000000,-0.000000,0.000000,0.000000,0.000000,0.000000|eff|0.000000,0.000000,0.000000,0.000000,0.000000,0.000000
cobot_dynamixel_driver/joint_states|name|J1,J2,J3,J4,J5,J6|pos|-0.079203,-1.268785,1.296275,-0.001715,-1.099449,-0.000083|vel|0.000000,-0.000000,0.000000,0.000000,0.000000,0.000000|eff|0.000000,0.000000,0.000000,0.000000,0.000000,0.000000
cobot_dynamixel_driver/joint_states|name|J1,J2,J3,J4,J5,J6|pos|-0.079203,-1.268785,1.296275,-0.001715,-1.099449,-0.000083|vel|0.000000,-0.000000,0.000000,0.000000,0.000000,0.000000|eff|0.000000,0.000000,0.000000,0.000000,0.000000,0.000000
cobot_dynamixel_driver/joint_states|name|J1,J2,J3,J4,J5,J6|pos|-0.079203,-1.268785,1.296275,-0.001715,-1.099449,-0.000083|vel|0.000000,-0.000000,0.000000,0.000000,0.000000,0.000000|eff|0.000000,0.000000,0.000000,0.000000,0.000000,0.000000
cobot_dynamixel_driver/joint_states|name|J1,J2,J3,J4,J5,J6|pos|-0.079203,-1.268785,1.296275,-0.001715,-1.099449,-0.000083|vel|0.000000,-0.000000,0.000000,0.000000,0.000000,0.000000|eff|0.000000,0.000000,0.000000,0.000000,0.000000,0.000000
cobot_dynamixel_driver/joint_states|name|J1,J2,J3,J4,J5,J6|pos|-0.079203,-1.268785,1.296275,-0.001715,-1.099449,-0.000083|vel|0.000000,-0.000000,0.000000,0.000000,0.000000,0.000000|eff|0.000000,0.000000,0.000000,0.000000,0.000000,0.000000
cobot_dynamixel_driver/joint_states|name|J1,J2,J3,J4,J5,J6|pos|-0.079203,-1.268785,1.296275,-0.001715,-1.099449,-0.000083|vel|0.000000,-0.000000,0.000000,0.000000,0.000000,0.000000|eff|0.000000,0.000000,0.000000,0.000000,0.000000,0.000000
cobot_dynamixel_driver/joint_states|name|J1,J2,J3,J4,J5,J6|pos|-0.079203,-1.268785,1.296275,-0.001715,-1.099449,-0.000083|vel|0.000000,-0.000000,0.000000,0.000000,0.000000,0.000000|eff|0.000000,0.000000,0.000000,0.000000,0.000000,0.000000
cobot_dynamixel_driver/joint_states|name|J1,J2,J3,J4,J5,J6|pos|-0.079203,-1.268785,1.296275,-0.001715,-1.099449,-0.000083|vel|0.000000,-0.000000,0.000000,0.000000,0.000000,0.000000|eff|0.000000,0.000000,0.000000,0.000000,0.000000,0.000000
cobot_dynamixel_driver/joint_states|name|J1,J2,J3,J4,J5,J6|pos|-0.079203,-1.268785,1.296275,-0.001715,-1.099449,-0.000083|vel|0.000000,-0.000000,0.000000,0.000000,0.000000,0.000000|eff|0.000000,0.000000,0.000000,0.000000,0.000000,0.000000
cobot_dynamixel_driver/joint_states|name|J1,J2,J3,J4,J5,J6|pos|-0.079203,-1.268785,1.296275,-0.001715,-1.099449,-0.000083|vel|0.000000,-0.000000,0.000000,0.000000,0.000000,0.000000|eff|0.000000,0.000000,0.000000,0.000000,0.000000,0.000000
cobot_dynamixel_driver/joint_states|name|J1,J2,J3,J4,J5,J6|pos|-0.079203,-1.268785,1.296275,-0.001715,-1.099449,-0.000083|vel|0.000000,-0.000000,0.000000,0.000000,0.000000,0.000000|eff|0.000000,0.000000,0.000000,0.000000,0.000000,0.000000
cobot_dynamixel_driver/joint_states|name|J1,J2,J3,J4,J5,J6|pos|-0.079203,-1.268785,1.296275,-0.001715,-1.099449,-0.000083|vel|0.000000,-0.000000,0.000000,0.000000,0.000000,0.000000|eff|0.000000,0.000000,0.000000,0.000000,0.000000,0.000000
cobot_dynamixel_driver/joint_states|name|J1,J2,J3,J4,J5,J6|pos|-0.079203,-1.268785,1.296275,-0.001715,-1.099449,-0.000083|vel|0.000000,-0.000000,0.000000,0.000000,0.000000,0.000000|eff|0.000000,0.000000,0.000000,0.000000,0.000000,0.000000
cobot_dynamixel_driver/joint_states|name|J1,J2,J3,J4,J5,J6|pos|-0.079203,-1.268785,1.296275,-0.001715,-1.099449,-0.000083|vel|0.000000,-0.000000,0.000000,0.000000,0.000000,0.000000|eff|0.000000,0.000000,0.000000,0.000000,0.000000,0.000000
cobot_dynamixel_driver/joint_states|name|J1,J2,J3,J4,J5,J6|pos|-0.079203,-1.268785,1.296275,-0.001715,-1.099449,-0.000083|vel|0.000000,-0.000000,0.000000,0.000000,0.000000,0.000000|eff|0.000000,0.000000,0.000000,0.000000,0.000000,0.000000
cobot_dynamixel_driver/joint_states|name|J1,J2,J3,J4,J5,J6|pos|-0.079203,-1.268785,1.296275,-0.001715,-1.099449,-0.000083|vel|0.000000,-0.000000,0.000000,0.000000,0.000000,0.000000|eff|0.000000,0.000000,0.000000,0.000000,0.000000,0.000000
cobot_dynamixel_driver/joint_states|name|J1,J2,J3,J4,J5,J6|pos|-0.079203,-1.268785,1.296275,-0.001715,-1.099449,-0.000083|vel|0.000000,-0.000000,0.000000,0.000000,0.000000,0.000000|eff|0.000000,0.000000,0.000000,0.000000,0.000000,0.000000
cobot_dynamixel_driver/joint_states|name|J1,J2,J3,J4,J5,J6|pos|-0.079203,-1.268785,1.296275,-0.001715,-1.099449,-0.000083|vel|0.000000,-0.000000,0.000000,0.000000,0.000000,0.000000|eff|0.000000,0.000000,0.000000,0.000000,0.000000,0.000000
cobot_dynamixel_driver/joint_states|name|J1,J2,J3,J4,J5,J6|pos|-0.079203,-1.268785,1.296275,-0.001715,-1.099449,-0.000083|vel|0.000000,-0.000000,0.000000,0.000000,0.000000,0.000000|eff|0.000000,0.000000,0.000000,0.000000,0.000000,0.000000
cobot_dynamixel_driver/joint_states|name|J1,J2,J3,J4,J5,J6|pos|-0.079203,-1.268785,1.296275,-0.001715,-1.099449,-0.000083|vel|0.000000,-0.000000,0.000000,0.000000,0.000000,0.000000|eff|0.000000,0.000000,0.000000,0.000000,0.000000,0.000000
cobot_dynamixel_driver/joint_states|name|J1,J2,J3,J4,J5,J6|pos|-0.079203,-1.268785,1.296275,-0.001715,-1.099449,-0.000083|vel|0.000000,-0.000000,0.000000,0.000000,0.000000,0.000000|eff|0.000000,0.000000,0.000000,0.000000,0.000000,0.000000
cobot_dynamixel_driver/joint_states|name|J1,J2,J3,J4,J5,J6|pos|-0.079203,-1.268785,1.296275,-0.001715,-1.099449,-0.000083|vel|0.000000,-0.000000,0.000000,0.000000,0.000000,0.000000|eff|0.000000,0.000000,0.000000,0.000000,0.000000,0.000000
cobot_dynamixel_driver/joint_states|name|J1,J2,J3,J4,J5,J6|pos|-0.079203,-1.268785,1.296275,-0.001715,-1.099449,-0.000083|vel|0.000000,-0.000000,0.000000,0.000000,0.000000,0.000000|eff|0.000000,0.000000,0.000000,0.000000,0.000000,0.000000
cobot_dynamixel_driver/joint_states|name|J1,J2,J3,J4,J5,J6|pos|-0.079203,-1.268785,1.296275,-0.001715,-1.099449,-0.000083|vel|0.000000,-0.000000,0.000000,0.000000,0.000000,0.000000|eff|0.000000,0.000000,0.000000,0.000000,0.000000,0.000000
cobot_dynamixel_driver/joint_states|name|J1,J2,J3,J4,J5,J6|pos|-0.079203,-1.268785,1.296275,-0.001715,-1.099449,-0.000083|vel|0.000000,-0.000000,0.000000,0.000000,0.000000,0.000000|eff|0.000000,0.000000,0.000000,0.000000,0.000000,0.000000
cobot_dynamixel_driver/joint_states|name|J1,J2,J3,J4,J5,J6|pos|-0.079203,-1.268785,1.296275,-0.001715,-1.099449,-0.000083|vel|0.000000,-0.000000,0.000000,0.000000,0.000000,0.000000|eff|0.000000,0.000000,0.000000,0.000000,0.000000,0.000000
cobot_dynamixel_driver/joint_states|name|J1,J2,J3,J4,J5,J6|pos|-0.079203,-1.268785,1.296275,-0.001715,-1.099449,-0.000083|vel|0.000000,-0.000000,0.000000,0.000000,0.000000,0.000000|eff|0.000000,0.000000,0.000000,0.000000,0.000000,0.000000
cobot_dynamixel_driver/joint_states|name|J1,J2,J3,J4,J5,J6|pos|-0.079203,-1.268785,1.296275,-0.001715,-1.099449,-0.000083|vel|0.000000,-0.000000,0.000000,0.000000,0.000000,0.000000|eff|0.000000,0.000000,0.000000,0.000000,0.000000,0.000000
cobot_dynamixel_driver/joint_states|name|J1,J2,J3,J4,J5,J6|pos|-0.079203,-1.268785,1.296275,-0.001715,-1.099449,-0.000083|vel|0.000000,-0.000000,0.000000,0.000000,0.000000,0.000000|eff|0.000000,0.000000,0.000000,0.000000,0.000000,0.000000
cobot_dynamixel_driver/joint_states|name|J1,J2,J3,J4,J5,J6|pos|-0.079203,-1.268785,1.296275,-0.001715,-1.099449,-0.000083|vel|0.000000,-0.000000,0.000000,0.000000,0.000000,0.000000|eff|0.000000,0.000000,0.000000,0.000000,0.000000,0.000000
cobot_dynamixel_driver/joint_states|name|J1,J2,J3,J4,J5,J6|pos|-0.079203,-1.268785,1.296275,-0.001715,-1.099449,-0.000083|vel|0.000000,-0.000000,0.000000,0.000000,0.000000,0.000000|eff|0.000000,0.000000,0.000000,0.000000,0.000000,0.000000
cobot_dynamixel_driver/joint_states|name|J1,J2,J3,J4,J5,J6|pos|-0.079203,-1.268785,1.296275,-0.001715,-1.099449,-0.000083|vel|0.000000,-0.000000,0.000000,0.000000,0.000000,0.000000|eff|0.000000,0.000000,0.000000,0.000000,0.000000,0.000000
cobot_dynamixel_driver/joint_states|name|J1,J2,J3,J4,J5,J6|pos|-0.079203,-1.268785,1.296275,-0.001715,-1.099449,-0.000083|vel|0.000000,-0.000000,0.000000,0.000000,0.000000,0.000000|eff|0.000000,0.000000,0.000000,0.000000,0.000000,0.000000
cobot_dynamixel_driver/joint_states|name|J1,J2,J3,J4,J5,J6|pos|-0.079203,-1.268785,1.296275,-0.001715,-1.099449,-0.000083|vel|0.000000,-0.000000,0.000000,0.000000,0.000000,0.000000|eff|0.000000,0.000000,0.000000,0.000000,0.000000,0.000000
cobot_dynamixel_driver/joint_states|name|J1,J2,J3,J4,J5,J6|pos|-0.079203,-1.268785,1.296275,-0.001715,-1.099449,-0.000083|vel|0.000000,-0.000000,0.000000,0.000000,0.000000,0.000000|eff|0.000000,0.000000,0.000000,0.000000,0.000000,0.000000
cobot_dynamixel_driver/joint_states|name|J1,J2,J3,J4,J5,J6|pos|-0.079203,-1.268785,1.296275,-0.001715,-1.099449,-0.000083|vel|0.000000,-0.000000,0.000000,0.000000,0.000000,0.000000|eff|0.000000,0.000000,0.000000,0.000000,0.000000,0.000000
cobot_dynamixel_driver/joint_states|name|J1,J2,J3,J4,J5,J6|pos|-0.079203,-1.268785,1.296275,-0.001715,-1.099449,-0.000083|vel|0.000000,-0.000000,0.000000,0.000000,0.000000,0.000000|eff|0.000000,0.000000,0.000000,0.000000,0.000000,0.000000
cobot_dynamixel_driver/joint_states|name|J1,J2,J3,J4,J5,J6|pos|-0.079203,-1.268785,1.296275,-0.001715,-1.099449,-0.000083|vel|0.000000,-0.000000,0.000000,0.000000,0.000000,0.000000|eff|0.000000,0.000000,0.000000,0.000000,0.000000,0.000000
cobot_dynamixel_driver/joint_states|name|J1,J2,J3,J4,J5,J6|pos|-0.079203,-1.268785,1.296275,-0.001715,-1.099449,-0.000083|vel|0.000000,-0.000000,0.000000,0.000000,0.000000,0.000000|eff|0.000000,0.000000,0.000000,0.000000,0.000000,0.000000
cobot_dynamixel_driver/joint_states|name|J1,J2,J3,J4,J5,J6|pos|-0.079203,-1.268785,1.296275,-0.001715,-1.099449,-0.000083|vel|0.000000,-0.000000,0.000000,0.000000,0.000000,0.000000|eff|0.000000,0.000000,0.000000,0.000000,0.000000,0.000000
cobot_dynamixel_driver/joint_states|name|J1,J2,J3,J4,J5,J6|pos|-0.079203,-1.268785,1.296275,-0.001715,-1.099449,-0.000083|vel|0.000000,-0.000000,0.000000,0.000000,0.000000,0.000000|eff|0.000000,0.000000,0.000000,0.000000,0.000000,0.000000
cobot_dynamixel_driver/joint_states|name|J1,J2,J3,J4,J5,J6|pos|-0.079203,-1.268785,1.296275,-0.001715,-1.099449,-0.000083|vel|0.000000,-0.000000,0.000000,0.000000,0.000000,0.000000|eff|0.000000,0.000000,0.000000,0.000000,0.000000,0.000000
cobot_dynamixel_driver/joint_states|name|J1,J2,J3,J4,J5,J6|pos|-0.079203,-1.268785,1.296275,-0.001715,-1.099449,-0.000083|vel|0.000000,-0.000000,0.000000,0.000000,0.000000,0.000000|eff|0.000000,0.000000,0.000000,0.000000,0.000000,0.000000
cobot_dynamixel_driver/joint_states|name|J1,J2,J3,J4,J5,J6|pos|-0.079203,-1.268785,1.296275,-0.001715,-1.099449,-0.000083|vel|0.000000,-0.000000,0.000000,0.000000,0.000000,0.000000|eff|0.000000,0.000000,0.000000,0.000000,0.000000,0.000000
cobot_dynamixel_driver/joint_states|name|J1,J2,J3,J4,J5,J6|pos|-0.079203,-1.268785,1.296275,-0.001715,-1.099449,-0.000083|vel|0.000000,-0.000000,0.000000,0.000000,0.000000,0.000000|eff|0.000000,0.000000,0.000000,0.000000,0.000000,0.000000
cobot_dynamixel_driver/joint_states|name|J1,J2,J3,J4,J5,J6|pos|-0.079203,-1.268785,1.296275,-0.001715,-1.099449,-0.000083|vel|0.000000,-0.000000,0.000000,0.000000,0.000000,0.000000|eff|0.000000,0.000000,0.000000,0.000000,0.000000,0.000000
cobot_dynamixel_driver/joint_states|name|J1,J2,J3,J4,J5,J6|pos|-0.079203,-1.268785,1.296275,-0.001715,-1.099449,-0.000083|vel|0.000000,-0.000000,0.000000,0.000000,0.000000,0.000000|eff|0.000000,0.000000,0.000000,0.000000,0.000000,0.000000
cobot_dynamixel_driver/joint_states|name|J1,J2,J3,J4,J5,J6|pos|-0.079203,-1.268785,1.296275,-0.001715,-1.099449,-0.000083|vel|0.000000,-0.000000,0.000000,0.000000,0.000000,0.000000|eff|0.000000,0.000000,0.000000,0.000000,0.000000,0.000000
cobot_dynamixel_driver/joint_states|name|J1,J2,J3,J4,J5,J6|pos|-0.079203,-1.268785,1.296275,-0.001715,-1.099449,-0.000083|vel|0.000000,-0.000000,0.000000,0.000000,0.000000,0.000000|eff|0.000000,0.000000,0.000000,0.000000,0.000000,0.000000
cobot_dynamixel_driver/joint_states|name|J1,J2,J3,J4,J5,J6|pos|-0.079203,-1.268785,1.296275,-0.001715,-1.099449,-0.000083|vel|0.000000,-0.000000,0.000000,0.000000,0.000000,0.000000|eff|0.000000,0.000000,0.000000,0.000000,0.000000,0.000000
cobot_dynamixel_driver/joint_states|name|J1,J2,J3,J4,J5,J6|pos|-0.079203,-1.268785,1.296275,-0.001715,-1.099449,-0.000083|vel|0.000000,-0.000000,0.000000,0.000000,0.000000,0.000000|eff|0.000000,0.000000,0.000000,0.000000,0.000000,0.000000
cobot_dynamixel_driver/joint_states|name|J1,J2,J3,J4,J5,J6|pos|-0.079203,-1.268785,1.296275,-0.001715,-1.099449,-0.000083|vel|0.000000,-0.000000,0.000000,0.000000,0.000000,0.000000|eff|0.000000,0.000000,0.000000,0.000000,0.000000,0.000000
cobot_dynamixel_driver/joint_states|name|J1,J2,J3,J4,J5,J6|pos|-0.079203,-1.268785,1.296275,-0.001715,-1.099449,-0.000083|vel|0.000000,-0.000000,0.000000,0.000000,0.000000,0.000000|eff|0.000000,0.000000,0.000000,0.000000,0.000000,0.000000
cobot_dynamixel_driver/joint_states|name|J1,J2,J3,J4,J5,J6|pos|-0.079203,-1.268785,1.296275,-0.001715,-1.099449,-0.000083|vel|0.000000,-0.000000,0.000000,0.000000,0.000000,0.000000|eff|0.000000,0.000000,0.000000,0.000000,0.000000,0.000000
cobot_dynamixel_driver/joint_states|name|J1,J2,J3,J4,J5,J6|pos|-0.079203,-1.268785,1.296275,-0.001715,-1.099449,-0.000083|vel|0.000000,-0.000000,0.000000,0.000000,0.000000,0.000000|eff|0.000000,0.000000,0.000000,0.000000,0.000000,0.000000
cobot_dynamixel_driver/joint_states|name|J1,J2,J3,J4,J5,J6|pos|-0.079203,-1.268785,1.296275,-0.001715,-1.099449,-0.000083|vel|0.000000,-0.000000,0.000000,0.000000,0.000000,0.000000|eff|0.000000,0.000000,0.000000,0.000000,0.000000,0.000000
cobot_dynamixel_driver/joint_states|name|J1,J2,J3,J4,J5,J6|pos|-0.079203,-1.268785,1.296275,-0.001715,-1.099449,-0.000083|vel|0.000000,-0.000000,0.000000,0.000000,0.000000,0.000000|eff|0.000000,0.000000,0.000000,0.000000,0.000000,0.000000
cobot_dynamixel_driver/goal|-:J1,J2,J3,J4,J5,J6:0.000000,0.000000,0.000000,0.000000,0.000000,0.000000:0.250000,0.250000,0.250000,0.250000,0.250000,0.250000:pos_vel_
cobot_dynamixel_driver/goal|-:J1,J2,J3,J4,J5,J6:0.000000,0.000000,0.000000,0.000000,0.000000,0.000000:0.250000,0.250000,0.250000,0.250000,0.250000,0.250000:pos_vel_
cobot_dynamixel_driver/joint_states|name|J1,J2,J3,J4,J5,J6|pos|-0.079203,-1.268785,1.296275,-0.001715,-1.100835,-0.000083|vel|0.000000,-0.000000,0.000000,0.000000,0.000000,0.000000|eff|0.000000,0.000000,0.000000,0.000000,0.000000,0.000000
cobot_dynamixel_driver/goal|-:J1,J2,J3,J4,J5,J6:0.000000,0.000000,0.000000,0.000000,0.000000,0.000000:0.250000,0.250000,0.250000,0.250000,0.250000,0.250000:pos_vel_
cobot_dynamixel_driver/goal|-:J1,J2,J3,J4,J5,J6:0.000000,0.000000,0.000000,0.000000,0.000000,0.000000:0.250000,0.250000,0.250000,0.250000,0.250000,0.250000:pos_vel_
cobot_dynamixel_driver/goal|-:J1,J2,J3,J4,J5,J6:0.000000,0.000000,0.000000,0.000000,0.000000,0.000000:0.250000,0.250000,0.250000,0.250000,0.250000,0.250000:pos_vel_
cobot_dynamixel_driver/goal|-:J1,J2,J3,J4,J5,J6:0.000000,0.000000,0.000000,0.000000,0.000000,0.000000:0.250000,0.250000,0.250000,0.250000,0.250000,0.250000:pos_vel_
cobot_dynamixel_driver/goal|-:J1,J2,J3,J4,J5,J6:0.000000,0.000000,0.000000,0.000000,0.000000,0.000000:0.250000,0.250000,0.250000,0.250000,0.250000,0.250000:pos_vel_
cobot_dynamixel_driver/goal|-:J1,J2,J3,J4,J5,J6:0.000000,0.000000,0.000000,0.000000,0.000000,0.000000:0.250000,0.250000,0.250000,0.250000,0.250000,0.250000:pos_vel_
cobot_dynamixel_driver/goal|-:J1,J2,J3,J4,J5,J6:0.000000,0.000000,0.000000,0.000000,0.000000,0.000000:0.250000,0.250000,0.250000,0.250000,0.250000,0.250000:pos_vel_
cobot_dynamixel_driver/goal|-:J1,J2,J3,J4,J5,J6:0.000000,0.000000,0.000000,0.000000,0.000000,0.000000:0.250000,0.250000,0.250000,0.250000,0.250000,0.250000:pos_vel_
cobot_dynamixel_driver/goal|-:J1,J2,J3,J4,J5,J6:0.000000,0.000000,0.000000,0.000000,0.000000,0.000000:0.250000,0.250000,0.250000,0.250000,0.250000,0.250000:pos_vel_
cobot_dynamixel_driver/goal|-:J1,J2,J3,J4,J5,J6:0.000000,0.000000,0.000000,0.000000,0.000000,0.000000:0.250000,0.250000,0.250000,0.250000,0.250000,0.250000:pos_vel_
cobot_dynamixel_driver/goal|-:J1,J2,J3,J4,J5,J6:0.000000,0.000000,0.000000,0.000000,0.000000,0.000000:0.250000,0.250000,0.250000,0.250000,0.250000,0.250000:pos_vel_
cobot_dynamixel_driver/goal|-:J1,J2,J3,J4,J5,J6:0.000000,0.000000,0.000000,0.000000,0.000000,0.000000:0.250000,0.250000,0.250000,0.250000,0.250000,0.250000:pos_vel_
cobot_dynamixel_driver/goal|-:J1,J2,J3,J4,J5,J6:0.000000,0.000000,0.000000,0.000000,0.000000,0.000000:0.250000,0.250000,0.250000,0.250000,0.250000,0.250000:pos_vel_
cobot_dynamixel_driver/goal|-:J1,J2,J3,J4,J5,J6:0.000000,0.000000,0.000000,0.000000,0.000000,0.000000:0.250000,0.250000,0.250000,0.250000,0.250000,0.250000:pos_vel_
cobot_dynamixel_driver/goal|-:J1,J2,J3,J4,J5,J6:0.000000,0.000000,0.000000,0.000000,0.000000,0.000000:0.250000,0.250000,0.250000,0.250000,0.250000,0.250000:pos_vel_
cobot_dynamixel_driver/goal|-:J1,J2,J3,J4,J5,J6:0.000000,0.000000,0.000000,0.000000,0.000000,0.000000:0.250000,0.250000,0.250000,0.250000,0.250000,0.250000:pos_vel_
cobot_dynamixel_driver/goal|-:J1,J2,J3,J4,J5,J6:0.000000,0.000000,0.000000,0.000000,0.000000,0.000000:0.250000,0.250000,0.250000,0.250000,0.250000,0.250000:pos_vel_
cobot_dynamixel_driver/goal|-:J1,J2,J3,J4,J5,J6:0.000000,0.000000,0.000000,0.000000,0.000000,0.000000:0.250000,0.250000,0.250000,0.250000,0.250000,0.250000:pos_vel_
cobot_dynamixel_driver/goal|-:J1,J2,J3,J4,J5,J6:0.000000,0.000000,0.000000,0.000000,0.000000,0.000000:0.250000,0.250000,0.250000,0.250000,0.250000,0.250000:pos_vel_
cobot_dynamixel_driver/goal|-:J1,J2,J3,J4,J5,J6:0.000000,0.000000,0.000000,0.000000,0.000000,0.000000:0.250000,0.250000,0.250000,0.250000,0.250000,0.250000:pos_vel_
cobot_dynamixel_driver/goal|-:J1,J2,J3,J4,J5,J6:0.000000,0.000000,0.000000,0.000000,0.000000,0.000000:0.250000,0.250000,0.250000,0.250000,0.250000,0.250000:pos_vel_
cobot_dynamixel_driver/goal|-:J1,J2,J3,J4,J5,J6:0.000000,0.000000,0.000000,0.000000,0.000000,0.000000:0.250000,0.250000,0.250000,0.250000,0.250000,0.250000:pos_vel_
cobot_dynamixel_driver/goal|-:J1,J2,J3,J4,J5,J6:0.000000,0.000000,0.000000,0.000000,0.000000,0.000000:0.250000,0.250000,0.250000,0.250000,0.250000,0.250000:pos_vel_
cobot_dynamixel_driver/goal|-:J1,J2,J3,J4,J5,J6:0.000000,0.000000,0.000000,0.000000,0.000000,0.000000:0.250000,0.250000,0.250000,0.250000,0.250000,0.250000:pos_vel_
cobot_dynamixel_driver/goal|-:J1,J2,J3,J4,J5,J6:0.000000,0.000000,0.000000,0.000000,0.000000,0.000000:0.250000,0.250000,0.250000,0.250000,0.250000,0.250000:pos_vel_
cobot_dynamixel_driver/goal|-:J1,J2,J3,J4,J5,J6:0.000000,0.000000,0.000000,0.000000,0.000000,0.000000:0.250000,0.250000,0.250000,0.250000,0.250000,0.250000:pos_vel_
cobot_dynamixel_driver/goal|-:J1,J2,J3,J4,J5,J6:0.000000,0.000000,0.000000,0.000000,0.000000,0.000000:0.250000,0.250000,0.250000,0.250000,0.250000,0.250000:pos_vel_
cobot_dynamixel_driver/goal|-:J1,J2,J3,J4,J5,J6:0.000000,0.000000,0.000000,0.000000,0.000000,0.000000:0.250000,0.250000,0.250000,0.250000,0.250000,0.250000:pos_vel_
cobot_dynamixel_driver/joint_states|name|J1,J2,J3,J4,J5,J6|pos|-0.079115,-1.268697,1.296200,-0.001665,-1.100628,-0.000083|vel|0.015023,0.017526,-0.007094,0.007511,0.029644,0.000000|eff|354.492188,-370.605469,-306.152344,112.792969,76.538086,0.000000
cobot_dynamixel_driver/joint_states|name|J1,J2,J3,J4,J5,J6|pos|-0.078665,-1.268209,1.295724,-0.001552,-1.099759,-0.000083|vel|0.035887,0.037348,-0.036513,0.010641,0.066182,0.000000|eff|563.964844,-547.851562,-386.718750,32.226562,72.509766,0.000000
cobot_dynamixel_driver/joint_states|name|J1,J2,J3,J4,J5,J6|pos|-0.077663,-1.267270,1.294823,-0.001552,-1.098353,-0.000083|vel|0.066558,0.059256,-0.053414,0.010641,0.085830,0.000000|eff|531.738281,-676.757812,-596.191406,0.000000,68.481445,0.000000
cobot_dynamixel_driver/joint_states|name|J1,J2,J3,J4,J5,J6|pos|-0.076399,-1.266193,1.293859,-0.001552,-1.096698,-0.000083|vel|0.083459,0.068853,-0.060090,0.010641,0.097895,0.000000|eff|644.531250,-1015.136719,-934.570312,32.226562,48.339844,0.000000
cobot_dynamixel_driver/joint_states|name|J1,J2,J3,J4,J5,J6|pos|-0.074596,-1.264779,1.292532,-0.001540,-1.094484,-0.000083|vel|0.111209,0.082207,-0.088258,0.010641,0.125815,0.000000|eff|676.757812,-1160.156250,-1192.382812,64.453125,32.226562,0.000000
cobot_dynamixel_driver/joint_states|name|J1,J2,J3,J4,J5,J6|pos|-0.072280,-1.262851,1.290516,-0.001540,-1.091857,-0.000083|vel|0.133534,0.112461,-0.126231,0.010641,0.127884,0.000000|eff|676.757812,-1305.175781,-1272.949219,0.000000,32.226562,0.000000
cobot_dynamixel_driver/joint_states|name|J1,J2,J3,J4,J5,J6|pos|-0.069551,-1.260448,1.287712,-0.001540,-1.088982,-0.000083|vel|0.135620,0.131656,-0.147096,0.010641,0.156838,0.000000|eff|660.644531,-1385.742188,-1063.476562,96.679688,36.254883,0.000000
cobot_dynamixel_driver/joint_states|name|J1,J2,J3,J4,J5,J6|pos|-0.066484,-1.257644,1.284433,-0.001540,-1.085921,-0.000083|vel|0.171508,0.154399,-0.186321,0.000000,0.160630,0.000000|eff|644.531250,-1401.855469,-999.023438,112.792969,48.339844,0.000000
cobot_dynamixel_driver/joint_states|name|J1,J2,J3,J4,J5,J6|pos|-0.063142,-1.254464,1.280877,-0.001440,-1.082611,-0.000083|vel|0.170256,0.169212,-0.192998,0.008555,0.182001,0.000000|eff|676.757812,-1337.402344,-1063.476562,145.019531,52.368164,0.000000
cobot_dynamixel_driver/joint_states|name|J1,J2,J3,J4,J5,J6|pos|-0.059649,-1.250959,1.277197,-0.001302,-1.079074,-0.000083|vel|0.198423,0.195085,-0.164205,0.006051,0.184070,0.000000|eff|531.738281,-1450.195312,-966.796875,112.792969,40.283203,0.000000
cobot_dynamixel_driver/joint_states|name|J1,J2,J3,J4,J5,J6|pos|-0.055944,-1.247178,1.273379,-0.001164,-1.075330,-0.000083|vel|0.187991,0.195919,-0.194250,0.006051,0.164766,0.000000|eff|612.304688,-1224.609375,-1144.042969,128.906250,40.283203,0.000000
cobot_dynamixel_driver/joint_states|name|J1,J2,J3,J4,J5,J6|pos|-0.052088,-1.242997,1.269511,-0.001052,-1.071255,-0.000083|vel|0.195085,0.208229,-0.196962,0.006051,0.178554,0.000000|eff|580.078125,-1224.609375,-1111.816406,96.679688,28.198242,0.000000
cobot_dynamixel_driver/joint_states|name|J1,J2,J3,J4,J5,J6|pos|-0.048158,-1.239154,1.265618,-0.000964,-1.067449,-0.000083|vel|0.200509,0.215115,-0.207395,0.004382,0.207509,0.000000|eff|515.625000,-1546.875000,-1063.476562,161.132812,28.198242,0.000000
cobot_dynamixel_driver/joint_states|name|J1,J2,J3,J4,J5,J6|pos|-0.044139,-1.234898,1.261474,-0.000864,-1.063353,-0.000083|vel|0.216993,0.223043,-0.221165,0.005425,0.210956,0.000000|eff|676.757812,-1482.421875,-999.023438,177.246094,36.254883,20.141602
cobot_dynamixel_driver/joint_states|name|J1,J2,J3,J4,J5,J6|pos|-0.039996,-1.230567,1.257268,-0.000751,-1.059133,-0.000083|vel|0.211150,0.231389,-0.225130,0.006885,0.246460,0.000000|eff|596.191406,-1240.722656,-999.023438,177.246094,20.141602,8.056641
cobot_dynamixel_driver/joint_states|name|J1,J2,J3,J4,J5,J6|pos|-0.035740,-1.226248,1.253012,-0.000626,-1.054810,-0.000083|vel|0.220540,0.227633,-0.226799,0.005842,0.218195,0.000000|eff|515.625000,-1272.949219,-1047.363281,128.906250,20.141602,0.000000
cobot_dynamixel_driver/joint_states|name|J1,J2,J3,J4,J5,J6|pos|-0.031433,-1.221891,1.248655,-0.000513,-1.050507,-0.000083|vel|0.212611,0.230346,-0.206977,0.005008,0.238532,0.000000|eff|418.945312,-1353.515625,-1047.363281,112.792969,40.283203,0.000000
cobot_dynamixel_driver/joint_states|name|J1,J2,J3,J4,J5,J6|pos|-0.027240,-1.217360,1.244287,-0.000451,-1.046039,-0.000083|vel|0.210107,0.237231,-0.229929,0.003338,0.240945,0.000000|eff|193.359375,-1498.535156,-1353.515625,177.246094,24.169922,0.000000
cobot_dynamixel_driver/joint_states|name|J1,J2,J3,J4,J5,J6|pos|-0.023534,-1.212590,1.239855,-0.000388,-1.041344,-0.000083|vel|0.173177,0.223461,-0.227425,0.002712,0.212335,0.000000|eff|418.945312,-1144.042969,-1031.250000,112.792969,32.226562,0.000000
cobot_dynamixel_driver/joint_states|name|J1,J2,J3,J4,J5,J6|pos|-0.020342,-1.208247,1.235424,-0.000351,-1.037000,-0.000083|vel|0.152312,0.243491,-0.243282,0.002086,0.267142,0.000000|eff|338.378906,-1321.289062,-999.023438,177.246094,24.169922,0.000000
cobot_dynamixel_driver/joint_states|name|J1,J2,J3,J4,J5,J6|pos|-0.017601,-1.203665,1.230842,-0.000325,-1.032387,-0.000083|vel|0.128318,0.237857,-0.240361,0.001669,0.196479,0.000000|eff|273.925781,-1546.875000,-1079.589844,96.679688,24.169922,0.000000
cobot_dynamixel_driver/joint_states|name|J1,J2,J3,J4,J5,J6|pos|-0.015260,-1.199021,1.226223,-0.000300,-1.027795,-0.000083|vel|0.112252,0.244117,-0.240361,0.001252,0.234051,0.000000|eff|306.152344,-1224.609375,-934.570312,96.679688,32.226562,32.226562
cobot_dynamixel_driver/joint_states|name|J1,J2,J3,J4,J5,J6|pos|-0.013244,-1.194351,1.221616,-0.000263,-1.023140,-0.000083|vel|0.095352,0.242030,-0.204682,0.002086,0.211646,0.000000|eff|338.378906,-1498.535156,-1015.136719,96.679688,28.198242,0.000000
cobot_dynamixel_driver/joint_states|name|J1,J2,J3,J4,J5,J6|pos|-0.011517,-1.189695,1.216947,-0.000200,-1.018466,-0.000083|vel|0.083250,0.247664,-0.256635,0.002712,0.257491,0.000000|eff|306.152344,-1192.382812,-934.570312,112.792969,32.226562,20.141602
cobot_dynamixel_driver/joint_states|name|J1,J2,J3,J4,J5,J6|pos|-0.010015,-1.185038,1.212290,-0.000175,-1.013729,-0.000083|vel|0.074278,0.234936,-0.236397,0.001878,0.238877,0.000000|eff|306.152344,-1450.195312,-934.570312,112.792969,28.198242,32.226562
cobot_dynamixel_driver/joint_states|name|J1,J2,J3,J4,J5,J6|pos|-0.008675,-1.180318,1.207633,-0.000163,-1.008992,-0.000083|vel|0.067810,0.245994,-0.207186,0.000835,0.247494,0.000000|eff|209.472656,-1176.269531,-999.023438,177.246094,36.254883,0.000000
cobot_dynamixel_driver/joint_states|name|J1,J2,J3,J4,J5,J6|pos|-0.007498,-1.175637,1.203001,-0.000150,-1.004234,-0.000083|vel|0.055917,0.228677,-0.235771,0.000835,0.213714,0.000000|eff|209.472656,-1450.195312,-950.683594,112.792969,28.198242,0.000000
cobot_dynamixel_driver/joint_states|name|J1,J2,J3,J4,J5,J6|pos|-0.006522,-1.170980,1.198370,-0.000150,-0.999518,-0.000083|vel|0.045694,0.244534,-0.254132,0.000835,0.248184,0.000000|eff|161.132812,-1144.042969,-1079.589844,128.906250,32.226562,0.000000
cobot_dynamixel_driver/joint_states|name|J1,J2,J3,J4,J5,J6|pos|-0.005658,-1.166260,1.193738,-0.000138,-0.994677,-0.000083|vel|0.043399,0.226382,-0.247246,0.000835,0.246116,0.000000|eff|209.472656,-1385.742188,-934.570312,112.792969,24.169922,0.000000
cobot_dynamixel_driver/joint_states|name|J1,J2,J3,J4,J5,J6|pos|-0.004895,-1.161579,1.189094,-0.000138,-0.989837,-0.000083|vel|0.035261,0.231806,-0.220331,0.000209,0.277139,0.000000|eff|209.472656,-1144.042969,-1079.589844,128.906250,24.169922,40.283203
cobot_dynamixel_driver/joint_states|name|J1,J2,J3,J4,J5,J6|pos|-0.004269,-1.156872,1.184387,-0.000138,-0.984997,-0.000083|vel|0.028376,0.239109,-0.249333,0.000209,0.252320,0.000000|eff|241.699219,-1466.308594,-966.796875,128.906250,36.254883,20.141602
cobot_dynamixel_driver/joint_states|name|J1,J2,J3,J4,J5,J6|pos|-0.003730,-1.152140,1.179642,-0.000125,-0.980156,-0.000083|vel|0.027333,0.254549,-0.260600,0.000209,0.243358,0.000000|eff|193.359375,-1144.042969,-1079.589844,128.906250,32.226562,24.169922
cobot_dynamixel_driver/joint_states|name|J1,J2,J3,J4,J5,J6|pos|-0.003230,-1.147145,1.174948,-0.000125,-0.975068,-0.000083|vel|0.024412,0.257470,-0.238066,0.000209,0.241979,0.000000|eff|145.019531,-1353.515625,-1015.136719,177.246094,32.226562,8.056641
cobot_dynamixel_driver/joint_states|name|J1,J2,J3,J4,J5,J6|pos|-0.002779,-1.142589,1.170266,-0.000100,-0.970475,-0.000083|vel|0.021699,0.245160,-0.251002,0.000209,0.245081,0.000000|eff|241.699219,-1160.156250,-1127.929688,128.906250,36.254883,16.113281
cobot_dynamixel_driver/joint_states|name|J1,J2,J3,J4,J5,J6|pos|-0.002391,-1.137844,1.165472,-0.000088,-0.965573,-0.000083|vel|0.016900,0.247872,-0.239526,0.000209,0.251286,0.000000|eff|177.246094,-1256.835938,-966.796875,161.132812,20.141602,24.169922
cobot_dynamixel_driver/joint_states|name|J1,J2,J3,J4,J5,J6|pos|-0.002078,-1.133125,1.160640,-0.000075,-0.960671,-0.000083|vel|0.015440,0.251837,-0.255175,0.000626,0.268866,0.000000|eff|177.246094,-1256.835938,-934.570312,112.792969,28.198242,36.254883
cobot_dynamixel_driver/joint_states|name|J1,J2,J3,J4,J5,J6|pos|-0.001790,-1.128405,1.155833,-0.000075,-0.955582,-0.000083|vel|0.013562,0.240570,-0.258930,0.000626,0.247839,0.000000|eff|177.246094,-1224.609375,-982.910156,145.019531,28.198242,0.000000
cobot_dynamixel_driver/joint_states|name|J1,J2,J3,J4,J5,J6|pos|-0.001552,-1.123636,1.151051,-0.000063,-0.950990,-0.000083|vel|0.010850,0.241613,-0.228259,0.000626,0.257491,0.000000|eff|80.566406,-1256.835938,-902.343750,128.906250,32.226562,36.254883
cobot_dynamixel_driver/joint_states|name|J1,J2,J3,J4,J5,J6|pos|-0.001377,-1.118854,1.146319,-0.000050,-0.946149,-0.000083|vel|0.008346,0.256844,-0.243699,0.000417,0.250597,0.000000|eff|241.699219,-1079.589844,-1079.589844,112.792969,36.254883,8.056641
cobot_dynamixel_driver/joint_states|name|J1,J2,J3,J4,J5,J6|pos|-0.001239,-1.114147,1.141637,-0.000050,-0.941247,-0.000083|vel|0.007720,0.241821,-0.240570,0.000417,0.229225,0.000000|eff|145.019531,-1369.628906,-950.683594,145.019531,32.226562,0.000000
cobot_dynamixel_driver/joint_states|name|J1,J2,J3,J4,J5,J6|pos|-0.001089,-1.109290,1.136918,-0.000038,-0.936345,-0.000083|vel|0.007094,0.238692,-0.243073,0.000417,0.266798,0.000000|eff|128.906250,-1111.816406,-1095.703125,128.906250,28.198242,40.283203
cobot_dynamixel_driver/joint_states|name|J1,J2,J3,J4,J5,J6|pos|-0.000939,-1.104546,1.132173,-0.000025,-0.931442,-0.000083|vel|0.007511,0.238483,-0.241613,0.000417,0.223365,0.000000|eff|257.812500,-1240.722656,-950.683594,128.906250,20.141602,8.056641
cobot_dynamixel_driver/joint_states|name|J1,J2,J3,J4,J5,J6|pos|-0.000801,-1.099826,1.127454,-0.000025,-0.926560,-0.000083|vel|0.006468,0.256427,-0.243282,0.000417,0.219574,0.000000|eff|145.019531,-1176.269531,-1095.703125,128.906250,24.169922,24.169922
cobot_dynamixel_driver/joint_states|name|J1,J2,J3,J4,J5,J6|pos|-0.000676,-1.095032,1.122697,-0.000025,-0.921699,-0.000083|vel|0.006051,0.242656,-0.247038,0.000417,0.261282,0.000000|eff|128.906250,-1176.269531,-999.023438,128.906250,24.169922,36.254883
cobot_dynamixel_driver/joint_states|name|J1,J2,J3,J4,J5,J6|pos|-0.000588,-1.090225,1.117953,-0.000025,-0.916838,-0.000083|vel|0.004382,0.245786,-0.251628,0.000417,0.265763,0.000000|eff|193.359375,-1256.835938,-1111.816406,128.906250,28.198242,40.283203
cobot_dynamixel_driver/joint_states|name|J1,J2,J3,J4,J5,J6|pos|-0.000526,-1.085430,1.113258,-0.000025,-0.911998,-0.000083|vel|0.002921,0.248081,-0.252045,0.000417,0.244737,0.000000|eff|112.792969,-1079.589844,-1063.476562,128.906250,44.311523,40.283203
cobot_dynamixel_driver/joint_states|name|J1,J2,J3,J4,J5,J6|pos|-0.000476,-1.080623,1.108389,-0.000025,-0.907116,-0.000083|vel|0.002504,0.256427,-0.235979,0.000000,0.281620,0.000000|eff|177.246094,-1627.441406,-966.796875,128.906250,28.198242,40.283203
cobot_dynamixel_driver/joint_states|name|J1,J2,J3,J4,J5,J6|pos|-0.000426,-1.075829,1.103519,-0.000025,-0.902214,-0.000083|vel|0.002504,0.245994,-0.224087,0.000000,0.252320,0.000000|eff|241.699219,-1095.703125,-1031.250000,128.906250,32.226562,32.226562
cobot_dynamixel_driver/joint_states|name|J1,J2,J3,J4,J5,J6|pos|-0.000376,-1.071022,1.098712,-0.000025,-0.897332,-0.000083|vel|0.002504,0.255592,-0.247872,0.000000,0.243358,0.000000|eff|177.246094,-1111.816406,-982.910156,128.906250,36.254883,40.283203
cobot_dynamixel_driver/joint_states|name|J1,J2,J3,J4,J5,J6|pos|-0.000325,-1.066252,1.093905,-0.000025,-0.892450,-0.000083|vel|0.002504,0.237857,-0.252462,0.000000,0.244047,0.000000|eff|161.132812,-1272.949219,-950.683594,128.906250,32.226562,0.000000
cobot_dynamixel_driver/joint_states|name|J1,J2,J3,J4,J5,J6|pos|-0.000288,-1.061470,1.089073,-0.000025,-0.887548,-0.000083|vel|0.001461,0.248498,-0.242447,0.000000,0.221297,0.000000|eff|306.152344,-950.683594,-982.910156,128.906250,28.198242,40.283203
cobot_dynamixel_driver/joint_states|name|J1,J2,J3,J4,J5,J6|pos|-0.000263,-1.056663,1.084279,-0.000025,-0.882666,-0.000083|vel|0.001252,0.221583,-0.250376,0.000000,0.226468,0.000000|eff|145.019531,-1305.175781,-918.457031,112.792969,12.084961,44.311523
cobot_dynamixel_driver/joint_states|name|J1,J2,J3,J4,J5,J6|pos|-0.000213,-1.051932,1.079509,-0.000025,-0.877557,-0.000083|vel|0.002086,0.234519,-0.261434,0.000000,0.226123,0.000000|eff|177.246094,-1095.703125,-1015.136719,128.906250,28.198242,44.311523
cobot_dynamixel_driver/joint_states|name|J1,J2,J3,J4,J5,J6|pos|-0.000163,-1.047187,1.074765,-0.000025,-0.872675,-0.000083|vel|0.002504,0.246620,-0.253297,0.000000,0.265074,0.000000|eff|145.019531,-1272.949219,-950.683594,128.906250,24.169922,40.283203
cobot_dynamixel_driver/joint_states|name|J1,J2,J3,J4,J5,J6|pos|-0.000138,-1.042405,1.070008,-0.000025,-0.868062,-0.000041|vel|0.001878,0.236814,-0.252462,0.000000,0.246805,0.000000|eff|257.812500,-1144.042969,-1015.136719,193.359375,28.198242,36.254883
cobot_dynamixel_driver/joint_states|name|J1,J2,J3,J4,J5,J6|pos|-0.000113,-1.037673,1.065276,-0.000025,-0.862953,-0.000021|vel|0.001461,0.247872,-0.253088,0.000000,0.246460,0.001723|eff|225.585938,-1111.816406,-966.796875,128.906250,40.283203,44.311523
cobot_dynamixel_driver/joint_states|name|J1,J2,J3,J4,J5,J6|pos|-0.000075,-1.032929,1.060507,-0.000025,-0.858050,-0.000021|vel|0.001669,0.245994,-0.251419,0.000000,0.280930,0.001723|eff|145.019531,-1208.496094,-950.683594,128.906250,36.254883,44.311523
cobot_dynamixel_driver/joint_states|name|J1,J2,J3,J4,J5,J6|pos|-0.000050,-1.028159,1.055775,-0.000025,-0.853438,-0.000021|vel|0.001878,0.245577,-0.257470,0.000000,0.249218,0.001723|eff|128.906250,-1015.136719,-999.023438,128.906250,40.283203,24.169922
cobot_dynamixel_driver/joint_states|name|J1,J2,J3,J4,J5,J6|pos|-0.000050,-1.023377,1.051030,-0.000025,-0.848576,-0.000021|vel|0.001878,0.248498,-0.251211,0.000000,0.242669,0.001723|eff|177.246094,-1305.175781,-950.683594,128.906250,32.226562,40.283203
cobot_dynamixel_driver/joint_states|name|J1,J2,J3,J4,J5,J6|pos|-0.000038,-1.018533,1.046286,-0.000025,-0.843715,-0.000021|vel|0.001878,0.259556,-0.254758,0.000000,0.226812,0.001723|eff|177.246094,-982.910156,-1079.589844,128.906250,36.254883,28.198242
cobot_dynamixel_driver/joint_states|name|J1,J2,J3,J4,J5,J6|pos|-0.000038,-1.013776,1.041454,-0.000025,-0.838585,-0.000021|vel|0.001878,0.246203,-0.263103,0.000000,0.223021,0.001723|eff|161.132812,-1224.609375,-966.796875,128.906250,24.169922,36.254883
cobot_dynamixel_driver/joint_states|name|J1,J2,J3,J4,J5,J6|pos|-0.000038,-1.009032,1.036634,-0.000025,-0.833724,-0.000021|vel|0.001878,0.237023,-0.273536,0.000000,0.213024,0.000000|eff|112.792969,-1127.929688,-1095.703125,128.906250,36.254883,24.169922
cobot_dynamixel_driver/joint_states|name|J1,J2,J3,J4,J5,J6|pos|-0.000038,-1.004275,1.031815,-0.000025,-0.829112,-0.000021|vel|0.001878,0.251211,-0.250376,0.000000,0.309540,0.000000|eff|177.246094,-1047.363281,-982.910156,145.019531,48.339844,0.000000
cobot_dynamixel_driver/joint_states|name|J1,J2,J3,J4,J5,J6|pos|-0.000038,-0.999468,1.026983,-0.000025,-0.823982,-0.000021|vel|0.000000,0.236605,-0.238900,0.000000,0.278173,0.000000|eff|32.226562,-1240.722656,-902.343750,128.906250,28.198242,8.056641
cobot_dynamixel_driver/joint_states|name|J1,J2,J3,J4,J5,J6|pos|-0.000038,-0.994223,1.022013,-0.000025,-0.818831,-0.000021|vel|0.000000,0.234727,-0.214280,0.000000,0.210611,0.000000|eff|145.019531,-1208.496094,-950.683594,128.906250,24.169922,0.000000
cobot_dynamixel_driver/joint_states|name|J1,J2,J3,J4,J5,J6|pos|-0.000038,-0.989929,1.017519,-0.000025,-0.814197,-0.000021|vel|0.000000,0.242865,-0.244534,0.000000,0.272657,0.000000|eff|177.246094,-1289.062500,-950.683594,128.906250,40.283203,24.169922
cobot_dynamixel_driver/joint_states|name|J1,J2,J3,J4,J5,J6|pos|-0.000038,-0.985109,1.012724,-0.000025,-0.809336,-0.000021|vel|0.000000,0.246412,-0.253297,0.000000,0.257491,0.000000|eff|177.246094,-1079.589844,-1047.363281,128.906250,32.226562,12.084961
cobot_dynamixel_driver/joint_states|name|J1,J2,J3,J4,J5,J6|pos|-0.000038,-0.980352,1.007980,-0.000025,-0.804496,-0.000021|vel|0.000000,0.244325,-0.247455,0.000000,0.233706,0.000000|eff|112.792969,-1063.476562,-966.796875,128.906250,40.283203,0.000000
cobot_dynamixel_driver/joint_states|name|J1,J2,J3,J4,J5,J6|pos|-0.000038,-0.975608,1.003236,-0.000025,-0.799614,-0.000021|vel|0.000000,0.247455,-0.233893,0.000000,0.246116,0.000000|eff|177.246094,-1127.929688,-999.023438,128.906250,36.254883,28.198242
cobot_dynamixel_driver/joint_states|name|J1,J2,J3,J4,J5,J6|pos|-0.000038,-0.970763,0.998466,-0.000025,-0.794712,-0.000021|vel|0.000000,0.257261,-0.259765,0.000000,0.234051,0.000000|eff|80.566406,-918.457031,-1015.136719,145.019531,20.141602,0.000000
cobot_dynamixel_driver/joint_states|name|J1,J2,J3,J4,J5,J6|pos|-0.000025,-0.965956,0.993722,-0.000025,-0.789830,-0.000021|vel|0.000000,0.252671,-0.230763,0.000000,0.213369,0.000000|eff|161.132812,-1321.289062,-966.796875,128.906250,24.169922,0.000000
cobot_dynamixel_driver/joint_states|name|J1,J2,J3,J4,J5,J6|pos|-0.000025,-0.961174,0.989015,-0.000025,-0.784948,-0.000021|vel|0.000000,0.237440,-0.245368,0.000000,0.241979,0.000000|eff|161.132812,-1047.363281,-1079.589844,128.906250,32.226562,36.254883
cobot_dynamixel_driver/joint_states|name|J1,J2,J3,J4,J5,J6|pos|-0.000025,-0.956367,0.984145,-0.000025,-0.780108,-0.000021|vel|0.000000,0.252254,-0.254340,0.000000,0.267832,0.000000|eff|177.246094,-1111.816406,-934.570312,128.906250,44.311523,20.141602
cobot_dynamixel_driver/joint_states|name|J1,J2,J3,J4,J5,J6|pos|-0.000025,-0.951560,0.979263,-0.000025,-0.775267,-0.000021|vel|0.000000,0.249124,-0.257261,0.000000,0.257491,0.000000|eff|177.246094,-1095.703125,-999.023438,128.906250,48.339844,32.226562
cobot_dynamixel_driver/joint_states|name|J1,J2,J3,J4,J5,J6|pos|-0.000025,-0.946753,0.974444,-0.000013,-0.770406,-0.000021|vel|0.000000,0.237649,-0.246829,0.000000,0.267832,0.000000|eff|145.019531,-918.457031,-966.796875,128.906250,36.254883,20.141602
cobot_dynamixel_driver/joint_states|name|J1,J2,J3,J4,J5,J6|pos|-0.000025,-0.941971,0.969637,-0.000013,-0.765504,-0.000021|vel|0.000000,0.232432,-0.253714,0.000000,0.251975,0.000000|eff|0.000000,-1272.949219,-902.343750,112.792969,40.283203,0.000000
cobot_dynamixel_driver/joint_states|name|J1,J2,J3,J4,J5,J6|pos|-0.000025,-0.937189,0.964792,-0.000013,-0.760622,-0.000021|vel|0.000000,0.250167,-0.209481,0.000000,0.256457,0.000000|eff|0.000000,-966.796875,-1015.136719,128.906250,32.226562,20.141602
cobot_dynamixel_driver/joint_states|name|J1,J2,J3,J4,J5,J6|pos|-0.000025,-0.932395,0.959985,-0.000013,-0.755699,-0.000021|vel|0.000000,0.255384,-0.239735,0.000000,0.213024,0.000000|eff|177.246094,-1063.476562,-918.457031,128.906250,36.254883,36.254883
cobot_dynamixel_driver/joint_states|name|J1,J2,J3,J4,J5,J6|pos|-0.000025,-0.927651,0.955228,-0.000013,-0.750817,-0.000021|vel|0.000000,0.245786,-0.252880,0.000000,0.265419,0.000000|eff|80.566406,-1127.929688,-950.683594,128.906250,28.198242,20.141602
cobot_dynamixel_driver/joint_states|name|J1,J2,J3,J4,J5,J6|pos|-0.000013,-0.922881,0.950496,-0.000013,-0.745956,-0.000021|vel|0.000000,0.255801,-0.237440,0.000000,0.215782,0.000000|eff|112.792969,-870.117188,-966.796875,128.906250,28.198242,24.169922
cobot_dynamixel_driver/joint_states|name|J1,J2,J3,J4,J5,J6|pos|-0.000013,-0.918087,0.945714,-0.000013,-0.741095,-0.000021|vel|0.000000,0.257470,-0.231598,0.000000,0.262661,0.000000|eff|177.246094,-1144.042969,-918.457031,128.906250,32.226562,8.056641
cobot_dynamixel_driver/joint_states|name|J1,J2,J3,J4,J5,J6|pos|-0.000013,-0.913330,0.940945,-0.000013,-0.736193,-0.000021|vel|0.000000,0.221165,-0.240778,0.000000,0.247150,0.000000|eff|177.246094,-934.570312,-1015.136719,128.906250,28.198242,28.198242
cobot_dynamixel_driver/joint_states|name|J1,J2,J3,J4,J5,J6|pos|-0.000013,-0.908585,0.936138,-0.000013,-0.731311,-0.000021|vel|0.000000,0.256218,-0.228051,0.000000,0.267487,0.000000|eff|32.226562,-1256.835938,-902.343750,128.906250,32.226562,36.254883
cobot_dynamixel_driver/joint_states|name|J1,J2,J3,J4,J5,J6|pos|-0.000013,-0.903816,0.931431,-0.000013,-0.726429,-0.000021|vel|0.000000,0.237231,-0.239735,0.000000,0.246460,0.000000|eff|0.000000,-982.910156,-1063.476562,112.792969,40.283203,0.000000
cobot_dynamixel_driver/joint_states|name|J1,J2,J3,J4,J5,J6|pos|-0.000013,-0.899034,0.926712,-0.000013,-0.721568,-0.000021|vel|0.000000,0.247246,-0.242030,0.000000,0.283343,0.000000|eff|161.132812,-1031.250000,-999.023438,128.906250,36.254883,0.000000
cobot_dynamixel_driver/joint_states|name|J1,J2,J3,J4,J5,J6|pos|-0.000013,-0.894189,0.921930,-0.000013,-0.716666,-0.000021|vel|0.000000,0.246620,-0.238483,0.000000,0.260248,0.000000|eff|161.132812,-1047.363281,-1095.703125,128.906250,32.226562,8.056641
cobot_dynamixel_driver/joint_states|name|J1,J2,J3,J4,J5,J6|pos|-0.000013,-0.889420,0.917148,-0.000013,-0.711825,-0.000021|vel|0.000000,0.232015,-0.247246,0.000000,0.258180,0.000000|eff|96.679688,-789.550781,-982.910156,128.906250,40.283203,8.056641
cobot_dynamixel_driver/joint_states|name|J1,J2,J3,J4,J5,J6|pos|-0.000013,-0.884688,0.912341,-0.000013,-0.706964,-0.000021|vel|0.000000,0.245368,-0.256427,0.000000,0.264040,0.000000|eff|145.019531,-1240.722656,-870.117188,128.906250,36.254883,32.226562
cobot_dynamixel_driver/joint_states|name|J1,J2,J3,J4,J5,J6|pos|-0.000013,-0.879931,0.907509,-0.000013,-0.702103,-0.000021|vel|0.000000,0.249333,-0.245577,0.000000,0.208888,0.000000|eff|161.132812,-950.683594,-1031.250000,128.906250,44.311523,36.254883
cobot_dynamixel_driver/joint_states|name|J1,J2,J3,J4,J5,J6|pos|-0.000013,-0.875149,0.902664,-0.000013,-0.697222,-0.000021|vel|0.000000,0.242447,-0.246829,0.000000,0.245426,0.000000|eff|128.906250,-1272.949219,-918.457031,128.906250,40.283203,0.000000
cobot_dynamixel_driver/joint_states|name|J1,J2,J3,J4,J5,J6|pos|0.000000,-0.870417,0.897932,-0.000013,-0.692319,-0.000021|vel|0.000000,0.247872,-0.247872,0.000000,0.249218,0.000000|eff|128.906250,-982.910156,-1079.589844,128.906250,24.169922,12.084961
cobot_dynamixel_driver/joint_states|name|J1,J2,J3,J4,J5,J6|pos|0.000000,-0.865610,0.893188,-0.000013,-0.687458,-0.000021|vel|0.000000,0.270406,-0.250585,0.000000,0.255078,0.000000|eff|96.679688,-982.910156,-966.796875,128.906250,36.254883,32.226562
cobot_dynamixel_driver/joint_states|name|J1,J2,J3,J4,J5,J6|pos|0.000000,-0.860816,0.888406,-0.000013,-0.682597,-0.000021|vel|0.000000,0.239944,-0.251002,0.000000,0.245771,0.000000|eff|177.246094,-1127.929688,-934.570312,128.906250,40.283203,32.226562
cobot_dynamixel_driver/joint_states|name|J1,J2,J3,J4,J5,J6|pos|0.000000,-0.856071,0.883624,-0.000013,-0.677695,-0.000021|vel|0.000000,0.257887,-0.235145,0.000000,0.282998,0.000000|eff|0.000000,-902.343750,-1015.136719,128.906250,32.226562,0.000000
cobot_dynamixel_driver/joint_states|name|J1,J2,J3,J4,J5,J6|pos|0.000000,-0.851302,0.878830,-0.000013,-0.672833,-0.000021|vel|0.000000,0.244325,-0.253088,0.000000,0.251975,0.000000|eff|161.132812,-1192.382812,-934.570312,128.906250,40.283203,0.000000
cobot_dynamixel_driver/joint_states|name|J1,J2,J3,J4,J5,J6|pos|0.000000,-0.846207,0.874098,-0.000013,-0.667972,-0.000021|vel|0.000000,0.251628,-0.243073,0.000000,0.256112,0.000000|eff|177.246094,-918.457031,-1111.816406,112.792969,44.311523,0.000000
cobot_dynamixel_driver/joint_states|name|J1,J2,J3,J4,J5,J6|pos|0.000000,-0.841675,0.869391,-0.000013,-0.663091,-0.000021|vel|0.000000,0.242030,-0.243699,0.000000,0.244737,0.000000|eff|177.246094,-1079.589844,-1031.250000,128.906250,32.226562,12.084961
cobot_dynamixel_driver/joint_states|name|J1,J2,J3,J4,J5,J6|pos|0.000000,-0.836881,0.864646,-0.000013,-0.658230,-0.000021|vel|0.000000,0.251419,-0.251837,0.000000,0.218195,0.000000|eff|177.246094,-1063.476562,-1127.929688,128.906250,36.254883,20.141602
cobot_dynamixel_driver/joint_states|name|J1,J2,J3,J4,J5,J6|pos|0.000000,-0.832061,0.859814,-0.000013,-0.653327,-0.000021|vel|0.000000,0.280004,-0.242865,0.000000,0.219918,0.000000|eff|145.019531,-821.777344,-999.023438,128.906250,40.283203,28.198242
cobot_dynamixel_driver/joint_states|name|J1,J2,J3,J4,J5,J6|pos|0.000013,-0.827254,0.854970,-0.000013,-0.648445,-0.000021|vel|0.000000,0.256009,-0.250793,0.000000,0.264385,0.000000|eff|128.906250,-1111.816406,-918.457031,128.906250,40.283203,28.198242
cobot_dynamixel_driver/joint_states|name|J1,J2,J3,J4,J5,J6|pos|0.000013,-0.822447,0.850175,-0.000013,-0.643543,-0.000021|vel|0.000000,0.237649,-0.225338,0.000000,0.262661,0.000000|eff|112.792969,-854.003906,-1047.363281,128.906250,28.198242,28.198242
cobot_dynamixel_driver/joint_states|name|J1,J2,J3,J4,J5,J6|pos|0.000013,-0.817678,0.845343,-0.000013,-0.638682,-0.000021|vel|0.000000,0.231598,-0.255175,0.000000,0.248184,0.000000|eff|177.246094,-934.570312,-966.796875,128.906250,32.226562,12.084961
cobot_dynamixel_driver/joint_states|name|J1,J2,J3,J4,J5,J6|pos|0.000013,-0.812896,0.840499,-0.000013,-0.633800,-0.000021|vel|0.000000,0.239318,-0.254549,0.000000,0.246805,0.000000|eff|0.000000,-982.910156,-950.683594,128.906250,28.198242,0.000000
cobot_dynamixel_driver/joint_states|name|J1,J2,J3,J4,J5,J6|pos|0.000013,-0.808102,0.835679,-0.000013,-0.628960,-0.000021|vel|0.000000,0.247455,-0.228051,0.000000,0.255767,0.000000|eff|0.000000,-708.984375,-934.570312,128.906250,36.254883,36.254883
cobot_dynamixel_driver/joint_states|name|J1,J2,J3,J4,J5,J6|pos|0.000013,-0.803107,0.830897,-0.000013,-0.624099,-0.000021|vel|0.000000,0.237231,-0.261017,0.000000,0.250597,0.000000|eff|177.246094,-1079.589844,-886.230469,128.906250,48.339844,32.226562
cobot_dynamixel_driver/joint_states|name|J1,J2,J3,J4,J5,J6|pos|0.000013,-0.798550,0.826128,-0.000013,-0.619217,-0.000021|vel|0.000000,0.248915,-0.213654,0.000000,0.240600,0.000000|eff|177.246094,-789.550781,-1031.250000,128.906250,48.339844,12.084961
cobot_dynamixel_driver/joint_states|name|J1,J2,J3,J4,J5,J6|pos|0.000025,-0.793756,0.821358,-0.000013,-0.614377,-0.000021|vel|0.000000,0.218453,-0.237440,0.000000,0.225434,0.000000|eff|32.226562,-1176.269531,-918.457031,128.906250,36.254883,36.254883
cobot_dynamixel_driver/joint_states|name|J1,J2,J3,J4,J5,J6|pos|0.000025,-0.789024,0.816614,-0.000013,-0.609495,-0.000021|vel|0.000000,0.235771,-0.200718,0.000000,0.243013,0.000000|eff|96.679688,-918.457031,-1079.589844,112.792969,36.254883,36.254883
cobot_dynamixel_driver/joint_states|name|J1,J2,J3,J4,J5,J6|pos|0.000025,-0.784304,0.811857,-0.000013,-0.604675,-0.000021|vel|0.000000,0.247038,-0.241196,0.000000,0.243013,0.000000|eff|161.132812,-1047.363281,-934.570312,128.906250,52.368164,32.226562
cobot_dynamixel_driver/joint_states|name|J1,J2,J3,J4,J5,J6|pos|0.000025,-0.779272,0.807125,-0.000013,-0.599814,-0.000021|vel|0.000000,0.249541,-0.247455,0.000000,0.273692,0.000000|eff|0.000000,-982.910156,-966.796875,128.906250,48.339844,36.254883
cobot_dynamixel_driver/joint_states|name|J1,J2,J3,J4,J5,J6|pos|0.000025,-0.774428,0.802406,-0.000013,-0.594953,-0.000021|vel|0.000000,0.242447,-0.250167,0.000000,0.281275,0.000000|eff|80.566406,-596.191406,-1015.136719,128.906250,48.339844,8.056641
cobot_dynamixel_driver/joint_states|name|J1,J2,J3,J4,J5,J6|pos|0.000025,-0.769858,0.797624,-0.000013,-0.590051,-0.000021|vel|0.000000,0.250585,-0.225547,0.000000,0.259904,0.000000|eff|145.019531,-1095.703125,-950.683594,128.906250,44.311523,32.226562
cobot_dynamixel_driver/joint_states|name|J1,J2,J3,J4,J5,J6|pos|0.000025,-0.764839,0.792829,-0.000013,-0.585148,-0.000021|vel|0.000000,0.244951,-0.252045,0.001043,0.250597,0.000000|eff|32.226562,-854.003906,-1031.250000,128.906250,44.311523,20.141602
cobot_dynamixel_driver/joint_states|name|J1,J2,J3,J4,J5,J6|pos|0.000025,-0.760344,0.788010,-0.000013,-0.580246,-0.000021|vel|0.000000,0.237649,-0.251419,0.001043,0.235775,0.000000|eff|177.246094,-1031.250000,-934.570312,128.906250,36.254883,20.141602
cobot_dynamixel_driver/joint_states|name|J1,J2,J3,J4,J5,J6|pos|0.000025,-0.755312,0.783153,-0.000013,-0.575385,-0.000021|vel|0.000000,0.246620,-0.255384,0.001043,0.227502,0.000000|eff|112.792969,-999.023438,-950.683594,128.906250,40.283203,20.141602
cobot_dynamixel_driver/joint_states|name|J1,J2,J3,J4,J5,J6|pos|0.000038,-0.750530,0.778333,-0.000013,-0.570503,-0.000021|vel|0.000000,0.214906,-0.266859,0.001043,0.243703,0.000000|eff|145.019531,-676.757812,-950.683594,128.906250,44.311523,0.000000
cobot_dynamixel_driver/joint_states|name|J1,J2,J3,J4,J5,J6|pos|0.000038,-0.745811,0.773589,-0.000013,-0.565621,-0.000021|vel|0.000000,0.248081,-0.222000,-0.001043,0.230259,0.000000|eff|80.566406,-1015.136719,-902.343750,0.000000,36.254883,8.056641
cobot_dynamixel_driver/joint_states|name|J1,J2,J3,J4,J5,J6|pos|0.000038,-0.740979,0.768581,-0.000013,-0.560719,-0.000021|vel|0.000000,0.254340,-0.247872,0.000209,0.203373,0.000000|eff|177.246094,-837.890625,-1031.250000,128.906250,32.226562,36.254883
cobot_dynamixel_driver/joint_states|name|J1,J2,J3,J4,J5,J6|pos|0.000038,-0.736197,0.764075,-0.000013,-0.555878,-0.000021|vel|0.000000,0.249541,-0.218453,0.001043,0.246116,0.000000|eff|0.000000,-1224.609375,-902.343750,64.453125,36.254883,8.056641
cobot_dynamixel_driver/joint_states|name|J1,J2,J3,J4,J5,J6|pos|0.000038,-0.731690,0.759331,-0.000013,-0.551017,-0.000021|vel|0.000000,0.219288,-0.241196,-0.001043,0.247494,0.000000|eff|0.000000,-789.550781,-1079.589844,80.566406,36.254883,20.141602
cobot_dynamixel_driver/joint_states|name|J1,J2,J3,J4,J5,J6|pos|0.000038,-0.726645,0.754561,-0.000013,-0.546156,-0.000021|vel|0.000000,0.245994,-0.224087,-0.000835,0.253699,0.000000|eff|32.226562,-708.984375,-950.683594,96.679688,40.283203,0.000000
cobot_dynamixel_driver/joint_states|name|J1,J2,J3,J4,J5,J6|pos|0.000038,-0.721826,0.749829,-0.000013,-0.541295,-0.000021|vel|0.000000,0.235145,-0.256427,0.000835,0.284033,0.000000|eff|177.246094,-950.683594,-999.023438,64.453125,44.311523,20.141602
cobot_dynamixel_driver/joint_states|name|J1,J2,J3,J4,J5,J6|pos|0.000050,-0.717056,0.745147,-0.000013,-0.536455,-0.000021|vel|0.000000,0.231180,-0.245994,0.000835,0.251975,0.000000|eff|177.246094,-676.757812,-1079.589844,128.906250,52.368164,20.141602
cobot_dynamixel_driver/joint_states|name|J1,J2,J3,J4,J5,J6|pos|0.000050,-0.712300,0.740353,-0.000013,-0.531614,-0.000021|vel|0.000000,0.249333,-0.256009,-0.000835,0.241979,0.000000|eff|177.246094,-1015.136719,-966.796875,32.226562,40.283203,0.000000
cobot_dynamixel_driver/joint_states|name|J1,J2,J3,J4,J5,J6|pos|0.000050,-0.707230,0.735258,-0.000013,-0.526484,-0.000021|vel|0.000000,0.240778,-0.257261,-0.000835,0.250941,0.000000|eff|161.132812,-870.117188,-1111.816406,112.792969,44.311523,12.084961
cobot_dynamixel_driver/joint_states|name|J1,J2,J3,J4,J5,J6|pos|0.000050,-0.702648,0.730651,-0.000013,-0.521872,-0.000021|vel|0.000000,0.251837,-0.249124,0.000835,0.241979,0.000000|eff|177.246094,-725.097656,-918.457031,0.000000,52.368164,0.000000
cobot_dynamixel_driver/joint_states|name|J1,J2,J3,J4,J5,J6|pos|0.000050,-0.697879,0.725819,-0.000013,-0.516969,-0.000021|vel|0.000000,0.253088,-0.258930,0.000835,0.264040,0.000000|eff|32.226562,-934.570312,-1015.136719,64.453125,44.311523,24.169922
cobot_dynamixel_driver/joint_states|name|J1,J2,J3,J4,J5,J6|pos|0.000050,-0.693097,0.720987,-0.000013,-0.512087,-0.000021|vel|0.000000,0.249750,-0.214280,0.000835,0.265419,0.000000|eff|128.906250,-628.417969,-966.796875,112.792969,44.311523,28.198242
cobot_dynamixel_driver/joint_states|name|J1,J2,J3,J4,J5,J6|pos|0.000050,-0.688315,0.716155,-0.000013,-0.507226,-0.000021|vel|0.000000,0.240152,-0.255175,-0.000835,0.244737,0.000000|eff|80.566406,-1031.250000,-870.117188,128.906250,40.283203,0.000000
cobot_dynamixel_driver/joint_states|name|J1,J2,J3,J4,J5,J6|pos|0.000050,-0.683545,0.711373,-0.000013,-0.502365,-0.000021|vel|0.000000,0.237023,-0.230346,-0.000835,0.290237,0.000000|eff|112.792969,-644.531250,-982.910156,80.566406,44.311523,0.000000
cobot_dynamixel_driver/joint_states|name|J1,J2,J3,J4,J5,J6|pos|0.000050,-0.678776,0.706566,-0.000013,-0.497483,-0.000021|vel|0.000000,0.242447,-0.245368,0.000835,0.251286,0.000000|eff|32.226562,-741.210938,-902.343750,80.566406,44.311523,16.113281
cobot_dynamixel_driver/joint_states|name|J1,J2,J3,J4,J5,J6|pos|0.000050,-0.673994,0.701822,-0.000013,-0.492622,-0.000021|vel|0.000000,0.244951,-0.251002,0.000835,0.245081,0.000000|eff|145.019531,-837.890625,-950.683594,128.906250,48.339844,0.000000
cobot_dynamixel_driver/joint_states|name|J1,J2,J3,J4,J5,J6|pos|0.000050,-0.669224,0.697065,-0.000013,-0.487741,-0.000021|vel|0.000000,0.247038,-0.237649,-0.000835,0.241290,0.000000|eff|80.566406,-628.417969,-982.910156,112.792969,44.311523,28.198242
cobot_dynamixel_driver/joint_states|name|J1,J2,J3,J4,J5,J6|pos|0.000050,-0.664467,0.692320,-0.000013,-0.482900,-0.000021|vel|0.000000,0.244325,-0.243908,-0.000835,0.221987,0.000000|eff|32.226562,-902.343750,-934.570312,128.906250,44.311523,20.141602
cobot_dynamixel_driver/joint_states|name|J1,J2,J3,J4,J5,J6|pos|0.000050,-0.659710,0.687564,-0.000013,-0.478039,-0.000021|vel|0.000000,0.247038,-0.249959,0.000835,0.265763,0.000000|eff|177.246094,-612.304688,-982.910156,64.453125,40.283203,36.254883
cobot_dynamixel_driver/joint_states|name|J1,J2,J3,J4,J5,J6|pos|0.000050,-0.654891,0.682832,-0.000013,-0.473178,-0.000021|vel|0.000000,0.227216,-0.229720,0.000835,0.279551,0.000000|eff|145.019531,-1176.269531,-934.570312,128.906250,40.283203,28.198242
cobot_dynamixel_driver/joint_states|name|J1,J2,J3,J4,J5,J6|pos|0.000050,-0.650071,0.678087,-0.000013,-0.468276,-0.000021|vel|0.000000,0.244951,-0.244117,-0.000835,0.249563,0.000000|eff|32.226562,-660.644531,-1031.250000,112.792969,36.254883,36.254883
cobot_dynamixel_driver/joint_states|name|J1,J2,J3,J4,J5,J6|pos|0.000063,-0.645289,0.673318,-0.000013,-0.463415,-0.000021|vel|0.000000,0.254966,-0.229720,-0.000835,0.253699,0.000000|eff|193.359375,-676.757812,-950.683594,112.792969,48.339844,24.169922
cobot_dynamixel_driver/joint_states|name|J1,J2,J3,J4,J5,J6|pos|0.000063,-0.640545,0.668536,-0.000013,-0.458554,-0.000021|vel|0.000000,0.247664,-0.258096,0.000835,0.284377,0.000000|eff|0.000000,-837.890625,-1176.269531,128.906250,48.339844,12.084961
cobot_dynamixel_driver/joint_states|name|J1,J2,J3,J4,J5,J6|pos|0.000063,-0.635813,0.663741,-0.000013,-0.453713,-0.000021|vel|0.000000,0.238274,-0.255175,0.000835,0.252320,0.000000|eff|96.679688,-547.851562,-966.796875,112.792969,56.396484,0.000000
cobot_dynamixel_driver/joint_states|name|J1,J2,J3,J4,J5,J6|pos|0.000063,-0.631031,0.658872,-0.000013,-0.448831,-0.000021|vel|0.000000,0.260391,-0.228468,-0.000835,0.223710,0.000000|eff|32.226562,-966.796875,-886.230469,128.906250,48.339844,0.000000
cobot_dynamixel_driver/joint_states|name|J1,J2,J3,J4,J5,J6|pos|0.000063,-0.626262,0.654027,-0.000013,-0.443950,-0.000021|vel|0.000000,0.251419,-0.258513,-0.000835,0.223710,0.000000|eff|32.226562,-628.417969,-982.910156,128.906250,44.311523,32.226562
cobot_dynamixel_driver/joint_states|name|J1,J2,J3,J4,J5,J6|pos|0.000063,-0.621517,0.649295,-0.000013,-0.439130,-0.000021|vel|0.000000,0.252462,-0.246412,0.000835,0.239911,0.000000|eff|145.019531,-999.023438,-934.570312,112.792969,64.453125,32.226562
cobot_dynamixel_driver/joint_states|name|J1,J2,J3,J4,J5,J6|pos|0.000063,-0.616685,0.644538,-0.000013,-0.434269,-0.000021|vel|0.000000,0.242447,-0.237440,0.000835,0.245771,0.000000|eff|128.906250,-757.324219,-1063.476562,112.792969,52.368164,0.000000
cobot_dynamixel_driver/joint_states|name|J1,J2,J3,J4,J5,J6|pos|0.000063,-0.611678,0.639531,-0.000013,-0.429139,-0.000021|vel|0.000000,0.237440,-0.237857,0.000835,0.217505,0.000000|eff|145.019531,-612.304688,-982.910156,96.679688,52.368164,32.226562
cobot_dynamixel_driver/joint_states|name|J1,J2,J3,J4,J5,J6|pos|0.000063,-0.607146,0.635025,-0.000013,-0.424505,-0.000021|vel|0.000000,0.236605,-0.245577,-0.000835,0.260593,0.000000|eff|80.566406,-789.550781,-982.910156,128.906250,56.396484,32.226562
cobot_dynamixel_driver/joint_states|name|J1,J2,J3,J4,J5,J6|pos|0.000063,-0.602302,0.630280,-0.000013,-0.419644,-0.000021|vel|0.000000,0.257887,-0.256427,0.000835,0.267142,0.000000|eff|0.000000,-531.738281,-999.023438,128.906250,60.424805,32.226562
cobot_dynamixel_driver/joint_states|name|J1,J2,J3,J4,J5,J6|pos|0.000063,-0.597520,0.625548,-0.000013,-0.414763,-0.000021|vel|0.000000,0.244743,-0.251628,0.000835,0.252665,0.000000|eff|0.000000,-999.023438,-982.910156,32.226562,60.424805,0.000000
cobot_dynamixel_driver/joint_states|name|J1,J2,J3,J4,J5,J6|pos|0.000063,-0.592776,0.620879,-0.000013,-0.409840,-0.000021|vel|0.000000,0.229094,-0.224087,0.000835,0.256457,0.000000|eff|80.566406,-692.871094,-1111.816406,128.906250,44.311523,20.141602
cobot_dynamixel_driver/joint_states|name|J1,J2,J3,J4,J5,J6|pos|0.000063,-0.587994,0.616034,-0.000013,-0.404937,-0.000021|vel|0.000000,0.260391,-0.258096,-0.000835,0.226123,0.000000|eff|145.019531,-789.550781,-950.683594,96.679688,60.424805,36.254883
cobot_dynamixel_driver/joint_states|name|J1,J2,J3,J4,J5,J6|pos|0.000063,-0.583174,0.611140,-0.000013,-0.400076,-0.000021|vel|0.000000,0.239526,-0.277500,-0.000835,0.260938,0.000000|eff|80.566406,-741.210938,-1063.476562,128.906250,48.339844,20.141602
cobot_dynamixel_driver/joint_states|name|J1,J2,J3,J4,J5,J6|pos|0.000063,-0.578355,0.606308,-0.000013,-0.395174,-0.000021|vel|0.000000,0.226799,-0.248915,0.000835,0.267487,0.000000|eff|112.792969,-483.398438,-982.910156,96.679688,52.368164,12.084961
cobot_dynamixel_driver/joint_states|name|J1,J2,J3,J4,J5,J6|pos|0.000063,-0.573623,0.601513,-0.000013,-0.390271,-0.000021|vel|0.000000,0.242447,-0.248081,0.000835,0.220608,0.000000|eff|32.226562,-902.343750,-902.343750,64.453125,48.339844,0.000000
cobot_dynamixel_driver/joint_states|name|J1,J2,J3,J4,J5,J6|pos|0.000063,-0.568841,0.596694,-0.000013,-0.385431,-0.000021|vel|0.000000,0.246620,-0.255384,-0.000835,0.238187,0.000000|eff|96.679688,-547.851562,-999.023438,128.906250,48.339844,36.254883
cobot_dynamixel_driver/joint_states|name|J1,J2,J3,J4,J5,J6|pos|0.000063,-0.563333,0.590898,-0.000013,-0.379846,-0.000021|vel|0.000000,0.239735,-0.254132,-0.000835,0.268866,0.000000|eff|177.246094,-854.003906,-886.230469,0.000000,56.396484,20.141602
cobot_dynamixel_driver/joint_states|name|J1,J2,J3,J4,J5,J6|pos|0.000050,-0.559289,0.586804,-0.000013,-0.375667,-0.000021|vel|0.000000,0.239318,-0.256844,0.000835,0.271279,0.000000|eff|128.906250,-789.550781,-854.003906,112.792969,44.311523,0.000000
cobot_dynamixel_driver/joint_states|name|J1,J2,J3,J4,J5,J6|pos|0.000050,-0.554482,0.582260,-0.000013,-0.370765,-0.000021|vel|0.000000,0.257261,-0.234102,0.000835,0.264729,0.000000|eff|0.000000,-322.265625,-934.570312,128.906250,48.339844,32.226562
cobot_dynamixel_driver/joint_states|name|J1,J2,J3,J4,J5,J6|pos|0.000050,-0.549688,0.577466,-0.000013,-0.365945,-0.000021|vel|0.000000,0.232432,-0.247038,-0.000835,0.248184,0.000000|eff|145.019531,-805.664062,-854.003906,128.906250,64.453125,0.000000
cobot_dynamixel_driver/joint_states|name|J1,J2,J3,J4,J5,J6|pos|0.000050,-0.544918,0.572734,-0.000013,-0.361084,-0.000021|vel|0.000000,0.250376,-0.225756,-0.000835,0.219574,0.000000|eff|0.000000,-499.511719,-982.910156,80.566406,60.424805,32.226562
cobot_dynamixel_driver/joint_states|name|J1,J2,J3,J4,J5,J6|pos|0.000050,-0.540136,0.568014,-0.000013,-0.356223,-0.000021|vel|0.000000,0.254758,-0.250793,0.000835,0.264385,0.000000|eff|0.000000,-918.457031,-902.343750,80.566406,64.453125,36.254883
cobot_dynamixel_driver/joint_states|name|J1,J2,J3,J4,J5,J6|pos|0.000050,-0.535379,0.563283,-0.000013,-0.351300,-0.000021|vel|0.000000,0.255801,-0.223461,0.000835,0.265074,0.000000|eff|0.000000,-563.964844,-1047.363281,112.792969,60.424805,0.000000
cobot_dynamixel_driver/joint_states|name|J1,J2,J3,J4,J5,J6|pos|0.000050,-0.530572,0.558576,-0.000013,-0.346418,-0.000021|vel|0.000000,0.253714,-0.241404,-0.000835,0.217505,0.000000|eff|0.000000,-467.285156,-966.796875,0.000000,44.311523,36.254883
cobot_dynamixel_driver/joint_states|name|J1,J2,J3,J4,J5,J6|pos|0.000050,-0.525740,0.553819,-0.000013,-0.341557,-0.000021|vel|0.000000,0.236188,-0.219079,-0.000835,0.245081,0.000000|eff|112.792969,-805.664062,-1192.382812,128.906250,48.339844,0.000000
cobot_dynamixel_driver/joint_states|name|J1,J2,J3,J4,J5,J6|pos|0.000050,-0.519081,0.546859,-0.000013,-0.334731,-0.000021|vel|0.000000,0.240778,-0.262269,-0.000835,0.245426,0.000000|eff|0.000000,-338.378906,-934.570312,64.453125,60.424805,0.000000
cobot_dynamixel_driver/joint_states|name|J1,J2,J3,J4,J5,J6|pos|0.000050,-0.515062,0.542778,-0.000013,-0.330594,-0.000021|vel|0.000000,0.244743,-0.253923,0.000835,0.220263,0.000000|eff|0.000000,-821.777344,-934.570312,64.453125,56.396484,20.141602
cobot_dynamixel_driver/joint_states|name|J1,J2,J3,J4,J5,J6|pos|0.000050,-0.511006,0.538684,-0.000013,-0.326229,-0.000021|vel|0.000000,0.242447,-0.251419,0.000835,0.254388,0.000000|eff|80.566406,-725.097656,-934.570312,32.226562,56.396484,28.198242
cobot_dynamixel_driver/joint_states|name|J1,J2,J3,J4,J5,J6|pos|0.000050,-0.506675,0.534566,-0.000013,-0.322113,-0.000021|vel|0.000000,0.235145,-0.257261,-0.000835,0.257146,0.000000|eff|0.000000,145.019531,-902.343750,112.792969,72.509766,0.000000
cobot_dynamixel_driver/joint_states|name|J1,J2,J3,J4,J5,J6|pos|0.000050,-0.501918,0.529734,-0.000013,-0.317252,-0.000021|vel|0.000000,0.241821,-0.223461,-0.000835,0.237843,0.000000|eff|0.000000,-628.417969,-999.023438,96.679688,64.453125,36.254883
cobot_dynamixel_driver/joint_states|name|J1,J2,J3,J4,J5,J6|pos|0.000050,-0.497174,0.524726,-0.000013,-0.312391,-0.000021|vel|0.000000,0.242030,-0.256009,0.000835,0.212680,0.000000|eff|0.000000,-338.378906,-934.570312,96.679688,68.481445,8.056641
cobot_dynamixel_driver/joint_states|name|J1,J2,J3,J4,J5,J6|pos|0.000050,-0.492354,0.520182,-0.000013,-0.307488,-0.000021|vel|0.000000,0.243282,-0.244117,0.000835,0.223365,0.000000|eff|0.000000,-725.097656,-902.343750,112.792969,56.396484,20.141602
cobot_dynamixel_driver/joint_states|name|J1,J2,J3,J4,J5,J6|pos|0.000050,-0.487585,0.515425,-0.000013,-0.302586,-0.000021|vel|0.000000,0.259139,-0.246203,-0.000835,0.214403,0.000000|eff|0.000000,-386.718750,-1015.136719,64.453125,48.339844,12.084961
cobot_dynamixel_driver/joint_states|name|J1,J2,J3,J4,J5,J6|pos|0.000050,-0.482803,0.510706,-0.000013,-0.297683,-0.000021|vel|0.000000,0.248498,-0.222835,-0.000835,0.244047,0.000000|eff|112.792969,-982.910156,-950.683594,32.226562,60.424805,0.000000
cobot_dynamixel_driver/joint_states|name|J1,J2,J3,J4,J5,J6|pos|0.000050,-0.477971,0.505999,-0.000013,-0.292802,-0.000021|vel|0.000000,0.240570,-0.258722,0.000835,0.266798,0.000000|eff|0.000000,-515.625000,-1079.589844,128.906250,52.368164,12.084961
cobot_dynamixel_driver/joint_states|name|J1,J2,J3,J4,J5,J6|pos|0.000050,-0.473189,0.501242,-0.000013,-0.287961,-0.000021|vel|0.000000,0.228468,-0.214697,0.000835,0.246116,0.000000|eff|0.000000,-322.265625,-966.796875,112.792969,52.368164,36.254883
cobot_dynamixel_driver/joint_states|name|J1,J2,J3,J4,J5,J6|pos|0.000050,-0.468207,0.496047,-0.000013,-0.282852,-0.000021|vel|0.000000,0.219288,-0.215949,-0.000835,0.245081,0.000000|eff|0.000000,-1111.816406,-982.910156,112.792969,48.339844,20.141602
cobot_dynamixel_driver/joint_states|name|J1,J2,J3,J4,J5,J6|pos|0.000050,-0.463638,0.491691,-0.000013,-0.278260,-0.000021|vel|0.000000,0.252671,-0.226799,-0.000835,0.253354,0.000000|eff|64.453125,-290.039062,-982.910156,64.453125,68.481445,0.000000
cobot_dynamixel_driver/joint_states|name|J1,J2,J3,J4,J5,J6|pos|0.000050,-0.458843,0.486834,-0.000013,-0.273419,-0.000021|vel|0.000000,0.259556,-0.257887,0.000835,0.259904,0.000000|eff|0.000000,-837.890625,-886.230469,32.226562,76.538086,32.226562
cobot_dynamixel_driver/joint_states|name|J1,J2,J3,J4,J5,J6|pos|0.000050,-0.454049,0.482027,-0.000013,-0.268538,-0.000021|vel|0.000000,0.234936,-0.256009,0.000835,0.242324,0.000000|eff|0.000000,-515.625000,-999.023438,112.792969,72.509766,20.141602
cobot_dynamixel_driver/joint_states|name|J1,J2,J3,J4,J5,J6|pos|0.000050,-0.449292,0.477207,-0.000013,-0.263656,-0.000021|vel|0.000000,0.252254,-0.221583,-0.000835,0.215782,0.000000|eff|0.000000,-773.437500,-918.457031,32.226562,60.424805,0.000000
cobot_dynamixel_driver/joint_states|name|J1,J2,J3,J4,J5,J6|pos|0.000050,-0.444522,0.472413,-0.000013,-0.258795,-0.000021|vel|0.000000,0.252880,-0.243699,-0.000835,0.262316,0.000000|eff|80.566406,-531.738281,-1111.816406,128.906250,52.368164,0.000000
cobot_dynamixel_driver/joint_states|name|J1,J2,J3,J4,J5,J6|pos|0.000050,-0.439740,0.467631,-0.000013,-0.253934,-0.000021|vel|0.000000,0.257887,-0.252671,-0.000835,0.268521,0.000000|eff|64.453125,-225.585938,-934.570312,112.792969,56.396484,28.198242
cobot_dynamixel_driver/joint_states|name|J1,J2,J3,J4,J5,J6|pos|0.000050,-0.434971,0.462799,-0.000013,-0.249073,-0.000021|vel|0.000000,0.240987,-0.258722,0.000835,0.249563,0.000000|eff|0.000000,-773.437500,-886.230469,96.679688,60.424805,0.000000
cobot_dynamixel_driver/joint_states|name|J1,J2,J3,J4,J5,J6|pos|0.000050,-0.430139,0.457992,-0.000013,-0.244232,-0.000021|vel|0.000000,0.218662,-0.253923,0.000835,0.259904,0.000000|eff|80.566406,-386.718750,-999.023438,128.906250,76.538086,36.254883
cobot_dynamixel_driver/joint_states|name|J1,J2,J3,J4,J5,J6|pos|0.000050,-0.425382,0.453172,-0.000013,-0.239351,-0.000021|vel|0.000000,0.255384,-0.214906,-0.000835,0.288169,0.000000|eff|112.792969,-821.777344,-870.117188,112.792969,80.566406,20.141602
cobot_dynamixel_driver/joint_states|name|J1,J2,J3,J4,J5,J6|pos|0.000050,-0.420650,0.448203,-0.000013,-0.234448,-0.000021|vel|0.000000,0.230137,-0.246412,-0.000835,0.247150,0.000000|eff|80.566406,-515.625000,-1031.250000,96.679688,64.453125,20.141602
cobot_dynamixel_driver/joint_states|name|J1,J2,J3,J4,J5,J6|pos|0.000050,-0.415855,0.443709,-0.000013,-0.229546,-0.000021|vel|0.000000,0.261852,-0.249959,0.000835,0.234740,0.000000|eff|0.000000,-145.019531,-934.570312,80.566406,60.424805,12.084961
cobot_dynamixel_driver/joint_states|name|J1,J2,J3,J4,J5,J6|pos|0.000050,-0.411023,0.438977,-0.000013,-0.224685,-0.000021|vel|0.000000,0.255801,-0.248290,0.000835,0.245081,0.000000|eff|0.000000,-628.417969,-999.023438,112.792969,64.453125,12.084961
cobot_dynamixel_driver/joint_states|name|J1,J2,J3,J4,J5,J6|pos|0.000050,-0.406204,0.434282,-0.000013,-0.219782,-0.000021|vel|0.000000,0.247664,-0.237023,-0.000835,0.229570,0.000000|eff|0.000000,-209.472656,-982.910156,112.792969,60.424805,0.000000
cobot_dynamixel_driver/joint_states|name|J1,J2,J3,J4,J5,J6|pos|0.000050,-0.401409,0.429538,-0.000013,-0.214921,-0.000021|vel|0.000000,0.237231,-0.246829,-0.000835,0.240256,0.000000|eff|112.792969,-886.230469,-999.023438,112.792969,64.453125,20.141602
cobot_dynamixel_driver/joint_states|name|J1,J2,J3,J4,J5,J6|pos|0.000050,-0.396627,0.424743,-0.000013,-0.210101,-0.000021|vel|0.000000,0.245368,-0.254132,0.000835,0.267832,0.000000|eff|0.000000,-467.285156,-999.023438,128.906250,60.424805,0.000000
cobot_dynamixel_driver/joint_states|name|J1,J2,J3,J4,J5,J6|pos|0.000050,-0.391896,0.419924,-0.000013,-0.205199,-0.000021|vel|0.000000,0.244325,-0.253923,0.000835,0.283343,0.000000|eff|0.000000,-418.945312,-886.230469,128.906250,52.368164,0.000000
cobot_dynamixel_driver/joint_states|name|J1,J2,J3,J4,J5,J6|pos|0.000050,-0.387176,0.415104,-0.000013,-0.200317,-0.000021|vel|0.000000,0.252880,-0.211150,-0.000835,0.245426,0.000000|eff|0.000000,-483.398438,-1144.042969,80.566406,72.509766,0.000000
cobot_dynamixel_driver/joint_states|name|J1,J2,J3,J4,J5,J6|pos|0.000050,-0.382382,0.410034,-0.000013,-0.195208,-0.000021|vel|0.000000,0.249333,-0.260182,-0.000835,0.245426,0.000000|eff|0.000000,-241.699219,-966.796875,112.792969,80.566406,36.254883
cobot_dynamixel_driver/joint_states|name|J1,J2,J3,J4,J5,J6|pos|0.000050,-0.377600,0.405490,-0.000013,-0.190616,-0.000021|vel|0.000000,0.247664,-0.232850,0.000835,0.256801,0.000000|eff|0.000000,-628.417969,-886.230469,64.453125,80.566406,36.254883
cobot_dynamixel_driver/joint_states|name|J1,J2,J3,J4,J5,J6|pos|0.000050,-0.372830,0.400433,-0.000013,-0.185755,-0.000021|vel|0.000000,0.248707,-0.230137,0.000835,0.239566,0.000000|eff|0.000000,-402.832031,-982.910156,112.792969,72.509766,24.169922
cobot_dynamixel_driver/joint_states|name|J1,J2,J3,J4,J5,J6|pos|0.000050,-0.368011,0.395901,-0.000013,-0.180873,-0.000021|vel|0.000000,0.222209,-0.250585,-0.000835,0.268176,0.000000|eff|64.453125,-644.531250,-902.343750,80.566406,64.453125,0.000000
cobot_dynamixel_driver/joint_states|name|J1,J2,J3,J4,J5,J6|pos|0.000050,-0.363204,0.391144,-0.000013,-0.175950,-0.000021|vel|0.000000,0.250585,-0.247455,-0.000835,0.227502,0.000000|eff|0.000000,-418.945312,-805.664062,0.000000,56.396484,0.000000
cobot_dynamixel_driver/joint_states|name|J1,J2,J3,J4,J5,J6|pos|0.000050,-0.358434,0.386413,-0.000013,-0.171109,-0.000021|vel|0.000000,0.259765,-0.250167,0.000835,0.243358,0.000000|eff|0.000000,-32.226562,-950.683594,96.679688,68.481445,0.000000
cobot_dynamixel_driver/joint_states|name|J1,J2,J3,J4,J5,J6|pos|0.000050,-0.353627,0.381681,-0.000013,-0.166269,-0.000021|vel|0.000000,0.243491,-0.245994,0.000835,0.263006,0.000000|eff|64.453125,-547.851562,-966.796875,112.792969,68.481445,36.254883
cobot_dynamixel_driver/joint_states|name|J1,J2,J3,J4,J5,J6|pos|0.000050,-0.348820,0.376961,-0.000013,-0.161387,-0.000021|vel|0.000000,0.247664,-0.236188,-0.000835,0.250941,0.000000|eff|0.000000,-225.585938,-1031.250000,128.906250,64.453125,8.056641
cobot_dynamixel_driver/joint_states|name|J1,J2,J3,J4,J5,J6|pos|0.000050,-0.344026,0.371979,-0.000013,-0.156526,-0.000021|vel|0.000000,0.251628,-0.250585,-0.000835,0.283343,0.000000|eff|0.000000,-660.644531,-1015.136719,96.679688,64.453125,20.141602
cobot_dynamixel_driver/joint_states|name|J1,J2,J3,J4,J5,J6|pos|0.000050,-0.339244,0.367372,-0.000013,-0.151707,-0.000021|vel|0.000000,0.244951,-0.261017,-0.000835,0.244392,0.000000|eff|0.000000,-370.605469,-934.570312,64.453125,76.538086,20.141602
cobot_dynamixel_driver/joint_states|name|J1,J2,J3,J4,J5,J6|pos|0.000050,-0.334487,0.362515,-0.000013,-0.146846,-0.000021|vel|0.000000,0.228259,-0.233684,0.000835,0.214748,0.000000|eff|0.000000,-193.359375,-918.457031,64.453125,80.566406,0.000000
cobot_dynamixel_driver/joint_states|name|J1,J2,J3,J4,J5,J6|pos|0.000050,-0.329730,0.357708,-0.000013,-0.141943,-0.000021|vel|0.000000,0.258930,-0.251837,0.000835,0.245426,0.000000|eff|0.000000,-386.718750,-1031.250000,128.906250,72.509766,0.000000
cobot_dynamixel_driver/joint_states|name|J1,J2,J3,J4,J5,J6|pos|0.000050,-0.324973,0.352889,-0.000013,-0.137020,-0.000021|vel|0.000000,0.214906,-0.245368,-0.000835,0.264729,0.000000|eff|0.000000,0.000000,-934.570312,128.906250,60.424805,36.254883
cobot_dynamixel_driver/joint_states|name|J1,J2,J3,J4,J5,J6|pos|0.000050,-0.320229,0.348069,-0.000013,-0.132118,-0.000021|vel|0.000000,0.240152,-0.263103,-0.000835,0.211301,0.000000|eff|0.000000,-580.078125,-886.230469,112.792969,64.453125,12.084961
cobot_dynamixel_driver/joint_states|name|J1,J2,J3,J4,J5,J6|pos|0.000050,-0.315434,0.343287,-0.000013,-0.127256,-0.000021|vel|0.000000,0.232850,-0.258305,0.000835,0.244737,0.000000|eff|112.792969,-193.359375,-966.796875,112.792969,64.453125,8.056641
cobot_dynamixel_driver/joint_states|name|J1,J2,J3,J4,J5,J6|pos|0.000050,-0.310665,0.338480,-0.000013,-0.122416,-0.000021|vel|0.000000,0.247664,-0.209481,0.000835,0.272657,0.000000|eff|0.000000,-692.871094,-870.117188,0.000000,60.424805,0.000000
cobot_dynamixel_driver/joint_states|name|J1,J2,J3,J4,J5,J6|pos|0.000050,-0.305895,0.333673,-0.000013,-0.117576,-0.000021|vel|0.000000,0.232850,-0.243491,-0.000835,0.245426,0.000000|eff|0.000000,-306.152344,-950.683594,0.000000,84.594727,36.254883
cobot_dynamixel_driver/joint_states|name|J1,J2,J3,J4,J5,J6|pos|0.000050,-0.301088,0.328628,-0.000013,-0.112715,-0.000021|vel|0.000000,0.238066,-0.252880,-0.000835,0.274381,0.000000|eff|112.792969,32.226562,-934.570312,64.453125,72.509766,12.084961
cobot_dynamixel_driver/joint_states|name|J1,J2,J3,J4,J5,J6|pos|0.000050,-0.296294,0.323859,-0.000013,-0.107874,-0.000021|vel|0.000000,0.240361,-0.253297,0.000835,0.255422,0.000000|eff|0.000000,-467.285156,-837.890625,80.566406,84.594727,0.000000
cobot_dynamixel_driver/joint_states|name|J1,J2,J3,J4,J5,J6|pos|0.000050,-0.291474,0.319340,-0.000013,-0.103034,-0.000021|vel|0.000000,0.246620,-0.257470,0.000835,0.218884,0.000000|eff|0.000000,-145.019531,-950.683594,128.906250,80.566406,20.141602
cobot_dynamixel_driver/joint_states|name|J1,J2,J3,J4,J5,J6|pos|0.000050,-0.286717,0.314608,-0.000013,-0.098152,-0.000021|vel|0.000000,0.247246,-0.238066,-0.000835,0.225434,0.000000|eff|0.000000,-596.191406,-902.343750,96.679688,72.509766,0.000000
cobot_dynamixel_driver/joint_states|name|J1,J2,J3,J4,J5,J6|pos|0.000050,-0.281973,0.309638,-0.000013,-0.093270,-0.000021|vel|0.000000,0.243699,-0.242865,-0.000835,0.223365,0.000000|eff|0.000000,-306.152344,-1015.136719,112.792969,76.538086,0.000000
cobot_dynamixel_driver/joint_states|name|J1,J2,J3,J4,J5,J6|pos|0.000050,-0.277204,0.304881,-0.000013,-0.088409,-0.000021|vel|0.000000,0.248707,-0.245994,0.000835,0.262661,0.000000|eff|0.000000,-338.378906,-918.457031,128.906250,68.481445,0.000000
cobot_dynamixel_driver/joint_states|name|J1,J2,J3,J4,J5,J6|pos|0.000050,-0.272422,0.300350,-0.000013,-0.083569,-0.000021|vel|0.000000,0.249750,-0.247038,0.000835,0.268521,0.000000|eff|0.000000,-290.039062,-1353.515625,96.679688,76.538086,28.198242
cobot_dynamixel_driver/joint_states|name|J1,J2,J3,J4,J5,J6|pos|0.000050,-0.267615,0.295330,-0.000013,-0.078687,-0.000021|vel|0.000000,0.260808,-0.252671,0.000835,0.248528,0.000000|eff|0.000000,0.000000,-934.570312,128.906250,76.538086,12.084961
cobot_dynamixel_driver/joint_states|name|J1,J2,J3,J4,J5,J6|pos|0.000050,-0.262820,0.290498,-0.000013,-0.073785,-0.000021|vel|0.000000,0.253714,-0.292731,-0.000835,0.266453,0.000000|eff|0.000000,-515.625000,-902.343750,64.453125,80.566406,0.000000
cobot_dynamixel_driver/joint_states|name|J1,J2,J3,J4,J5,J6|pos|0.000050,-0.258038,0.285703,-0.000013,-0.068903,-0.000021|vel|0.000000,0.255175,-0.223043,-0.000835,0.262316,0.000000|eff|0.000000,-145.019531,-982.910156,64.453125,80.566406,28.198242
cobot_dynamixel_driver/joint_states|name|J1,J2,J3,J4,J5,J6|pos|0.000050,-0.253269,0.281197,-0.000013,-0.064042,-0.000021|vel|0.000000,0.255384,-0.245786,0.000835,0.255078,0.000000|eff|80.566406,-644.531250,-902.343750,80.566406,84.594727,20.141602
cobot_dynamixel_driver/joint_states|name|J1,J2,J3,J4,J5,J6|pos|0.000050,-0.248474,0.276115,-0.000013,-0.059140,-0.000021|vel|0.000000,0.244743,-0.237231,0.000835,0.221642,0.000000|eff|0.000000,-257.812500,-982.910156,96.679688,72.509766,12.084961
cobot_dynamixel_driver/joint_states|name|J1,J2,J3,J4,J5,J6|pos|0.000050,-0.242716,0.270356,-0.000013,-0.053244,-0.000021|vel|0.000000,0.249124,-0.250793,0.000835,0.260248,0.000000|eff|0.000000,112.792969,-918.457031,112.792969,72.509766,36.254883
cobot_dynamixel_driver/joint_states|name|J1,J2,J3,J4,J5,J6|pos|0.000038,-0.238410,0.266338,-0.000013,-0.048859,-0.000021|vel|0.000000,0.245786,-0.246412,-0.000835,0.254044,0.000000|eff|0.000000,80.566406,-918.457031,128.906250,80.566406,0.000000
cobot_dynamixel_driver/joint_states|name|J1,J2,J3,J4,J5,J6|pos|0.000038,-0.234103,0.261856,-0.000013,-0.044515,-0.000021|vel|0.000000,0.246412,-0.239526,0.000835,0.218195,0.000000|eff|0.000000,-112.792969,-982.910156,128.906250,68.481445,28.198242
cobot_dynamixel_driver/joint_states|name|J1,J2,J3,J4,J5,J6|pos|0.000038,-0.229334,0.257099,-0.000013,-0.039447,-0.000021|vel|0.000000,0.232015,-0.244534,0.000835,0.261627,0.000000|eff|0.000000,0.000000,-934.570312,128.906250,76.538086,32.226562
cobot_dynamixel_driver/joint_states|name|J1,J2,J3,J4,J5,J6|pos|0.000038,-0.224577,0.252367,-0.000013,-0.034793,-0.000021|vel|0.000000,0.242865,-0.244743,-0.000835,0.277139,0.000000|eff|0.000000,-225.585938,-1047.363281,112.792969,64.453125,20.141602
cobot_dynamixel_driver/joint_states|name|J1,J2,J3,J4,J5,J6|pos|0.000038,-0.219545,0.247598,-0.000013,-0.029994,-0.000021|vel|0.000000,0.254549,-0.247872,-0.000835,0.230949,0.000000|eff|0.000000,0.000000,-966.796875,112.792969,40.283203,32.226562
cobot_dynamixel_driver/joint_states|name|J1,J2,J3,J4,J5,J6|pos|0.000038,-0.214988,0.242804,-0.000013,-0.026395,-0.000021|vel|0.000000,0.243073,-0.260600,0.000835,0.173729,0.000000|eff|0.000000,-306.152344,-1144.042969,64.453125,48.339844,20.141602
cobot_dynamixel_driver/joint_states|name|J1,J2,J3,J4,J5,J6|pos|0.000038,-0.209943,0.237984,-0.000013,-0.022981,-0.000021|vel|0.000000,0.243282,-0.243908,0.000835,0.164422,0.000000|eff|0.000000,-128.906250,-982.910156,64.453125,48.339844,0.000000
cobot_dynamixel_driver/joint_states|name|J1,J2,J3,J4,J5,J6|pos|0.000038,-0.204235,0.231963,-0.000013,-0.019506,-0.000021|vel|0.000000,0.246620,-0.257679,0.000835,0.110649,0.000000|eff|0.000000,145.019531,-918.457031,128.906250,68.481445,28.198242
cobot_dynamixel_driver/joint_states|name|J1,J2,J3,J4,J5,J6|pos|0.000038,-0.200204,0.227857,-0.000013,-0.017438,-0.000021|vel|0.000000,0.245994,-0.250585,-0.000835,0.131675,0.000000|eff|0.000000,-596.191406,-854.003906,128.906250,72.509766,36.254883
cobot_dynamixel_driver/joint_states|name|J1,J2,J3,J4,J5,J6|pos|0.000038,-0.195948,0.223563,-0.000013,-0.015555,-0.000021|vel|0.000000,0.249750,-0.247664,0.000835,0.104099,0.000000|eff|0.000000,-547.851562,-886.230469,32.226562,64.453125,20.141602
cobot_dynamixel_driver/joint_states|name|J1,J2,J3,J4,J5,J6|pos|0.000038,-0.191178,0.218794,-0.000013,-0.013611,-0.000021|vel|0.000000,0.237440,-0.241196,0.000835,0.091690,0.000000|eff|0.000000,-257.812500,-1079.589844,112.792969,60.424805,32.226562
cobot_dynamixel_driver/joint_states|name|J1,J2,J3,J4,J5,J6|pos|0.000038,-0.186371,0.213962,-0.000013,-0.011915,-0.000021|vel|0.000000,0.258305,-0.252671,0.000835,0.072042,0.000000|eff|0.000000,161.132812,-918.457031,128.906250,72.509766,32.226562
cobot_dynamixel_driver/joint_states|name|J1,J2,J3,J4,J5,J6|pos|0.000038,-0.181564,0.209155,-0.000013,-0.010446,-0.000021|vel|0.000000,0.254132,-0.225964,-0.000835,0.062391,0.000000|eff|0.000000,-273.925781,-854.003906,32.226562,68.481445,8.056641
cobot_dynamixel_driver/joint_states|name|J1,J2,J3,J4,J5,J6|pos|0.000038,-0.176782,0.204360,-0.000013,-0.009164,-0.000021|vel|0.000000,0.249333,-0.252254,-0.000835,0.070319,0.000000|eff|0.000000,0.000000,-950.683594,96.679688,64.453125,0.000000
cobot_dynamixel_driver/joint_states|name|J1,J2,J3,J4,J5,J6|pos|0.000038,-0.172038,0.199566,-0.000013,-0.007985,-0.000021|vel|0.000000,0.256635,-0.248707,0.000835,0.052739,0.000000|eff|0.000000,-451.171875,-854.003906,112.792969,68.481445,20.141602
cobot_dynamixel_driver/joint_states|name|J1,J2,J3,J4,J5,J6|pos|0.000038,-0.167243,0.194784,-0.000013,-0.007012,-0.000021|vel|0.000000,0.229720,-0.243699,0.000835,0.049981,0.000000|eff|0.000000,-96.679688,-982.910156,128.906250,80.566406,0.000000
cobot_dynamixel_driver/joint_states|name|J1,J2,J3,J4,J5,J6|pos|0.000038,-0.162462,0.190064,-0.000013,-0.006164,-0.000021|vel|0.000000,0.259765,-0.245368,-0.000835,0.042398,0.000000|eff|0.000000,-161.132812,-918.457031,128.906250,80.566406,28.198242
cobot_dynamixel_driver/joint_states|name|J1,J2,J3,J4,J5,J6|pos|0.000038,-0.157667,0.185357,-0.000013,-0.005420,-0.000021|vel|0.000000,0.238274,-0.267276,-0.000835,0.032402,0.000000|eff|0.000000,-128.906250,-1111.816406,112.792969,88.623047,8.056641
cobot_dynamixel_driver/joint_states|name|J1,J2,J3,J4,J5,J6|pos|0.000038,-0.152860,0.180625,-0.000013,-0.004758,-0.000021|vel|0.000000,0.233058,-0.226382,0.000835,0.030678,0.000000|eff|0.000000,128.906250,-950.683594,112.792969,72.509766,32.226562
cobot_dynamixel_driver/joint_states|name|J1,J2,J3,J4,J5,J6|pos|0.000038,-0.148078,0.175831,-0.000013,-0.004199,-0.000021|vel|0.000000,0.246412,-0.266859,0.000835,0.031368,0.000000|eff|0.000000,-418.945312,-934.570312,64.453125,88.623047,36.254883
cobot_dynamixel_driver/joint_states|name|J1,J2,J3,J4,J5,J6|pos|0.000038,-0.143296,0.171037,-0.000013,-0.003723,-0.000021|vel|0.000000,0.249124,-0.250167,-0.000835,0.021716,0.000000|eff|0.000000,0.000000,-966.796875,64.453125,100.708008,8.056641
cobot_dynamixel_driver/joint_states|name|J1,J2,J3,J4,J5,J6|pos|0.000038,-0.138552,0.166192,-0.000013,-0.003227,-0.000021|vel|0.000000,0.239735,-0.249750,-0.000835,0.022405,0.000000|eff|0.000000,-483.398438,-854.003906,112.792969,84.594727,8.056641
cobot_dynamixel_driver/joint_states|name|J1,J2,J3,J4,J5,J6|pos|0.000038,-0.133770,0.161448,-0.000013,-0.002855,-0.000021|vel|0.000000,0.227425,-0.236397,0.000835,0.018958,0.000000|eff|0.000000,-128.906250,-1192.382812,0.000000,92.651367,0.000000
cobot_dynamixel_driver/joint_states|name|J1,J2,J3,J4,J5,J6|pos|0.000038,-0.128963,0.156728,-0.000013,-0.002503,-0.000021|vel|0.000000,0.247455,-0.254758,0.000835,0.016890,0.000000|eff|0.000000,257.812500,-966.796875,64.453125,76.538086,28.198242
cobot_dynamixel_driver/joint_states|name|J1,J2,J3,J4,J5,J6|pos|0.000038,-0.124193,0.151871,-0.000013,-0.002213,-0.000021|vel|0.000000,0.232641,-0.253088,-0.000835,0.015511,0.000000|eff|0.000000,-306.152344,-934.570312,128.906250,88.623047,36.254883
cobot_dynamixel_driver/joint_states|name|J1,J2,J3,J4,J5,J6|pos|0.000038,-0.119399,0.147064,-0.000013,-0.001944,-0.000021|vel|0.000000,0.259139,-0.223878,-0.000835,0.013788,0.000000|eff|0.000000,112.792969,-950.683594,128.906250,104.736328,0.000000
cobot_dynamixel_driver/joint_states|name|J1,J2,J3,J4,J5,J6|pos|0.000038,-0.114617,0.142345,-0.000013,-0.001655,-0.000021|vel|0.000000,0.240570,-0.253714,0.000835,0.012409,0.000000|eff|0.000000,-418.945312,-886.230469,112.792969,80.566406,24.169922
cobot_dynamixel_driver/joint_states|name|J1,J2,J3,J4,J5,J6|pos|0.000038,-0.109860,0.137588,-0.000013,-0.001469,-0.000021|vel|0.000000,0.233058,-0.253088,0.000835,0.009307,0.000000|eff|0.000000,-32.226562,-1031.250000,128.906250,84.594727,8.056641
cobot_dynamixel_driver/goal|-:J1,J2,J3,J4,J5,J6:0.261799,0.174533,0.000000,0.000000,-0.261799,0.000000:vel_
cobot_dynamixel_driver/goal|-:J1,J2,J3,J4,J5,J6:0.261799,0.174533,0.000000,0.000000,-0.261799,0.000000:vel_
cobot_dynamixel_driver/joint_states|name|J1,J2,J3,J4,J5,J6|pos|0.000038,-0.083409,0.106668,-0.000025,-0.000414,-0.000021|vel|0.000000,-0.000209,0.002921,0.000000,-0.002758,0.000000|eff|0.000000,418.945312,-338.378906,0.000000,0.000000,0.000000
cobot_dynamixel_driver/goal|-:J1,J2,J3,J4,J5,J6:0.261799,0.174533,0.000000,0.000000,-0.261799,0.000000:vel_
