surachairobotic/cobot/cobot_dynamixel_driver/log/2018-12-25T04:30:21.351217_driver_log.txt
cobot_dynamixel_driver/joint_states|name|J1,J2,J3,J4,J5,J6|pos|0.012205,-1.267658,1.296275,-0.001715,-2.229760,-0.000083|vel|0.000000,-0.000000,0.000000,0.000000,0.000000,0.000000|eff|0.000000,0.000000,0.000000,0.000000,0.000000,0.000000
cobot_dynamixel_driver/joint_states|name|J1,J2,J3,J4,J5,J6|pos|0.012205,-1.267658,1.296275,-0.001715,-2.229760,-0.000083|vel|0.000000,-0.000000,0.000000,0.000000,0.000000,0.000000|eff|0.000000,0.000000,0.000000,0.000000,0.000000,-8.056641
cobot_dynamixel_driver/joint_states|name|J1,J2,J3,J4,J5,J6|pos|0.012205,-1.267658,1.296275,-0.001715,-2.229760,-0.000083|vel|0.000000,-0.000000,0.000000,0.000000,0.000000,0.000000|eff|0.000000,0.000000,0.000000,0.000000,0.000000,0.000000
cobot_dynamixel_driver/joint_states|name|J1,J2,J3,J4,J5,J6|pos|0.012205,-1.267658,1.296275,-0.001715,-2.229760,-0.000083|vel|0.000000,-0.000000,0.000000,0.000000,0.000000,0.000000|eff|0.000000,0.000000,0.000000,0.000000,0.000000,12.084961
cobot_dynamixel_driver/joint_states|name|J1,J2,J3,J4,J5,J6|pos|0.012205,-1.267658,1.296275,-0.001715,-2.229760,-0.000083|vel|0.000000,-0.000000,0.000000,0.000000,0.000000,0.000000|eff|0.000000,0.000000,0.000000,0.000000,0.000000,0.000000
cobot_dynamixel_driver/joint_states|name|J1,J2,J3,J4,J5,J6|pos|0.012205,-1.267658,1.296275,-0.001715,-2.229760,-0.000083|vel|0.000000,-0.000000,0.000000,0.000000,0.000000,0.000000|eff|0.000000,0.000000,0.000000,0.000000,0.000000,-8.056641
cobot_dynamixel_driver/joint_states|name|J1,J2,J3,J4,J5,J6|pos|0.012205,-1.267658,1.296275,-0.001715,-2.229760,-0.000083|vel|0.000000,-0.000000,0.000000,0.000000,0.000000,0.000000|eff|0.000000,0.000000,0.000000,0.000000,0.000000,0.000000
cobot_dynamixel_driver/joint_states|name|J1,J2,J3,J4,J5,J6|pos|0.012205,-1.267658,1.296275,-0.001715,-2.229760,-0.000083|vel|0.000000,-0.000000,0.000000,0.000000,0.000000,0.000000|eff|0.000000,0.000000,0.000000,0.000000,0.000000,-8.056641
cobot_dynamixel_driver/joint_states|name|J1,J2,J3,J4,J5,J6|pos|0.012205,-1.267658,1.296275,-0.001715,-2.229760,-0.000083|vel|0.000000,-0.000000,0.000000,0.000000,0.000000,0.000000|eff|0.000000,0.000000,0.000000,0.000000,0.000000,0.000000
cobot_dynamixel_driver/joint_states|name|J1,J2,J3,J4,J5,J6|pos|0.012205,-1.267658,1.296275,-0.001715,-2.229760,-0.000083|vel|0.000000,-0.000000,0.000000,0.000000,0.000000,0.000000|eff|0.000000,0.000000,0.000000,0.000000,0.000000,12.084961
cobot_dynamixel_driver/joint_states|name|J1,J2,J3,J4,J5,J6|pos|0.012205,-1.267658,1.296275,-0.001715,-2.229760,-0.000083|vel|0.000000,-0.000000,0.000000,0.000000,0.000000,0.000000|eff|0.000000,0.000000,0.000000,0.000000,0.000000,0.000000
cobot_dynamixel_driver/joint_states|name|J1,J2,J3,J4,J5,J6|pos|0.012205,-1.267658,1.296275,-0.001715,-2.229760,-0.000083|vel|0.000000,-0.000000,0.000000,0.000000,0.000000,0.000000|eff|0.000000,0.000000,0.000000,0.000000,0.000000,12.084961
cobot_dynamixel_driver/joint_states|name|J1,J2,J3,J4,J5,J6|pos|0.012205,-1.267658,1.296275,-0.001715,-2.229760,-0.000083|vel|0.000000,-0.000000,0.000000,0.000000,0.000000,0.000000|eff|0.000000,0.000000,0.000000,0.000000,0.000000,0.000000
cobot_dynamixel_driver/joint_states|name|J1,J2,J3,J4,J5,J6|pos|0.012205,-1.267658,1.296275,-0.001715,-2.229760,-0.000083|vel|0.000000,-0.000000,0.000000,0.000000,0.000000,0.000000|eff|0.000000,0.000000,0.000000,0.000000,0.000000,-8.056641
cobot_dynamixel_driver/joint_states|name|J1,J2,J3,J4,J5,J6|pos|0.012205,-1.267658,1.296275,-0.001715,-2.229760,-0.000083|vel|0.000000,-0.000000,0.000000,0.000000,0.000000,0.000000|eff|0.000000,0.000000,0.000000,0.000000,0.000000,0.000000
cobot_dynamixel_driver/joint_states|name|J1,J2,J3,J4,J5,J6|pos|0.012205,-1.267658,1.296275,-0.001715,-2.229760,-0.000083|vel|0.000000,-0.000000,0.000000,0.000000,0.000000,0.000000|eff|0.000000,0.000000,0.000000,0.000000,0.000000,-8.056641
cobot_dynamixel_driver/joint_states|name|J1,J2,J3,J4,J5,J6|pos|0.012205,-1.267658,1.296275,-0.001715,-2.229760,-0.000083|vel|0.000000,-0.000000,0.000000,0.000000,0.000000,0.000000|eff|0.000000,0.000000,0.000000,0.000000,0.000000,0.000000
cobot_dynamixel_driver/joint_states|name|J1,J2,J3,J4,J5,J6|pos|0.012205,-1.267658,1.296275,-0.001715,-2.229760,-0.000083|vel|0.000000,-0.000000,0.000000,0.000000,0.000000,0.000000|eff|0.000000,0.000000,0.000000,0.000000,-8.056641,-8.056641
cobot_dynamixel_driver/joint_states|name|J1,J2,J3,J4,J5,J6|pos|0.012205,-1.267658,1.296275,-0.001715,-2.229760,-0.000083|vel|0.000000,-0.000000,0.000000,0.000000,0.000000,0.000000|eff|0.000000,0.000000,0.000000,0.000000,12.084961,0.000000
cobot_dynamixel_driver/joint_states|name|J1,J2,J3,J4,J5,J6|pos|0.012205,-1.267658,1.296275,-0.001715,-2.229760,-0.000083|vel|0.000000,-0.000000,0.000000,0.000000,0.000000,0.000000|eff|0.000000,0.000000,0.000000,0.000000,-8.056641,0.000000
cobot_dynamixel_driver/joint_states|name|J1,J2,J3,J4,J5,J6|pos|0.012205,-1.267658,1.296275,-0.001715,-2.229760,-0.000083|vel|0.000000,-0.000000,0.000000,0.000000,0.000000,0.000000|eff|0.000000,0.000000,0.000000,0.000000,0.000000,0.000000
cobot_dynamixel_driver/joint_states|name|J1,J2,J3,J4,J5,J6|pos|0.012205,-1.267658,1.296275,-0.001715,-2.229740,-0.000083|vel|0.000000,-0.000000,0.000000,0.000000,0.000000,0.000000|eff|0.000000,0.000000,0.000000,0.000000,-8.056641,12.084961
cobot_dynamixel_driver/joint_states|name|J1,J2,J3,J4,J5,J6|pos|0.012205,-1.267658,1.296275,-0.001715,-2.229740,-0.000083|vel|0.000000,-0.000000,0.000000,0.000000,0.000000,0.000000|eff|0.000000,0.000000,0.000000,0.000000,0.000000,0.000000
cobot_dynamixel_driver/joint_states|name|J1,J2,J3,J4,J5,J6|pos|0.012205,-1.267658,1.296275,-0.001715,-2.229740,-0.000083|vel|0.000000,-0.000000,0.000000,0.000000,0.000000,0.000000|eff|0.000000,0.000000,0.000000,0.000000,0.000000,0.000000
cobot_dynamixel_driver/joint_states|name|J1,J2,J3,J4,J5,J6|pos|0.012205,-1.267658,1.296275,-0.001715,-2.229740,-0.000083|vel|0.000000,-0.000000,0.000000,0.000000,0.000000,0.000000|eff|0.000000,0.000000,0.000000,0.000000,0.000000,0.000000
cobot_dynamixel_driver/joint_states|name|J1,J2,J3,J4,J5,J6|pos|0.012205,-1.267658,1.296275,-0.001715,-2.229740,-0.000083|vel|0.000000,-0.000000,0.000000,0.000000,0.000000,0.000000|eff|0.000000,0.000000,0.000000,0.000000,12.084961,0.000000
cobot_dynamixel_driver/joint_states|name|J1,J2,J3,J4,J5,J6|pos|0.012205,-1.267658,1.296275,-0.001715,-2.229740,-0.000083|vel|0.000000,-0.000000,0.000000,0.000000,0.000000,0.000000|eff|0.000000,0.000000,0.000000,0.000000,-8.056641,0.000000
cobot_dynamixel_driver/goal|-:J1,J2,J3,J4,J5,J6:0.000000,0.000000,0.000000,0.000000,0.000000,0.000000:0.700000,0.700000,0.700000,0.700000,0.700000,0.700000:pos_vel_
cobot_dynamixel_driver/joint_states|name|J1,J2,J3,J4,J5,J6|pos|0.012205,-1.267658,1.296275,0.001014,-2.229760,-0.000083|vel|0.000000,-0.000000,0.000000,0.000000,0.000000,0.000000|eff|0.000000,0.000000,0.000000,0.000000,28.198242,0.000000
cobot_dynamixel_driver/joint_states|name|J1,J2,J3,J4,J5,J6|pos|0.011892,-1.267308,1.295887,0.001014,-2.228912,-0.000083|vel|-0.031506,0.036722,-0.036305,0.000000,0.088243,0.000000|eff|-515.625000,-499.511719,-354.492188,-145.019531,124.877930,0.000000
cobot_dynamixel_driver/joint_states|name|J1,J2,J3,J4,J5,J6|pos|0.010378,-1.265242,1.293683,0.001001,-2.225003,-0.000083|vel|-0.066767,0.121015,-0.118094,0.000000,0.236809,0.000000|eff|-273.925781,-1127.929688,-789.550781,-161.132812,108.764648,0.000000
cobot_dynamixel_driver/joint_states|name|J1,J2,J3,J4,J5,J6|pos|0.008763,-1.261086,1.289690,0.000989,-2.218321,-0.000083|vel|-0.055500,0.194250,-0.194041,-0.000209,0.293339,0.000000|eff|-322.265625,-1869.140625,-1740.234375,-209.472656,76.538086,0.000000
cobot_dynamixel_driver/joint_states|name|J1,J2,J3,J4,J5,J6|pos|0.007273,-1.254439,1.282492,0.000939,-2.209737,-0.000083|vel|-0.054665,0.291897,-0.357203,-0.001252,0.327465,0.000000|eff|-209.472656,-1836.914062,-1611.328125,-273.925781,48.339844,16.113281
cobot_dynamixel_driver/joint_states|name|J1,J2,J3,J4,J5,J6|pos|0.006046,-1.245338,1.272615,0.000851,-2.199704,-0.000083|vel|-0.040060,0.382032,-0.381823,-0.003756,0.427772,0.000000|eff|-273.925781,-1546.875000,-1111.816406,-273.925781,68.481445,16.113281
cobot_dynamixel_driver/joint_states|name|J1,J2,J3,J4,J5,J6|pos|0.005045,-1.234272,1.261249,0.000739,-2.188286,-0.000083|vel|-0.036722,0.457771,-0.487816,-0.004382,0.448110,0.000000|eff|-273.925781,-2545.898438,-934.570312,-257.812500,36.254883,8.056641
cobot_dynamixel_driver/joint_states|name|J1,J2,J3,J4,J5,J6|pos|0.004131,-1.221766,1.248693,0.000638,-2.175792,-0.000083|vel|-0.030880,0.505968,-0.445461,-0.003964,0.445007,0.000000|eff|-209.472656,-2707.031250,-854.003906,-241.699219,40.283203,0.000000
cobot_dynamixel_driver/joint_states|name|J1,J2,J3,J4,J5,J6|pos|0.003468,-1.208046,1.235223,0.000501,-2.162388,-0.000083|vel|-0.024620,0.522869,-0.555835,-0.004590,0.488784,0.000000|eff|-273.925781,-3061.523438,-870.117188,-273.925781,40.283203,16.113281
cobot_dynamixel_driver/joint_states|name|J1,J2,J3,J4,J5,J6|pos|0.002804,-1.193613,1.220877,0.000401,-2.148218,-0.000083|vel|-0.022325,0.585880,-0.539352,-0.003547,0.612531,0.000000|eff|-177.246094,-2481.445312,-1272.949219,-161.132812,28.198242,20.141602
cobot_dynamixel_driver/joint_states|name|J1,J2,J3,J4,J5,J6|pos|0.002328,-1.178428,1.206494,0.000263,-2.133284,-0.000083|vel|-0.016900,0.620098,-0.592139,-0.005008,0.578751,0.000000|eff|-241.699219,-725.097656,-854.003906,-145.019531,64.453125,0.000000
cobot_dynamixel_driver/joint_states|name|J1,J2,J3,J4,J5,J6|pos|0.001915,-1.162768,1.191047,0.000175,-2.117894,-0.000083|vel|-0.012519,0.494910,-0.489694,-0.003130,0.539800,0.000000|eff|-290.039062,-918.457031,-1772.460938,-161.132812,36.254883,16.113281
cobot_dynamixel_driver/joint_states|name|J1,J2,J3,J4,J5,J6|pos|0.001540,-1.146594,1.175048,0.000113,-2.102028,-0.000083|vel|-0.013145,0.605910,-0.578786,-0.002504,0.645278,0.000000|eff|-193.359375,-2529.785156,-644.531250,-177.246094,60.424805,0.000000
cobot_dynamixel_driver/joint_states|name|J1,J2,J3,J4,J5,J6|pos|0.001264,-1.130083,1.158762,0.000063,-2.085790,-0.000083|vel|-0.011058,0.621350,-0.666417,-0.001669,0.685952,0.000000|eff|-161.132812,-1176.269531,-1949.707031,-112.792969,36.254883,0.000000
cobot_dynamixel_driver/joint_states|name|J1,J2,J3,J4,J5,J6|pos|0.001001,-1.113308,1.142063,0.000050,-2.069469,-0.000083|vel|-0.006885,0.646596,-0.674137,-0.001252,0.688710,0.000000|eff|-241.699219,-1611.328125,-1965.820312,-193.359375,68.481445,20.141602
cobot_dynamixel_driver/joint_states|name|J1,J2,J3,J4,J5,J6|pos|0.000814,-1.096784,1.125176,0.000038,-2.052652,-0.000083|vel|-0.007511,0.651812,-0.668713,-0.000626,0.646657,0.000000|eff|-112.792969,-2545.898438,-1401.855469,-128.906250,24.169922,0.000000
cobot_dynamixel_driver/joint_states|name|J1,J2,J3,J4,J5,J6|pos|0.000651,-1.078733,1.108038,0.000013,-2.035462,-0.000083|vel|-0.005842,0.635955,-0.675598,-0.000626,0.644588,0.000000|eff|-161.132812,-2207.519531,-1079.589844,-193.359375,40.283203,16.113281
cobot_dynamixel_driver/joint_states|name|J1,J2,J3,J4,J5,J6|pos|0.000538,-1.061971,1.090613,0.000013,-2.018294,-0.000083|vel|-0.003547,0.643466,-0.682900,-0.000417,0.647001,0.000000|eff|-128.906250,-676.757812,-1498.535156,-209.472656,72.509766,20.141602
cobot_dynamixel_driver/joint_states|name|J1,J2,J3,J4,J5,J6|pos|0.000451,-1.044295,1.073112,0.000013,-2.000918,-0.000083|vel|-0.003756,0.699592,-0.665583,-0.000417,0.709737,0.000000|eff|-209.472656,-692.871094,-1933.593750,-112.792969,24.169922,20.141602
cobot_dynamixel_driver/joint_states|name|J1,J2,J3,J4,J5,J6|pos|0.000376,-1.026645,1.055462,0.000000,-1.983459,-0.000083|vel|-0.001669,0.655150,-0.669756,-0.000417,0.564618,0.000000|eff|-177.246094,-999.023438,-1611.328125,-112.792969,28.198242,20.141602
cobot_dynamixel_driver/joint_states|name|J1,J2,J3,J4,J5,J6|pos|0.000275,-1.008894,1.037874,0.000000,-1.965877,-0.000083|vel|-0.004799,0.668504,-0.687699,-0.000417,0.727316,0.000000|eff|-80.566406,-1530.761719,-1224.609375,-209.472656,0.000000,20.141602
cobot_dynamixel_driver/joint_states|name|J1,J2,J3,J4,J5,J6|pos|0.000238,-0.991105,1.020060,0.000000,-1.948935,-0.000083|vel|-0.001461,0.669547,-0.607162,-0.000417,0.728695,0.000000|eff|-128.906250,-1176.269531,-1305.175781,-145.019531,36.254883,24.169922
cobot_dynamixel_driver/joint_states|name|J1,J2,J3,J4,J5,J6|pos|0.000213,-0.973079,1.002109,0.000000,-1.930815,-0.000083|vel|-0.000835,0.657654,-0.683735,0.000000,0.791430,0.000000|eff|-225.585938,-354.492188,-1724.121094,-112.792969,20.141602,20.141602
cobot_dynamixel_driver/joint_states|name|J1,J2,J3,J4,J5,J6|pos|0.000150,-0.954978,0.984271,0.000000,-1.913212,-0.000083|vel|-0.002086,0.690620,-0.711694,0.000000,0.734555,0.000000|eff|-128.906250,-2610.351562,-2110.839844,-112.792969,32.226562,20.141602
cobot_dynamixel_driver/joint_states|name|J1,J2,J3,J4,J5,J6|pos|0.000125,-0.936839,0.966019,-0.000013,-1.895360,-0.000083|vel|-0.000835,0.674346,-0.666417,0.000000,0.713528,0.000000|eff|-112.792969,-1611.328125,-451.171875,-177.246094,32.226562,20.141602
cobot_dynamixel_driver/joint_states|name|J1,J2,J3,J4,J5,J6|pos|0.000100,-0.918813,0.947955,-0.000013,-1.877467,-0.000083|vel|-0.000835,0.689160,-0.678102,0.000000,0.650793,0.000000|eff|-96.679688,-209.472656,-1176.269531,-145.019531,48.339844,16.113281
cobot_dynamixel_driver/joint_states|name|J1,J2,J3,J4,J5,J6|pos|0.000075,-0.900749,0.929591,-0.000013,-1.859471,-0.000083|vel|-0.000835,0.697506,-0.693124,0.000000,0.693880,0.000000|eff|-161.132812,-1885.253906,-402.832031,-209.472656,28.198242,24.169922
cobot_dynamixel_driver/joint_states|name|J1,J2,J3,J4,J5,J6|pos|0.000050,-0.876501,0.905443,-0.000013,-1.835228,-0.000062|vel|-0.000626,0.655985,-0.731724,0.000000,0.668373,0.000000|eff|-112.792969,-2819.824219,-515.625000,-112.792969,40.283203,24.169922
cobot_dynamixel_driver/joint_states|name|J1,J2,J3,J4,J5,J6|pos|0.000038,-0.858437,0.887455,-0.000013,-1.816342,-0.000062|vel|-0.000835,0.657028,-0.649934,0.000000,0.672854,0.000000|eff|-145.019531,-483.398438,-2110.839844,-112.792969,44.311523,24.169922
cobot_dynamixel_driver/joint_states|name|J1,J2,J3,J4,J5,J6|pos|0.000013,-0.839660,0.868978,-0.000025,-1.798201,-0.000062|vel|-0.000417,0.701261,-0.730889,0.000000,0.729040,0.000000|eff|-145.019531,-1788.574219,-1949.707031,-193.359375,-16.113281,28.198242
cobot_dynamixel_driver/joint_states|name|J1,J2,J3,J4,J5,J6|pos|-0.000013,-0.821371,0.850751,-0.000025,-1.780184,-0.000062|vel|-0.001043,0.725673,-0.710442,0.000000,0.674233,0.000000|eff|0.000000,-1369.628906,-660.644531,-161.132812,-52.368164,28.198242
cobot_dynamixel_driver/joint_states|name|J1,J2,J3,J4,J5,J6|pos|-0.000013,-0.802969,0.832612,-0.000025,-1.762167,-0.000021|vel|-0.001043,0.737983,-0.621558,0.000000,0.739036,0.000000|eff|-145.019531,-483.398438,-1417.968750,-145.019531,-12.084961,32.226562
cobot_dynamixel_driver/joint_states|name|J1,J2,J3,J4,J5,J6|pos|-0.000025,-0.784680,0.814323,-0.000025,-1.743902,0.000000|vel|-0.000209,0.681023,-0.768446,0.000000,0.601156,0.000345|eff|-145.019531,-1836.914062,-725.097656,-112.792969,-8.056641,28.198242
cobot_dynamixel_driver/joint_states|name|J1,J2,J3,J4,J5,J6|pos|-0.000025,-0.766291,0.795959,-0.000025,-1.725720,0.000000|vel|-0.000209,0.692916,-0.697923,0.000000,0.685263,0.000345|eff|-112.792969,0.000000,-1595.214844,-193.359375,-24.169922,20.141602
cobot_dynamixel_driver/joint_states|name|J1,J2,J3,J4,J5,J6|pos|-0.000025,-0.747976,0.777945,-0.000025,-1.707723,0.000000|vel|-0.000209,0.697088,-0.707521,0.000000,0.668373,0.000345|eff|-145.019531,-2771.484375,-1691.894531,-161.132812,-28.198242,16.113281
cobot_dynamixel_driver/joint_states|name|J1,J2,J3,J4,J5,J6|pos|-0.000025,-0.729687,0.759844,-0.000025,-1.689624,0.000000|vel|0.000209,0.701887,-0.728177,0.000000,0.718354,0.000345|eff|-145.019531,145.019531,-580.078125,-145.019531,52.368164,20.141602
cobot_dynamixel_driver/joint_states|name|J1,J2,J3,J4,J5,J6|pos|-0.000038,-0.712099,0.741429,-0.000038,-1.671379,0.000000|vel|-0.000209,0.620932,-0.725047,0.000000,0.704221,0.000000|eff|-32.226562,-2126.953125,-2320.312500,-145.019531,92.651367,24.169922
cobot_dynamixel_driver/joint_states|name|J1,J2,J3,J4,J5,J6|pos|-0.000038,-0.693773,0.722953,-0.000038,-1.653238,0.000000|vel|0.000000,0.698758,-0.709607,0.000000,0.712149,0.000000|eff|-145.019531,-64.453125,-1031.250000,-128.906250,-24.169922,28.198242
cobot_dynamixel_driver/joint_states|name|J1,J2,J3,J4,J5,J6|pos|-0.000038,-0.675433,0.704588,-0.000038,-1.635118,0.000000|vel|0.000000,0.677684,-0.700218,0.000000,0.703532,0.000000|eff|-145.019531,-2932.617188,-418.945312,-112.792969,100.708008,20.141602
cobot_dynamixel_driver/joint_states|name|J1,J2,J3,J4,J5,J6|pos|-0.000038,-0.657169,0.686224,-0.000038,-1.617018,0.000000|vel|0.000000,0.695419,-0.645761,0.000000,0.710771,0.000000|eff|-145.019531,-193.359375,-1401.855469,-128.906250,0.000000,20.141602
cobot_dynamixel_driver/joint_states|name|J1,J2,J3,J4,J5,J6|pos|-0.000038,-0.638755,0.668060,-0.000038,-1.599022,0.000000|vel|0.000000,0.719414,-0.651812,0.000000,0.741104,0.000000|eff|-80.566406,-2449.218750,-1127.929688,-161.132812,48.339844,28.198242
cobot_dynamixel_driver/joint_states|name|J1,J2,J3,J4,J5,J6|pos|-0.000038,-0.620528,0.649859,-0.000038,-1.580715,0.000000|vel|0.000000,0.701261,-0.703139,0.000000,0.641831,0.000000|eff|-145.019531,-338.378906,-982.910156,-193.359375,-48.339844,28.198242
cobot_dynamixel_driver/joint_states|name|J1,J2,J3,J4,J5,J6|pos|-0.000038,-0.602252,0.631595,-0.000038,-1.563463,0.000000|vel|0.000000,0.687491,-0.707104,0.000000,0.687331,0.000000|eff|-96.679688,-3190.429688,-1949.707031,-193.359375,56.396484,24.169922
cobot_dynamixel_driver/joint_states|name|J1,J2,J3,J4,J5,J6|pos|-0.000038,-0.583925,0.613305,-0.000038,-1.544536,0.000000|vel|0.000000,0.646805,-0.687908,0.000000,0.762131,0.000000|eff|-32.226562,-886.230469,-1256.835938,-128.906250,24.169922,24.169922
cobot_dynamixel_driver/joint_states|name|J1,J2,J3,J4,J5,J6|pos|-0.000038,-0.565536,0.594916,-0.000038,-1.527078,0.000000|vel|0.000000,0.709190,-0.621141,0.000000,0.717320,0.000000|eff|-32.226562,-1353.515625,-1385.742188,-145.019531,36.254883,28.198242
cobot_dynamixel_driver/joint_states|name|J1,J2,J3,J4,J5,J6|pos|-0.000050,-0.547222,0.576327,-0.000038,-1.508833,0.000000|vel|0.000000,0.706478,-0.645761,0.000000,0.718354,0.000000|eff|-145.019531,-1144.042969,-2288.085938,-112.792969,52.368164,20.141602
cobot_dynamixel_driver/joint_states|name|J1,J2,J3,J4,J5,J6|pos|-0.000050,-0.528933,0.557862,-0.000038,-1.490609,0.000000|vel|0.000000,0.678728,-0.716910,0.000000,0.762476,0.000000|eff|-145.019531,-1530.761719,-982.910156,-96.679688,76.538086,28.198242
cobot_dynamixel_driver/joint_states|name|J1,J2,J3,J4,J5,J6|pos|-0.000050,-0.510481,0.539748,-0.000038,-1.472427,0.000000|vel|0.000000,0.650560,-0.682275,0.000000,0.620459,0.000000|eff|0.000000,-1530.761719,-1901.367188,-112.792969,120.849609,28.198242
cobot_dynamixel_driver/joint_states|name|J1,J2,J3,J4,J5,J6|pos|-0.000050,-0.492329,0.521760,-0.000038,-1.454182,0.000000|vel|0.000000,0.673511,-0.730889,0.000000,0.710426,0.000000|eff|-112.792969,-1337.402344,-1514.648438,-96.679688,-20.141602,20.141602
cobot_dynamixel_driver/joint_states|name|J1,J2,J3,J4,J5,J6|pos|-0.000050,-0.473978,0.503308,-0.000038,-1.436145,0.000000|vel|0.000000,0.716910,-0.680605,0.000000,0.730074,0.000000|eff|-161.132812,-1047.363281,-1756.347656,-112.792969,24.169922,28.198242
cobot_dynamixel_driver/joint_states|name|J1,J2,J3,J4,J5,J6|pos|-0.000050,-0.455638,0.485056,-0.000038,-1.417880,0.000000|vel|0.000000,0.793901,-0.637416,0.000000,0.661479,0.000000|eff|-80.566406,32.226562,-644.531250,-161.132812,88.623047,20.141602
cobot_dynamixel_driver/joint_states|name|J1,J2,J3,J4,J5,J6|pos|-0.000050,-0.437299,0.466755,-0.000038,-1.399656,0.000000|vel|0.000000,0.728385,-0.692916,0.000000,0.671475,0.000000|eff|-112.792969,-2739.257812,-1740.234375,-112.792969,20.141602,24.169922
cobot_dynamixel_driver/joint_states|name|J1,J2,J3,J4,J5,J6|pos|-0.000050,-0.419023,0.448228,-0.000038,-1.381432,0.000000|vel|0.000000,0.728177,-0.684570,0.000000,0.644244,0.000000|eff|-145.019531,322.265625,-870.117188,-112.792969,36.254883,20.141602
cobot_dynamixel_driver/joint_states|name|J1,J2,J3,J4,J5,J6|pos|-0.000038,-0.400683,0.429813,-0.000038,-1.363312,0.000000|vel|0.000000,0.677893,-0.719414,0.000000,0.748343,0.000000|eff|-145.019531,-2674.804688,-854.003906,-112.792969,-12.084961,28.198242
cobot_dynamixel_driver/joint_states|name|J1,J2,J3,J4,J5,J6|pos|-0.000038,-0.382319,0.412275,-0.000038,-1.345460,0.000000|vel|0.000000,0.720666,-0.708355,0.000000,0.715941,0.000000|eff|0.000000,241.699219,-1208.496094,-112.792969,48.339844,20.141602
cobot_dynamixel_driver/joint_states|name|J1,J2,J3,J4,J5,J6|pos|-0.000038,-0.364030,0.393898,-0.000038,-1.327464,0.000000|vel|0.000000,0.719414,-0.698758,0.000000,0.681471,0.000000|eff|-96.679688,-2400.878906,-1321.289062,-112.792969,44.311523,24.169922
cobot_dynamixel_driver/joint_states|name|J1,J2,J3,J4,J5,J6|pos|-0.000038,-0.346417,0.375522,-0.000038,-1.309199,0.000021|vel|0.000000,0.689994,-0.691664,0.000000,0.711460,0.000000|eff|-128.906250,273.925781,-1208.496094,-112.792969,-44.311523,28.198242
cobot_dynamixel_driver/joint_states|name|J1,J2,J3,J4,J5,J6|pos|-0.000050,-0.327452,0.357308,-0.000038,-1.291202,0.000021|vel|0.000000,0.726090,-0.699384,0.000000,0.619770,0.000000|eff|-128.906250,-2465.332031,-725.097656,-177.246094,-8.056641,24.169922
cobot_dynamixel_driver/joint_states|name|J1,J2,J3,J4,J5,J6|pos|-0.000038,-0.309776,0.338969,-0.000038,-1.273082,0.000021|vel|0.000000,0.669338,-0.707938,0.000000,0.804874,0.000000|eff|-145.019531,241.699219,-1385.742188,-96.679688,-32.226562,24.169922
cobot_dynamixel_driver/joint_states|name|J1,J2,J3,J4,J5,J6|pos|-0.000038,-0.291449,0.320742,-0.000038,-1.254775,0.000021|vel|0.000000,0.734436,-0.751754,0.000000,0.686986,0.000000|eff|-64.453125,-1611.328125,-918.457031,-96.679688,12.084961,24.169922
cobot_dynamixel_driver/joint_states|name|J1,J2,J3,J4,J5,J6|pos|-0.000050,-0.273048,0.302353,-0.000038,-1.236593,0.000021|vel|0.000000,0.700010,-0.676015,0.000000,0.740415,0.000000|eff|-145.019531,-580.078125,-1595.214844,-112.792969,60.424805,28.198242
cobot_dynamixel_driver/joint_states|name|J1,J2,J3,J4,J5,J6|pos|-0.000050,-0.254783,0.283901,-0.000038,-1.218286,0.000021|vel|0.000000,0.699384,-0.709607,0.000000,0.579785,0.000000|eff|-128.906250,-338.378906,-676.757812,-112.792969,40.283203,24.169922
cobot_dynamixel_driver/joint_states|name|J1,J2,J3,J4,J5,J6|pos|-0.000038,-0.236482,0.265724,-0.000038,-1.200042,0.000021|vel|0.000000,0.696671,-0.727760,0.000000,0.622183,0.000000|eff|-112.792969,-435.058594,-1998.046875,-112.792969,52.368164,24.169922
cobot_dynamixel_driver/joint_states|name|J1,J2,J3,J4,J5,J6|pos|-0.000038,-0.218143,0.247473,-0.000038,-1.181777,0.000021|vel|0.000000,0.715241,-0.712111,0.000000,0.734900,0.000000|eff|0.000000,257.812500,-499.511719,-112.792969,0.000000,24.169922
cobot_dynamixel_driver/joint_states|name|J1,J2,J3,J4,J5,J6|pos|-0.000038,-0.199791,0.229334,-0.000038,-1.163863,0.000021|vel|0.000000,0.698966,-0.642840,0.000000,0.735589,0.000000|eff|-128.906250,-982.910156,-1385.742188,-112.792969,40.283203,28.198242
cobot_dynamixel_driver/joint_states|name|J1,J2,J3,J4,J5,J6|pos|-0.000038,-0.181577,0.210907,-0.000038,-1.146198,0.000021|vel|0.000000,0.667878,-0.746955,0.000000,0.673198,0.000000|eff|-96.679688,467.285156,-499.511719,-112.792969,0.000000,28.198242
cobot_dynamixel_driver/joint_states|name|J1,J2,J3,J4,J5,J6|pos|-0.000038,-0.163200,0.192430,-0.000038,-1.127995,0.000021|vel|0.000000,0.716493,-0.699384,0.000000,0.747998,0.000000|eff|-64.453125,-1450.195312,-1240.722656,-96.679688,-72.509766,24.169922
cobot_dynamixel_driver/joint_states|name|J1,J2,J3,J4,J5,J6|pos|-0.000038,-0.144786,0.174216,-0.000038,-1.110288,0.000021|vel|0.000000,0.725882,-0.684570,0.000000,0.673543,0.000000|eff|0.000000,612.304688,-483.398438,-96.679688,24.169922,24.169922
cobot_dynamixel_driver/joint_states|name|J1,J2,J3,J4,J5,J6|pos|-0.000038,-0.126534,0.156265,-0.000038,-1.092023,0.000021|vel|0.000000,0.686030,-0.697088,0.000000,0.644933,0.000000|eff|0.000000,-1933.593750,-1208.496094,-96.679688,12.084961,24.169922
cobot_dynamixel_driver/joint_states|name|J1,J2,J3,J4,J5,J6|pos|-0.000038,-0.108183,0.137851,-0.000038,-1.073840,0.000021|vel|0.000000,0.705017,-0.727134,0.000000,0.664581,0.000000|eff|-112.792969,483.398438,-660.644531,-64.453125,44.311523,24.169922
cobot_dynamixel_driver/joint_states|name|J1,J2,J3,J4,J5,J6|pos|-0.000038,-0.090369,0.119562,-0.000038,-1.055637,0.000041|vel|0.000000,0.597773,-0.628652,0.000000,0.596330,0.000000|eff|0.000000,918.457031,-1482.421875,-112.792969,-12.084961,24.169922
cobot_dynamixel_driver/joint_states|name|J1,J2,J3,J4,J5,J6|pos|-0.000038,-0.074433,0.101172,-0.000038,-1.037455,0.000041|vel|0.000000,0.554166,-0.715032,0.000000,0.617702,0.000000|eff|-96.679688,112.792969,-596.191406,-112.792969,-36.254883,24.169922
cobot_dynamixel_driver/joint_states|name|J1,J2,J3,J4,J5,J6|pos|-0.000038,-0.061264,0.083822,-0.000038,-1.019252,0.000041|vel|0.000000,0.368261,-0.630947,0.000000,0.618391,0.000000|eff|-64.453125,1176.269531,-1482.421875,-96.679688,0.000000,24.169922
cobot_dynamixel_driver/joint_states|name|J1,J2,J3,J4,J5,J6|pos|-0.000038,-0.050536,0.069301,-0.000038,-1.001048,0.000041|vel|-0.000626,0.363254,-0.509098,0.000000,0.593573,0.000000|eff|0.000000,628.417969,-999.023438,-96.679688,0.000000,24.169922
cobot_dynamixel_driver/joint_states|name|J1,J2,J3,J4,J5,J6|pos|-0.000038,-0.041974,0.057984,-0.000038,-0.982866,0.000041|vel|0.000626,0.293357,-0.399976,0.000000,0.615289,0.000000|eff|-64.453125,145.019531,-982.910156,0.000000,-64.453125,24.169922
cobot_dynamixel_driver/joint_states|name|J1,J2,J3,J4,J5,J6|pos|-0.000038,-0.034826,0.048420,-0.000038,-0.964704,0.000041|vel|0.000626,0.242656,-0.327575,0.000000,0.672854,0.000000|eff|0.000000,483.398438,-628.417969,-96.679688,36.254883,24.169922
cobot_dynamixel_driver/joint_states|name|J1,J2,J3,J4,J5,J6|pos|-0.000038,-0.028942,0.040434,-0.000038,-0.946625,0.000041|vel|-0.000626,0.212611,-0.289184,0.000000,0.689055,0.000000|eff|-96.679688,563.964844,-870.117188,0.000000,36.254883,24.169922
cobot_dynamixel_driver/joint_states|name|J1,J2,J3,J4,J5,J6|pos|-0.000038,-0.024160,0.033586,-0.000038,-0.928629,0.000041|vel|0.000209,0.153981,-0.231389,0.000000,0.802805,0.000000|eff|0.000000,273.925781,-902.343750,-48.339844,56.396484,24.169922
cobot_dynamixel_driver/joint_states|name|J1,J2,J3,J4,J5,J6|pos|-0.000038,-0.020242,0.028216,-0.000038,-0.910198,0.000041|vel|0.000209,0.133325,-0.192581,0.000000,0.724903,0.000000|eff|0.000000,354.492188,-757.324219,-96.679688,-12.084961,24.169922
cobot_dynamixel_driver/joint_states|name|J1,J2,J3,J4,J5,J6|pos|-0.000038,-0.016962,0.023509,-0.000038,-0.892036,0.000041|vel|0.000209,0.110165,-0.139376,0.000000,0.776608,0.000000|eff|0.000000,225.585938,-854.003906,-96.679688,24.169922,28.198242
cobot_dynamixel_driver/joint_states|name|J1,J2,J3,J4,J5,J6|pos|-0.000038,-0.014258,0.019691,-0.000038,-0.873875,0.000041|vel|0.000209,0.093891,-0.123727,0.000000,0.665615,0.000000|eff|-48.339844,354.492188,-854.003906,0.000000,36.254883,24.169922
cobot_dynamixel_driver/joint_states|name|J1,J2,J3,J4,J5,J6|pos|-0.000038,-0.011179,0.015573,-0.000038,-0.849487,0.000041|vel|0.000000,0.069897,-0.102028,0.000000,0.697327,0.000000|eff|0.000000,273.925781,-902.343750,-96.679688,-12.084961,24.169922
cobot_dynamixel_driver/joint_states|name|J1,J2,J3,J4,J5,J6|pos|-0.000038,-0.009389,0.013069,-0.000038,-0.831739,0.000041|vel|0.000000,0.063637,-0.087423,0.000000,0.669407,0.000000|eff|-112.792969,225.585938,-902.343750,-48.339844,140.991211,24.169922
cobot_dynamixel_driver/joint_states|name|J1,J2,J3,J4,J5,J6|pos|-0.000038,-0.007912,0.010916,-0.000038,-0.813308,0.000041|vel|0.000000,0.054248,-0.068853,0.000000,0.804529,0.000000|eff|-64.453125,273.925781,-870.117188,-96.679688,24.169922,24.169922
cobot_dynamixel_driver/joint_states|name|J1,J2,J3,J4,J5,J6|pos|-0.000038,-0.006597,0.009113,-0.000038,-0.795518,0.000041|vel|0.000000,0.042147,-0.060299,0.000000,0.614255,0.000000|eff|-128.906250,273.925781,-902.343750,-96.679688,48.339844,24.169922
cobot_dynamixel_driver/joint_states|name|J1,J2,J3,J4,J5,J6|pos|-0.000038,-0.005508,0.007661,-0.000038,-0.777915,0.000041|vel|0.000000,0.039643,-0.049241,0.000000,0.735934,0.000000|eff|-64.453125,241.699219,-982.910156,-96.679688,52.368164,24.169922
cobot_dynamixel_driver/joint_states|name|J1,J2,J3,J4,J5,J6|pos|-0.000038,-0.004594,0.006535,-0.000038,-0.759753,0.000041|vel|0.000000,0.026707,-0.037974,0.000000,0.670441,0.000000|eff|-112.792969,209.472656,-950.683594,-96.679688,80.566406,24.169922
cobot_dynamixel_driver/joint_states|name|J1,J2,J3,J4,J5,J6|pos|-0.000038,-0.003881,0.005458,-0.000038,-0.741530,0.000041|vel|0.000000,0.026915,-0.040477,0.000000,0.725593,0.000000|eff|0.000000,241.699219,-918.457031,-80.566406,88.623047,24.169922
cobot_dynamixel_driver/joint_states|name|J1,J2,J3,J4,J5,J6|pos|-0.000038,-0.003255,0.004507,-0.000038,-0.723182,0.000041|vel|0.000000,0.021491,-0.032758,0.000000,0.585300,0.000000|eff|-64.453125,225.585938,-950.683594,-96.679688,40.283203,24.169922
cobot_dynamixel_driver/joint_states|name|J1,J2,J3,J4,J5,J6|pos|-0.000038,-0.002716,0.003718,-0.000038,-0.704999,0.000041|vel|0.000000,0.020030,-0.031506,0.000000,0.631490,0.000000|eff|0.000000,241.699219,-870.117188,-96.679688,0.000000,24.169922
cobot_dynamixel_driver/joint_states|name|J1,J2,J3,J4,J5,J6|pos|-0.000038,-0.002241,0.003130,-0.000038,-0.686775,0.000041|vel|0.000000,0.017944,-0.021699,0.000000,0.683539,0.000000|eff|-64.453125,225.585938,-918.457031,-96.679688,12.084961,24.169922
cobot_dynamixel_driver/joint_states|name|J1,J2,J3,J4,J5,J6|pos|-0.000038,-0.001815,0.002566,-0.000038,-0.668593,0.000041|vel|0.000000,0.015231,-0.022951,0.000000,0.689399,0.000000|eff|-112.792969,241.699219,-870.117188,-96.679688,48.339844,28.198242
cobot_dynamixel_driver/joint_states|name|J1,J2,J3,J4,J5,J6|pos|-0.000038,-0.001552,0.002266,-0.000038,-0.650431,0.000041|vel|0.000000,0.007929,-0.008346,0.000000,0.749032,0.000000|eff|0.000000,290.039062,-1047.363281,-96.679688,36.254883,28.198242
cobot_dynamixel_driver/joint_states|name|J1,J2,J3,J4,J5,J6|pos|-0.000038,-0.001364,0.001915,-0.000038,-0.632187,0.000041|vel|0.000000,0.006885,-0.019195,0.000000,0.690433,0.000000|eff|0.000000,209.472656,-934.570312,-96.679688,12.084961,28.198242
cobot_dynamixel_driver/joint_states|name|J1,J2,J3,J4,J5,J6|pos|-0.000038,-0.001177,0.001440,-0.000038,-0.613984,0.000041|vel|0.000000,0.006259,-0.013353,0.000000,0.754892,0.000000|eff|0.000000,225.585938,-886.230469,-96.679688,52.368164,28.198242
cobot_dynamixel_driver/joint_states|name|J1,J2,J3,J4,J5,J6|pos|-0.000038,-0.000976,0.001314,-0.000038,-0.595780,0.000041|vel|0.000000,0.007511,-0.004173,0.000000,0.719733,0.000000|eff|0.000000,193.359375,-982.910156,-96.679688,12.084961,24.169922
cobot_dynamixel_driver/joint_states|name|J1,J2,J3,J4,J5,J6|pos|-0.000038,-0.000776,0.001202,-0.000038,-0.577681,0.000041|vel|0.000000,0.006677,-0.006468,0.000000,0.796601,0.000000|eff|0.000000,257.812500,-982.910156,0.000000,100.708008,16.113281
cobot_dynamixel_driver/joint_states|name|J1,J2,J3,J4,J5,J6|pos|-0.000038,-0.000613,0.001001,-0.000038,-0.559684,0.000041|vel|0.000000,0.005425,-0.010224,0.000000,0.653206,0.000000|eff|-112.792969,257.812500,-950.683594,0.000000,80.566406,24.169922
cobot_dynamixel_driver/joint_states|name|J1,J2,J3,J4,J5,J6|pos|-0.000038,-0.000513,0.000676,-0.000038,-0.541812,0.000041|vel|0.000000,0.004173,-0.014605,0.000000,0.694915,0.000000|eff|0.000000,257.812500,-870.117188,-96.679688,16.113281,24.169922
cobot_dynamixel_driver/joint_states|name|J1,J2,J3,J4,J5,J6|pos|-0.000038,-0.000413,0.000501,-0.000038,-0.523423,0.000041|vel|0.000000,0.003547,-0.004173,0.000000,0.586334,0.000000|eff|0.000000,257.812500,-918.457031,0.000000,56.396484,24.169922
cobot_dynamixel_driver/joint_states|name|J1,J2,J3,J4,J5,J6|pos|-0.000038,-0.000313,0.000488,-0.000038,-0.505137,0.000041|vel|0.000000,0.003964,-0.004173,0.000000,0.691123,0.000000|eff|0.000000,257.812500,-902.343750,-48.339844,32.226562,24.169922
cobot_dynamixel_driver/joint_states|name|J1,J2,J3,J4,J5,J6|pos|-0.000038,-0.000200,0.000488,-0.000038,-0.486872,0.000041|vel|0.000000,0.004382,-0.004173,0.000000,0.617702,0.000000|eff|0.000000,241.699219,-854.003906,0.000000,8.056641,24.169922
cobot_dynamixel_driver/joint_states|name|J1,J2,J3,J4,J5,J6|pos|-0.000038,-0.000113,0.000488,-0.000038,-0.469041,0.000041|vel|0.000000,0.003964,-0.004173,0.000000,0.752824,0.000000|eff|0.000000,257.812500,-918.457031,0.000000,120.849609,24.169922
cobot_dynamixel_driver/joint_states|name|J1,J2,J3,J4,J5,J6|pos|-0.000038,-0.000113,0.000488,-0.000038,-0.451045,0.000041|vel|0.000000,0.003964,-0.004173,0.000000,0.721801,0.000000|eff|-96.679688,402.832031,-854.003906,0.000000,80.566406,24.169922
cobot_dynamixel_driver/joint_states|name|J1,J2,J3,J4,J5,J6|pos|-0.000038,-0.000113,0.000488,-0.000038,-0.432614,0.000041|vel|0.000000,0.003964,0.000000,0.000000,0.726282,0.000000|eff|-64.453125,273.925781,-902.343750,0.000000,-12.084961,24.169922
cobot_dynamixel_driver/joint_states|name|J1,J2,J3,J4,J5,J6|pos|-0.000025,-0.000113,0.000463,-0.000038,-0.414494,0.000041|vel|0.000000,0.003964,-0.001043,0.000000,0.765233,0.000000|eff|0.000000,354.492188,-950.683594,-48.339844,104.736328,24.169922
cobot_dynamixel_driver/joint_states|name|J1,J2,J3,J4,J5,J6|pos|-0.000025,-0.000113,0.000451,-0.000038,-0.396353,0.000041|vel|0.000000,0.003964,-0.001043,0.000000,0.684574,0.000000|eff|0.000000,386.718750,-966.796875,0.000000,108.764648,24.169922
cobot_dynamixel_driver/joint_states|name|J1,J2,J3,J4,J5,J6|pos|-0.000025,-0.000113,0.000426,-0.000038,-0.378191,0.000041|vel|0.000000,-0.000000,-0.000417,0.000000,0.674922,0.000000|eff|0.000000,467.285156,-950.683594,0.000000,52.368164,24.169922
cobot_dynamixel_driver/joint_states|name|J1,J2,J3,J4,J5,J6|pos|-0.000025,-0.000113,0.000413,-0.000038,-0.360629,0.000041|vel|0.000000,-0.000000,-0.000417,0.000000,0.671820,0.000000|eff|-32.226562,273.925781,-982.910156,0.000000,8.056641,24.169922
cobot_dynamixel_driver/joint_states|name|J1,J2,J3,J4,J5,J6|pos|-0.000025,-0.000113,0.000388,-0.000038,-0.342426,0.000041|vel|0.000000,-0.000000,-0.000417,0.000000,0.670096,0.000000|eff|0.000000,386.718750,-999.023438,-96.679688,0.000000,24.169922
cobot_dynamixel_driver/joint_states|name|J1,J2,J3,J4,J5,J6|pos|-0.000025,-0.000113,0.000376,-0.000038,-0.324326,0.000041|vel|0.000000,-0.000000,-0.000626,0.000000,0.647001,0.000000|eff|0.000000,306.152344,-1031.250000,0.000000,64.453125,28.198242
cobot_dynamixel_driver/joint_states|name|J1,J2,J3,J4,J5,J6|pos|-0.000025,-0.000113,0.000376,-0.000038,-0.306495,0.000041|vel|0.000000,-0.000000,-0.000626,0.000000,0.693536,0.000000|eff|0.000000,273.925781,-1015.136719,0.000000,112.792969,24.169922
cobot_dynamixel_driver/joint_states|name|J1,J2,J3,J4,J5,J6|pos|-0.000025,-0.000113,0.000338,-0.000038,-0.288168,0.000041|vel|0.000000,-0.000000,-0.000209,0.000000,0.738002,0.000000|eff|0.000000,273.925781,-1031.250000,-80.566406,0.000000,24.169922
cobot_dynamixel_driver/joint_states|name|J1,J2,J3,J4,J5,J6|pos|-0.000025,-0.000113,0.000275,-0.000038,-0.269924,0.000041|vel|0.000000,-0.000000,-0.002295,0.000000,0.709392,0.000000|eff|-96.679688,290.039062,-1015.136719,-80.566406,40.283203,24.169922
cobot_dynamixel_driver/joint_states|name|J1,J2,J3,J4,J5,J6|pos|-0.000025,-0.000113,0.000125,-0.000038,-0.251700,0.000041|vel|0.000000,-0.000000,-0.007303,0.000000,0.683539,0.000000|eff|0.000000,257.812500,-999.023438,-48.339844,76.538086,24.169922
cobot_dynamixel_driver/joint_states|name|J1,J2,J3,J4,J5,J6|pos|-0.000025,-0.000113,-0.000025,-0.000038,-0.233559,0.000041|vel|0.000000,-0.000000,-0.006259,0.000000,0.742483,0.000000|eff|0.000000,386.718750,-950.683594,0.000000,36.254883,24.169922
cobot_dynamixel_driver/joint_states|name|J1,J2,J3,J4,J5,J6|pos|-0.000025,-0.000113,-0.000213,-0.000025,-0.215273,0.000041|vel|0.000000,-0.000000,-0.007303,0.000000,0.693536,0.000000|eff|0.000000,257.812500,-870.117188,-48.339844,96.679688,24.169922
cobot_dynamixel_driver/joint_states|name|J1,J2,J3,J4,J5,J6|pos|-0.000025,-0.000113,-0.000313,-0.000025,-0.197028,0.000041|vel|0.000000,-0.000000,-0.003130,0.000000,0.785915,0.000000|eff|0.000000,338.378906,-789.550781,-32.226562,24.169922,24.169922
cobot_dynamixel_driver/joint_states|name|J1,J2,J3,J4,J5,J6|pos|-0.000025,-0.000113,-0.000351,-0.000025,-0.179177,0.000041|vel|0.000000,-0.000000,-0.001461,0.000000,0.652861,0.000000|eff|0.000000,273.925781,-789.550781,0.000000,120.849609,24.169922
cobot_dynamixel_driver/joint_states|name|J1,J2,J3,J4,J5,J6|pos|-0.000025,-0.000113,-0.000363,-0.000025,-0.160870,0.000041|vel|0.000000,-0.000000,-0.001461,0.000000,0.664236,0.000000|eff|-32.226562,290.039062,-789.550781,0.000000,60.424805,24.169922
cobot_dynamixel_driver/joint_states|name|J1,J2,J3,J4,J5,J6|pos|-0.000025,-0.000113,-0.000363,-0.000025,-0.142646,0.000041|vel|0.000000,-0.000000,-0.001461,0.000000,0.666649,0.000000|eff|0.000000,241.699219,-708.984375,-32.226562,100.708008,24.169922
cobot_dynamixel_driver/joint_states|name|J1,J2,J3,J4,J5,J6|pos|-0.000025,-0.000113,-0.000363,-0.000025,-0.124485,0.000041|vel|0.000000,-0.000000,-0.001461,0.000000,0.677335,0.000000|eff|0.000000,273.925781,-708.984375,0.000000,12.084961,24.169922
cobot_dynamixel_driver/joint_states|name|J1,J2,J3,J4,J5,J6|pos|-0.000025,-0.000100,-0.000363,-0.000025,-0.106282,0.000041|vel|0.000000,-0.000000,-0.001461,0.000000,0.613910,0.000000|eff|0.000000,257.812500,-708.984375,0.000000,24.169922,24.169922
cobot_dynamixel_driver/joint_states|name|J1,J2,J3,J4,J5,J6|pos|-0.000025,-0.000100,-0.000351,-0.000025,-0.088492,0.000041|vel|0.000000,-0.000000,0.000000,0.000000,0.733866,0.000000|eff|-96.679688,257.812500,-741.210938,0.000000,-44.311523,24.169922
cobot_dynamixel_driver/joint_states|name|J1,J2,J3,J4,J5,J6|pos|-0.000025,-0.000100,-0.000351,-0.000025,-0.073557,0.000041|vel|0.000000,-0.000000,0.000000,0.000000,0.587368,0.000000|eff|-64.453125,257.812500,-644.531250,0.000000,-24.169922,20.141602
cobot_dynamixel_driver/joint_states|name|J1,J2,J3,J4,J5,J6|pos|-0.000025,-0.000100,-0.000351,-0.000025,-0.061456,0.000041|vel|0.000000,-0.000000,0.000000,0.000000,0.442594,0.000000|eff|0.000000,273.925781,-676.757812,0.000000,8.056641,24.169922
cobot_dynamixel_driver/joint_states|name|J1,J2,J3,J4,J5,J6|pos|-0.000025,-0.000088,-0.000351,-0.000025,-0.051734,0.000041|vel|0.000000,-0.000000,0.000000,0.000000,0.344010,0.000000|eff|0.000000,273.925781,-644.531250,-80.566406,16.113281,24.169922
cobot_dynamixel_driver/joint_states|name|J1,J2,J3,J4,J5,J6|pos|-0.000025,-0.000075,-0.000351,-0.000025,-0.043026,0.000041|vel|0.000000,-0.000000,0.000000,0.000000,0.304370,0.000000|eff|0.000000,257.812500,-612.304688,0.000000,40.283203,24.169922
cobot_dynamixel_driver/joint_states|name|J1,J2,J3,J4,J5,J6|pos|-0.000025,-0.000075,-0.000338,-0.000025,-0.035951,0.000041|vel|0.000000,-0.000000,0.000000,0.000000,0.211646,0.000000|eff|0.000000,257.812500,-644.531250,0.000000,24.169922,24.169922
cobot_dynamixel_driver/joint_states|name|J1,J2,J3,J4,J5,J6|pos|-0.000025,-0.000075,-0.000325,-0.000025,-0.030221,0.000041|vel|0.000000,0.000209,0.000000,0.000000,0.181657,0.000000|eff|0.000000,257.812500,-596.191406,0.000000,32.226562,24.169922
cobot_dynamixel_driver/joint_states|name|J1,J2,J3,J4,J5,J6|pos|-0.000025,-0.000075,-0.000325,-0.000025,-0.025319,0.000041|vel|0.000000,0.000209,0.000209,0.000000,0.148221,0.000000|eff|-96.679688,257.812500,-580.078125,0.000000,44.311523,24.169922
cobot_dynamixel_driver/joint_states|name|J1,J2,J3,J4,J5,J6|pos|-0.000025,-0.000063,-0.000313,-0.000025,-0.021182,0.000041|vel|0.000000,0.000209,0.000209,0.000000,0.139603,0.000000|eff|-32.226562,257.812500,-580.078125,-48.339844,40.283203,24.169922
cobot_dynamixel_driver/joint_states|name|J1,J2,J3,J4,J5,J6|pos|-0.000025,-0.000038,-0.000313,-0.000025,-0.017707,0.000041|vel|0.000000,0.000209,0.000209,0.000000,0.108580,0.000000|eff|-64.453125,225.585938,-580.078125,-32.226562,48.339844,24.169922
cobot_dynamixel_driver/joint_states|name|J1,J2,J3,J4,J5,J6|pos|-0.000025,-0.000000,-0.000300,-0.000025,-0.014769,0.000041|vel|0.000000,0.001043,0.000209,0.000000,0.100308,0.000000|eff|0.000000,112.792969,-563.964844,0.000000,48.339844,24.169922
cobot_dynamixel_driver/joint_states|name|J1,J2,J3,J4,J5,J6|pos|-0.000025,0.000025,-0.000288,-0.000025,-0.012349,0.000041|vel|0.000000,0.001252,0.000209,0.000000,0.087554,0.000000|eff|0.000000,290.039062,-483.398438,-32.226562,52.368164,24.169922
cobot_dynamixel_driver/joint_states|name|J1,J2,J3,J4,J5,J6|pos|-0.000025,0.000038,-0.000288,-0.000025,-0.010343,0.000041|vel|0.000000,0.000835,0.000209,0.000000,0.062046,0.000000|eff|0.000000,273.925781,-531.738281,-80.566406,56.396484,24.169922
cobot_dynamixel_driver/joint_states|name|J1,J2,J3,J4,J5,J6|pos|-0.000025,0.000050,-0.000275,-0.000025,-0.008626,0.000041|vel|0.000000,0.000417,0.000209,0.000000,0.054463,0.000000|eff|-96.679688,273.925781,-467.285156,-80.566406,52.368164,24.169922
cobot_dynamixel_driver/joint_states|name|J1,J2,J3,J4,J5,J6|pos|-0.000025,0.000050,-0.000275,-0.000025,-0.007199,0.000041|vel|0.000000,0.000417,0.000209,0.000000,0.050671,0.000000|eff|-32.226562,257.812500,-499.511719,0.000000,56.396484,24.169922
cobot_dynamixel_driver/joint_states|name|J1,J2,J3,J4,J5,J6|pos|-0.000025,0.000063,-0.000263,-0.000025,-0.006061,0.000041|vel|0.000000,0.000417,0.000209,0.000000,0.040330,0.000000|eff|0.000000,241.699219,-515.625000,0.000000,72.509766,24.169922
cobot_dynamixel_driver/joint_states|name|J1,J2,J3,J4,J5,J6|pos|-0.000025,0.000063,-0.000263,-0.000025,-0.005068,0.000041|vel|0.000000,0.000417,0.000209,0.000000,0.034815,0.000000|eff|0.000000,273.925781,-515.625000,0.000000,64.453125,24.169922
cobot_dynamixel_driver/joint_states|name|J1,J2,J3,J4,J5,J6|pos|-0.000025,0.000063,-0.000263,-0.000025,-0.004261,0.000041|vel|0.000000,0.000417,0.000209,0.000000,0.028265,0.000000|eff|0.000000,322.265625,-515.625000,0.000000,64.453125,24.169922
cobot_dynamixel_driver/joint_states|name|J1,J2,J3,J4,J5,J6|pos|-0.000025,0.000063,-0.000250,-0.000025,-0.003599,0.000041|vel|0.000000,-0.000000,0.000000,0.000000,0.021027,0.000000|eff|0.000000,290.039062,-467.285156,0.000000,68.481445,24.169922
cobot_dynamixel_driver/joint_states|name|J1,J2,J3,J4,J5,J6|pos|-0.000025,0.000063,-0.000238,-0.000025,-0.002999,0.000041|vel|0.000000,-0.000000,0.000000,0.000000,0.019993,0.000000|eff|0.000000,322.265625,-402.832031,0.000000,68.481445,24.169922
cobot_dynamixel_driver/joint_states|name|J1,J2,J3,J4,J5,J6|pos|-0.000025,0.000063,-0.000225,-0.000025,-0.002544,0.000041|vel|0.000000,-0.000000,0.000000,0.000000,0.015856,0.000000|eff|0.000000,322.265625,-451.171875,-32.226562,76.538086,24.169922
cobot_dynamixel_driver/joint_states|name|J1,J2,J3,J4,J5,J6|pos|-0.000025,0.000063,-0.000225,-0.000025,-0.002151,0.000041|vel|0.000000,-0.000000,0.000209,0.000000,0.013788,0.000000|eff|0.000000,241.699219,-402.832031,0.000000,72.509766,24.169922
cobot_dynamixel_driver/joint_states|name|J1,J2,J3,J4,J5,J6|pos|-0.000025,0.000063,-0.000225,-0.000025,-0.001779,0.000041|vel|0.000000,-0.000000,0.000209,0.000000,0.015167,0.000000|eff|0.000000,370.605469,-467.285156,0.000000,72.509766,24.169922
cobot_dynamixel_driver/joint_states|name|J1,J2,J3,J4,J5,J6|pos|-0.000025,0.000063,-0.000213,-0.000025,-0.001469,0.000041|vel|0.000000,-0.000000,0.000209,0.000000,0.007928,0.000000|eff|-32.226562,370.605469,-402.832031,0.000000,68.481445,24.169922
cobot_dynamixel_driver/joint_states|name|J1,J2,J3,J4,J5,J6|pos|-0.000025,0.000063,-0.000200,-0.000025,-0.001262,0.000041|vel|0.000000,-0.000000,0.000209,0.000000,0.005860,0.000000|eff|-32.226562,370.605469,-354.492188,0.000000,76.538086,24.169922
cobot_dynamixel_driver/joint_states|name|J1,J2,J3,J4,J5,J6|pos|-0.000025,0.000063,-0.000200,-0.000025,-0.001055,0.000041|vel|0.000000,-0.000000,0.000209,0.000000,0.009996,0.000000|eff|0.000000,451.171875,-370.605469,0.000000,68.481445,24.169922
cobot_dynamixel_driver/joint_states|name|J1,J2,J3,J4,J5,J6|pos|-0.000025,0.000063,-0.000200,-0.000025,-0.000869,0.000041|vel|0.000000,-0.000000,0.000209,0.000000,0.006205,0.000000|eff|0.000000,241.699219,-370.605469,0.000000,72.509766,24.169922
cobot_dynamixel_driver/joint_states|name|J1,J2,J3,J4,J5,J6|pos|-0.000025,0.000063,-0.000188,-0.000025,-0.000765,0.000041|vel|0.000000,-0.000000,0.000209,0.000000,0.003792,0.000000|eff|-64.453125,257.812500,-354.492188,0.000000,72.509766,24.169922
cobot_dynamixel_driver/joint_states|name|J1,J2,J3,J4,J5,J6|pos|-0.000025,0.000063,-0.000188,-0.000025,-0.000683,0.000041|vel|0.000000,-0.000000,0.000209,0.000000,0.003102,0.000000|eff|-64.453125,370.605469,-402.832031,0.000000,72.509766,24.169922
cobot_dynamixel_driver/joint_states|name|J1,J2,J3,J4,J5,J6|pos|-0.000025,0.000063,-0.000175,-0.000025,-0.000517,0.000041|vel|0.000000,-0.000000,0.000209,0.000000,0.005860,0.000000|eff|0.000000,418.945312,-402.832031,0.000000,64.453125,24.169922
cobot_dynamixel_driver/joint_states|name|J1,J2,J3,J4,J5,J6|pos|-0.000025,0.000063,-0.000175,-0.000025,-0.000476,0.000041|vel|0.000000,-0.000000,0.000209,0.000000,0.003102,0.000000|eff|0.000000,435.058594,-418.945312,0.000000,68.481445,24.169922
cobot_dynamixel_driver/joint_states|name|J1,J2,J3,J4,J5,J6|pos|-0.000025,0.000063,-0.000163,-0.000025,-0.000476,0.000041|vel|0.000000,-0.000000,0.000209,0.000000,0.003102,0.000000|eff|0.000000,241.699219,-354.492188,0.000000,60.424805,24.169922
cobot_dynamixel_driver/joint_states|name|J1,J2,J3,J4,J5,J6|pos|-0.000025,0.000063,-0.000163,-0.000025,-0.000476,0.000041|vel|0.000000,-0.000000,0.000209,0.000000,0.003102,0.000000|eff|0.000000,273.925781,-338.378906,0.000000,64.453125,24.169922
cobot_dynamixel_driver/joint_states|name|J1,J2,J3,J4,J5,J6|pos|-0.000025,0.000063,-0.000150,-0.000025,-0.000476,0.000041|vel|0.000000,-0.000000,0.000209,0.000000,0.003102,0.000000|eff|0.000000,257.812500,-338.378906,-80.566406,64.453125,24.169922
cobot_dynamixel_driver/joint_states|name|J1,J2,J3,J4,J5,J6|pos|-0.000025,0.000063,-0.000150,-0.000025,-0.000476,0.000041|vel|0.000000,-0.000000,0.000000,0.000000,0.000000,0.000000|eff|-32.226562,338.378906,-338.378906,0.000000,68.481445,24.169922
cobot_dynamixel_driver/joint_states|name|J1,J2,J3,J4,J5,J6|pos|-0.000025,0.000063,-0.000138,-0.000025,-0.000393,0.000041|vel|0.000000,-0.000000,0.000000,0.000000,0.000000,0.000000|eff|0.000000,451.171875,-338.378906,0.000000,80.566406,24.169922
cobot_dynamixel_driver/joint_states|name|J1,J2,J3,J4,J5,J6|pos|-0.000025,0.000063,-0.000138,-0.000025,-0.000248,0.000041|vel|0.000000,-0.000000,0.000000,0.000000,0.005515,0.000000|eff|0.000000,273.925781,-290.039062,0.000000,60.424805,24.169922
cobot_dynamixel_driver/joint_states|name|J1,J2,J3,J4,J5,J6|pos|-0.000025,0.000063,-0.000125,-0.000025,-0.000248,0.000041|vel|0.000000,-0.000000,0.000000,0.000000,0.005515,0.000000|eff|0.000000,257.812500,-338.378906,0.000000,56.396484,24.169922
cobot_dynamixel_driver/joint_states|name|J1,J2,J3,J4,J5,J6|pos|-0.000025,0.000063,-0.000125,-0.000025,-0.000248,0.000041|vel|0.000000,-0.000000,0.000000,0.000000,0.005515,0.000000|eff|0.000000,402.832031,-322.265625,-32.226562,40.283203,24.169922
cobot_dynamixel_driver/joint_states|name|J1,J2,J3,J4,J5,J6|pos|-0.000013,0.000063,-0.000113,-0.000025,-0.000248,0.000041|vel|0.000000,-0.000000,0.000209,0.000000,0.005515,0.000000|eff|-32.226562,257.812500,-273.925781,0.000000,32.226562,24.169922
cobot_dynamixel_driver/joint_states|name|J1,J2,J3,J4,J5,J6|pos|-0.000013,0.000063,-0.000113,-0.000025,-0.000248,0.000041|vel|0.000000,-0.000000,0.000209,0.000000,0.005515,0.000000|eff|-32.226562,241.699219,-338.378906,0.000000,20.141602,24.169922
cobot_dynamixel_driver/joint_states|name|J1,J2,J3,J4,J5,J6|pos|-0.000013,0.000063,-0.000100,-0.000025,-0.000248,0.000041|vel|0.000000,-0.000000,0.000209,0.000000,0.000000,0.000000|eff|0.000000,257.812500,-273.925781,0.000000,32.226562,24.169922
cobot_dynamixel_driver/joint_states|name|J1,J2,J3,J4,J5,J6|pos|-0.000013,0.000063,-0.000100,-0.000025,-0.000248,0.000041|vel|0.000000,-0.000000,0.000209,0.000000,0.000000,0.000000|eff|-64.453125,386.718750,-257.812500,0.000000,44.311523,24.169922
cobot_dynamixel_driver/joint_states|name|J1,J2,J3,J4,J5,J6|pos|-0.000013,0.000063,-0.000100,-0.000025,-0.000248,0.000041|vel|0.000000,-0.000000,0.000209,0.000000,0.000000,0.000000|eff|0.000000,273.925781,-306.152344,0.000000,40.283203,24.169922
cobot_dynamixel_driver/joint_states|name|J1,J2,J3,J4,J5,J6|pos|-0.000013,0.000063,-0.000100,-0.000025,-0.000248,0.000041|vel|0.000000,-0.000000,0.000209,0.000000,0.000000,0.000000|eff|0.000000,354.492188,-273.925781,0.000000,40.283203,24.169922
cobot_dynamixel_driver/joint_states|name|J1,J2,J3,J4,J5,J6|pos|-0.000013,0.000063,-0.000088,-0.000025,-0.000248,0.000041|vel|0.000000,-0.000000,0.000209,0.000000,0.000000,0.000000|eff|0.000000,467.285156,-273.925781,0.000000,28.198242,24.169922
cobot_dynamixel_driver/joint_states|name|J1,J2,J3,J4,J5,J6|pos|-0.000013,0.000063,-0.000075,-0.000025,-0.000248,0.000041|vel|0.000000,-0.000000,0.000209,0.000000,0.000000,0.000000|eff|0.000000,451.171875,-290.039062,0.000000,56.396484,24.169922
cobot_dynamixel_driver/joint_states|name|J1,J2,J3,J4,J5,J6|pos|-0.000013,0.000063,-0.000075,-0.000025,-0.000248,0.000041|vel|0.000000,-0.000000,0.000000,0.000000,0.000000,0.000000|eff|-32.226562,418.945312,-290.039062,0.000000,56.396484,24.169922
cobot_dynamixel_driver/joint_states|name|J1,J2,J3,J4,J5,J6|pos|-0.000013,0.000063,-0.000075,-0.000025,-0.000248,0.000041|vel|0.000000,-0.000000,0.000000,0.000000,0.000000,0.000000|eff|-64.453125,386.718750,-225.585938,-80.566406,64.453125,24.169922
cobot_dynamixel_driver/joint_states|name|J1,J2,J3,J4,J5,J6|pos|-0.000013,0.000063,-0.000075,-0.000025,-0.000248,0.000041|vel|0.000000,-0.000000,0.000000,0.000000,0.000000,0.000000|eff|0.000000,402.832031,-322.265625,-48.339844,68.481445,24.169922
cobot_dynamixel_driver/joint_states|name|J1,J2,J3,J4,J5,J6|pos|-0.000013,0.000063,-0.000063,-0.000025,-0.000228,0.000041|vel|0.000000,-0.000000,0.000000,0.000000,0.000000,0.000000|eff|-96.679688,386.718750,-241.699219,-80.566406,72.509766,24.169922
cobot_dynamixel_driver/joint_states|name|J1,J2,J3,J4,J5,J6|pos|-0.000013,0.000063,-0.000050,-0.000025,-0.000186,0.000041|vel|0.000000,-0.000000,0.000000,0.000000,0.001379,0.000000|eff|0.000000,483.398438,-290.039062,0.000000,72.509766,28.198242
cobot_dynamixel_driver/joint_states|name|J1,J2,J3,J4,J5,J6|pos|-0.000013,0.000063,-0.000038,-0.000025,-0.000103,0.000041|vel|0.000000,-0.000000,0.000209,0.000000,0.003102,0.000000|eff|0.000000,467.285156,-322.265625,-32.226562,64.453125,24.169922
cobot_dynamixel_driver/joint_states|name|J1,J2,J3,J4,J5,J6|pos|-0.000013,0.000063,-0.000013,-0.000025,-0.000103,0.000041|vel|0.000000,-0.000000,0.000835,0.000000,0.003102,0.000000|eff|0.000000,451.171875,-306.152344,-80.566406,56.396484,16.113281
cobot_dynamixel_driver/joint_states|name|J1,J2,J3,J4,J5,J6|pos|-0.000013,0.000063,-0.000013,-0.000025,-0.000103,0.000041|vel|0.000000,-0.000000,0.000835,0.000000,0.003102,0.000000|eff|-64.453125,402.832031,-257.812500,-80.566406,36.254883,24.169922
cobot_dynamixel_driver/joint_states|name|J1,J2,J3,J4,J5,J6|pos|-0.000013,0.000063,0.000000,-0.000025,-0.000103,0.000041|vel|0.000000,-0.000000,0.000835,0.000000,0.003102,0.000000|eff|0.000000,483.398438,-322.265625,0.000000,56.396484,28.198242
cobot_dynamixel_driver/joint_states|name|J1,J2,J3,J4,J5,J6|pos|-0.000013,0.000063,0.000000,-0.000025,-0.000103,0.000041|vel|0.000000,-0.000000,0.000835,0.000000,0.000000,0.000000|eff|0.000000,483.398438,-322.265625,0.000000,40.283203,20.141602
cobot_dynamixel_driver/joint_states|name|J1,J2,J3,J4,J5,J6|pos|-0.000013,0.000063,0.000000,-0.000025,-0.000103,0.000041|vel|0.000000,-0.000000,0.000000,0.000000,0.000000,0.000000|eff|0.000000,354.492188,-322.265625,0.000000,44.311523,16.113281
cobot_dynamixel_driver/joint_states|name|J1,J2,J3,J4,J5,J6|pos|-0.000013,0.000063,0.000000,-0.000025,-0.000103,0.000041|vel|0.000000,-0.000000,0.000000,0.000000,0.000000,0.000000|eff|-64.453125,290.039062,-322.265625,0.000000,48.339844,28.198242
cobot_dynamixel_driver/joint_states|name|J1,J2,J3,J4,J5,J6|pos|-0.000013,0.000063,0.000000,-0.000025,-0.000103,0.000041|vel|0.000000,-0.000000,0.000000,0.000000,0.000000,0.000000|eff|-96.679688,467.285156,-338.378906,0.000000,44.311523,28.198242
cobot_dynamixel_driver/joint_states|name|J1,J2,J3,J4,J5,J6|pos|-0.000013,0.000063,0.000000,-0.000025,-0.000103,0.000041|vel|0.000000,-0.000000,0.000000,0.000000,0.000000,0.000000|eff|0.000000,435.058594,-338.378906,0.000000,44.311523,28.198242
cobot_dynamixel_driver/joint_states|name|J1,J2,J3,J4,J5,J6|pos|-0.000013,0.000063,0.000000,-0.000025,-0.000103,0.000041|vel|0.000000,-0.000000,0.000000,0.000000,0.000000,0.000000|eff|0.000000,467.285156,-322.265625,-48.339844,56.396484,28.198242
cobot_dynamixel_driver/joint_states|name|J1,J2,J3,J4,J5,J6|pos|-0.000013,0.000063,0.000000,-0.000025,-0.000103,0.000041|vel|0.000000,-0.000000,0.000000,0.000000,0.000000,0.000000|eff|0.000000,273.925781,-338.378906,-32.226562,56.396484,24.169922
cobot_dynamixel_driver/joint_states|name|J1,J2,J3,J4,J5,J6|pos|-0.000013,0.000063,0.000000,-0.000025,-0.000103,0.000041|vel|0.000000,-0.000000,0.000000,0.000000,0.000000,0.000000|eff|0.000000,483.398438,-338.378906,0.000000,56.396484,16.113281
cobot_dynamixel_driver/joint_states|name|J1,J2,J3,J4,J5,J6|pos|-0.000013,0.000063,0.000000,-0.000025,-0.000103,0.000041|vel|0.000000,-0.000000,0.000000,0.000000,0.000000,0.000000|eff|0.000000,467.285156,-273.925781,-32.226562,56.396484,28.198242
cobot_dynamixel_driver/joint_states|name|J1,J2,J3,J4,J5,J6|pos|-0.000013,0.000063,0.000000,-0.000025,-0.000103,0.000041|vel|0.000000,-0.000000,0.000000,0.000000,0.000000,0.000000|eff|0.000000,499.511719,-306.152344,0.000000,56.396484,28.198242
cobot_dynamixel_driver/joint_states|name|J1,J2,J3,J4,J5,J6|pos|-0.000013,0.000063,0.000000,-0.000025,-0.000103,0.000041|vel|0.000000,-0.000000,0.000000,0.000000,0.000000,0.000000|eff|0.000000,306.152344,-273.925781,0.000000,56.396484,20.141602
cobot_dynamixel_driver/joint_states|name|J1,J2,J3,J4,J5,J6|pos|-0.000013,0.000063,0.000000,-0.000025,-0.000103,0.000041|vel|0.000000,-0.000000,0.000000,0.000000,0.000000,0.000000|eff|0.000000,467.285156,-338.378906,0.000000,64.453125,28.198242
cobot_dynamixel_driver/joint_states|name|J1,J2,J3,J4,J5,J6|pos|-0.000013,0.000063,0.000000,-0.000025,-0.000103,0.000041|vel|0.000000,-0.000000,0.000000,0.000000,0.000000,0.000000|eff|0.000000,483.398438,-273.925781,0.000000,60.424805,28.198242
cobot_dynamixel_driver/joint_states|name|J1,J2,J3,J4,J5,J6|pos|-0.000013,0.000063,0.000000,-0.000025,-0.000103,0.000041|vel|0.000000,-0.000000,0.000000,0.000000,0.000000,0.000000|eff|0.000000,483.398438,-306.152344,-32.226562,68.481445,20.141602
cobot_dynamixel_driver/joint_states|name|J1,J2,J3,J4,J5,J6|pos|-0.000013,0.000063,0.000000,-0.000025,-0.000083,0.000041|vel|0.000000,-0.000000,0.000000,0.000000,0.000000,0.000000|eff|0.000000,354.492188,-273.925781,-32.226562,64.453125,24.169922
cobot_dynamixel_driver/joint_states|name|J1,J2,J3,J4,J5,J6|pos|-0.000013,0.000063,0.000000,-0.000025,-0.000083,0.000041|vel|0.000000,-0.000000,0.000000,0.000000,0.000000,0.000000|eff|-96.679688,370.605469,-290.039062,0.000000,72.509766,28.198242
cobot_dynamixel_driver/joint_states|name|J1,J2,J3,J4,J5,J6|pos|-0.000013,0.000063,0.000000,-0.000025,-0.000083,0.000041|vel|0.000000,-0.000000,0.000000,0.000000,0.000000,0.000000|eff|-64.453125,483.398438,-273.925781,-80.566406,76.538086,24.169922
cobot_dynamixel_driver/joint_states|name|J1,J2,J3,J4,J5,J6|pos|-0.000013,0.000063,0.000000,-0.000025,-0.000041,0.000041|vel|0.000000,-0.000000,0.000000,0.000000,0.000345,0.000000|eff|-64.453125,402.832031,-257.812500,-32.226562,76.538086,28.198242
cobot_dynamixel_driver/joint_states|name|J1,J2,J3,J4,J5,J6|pos|-0.000013,0.000063,0.000000,-0.000025,-0.000021,0.000041|vel|0.000000,-0.000000,0.000000,0.000000,0.001034,0.000000|eff|0.000000,322.265625,-273.925781,0.000000,72.509766,28.198242
cobot_dynamixel_driver/joint_states|name|J1,J2,J3,J4,J5,J6|pos|-0.000013,0.000063,0.000000,-0.000025,0.000000,0.000041|vel|0.000000,-0.000000,0.000000,0.000000,0.001034,0.000000|eff|-32.226562,499.511719,-338.378906,0.000000,60.424805,24.169922
cobot_dynamixel_driver/joint_states|name|J1,J2,J3,J4,J5,J6|pos|-0.000013,0.000063,0.000000,-0.000025,0.000000,0.000041|vel|0.000000,-0.000000,0.000000,0.000000,0.001034,0.000000|eff|-64.453125,499.511719,-338.378906,0.000000,64.453125,28.198242
cobot_dynamixel_driver/joint_states|name|J1,J2,J3,J4,J5,J6|pos|-0.000013,0.000063,0.000000,-0.000025,0.000000,0.000041|vel|0.000000,-0.000000,0.000000,0.000000,0.001034,0.000000|eff|0.000000,322.265625,-322.265625,-80.566406,68.481445,28.198242
cobot_dynamixel_driver/joint_states|name|J1,J2,J3,J4,J5,J6|pos|-0.000013,0.000050,0.000000,-0.000025,0.000000,0.000041|vel|0.000000,-0.000000,0.000000,0.000000,0.001034,0.000000|eff|0.000000,483.398438,-241.699219,0.000000,60.424805,20.141602
cobot_dynamixel_driver/joint_states|name|J1,J2,J3,J4,J5,J6|pos|-0.000013,0.000050,0.000000,-0.000025,0.000000,0.000041|vel|0.000000,-0.000000,0.000000,0.000000,0.000000,0.000000|eff|0.000000,435.058594,-322.265625,0.000000,60.424805,20.141602
cobot_dynamixel_driver/joint_states|name|J1,J2,J3,J4,J5,J6|pos|-0.000013,0.000050,0.000000,-0.000025,0.000000,0.000041|vel|0.000000,-0.000000,0.000000,0.000000,0.000000,0.000000|eff|0.000000,451.171875,-273.925781,0.000000,60.424805,24.169922
cobot_dynamixel_driver/joint_states|name|J1,J2,J3,J4,J5,J6|pos|-0.000013,0.000050,0.000000,-0.000025,0.000000,0.000041|vel|0.000000,-0.000000,0.000000,0.000000,0.000000,0.000000|eff|0.000000,499.511719,-306.152344,-80.566406,60.424805,28.198242
cobot_dynamixel_driver/joint_states|name|J1,J2,J3,J4,J5,J6|pos|-0.000013,0.000050,0.000000,-0.000025,0.000000,0.000041|vel|0.000000,-0.000000,0.000000,0.000000,0.000000,0.000000|eff|-64.453125,483.398438,-290.039062,0.000000,60.424805,28.198242
cobot_dynamixel_driver/joint_states|name|J1,J2,J3,J4,J5,J6|pos|-0.000013,0.000050,0.000000,-0.000025,0.000000,0.000041|vel|0.000000,-0.000000,0.000000,0.000000,0.000000,0.000000|eff|0.000000,451.171875,-290.039062,-48.339844,60.424805,20.141602
cobot_dynamixel_driver/joint_states|name|J1,J2,J3,J4,J5,J6|pos|-0.000013,0.000050,0.000000,-0.000025,0.000000,0.000041|vel|0.000000,-0.000000,0.000000,0.000000,0.000000,0.000000|eff|0.000000,435.058594,-338.378906,0.000000,60.424805,20.141602
cobot_dynamixel_driver/joint_states|name|J1,J2,J3,J4,J5,J6|pos|-0.000013,0.000050,0.000000,-0.000025,0.000000,0.000041|vel|0.000000,-0.000000,0.000000,0.000000,0.000000,0.000000|eff|0.000000,483.398438,-322.265625,0.000000,60.424805,24.169922
cobot_dynamixel_driver/joint_states|name|J1,J2,J3,J4,J5,J6|pos|-0.000013,0.000050,0.000000,-0.000025,0.000000,0.000041|vel|0.000000,-0.000000,0.000000,0.000000,0.000000,0.000000|eff|0.000000,306.152344,-338.378906,0.000000,60.424805,20.141602
cobot_dynamixel_driver/joint_states|name|J1,J2,J3,J4,J5,J6|pos|-0.000013,0.000050,0.000000,-0.000025,0.000000,0.000041|vel|0.000000,-0.000000,0.000000,0.000000,0.000000,0.000000|eff|-32.226562,467.285156,-273.925781,-48.339844,56.396484,28.198242
cobot_dynamixel_driver/joint_states|name|J1,J2,J3,J4,J5,J6|pos|-0.000013,0.000050,0.000000,-0.000025,0.000000,0.000041|vel|0.000000,-0.000000,0.000000,0.000000,0.000000,0.000000|eff|0.000000,499.511719,-257.812500,0.000000,60.424805,28.198242
cobot_dynamixel_driver/joint_states|name|J1,J2,J3,J4,J5,J6|pos|-0.000013,0.000050,0.000000,-0.000025,0.000000,0.000041|vel|0.000000,-0.000000,0.000000,0.000000,0.000000,0.000000|eff|0.000000,354.492188,-338.378906,-48.339844,60.424805,16.113281
cobot_dynamixel_driver/joint_states|name|J1,J2,J3,J4,J5,J6|pos|-0.000013,0.000050,0.000000,-0.000025,0.000000,0.000041|vel|0.000000,-0.000000,0.000000,0.000000,0.000000,0.000000|eff|0.000000,499.511719,-338.378906,0.000000,60.424805,28.198242
cobot_dynamixel_driver/joint_states|name|J1,J2,J3,J4,J5,J6|pos|-0.000013,0.000050,0.000000,-0.000025,0.000000,0.000041|vel|0.000000,-0.000000,0.000000,0.000000,0.000000,0.000000|eff|0.000000,499.511719,-338.378906,0.000000,60.424805,28.198242
cobot_dynamixel_driver/joint_states|name|J1,J2,J3,J4,J5,J6|pos|-0.000013,0.000050,0.000000,-0.000025,0.000000,0.000041|vel|0.000000,-0.000000,0.000000,0.000000,0.000000,0.000000|eff|0.000000,499.511719,-338.378906,0.000000,60.424805,24.169922
cobot_dynamixel_driver/joint_states|name|J1,J2,J3,J4,J5,J6|pos|-0.000013,0.000050,0.000000,-0.000025,0.000000,0.000041|vel|0.000000,-0.000000,0.000000,0.000000,0.000000,0.000000|eff|0.000000,499.511719,-322.265625,0.000000,60.424805,20.141602
cobot_dynamixel_driver/joint_states|name|J1,J2,J3,J4,J5,J6|pos|-0.000013,0.000050,0.000000,-0.000025,0.000000,0.000041|vel|0.000000,-0.000000,0.000000,0.000000,0.000000,0.000000|eff|0.000000,499.511719,-322.265625,0.000000,56.396484,28.198242
cobot_dynamixel_driver/joint_states|name|J1,J2,J3,J4,J5,J6|pos|-0.000013,0.000050,0.000000,-0.000025,0.000000,0.000041|vel|0.000000,-0.000000,0.000000,0.000000,0.000000,0.000000|eff|0.000000,499.511719,-241.699219,0.000000,60.424805,20.141602
cobot_dynamixel_driver/joint_states|name|J1,J2,J3,J4,J5,J6|pos|-0.000013,0.000050,0.000000,-0.000025,0.000000,0.000041|vel|0.000000,-0.000000,0.000000,0.000000,0.000000,0.000000|eff|0.000000,467.285156,-306.152344,0.000000,60.424805,24.169922
cobot_dynamixel_driver/joint_states|name|J1,J2,J3,J4,J5,J6|pos|-0.000013,0.000050,0.000000,-0.000025,0.000000,0.000041|vel|0.000000,-0.000000,0.000000,0.000000,0.000000,0.000000|eff|0.000000,483.398438,-322.265625,0.000000,60.424805,28.198242
cobot_dynamixel_driver/joint_states|name|J1,J2,J3,J4,J5,J6|pos|-0.000013,0.000050,0.000000,-0.000025,0.000000,0.000041|vel|0.000000,-0.000000,0.000000,0.000000,0.000000,0.000000|eff|0.000000,483.398438,-338.378906,0.000000,60.424805,28.198242
cobot_dynamixel_driver/joint_states|name|J1,J2,J3,J4,J5,J6|pos|-0.000013,0.000050,0.000000,-0.000025,0.000000,0.000041|vel|0.000000,-0.000000,0.000000,0.000000,0.000000,0.000000|eff|0.000000,499.511719,-241.699219,0.000000,60.424805,24.169922
cobot_dynamixel_driver/joint_states|name|J1,J2,J3,J4,J5,J6|pos|-0.000013,0.000050,0.000000,-0.000025,0.000000,0.000041|vel|0.000000,-0.000000,0.000000,0.000000,0.000000,0.000000|eff|0.000000,499.511719,-273.925781,-80.566406,60.424805,20.141602
cobot_dynamixel_driver/joint_states|name|J1,J2,J3,J4,J5,J6|pos|-0.000013,0.000050,0.000000,-0.000025,0.000000,0.000041|vel|0.000000,-0.000000,0.000000,0.000000,0.000000,0.000000|eff|0.000000,499.511719,-338.378906,0.000000,60.424805,24.169922
cobot_dynamixel_driver/joint_states|name|J1,J2,J3,J4,J5,J6|pos|-0.000013,0.000050,0.000000,-0.000025,0.000000,0.000041|vel|0.000000,-0.000000,0.000000,0.000000,0.000000,0.000000|eff|0.000000,499.511719,-322.265625,0.000000,60.424805,28.198242
cobot_dynamixel_driver/joint_states|name|J1,J2,J3,J4,J5,J6|pos|-0.000013,0.000050,0.000000,-0.000025,0.000000,0.000041|vel|0.000000,-0.000000,0.000000,0.000000,0.000000,0.000000|eff|-64.453125,499.511719,-338.378906,-32.226562,60.424805,24.169922
cobot_dynamixel_driver/joint_states|name|J1,J2,J3,J4,J5,J6|pos|-0.000013,0.000050,0.000000,-0.000025,0.000000,0.000041|vel|0.000000,-0.000000,0.000000,0.000000,0.000000,0.000000|eff|0.000000,499.511719,-273.925781,0.000000,60.424805,24.169922
cobot_dynamixel_driver/joint_states|name|J1,J2,J3,J4,J5,J6|pos|-0.000013,0.000050,0.000000,-0.000025,0.000000,0.000041|vel|0.000000,-0.000000,0.000000,0.000000,0.000000,0.000000|eff|-96.679688,499.511719,-290.039062,-80.566406,60.424805,28.198242
cobot_dynamixel_driver/joint_states|name|J1,J2,J3,J4,J5,J6|pos|-0.000013,0.000050,0.000000,-0.000025,0.000000,0.000041|vel|0.000000,-0.000000,0.000000,0.000000,0.000000,0.000000|eff|-32.226562,499.511719,-338.378906,0.000000,60.424805,28.198242
cobot_dynamixel_driver/joint_states|name|J1,J2,J3,J4,J5,J6|pos|-0.000013,0.000050,0.000000,-0.000025,0.000000,0.000041|vel|0.000000,-0.000000,0.000000,0.000000,0.000000,0.000000|eff|0.000000,499.511719,-273.925781,0.000000,60.424805,16.113281
cobot_dynamixel_driver/joint_states|name|J1,J2,J3,J4,J5,J6|pos|-0.000013,0.000050,0.000000,-0.000025,0.000000,0.000041|vel|0.000000,-0.000000,0.000000,0.000000,0.000000,0.000000|eff|0.000000,499.511719,-338.378906,0.000000,60.424805,28.198242
cobot_dynamixel_driver/joint_states|name|J1,J2,J3,J4,J5,J6|pos|-0.000013,0.000038,0.000000,-0.000025,0.000000,0.000041|vel|0.000000,-0.000000,0.000000,0.000000,0.000000,0.000000|eff|-96.679688,499.511719,-322.265625,0.000000,60.424805,28.198242
cobot_dynamixel_driver/joint_states|name|J1,J2,J3,J4,J5,J6|pos|-0.000013,0.000038,0.000000,-0.000025,0.000000,0.000041|vel|0.000000,-0.000000,0.000000,0.000000,0.000000,0.000000|eff|0.000000,515.625000,-322.265625,0.000000,60.424805,20.141602
cobot_dynamixel_driver/joint_states|name|J1,J2,J3,J4,J5,J6|pos|-0.000013,0.000038,0.000000,-0.000025,0.000000,0.000041|vel|0.000000,-0.000000,0.000000,0.000000,0.000000,0.000000|eff|0.000000,499.511719,-290.039062,0.000000,60.424805,28.198242
cobot_dynamixel_driver/joint_states|name|J1,J2,J3,J4,J5,J6|pos|-0.000013,0.000038,0.000000,-0.000025,0.000000,0.000041|vel|0.000000,-0.000000,0.000000,0.000000,0.000000,0.000000|eff|0.000000,515.625000,-241.699219,-48.339844,60.424805,20.141602
cobot_dynamixel_driver/joint_states|name|J1,J2,J3,J4,J5,J6|pos|-0.000013,0.000038,0.000000,-0.000025,0.000000,0.000041|vel|0.000000,-0.000000,0.000000,0.000000,0.000000,0.000000|eff|0.000000,499.511719,-241.699219,-48.339844,60.424805,28.198242
cobot_dynamixel_driver/joint_states|name|J1,J2,J3,J4,J5,J6|pos|-0.000013,0.000038,0.000000,-0.000025,0.000000,0.000041|vel|0.000000,-0.000000,0.000000,0.000000,0.000000,0.000000|eff|0.000000,499.511719,-338.378906,0.000000,60.424805,28.198242
cobot_dynamixel_driver/joint_states|name|J1,J2,J3,J4,J5,J6|pos|-0.000013,0.000038,0.000000,-0.000025,0.000000,0.000041|vel|0.000000,-0.000000,0.000000,0.000000,0.000000,0.000000|eff|0.000000,499.511719,-338.378906,0.000000,60.424805,28.198242
cobot_dynamixel_driver/joint_states|name|J1,J2,J3,J4,J5,J6|pos|-0.000013,0.000038,0.000000,-0.000025,0.000000,0.000041|vel|0.000000,-0.000000,0.000000,0.000000,0.000000,0.000000|eff|0.000000,499.511719,-338.378906,0.000000,60.424805,20.141602
cobot_dynamixel_driver/joint_states|name|J1,J2,J3,J4,J5,J6|pos|-0.000013,0.000038,0.000000,-0.000025,0.000000,0.000041|vel|0.000000,-0.000000,0.000000,0.000000,0.000000,0.000000|eff|0.000000,499.511719,-306.152344,0.000000,60.424805,20.141602
cobot_dynamixel_driver/joint_states|name|J1,J2,J3,J4,J5,J6|pos|-0.000013,0.000038,0.000000,-0.000025,0.000000,0.000041|vel|0.000000,-0.000000,0.000000,0.000000,0.000000,0.000000|eff|-32.226562,499.511719,-322.265625,0.000000,60.424805,20.141602
cobot_dynamixel_driver/joint_states|name|J1,J2,J3,J4,J5,J6|pos|-0.000013,0.000038,0.000000,-0.000025,0.000000,0.000041|vel|0.000000,-0.000000,0.000000,0.000000,0.000000,0.000000|eff|0.000000,499.511719,-322.265625,-80.566406,60.424805,20.141602
cobot_dynamixel_driver/joint_states|name|J1,J2,J3,J4,J5,J6|pos|-0.000013,0.000038,0.000000,-0.000025,0.000000,0.000041|vel|0.000000,-0.000000,0.000000,0.000000,0.000000,0.000000|eff|0.000000,563.964844,-338.378906,0.000000,60.424805,28.198242
cobot_dynamixel_driver/joint_states|name|J1,J2,J3,J4,J5,J6|pos|-0.000013,0.000038,0.000000,-0.000025,0.000000,0.000041|vel|0.000000,-0.000000,0.000000,0.000000,0.000000,0.000000|eff|0.000000,531.738281,-338.378906,0.000000,60.424805,28.198242
cobot_dynamixel_driver/joint_states|name|J1,J2,J3,J4,J5,J6|pos|-0.000013,0.000038,0.000000,-0.000025,0.000000,0.000041|vel|0.000000,-0.000000,0.000000,0.000000,0.000000,0.000000|eff|-32.226562,628.417969,-273.925781,0.000000,60.424805,24.169922
cobot_dynamixel_driver/joint_states|name|J1,J2,J3,J4,J5,J6|pos|-0.000013,0.000038,0.000000,-0.000025,0.000000,0.000041|vel|0.000000,-0.000000,0.000000,0.000000,0.000000,0.000000|eff|0.000000,515.625000,-322.265625,0.000000,60.424805,20.141602
cobot_dynamixel_driver/joint_states|name|J1,J2,J3,J4,J5,J6|pos|-0.000013,0.000038,0.000000,-0.000025,0.000000,0.000041|vel|0.000000,-0.000000,0.000000,0.000000,0.000000,0.000000|eff|0.000000,499.511719,-290.039062,0.000000,60.424805,20.141602
cobot_dynamixel_driver/joint_states|name|J1,J2,J3,J4,J5,J6|pos|-0.000013,0.000038,0.000000,-0.000025,0.000000,0.000041|vel|0.000000,-0.000000,0.000000,0.000000,0.000000,0.000000|eff|0.000000,499.511719,-290.039062,-48.339844,60.424805,16.113281
cobot_dynamixel_driver/joint_states|name|J1,J2,J3,J4,J5,J6|pos|-0.000013,0.000038,0.000000,-0.000025,0.000000,0.000041|vel|0.000000,-0.000000,0.000000,0.000000,0.000000,0.000000|eff|0.000000,580.078125,-322.265625,0.000000,60.424805,28.198242
cobot_dynamixel_driver/joint_states|name|J1,J2,J3,J4,J5,J6|pos|-0.000013,0.000038,0.000000,-0.000025,0.000000,0.000041|vel|0.000000,-0.000000,0.000000,0.000000,0.000000,0.000000|eff|0.000000,499.511719,-241.699219,-48.339844,60.424805,16.113281
cobot_dynamixel_driver/joint_states|name|J1,J2,J3,J4,J5,J6|pos|-0.000013,0.000038,0.000000,-0.000025,0.000000,0.000041|vel|0.000000,-0.000000,0.000000,0.000000,0.000000,0.000000|eff|0.000000,499.511719,-338.378906,0.000000,60.424805,28.198242
cobot_dynamixel_driver/joint_states|name|J1,J2,J3,J4,J5,J6|pos|-0.000013,0.000038,0.000000,-0.000025,0.000000,0.000041|vel|0.000000,-0.000000,0.000000,0.000000,0.000000,0.000000|eff|0.000000,499.511719,-273.925781,0.000000,60.424805,28.198242
cobot_dynamixel_driver/joint_states|name|J1,J2,J3,J4,J5,J6|pos|-0.000013,0.000038,0.000000,-0.000025,0.000000,0.000041|vel|0.000000,-0.000000,0.000000,0.000000,0.000000,0.000000|eff|0.000000,499.511719,-273.925781,0.000000,60.424805,24.169922
cobot_dynamixel_driver/joint_states|name|J1,J2,J3,J4,J5,J6|pos|-0.000013,0.000038,0.000000,-0.000025,0.000000,0.000041|vel|0.000000,-0.000000,0.000000,0.000000,0.000000,0.000000|eff|-64.453125,499.511719,-290.039062,0.000000,60.424805,20.141602
cobot_dynamixel_driver/joint_states|name|J1,J2,J3,J4,J5,J6|pos|-0.000013,0.000038,0.000000,-0.000025,0.000000,0.000041|vel|0.000000,-0.000000,0.000000,0.000000,0.000000,0.000000|eff|0.000000,499.511719,-322.265625,0.000000,60.424805,28.198242
cobot_dynamixel_driver/joint_states|name|J1,J2,J3,J4,J5,J6|pos|-0.000013,0.000038,0.000000,-0.000025,0.000000,0.000041|vel|0.000000,-0.000000,0.000000,0.000000,0.000000,0.000000|eff|0.000000,515.625000,-306.152344,0.000000,60.424805,20.141602
cobot_dynamixel_driver/joint_states|name|J1,J2,J3,J4,J5,J6|pos|-0.000013,0.000038,0.000000,-0.000025,0.000000,0.000041|vel|0.000000,-0.000000,0.000000,0.000000,0.000000,0.000000|eff|0.000000,499.511719,-306.152344,0.000000,60.424805,28.198242
cobot_dynamixel_driver/joint_states|name|J1,J2,J3,J4,J5,J6|pos|-0.000013,0.000038,0.000000,-0.000025,0.000000,0.000041|vel|0.000000,-0.000000,0.000000,0.000000,0.000000,0.000000|eff|0.000000,499.511719,-241.699219,-32.226562,60.424805,28.198242
cobot_dynamixel_driver/joint_states|name|J1,J2,J3,J4,J5,J6|pos|-0.000013,0.000025,0.000000,-0.000025,0.000000,0.000041|vel|0.000000,-0.000000,0.000000,0.000000,0.000000,0.000000|eff|0.000000,499.511719,-241.699219,-80.566406,60.424805,20.141602
cobot_dynamixel_driver/joint_states|name|J1,J2,J3,J4,J5,J6|pos|-0.000013,0.000025,0.000000,-0.000025,0.000000,0.000041|vel|0.000000,-0.000000,0.000000,0.000000,0.000000,0.000000|eff|0.000000,563.964844,-338.378906,-32.226562,60.424805,28.198242
cobot_dynamixel_driver/joint_states|name|J1,J2,J3,J4,J5,J6|pos|-0.000013,0.000025,0.000000,-0.000025,0.000000,0.000041|vel|0.000000,-0.000000,0.000000,0.000000,0.000000,0.000000|eff|-96.679688,563.964844,-306.152344,-80.566406,60.424805,28.198242
cobot_dynamixel_driver/joint_states|name|J1,J2,J3,J4,J5,J6|pos|-0.000013,0.000025,0.000000,-0.000025,0.000000,0.000041|vel|0.000000,-0.000000,0.000000,0.000000,0.000000,0.000000|eff|-96.679688,499.511719,-338.378906,0.000000,60.424805,20.141602
cobot_dynamixel_driver/joint_states|name|J1,J2,J3,J4,J5,J6|pos|-0.000013,0.000025,0.000000,-0.000025,0.000000,0.000041|vel|0.000000,-0.000000,0.000000,0.000000,0.000000,0.000000|eff|0.000000,499.511719,-322.265625,0.000000,60.424805,24.169922
cobot_dynamixel_driver/joint_states|name|J1,J2,J3,J4,J5,J6|pos|-0.000013,0.000025,0.000000,-0.000025,0.000000,0.000041|vel|0.000000,-0.000000,0.000000,0.000000,0.000000,0.000000|eff|0.000000,499.511719,-338.378906,0.000000,60.424805,28.198242
cobot_dynamixel_driver/joint_states|name|J1,J2,J3,J4,J5,J6|pos|-0.000013,0.000025,0.000000,-0.000025,0.000000,0.000041|vel|0.000000,-0.000000,0.000000,0.000000,0.000000,0.000000|eff|0.000000,644.531250,-273.925781,-48.339844,60.424805,20.141602
cobot_dynamixel_driver/joint_states|name|J1,J2,J3,J4,J5,J6|pos|-0.000013,0.000025,0.000000,-0.000025,0.000000,0.000041|vel|0.000000,-0.000000,0.000000,0.000000,0.000000,0.000000|eff|-32.226562,499.511719,-322.265625,0.000000,60.424805,28.198242
cobot_dynamixel_driver/joint_states|name|J1,J2,J3,J4,J5,J6|pos|-0.000013,0.000025,0.000000,-0.000025,0.000000,0.000041|vel|0.000000,-0.000000,0.000000,0.000000,0.000000,0.000000|eff|0.000000,499.511719,-241.699219,0.000000,60.424805,28.198242
cobot_dynamixel_driver/joint_states|name|J1,J2,J3,J4,J5,J6|pos|-0.000013,0.000025,0.000000,-0.000025,0.000000,0.000041|vel|0.000000,-0.000000,0.000000,0.000000,0.000000,0.000000|eff|-64.453125,499.511719,-273.925781,-80.566406,60.424805,28.198242
cobot_dynamixel_driver/joint_states|name|J1,J2,J3,J4,J5,J6|pos|-0.000013,0.000025,0.000000,-0.000025,0.000000,0.000041|vel|0.000000,-0.000000,0.000000,0.000000,0.000000,0.000000|eff|-80.566406,499.511719,-322.265625,0.000000,60.424805,28.198242
cobot_dynamixel_driver/joint_states|name|J1,J2,J3,J4,J5,J6|pos|-0.000013,0.000025,0.000000,-0.000025,0.000000,0.000041|vel|0.000000,-0.000000,0.000000,0.000000,0.000000,0.000000|eff|0.000000,676.757812,-322.265625,-80.566406,60.424805,28.198242
cobot_dynamixel_driver/joint_states|name|J1,J2,J3,J4,J5,J6|pos|-0.000013,0.000025,0.000000,-0.000025,0.000000,0.000041|vel|0.000000,-0.000000,0.000000,0.000000,0.000000,0.000000|eff|0.000000,515.625000,-338.378906,-80.566406,60.424805,20.141602
cobot_dynamixel_driver/joint_states|name|J1,J2,J3,J4,J5,J6|pos|-0.000013,0.000025,0.000000,-0.000025,0.000000,0.000041|vel|0.000000,-0.000000,0.000000,0.000000,0.000000,0.000000|eff|-32.226562,547.851562,-322.265625,0.000000,60.424805,28.198242
cobot_dynamixel_driver/joint_states|name|J1,J2,J3,J4,J5,J6|pos|-0.000013,0.000025,0.000000,-0.000025,0.000000,0.000041|vel|0.000000,-0.000000,0.000000,0.000000,0.000000,0.000000|eff|0.000000,515.625000,-290.039062,0.000000,60.424805,20.141602
cobot_dynamixel_driver/joint_states|name|J1,J2,J3,J4,J5,J6|pos|-0.000013,0.000025,0.000000,-0.000025,0.000000,0.000041|vel|0.000000,-0.000000,0.000000,0.000000,0.000000,0.000000|eff|0.000000,547.851562,-290.039062,0.000000,60.424805,24.169922
cobot_dynamixel_driver/joint_states|name|J1,J2,J3,J4,J5,J6|pos|-0.000013,0.000025,0.000000,-0.000025,0.000000,0.000041|vel|0.000000,-0.000000,0.000000,0.000000,0.000000,0.000000|eff|0.000000,499.511719,-290.039062,0.000000,60.424805,28.198242
cobot_dynamixel_driver/joint_states|name|J1,J2,J3,J4,J5,J6|pos|-0.000013,0.000025,0.000000,-0.000025,0.000000,0.000041|vel|0.000000,-0.000000,0.000000,0.000000,0.000000,0.000000|eff|0.000000,563.964844,-338.378906,-80.566406,60.424805,28.198242
cobot_dynamixel_driver/joint_states|name|J1,J2,J3,J4,J5,J6|pos|-0.000013,0.000025,0.000000,-0.000025,0.000000,0.000041|vel|0.000000,-0.000000,0.000000,0.000000,0.000000,0.000000|eff|0.000000,563.964844,-290.039062,0.000000,60.424805,28.198242
cobot_dynamixel_driver/joint_states|name|J1,J2,J3,J4,J5,J6|pos|-0.000013,0.000025,0.000000,-0.000025,0.000000,0.000041|vel|0.000000,-0.000000,0.000000,0.000000,0.000000,0.000000|eff|0.000000,499.511719,-322.265625,0.000000,60.424805,24.169922
cobot_dynamixel_driver/joint_states|name|J1,J2,J3,J4,J5,J6|pos|-0.000013,0.000025,0.000000,-0.000025,0.000000,0.000041|vel|0.000000,-0.000000,0.000000,0.000000,0.000000,0.000000|eff|0.000000,547.851562,-322.265625,0.000000,60.424805,28.198242
cobot_dynamixel_driver/joint_states|name|J1,J2,J3,J4,J5,J6|pos|-0.000013,0.000025,0.000000,-0.000025,0.000000,0.000041|vel|0.000000,-0.000000,0.000000,0.000000,0.000000,0.000000|eff|0.000000,547.851562,-241.699219,0.000000,60.424805,28.198242
cobot_dynamixel_driver/joint_states|name|J1,J2,J3,J4,J5,J6|pos|-0.000013,0.000025,0.000000,-0.000025,0.000000,0.000041|vel|0.000000,-0.000000,0.000000,0.000000,0.000000,0.000000|eff|0.000000,596.191406,-338.378906,0.000000,60.424805,20.141602
cobot_dynamixel_driver/joint_states|name|J1,J2,J3,J4,J5,J6|pos|-0.000013,0.000025,0.000000,-0.000025,0.000000,0.000041|vel|0.000000,-0.000000,0.000000,0.000000,0.000000,0.000000|eff|0.000000,515.625000,-338.378906,0.000000,60.424805,28.198242
cobot_dynamixel_driver/joint_states|name|J1,J2,J3,J4,J5,J6|pos|-0.000013,0.000025,0.000000,-0.000025,0.000000,0.000041|vel|0.000000,-0.000000,0.000000,0.000000,0.000000,0.000000|eff|0.000000,644.531250,-257.812500,-32.226562,60.424805,20.141602
cobot_dynamixel_driver/joint_states|name|J1,J2,J3,J4,J5,J6|pos|-0.000013,0.000025,0.000000,-0.000025,0.000000,0.000041|vel|0.000000,-0.000000,0.000000,0.000000,0.000000,0.000000|eff|0.000000,515.625000,-273.925781,0.000000,60.424805,28.198242
cobot_dynamixel_driver/joint_states|name|J1,J2,J3,J4,J5,J6|pos|-0.000013,0.000025,0.000000,-0.000025,0.000000,0.000041|vel|0.000000,-0.000000,0.000000,0.000000,0.000000,0.000000|eff|0.000000,580.078125,-241.699219,0.000000,60.424805,20.141602
cobot_dynamixel_driver/joint_states|name|J1,J2,J3,J4,J5,J6|pos|-0.000013,0.000025,0.000000,-0.000025,0.000000,0.000041|vel|0.000000,-0.000000,0.000000,0.000000,0.000000,0.000000|eff|0.000000,499.511719,-290.039062,0.000000,60.424805,28.198242
cobot_dynamixel_driver/joint_states|name|J1,J2,J3,J4,J5,J6|pos|-0.000013,0.000025,0.000000,-0.000025,0.000000,0.000041|vel|0.000000,-0.000000,0.000000,0.000000,0.000000,0.000000|eff|-96.679688,531.738281,-322.265625,0.000000,60.424805,20.141602
cobot_dynamixel_driver/joint_states|name|J1,J2,J3,J4,J5,J6|pos|-0.000013,0.000025,0.000000,-0.000025,0.000000,0.000041|vel|0.000000,-0.000000,0.000000,0.000000,0.000000,0.000000|eff|-32.226562,515.625000,-338.378906,0.000000,60.424805,28.198242
cobot_dynamixel_driver/joint_states|name|J1,J2,J3,J4,J5,J6|pos|-0.000013,0.000025,0.000000,-0.000025,0.000000,0.000041|vel|0.000000,-0.000000,0.000000,0.000000,0.000000,0.000000|eff|-64.453125,596.191406,-338.378906,0.000000,60.424805,20.141602
cobot_dynamixel_driver/joint_states|name|J1,J2,J3,J4,J5,J6|pos|-0.000013,0.000025,0.000000,-0.000025,0.000000,0.000041|vel|0.000000,-0.000000,0.000000,0.000000,0.000000,0.000000|eff|-96.679688,547.851562,-241.699219,-80.566406,60.424805,28.198242
cobot_dynamixel_driver/joint_states|name|J1,J2,J3,J4,J5,J6|pos|-0.000013,0.000025,0.000000,-0.000025,0.000000,0.000041|vel|0.000000,-0.000000,0.000000,0.000000,0.000000,0.000000|eff|-64.453125,580.078125,-273.925781,-48.339844,60.424805,24.169922
cobot_dynamixel_driver/joint_states|name|J1,J2,J3,J4,J5,J6|pos|-0.000013,0.000025,0.000000,-0.000025,0.000000,0.000041|vel|0.000000,-0.000000,0.000000,0.000000,0.000000,0.000000|eff|-96.679688,515.625000,-241.699219,0.000000,60.424805,28.198242
cobot_dynamixel_driver/joint_states|name|J1,J2,J3,J4,J5,J6|pos|-0.000013,0.000025,0.000000,-0.000025,0.000000,0.000041|vel|0.000000,-0.000000,0.000000,0.000000,0.000000,0.000000|eff|-96.679688,499.511719,-338.378906,0.000000,60.424805,28.198242
cobot_dynamixel_driver/joint_states|name|J1,J2,J3,J4,J5,J6|pos|-0.000013,0.000025,0.000000,-0.000025,0.000000,0.000041|vel|0.000000,-0.000000,0.000000,0.000000,0.000000,0.000000|eff|-64.453125,499.511719,-290.039062,0.000000,56.396484,24.169922
cobot_dynamixel_driver/joint_states|name|J1,J2,J3,J4,J5,J6|pos|-0.000013,0.000025,0.000000,-0.000025,0.000000,0.000041|vel|0.000000,-0.000000,0.000000,0.000000,0.000000,0.000000|eff|0.000000,596.191406,-338.378906,0.000000,60.424805,28.198242
cobot_dynamixel_driver/joint_states|name|J1,J2,J3,J4,J5,J6|pos|-0.000013,0.000025,0.000000,-0.000025,0.000000,0.000041|vel|0.000000,-0.000000,0.000000,0.000000,0.000000,0.000000|eff|0.000000,515.625000,-338.378906,0.000000,60.424805,28.198242
cobot_dynamixel_driver/joint_states|name|J1,J2,J3,J4,J5,J6|pos|-0.000013,0.000025,0.000000,-0.000025,0.000000,0.000041|vel|0.000000,-0.000000,0.000000,0.000000,0.000000,0.000000|eff|0.000000,547.851562,-306.152344,0.000000,60.424805,20.141602
cobot_dynamixel_driver/joint_states|name|J1,J2,J3,J4,J5,J6|pos|-0.000013,0.000025,0.000000,-0.000025,0.000000,0.000041|vel|0.000000,-0.000000,0.000000,0.000000,0.000000,0.000000|eff|0.000000,499.511719,-290.039062,0.000000,60.424805,28.198242
cobot_dynamixel_driver/joint_states|name|J1,J2,J3,J4,J5,J6|pos|-0.000013,0.000025,0.000000,-0.000025,0.000000,0.000041|vel|0.000000,-0.000000,0.000000,0.000000,0.000000,0.000000|eff|0.000000,499.511719,-306.152344,-32.226562,60.424805,28.198242
cobot_dynamixel_driver/joint_states|name|J1,J2,J3,J4,J5,J6|pos|-0.000013,0.000025,0.000000,-0.000025,0.000000,0.000041|vel|0.000000,-0.000000,0.000000,0.000000,0.000000,0.000000|eff|0.000000,515.625000,-338.378906,-32.226562,60.424805,20.141602
cobot_dynamixel_driver/joint_states|name|J1,J2,J3,J4,J5,J6|pos|-0.000013,0.000025,0.000000,-0.000025,0.000000,0.000041|vel|0.000000,-0.000000,0.000000,0.000000,0.000000,0.000000|eff|-96.679688,547.851562,-338.378906,0.000000,60.424805,24.169922
cobot_dynamixel_driver/joint_states|name|J1,J2,J3,J4,J5,J6|pos|-0.000013,0.000025,0.000000,-0.000025,0.000000,0.000041|vel|0.000000,-0.000000,0.000000,0.000000,0.000000,0.000000|eff|0.000000,515.625000,-273.925781,-64.453125,60.424805,24.169922
cobot_dynamixel_driver/joint_states|name|J1,J2,J3,J4,J5,J6|pos|-0.000013,0.000025,0.000000,-0.000025,0.000000,0.000041|vel|0.000000,-0.000000,0.000000,0.000000,0.000000,0.000000|eff|0.000000,515.625000,-273.925781,0.000000,60.424805,24.169922
cobot_dynamixel_driver/joint_states|name|J1,J2,J3,J4,J5,J6|pos|-0.000013,0.000025,0.000000,-0.000025,0.000000,0.000041|vel|0.000000,-0.000000,0.000000,0.000000,0.000000,0.000000|eff|0.000000,515.625000,-290.039062,0.000000,60.424805,28.198242
cobot_dynamixel_driver/joint_states|name|J1,J2,J3,J4,J5,J6|pos|-0.000013,0.000025,0.000000,-0.000025,0.000000,0.000041|vel|0.000000,-0.000000,0.000000,0.000000,0.000000,0.000000|eff|0.000000,580.078125,-241.699219,0.000000,60.424805,20.141602
cobot_dynamixel_driver/joint_states|name|J1,J2,J3,J4,J5,J6|pos|-0.000013,0.000025,0.000000,-0.000025,0.000000,0.000041|vel|0.000000,-0.000000,0.000000,0.000000,0.000000,0.000000|eff|0.000000,596.191406,-338.378906,0.000000,60.424805,24.169922
cobot_dynamixel_driver/joint_states|name|J1,J2,J3,J4,J5,J6|pos|-0.000013,0.000025,0.000000,-0.000025,0.000000,0.000041|vel|0.000000,-0.000000,0.000000,0.000000,0.000000,0.000000|eff|0.000000,515.625000,-338.378906,0.000000,60.424805,20.141602
cobot_dynamixel_driver/joint_states|name|J1,J2,J3,J4,J5,J6|pos|-0.000013,0.000025,0.000000,-0.000025,0.000000,0.000041|vel|0.000000,-0.000000,0.000000,0.000000,0.000000,0.000000|eff|0.000000,515.625000,-290.039062,-80.566406,60.424805,20.141602
cobot_dynamixel_driver/joint_states|name|J1,J2,J3,J4,J5,J6|pos|-0.000013,0.000025,0.000000,-0.000025,0.000000,0.000041|vel|0.000000,-0.000000,0.000000,0.000000,0.000000,0.000000|eff|0.000000,547.851562,-338.378906,0.000000,60.424805,24.169922
cobot_dynamixel_driver/joint_states|name|J1,J2,J3,J4,J5,J6|pos|-0.000013,0.000025,0.000000,-0.000025,0.000000,0.000041|vel|0.000000,-0.000000,0.000000,0.000000,0.000000,0.000000|eff|0.000000,499.511719,-241.699219,0.000000,60.424805,24.169922
cobot_dynamixel_driver/joint_states|name|J1,J2,J3,J4,J5,J6|pos|-0.000013,0.000025,0.000000,-0.000025,0.000000,0.000041|vel|0.000000,-0.000000,0.000000,0.000000,0.000000,0.000000|eff|0.000000,499.511719,-338.378906,0.000000,60.424805,20.141602
cobot_dynamixel_driver/joint_states|name|J1,J2,J3,J4,J5,J6|pos|-0.000013,0.000025,0.000000,-0.000025,0.000000,0.000041|vel|0.000000,-0.000000,0.000000,0.000000,0.000000,0.000000|eff|0.000000,531.738281,-257.812500,0.000000,60.424805,28.198242
cobot_dynamixel_driver/joint_states|name|J1,J2,J3,J4,J5,J6|pos|-0.000013,0.000025,0.000000,-0.000025,0.000000,0.000041|vel|0.000000,-0.000000,0.000000,0.000000,0.000000,0.000000|eff|0.000000,499.511719,-290.039062,0.000000,60.424805,28.198242
cobot_dynamixel_driver/joint_states|name|J1,J2,J3,J4,J5,J6|pos|-0.000013,0.000025,0.000000,-0.000025,0.000000,0.000041|vel|0.000000,-0.000000,0.000000,0.000000,0.000000,0.000000|eff|0.000000,515.625000,-273.925781,-80.566406,60.424805,28.198242
cobot_dynamixel_driver/joint_states|name|J1,J2,J3,J4,J5,J6|pos|-0.000013,0.000025,0.000000,-0.000025,0.000000,0.000041|vel|0.000000,-0.000000,0.000000,0.000000,0.000000,0.000000|eff|-96.679688,580.078125,-273.925781,0.000000,60.424805,24.169922
cobot_dynamixel_driver/joint_states|name|J1,J2,J3,J4,J5,J6|pos|-0.000013,0.000025,0.000000,-0.000025,0.000000,0.000041|vel|0.000000,-0.000000,0.000000,0.000000,0.000000,0.000000|eff|0.000000,580.078125,-322.265625,-48.339844,60.424805,20.141602
cobot_dynamixel_driver/joint_states|name|J1,J2,J3,J4,J5,J6|pos|-0.000013,0.000025,0.000000,-0.000025,0.000000,0.000041|vel|0.000000,-0.000000,0.000000,0.000000,0.000000,0.000000|eff|0.000000,515.625000,-322.265625,0.000000,60.424805,28.198242
cobot_dynamixel_driver/joint_states|name|J1,J2,J3,J4,J5,J6|pos|-0.000013,0.000025,0.000000,-0.000025,0.000000,0.000041|vel|0.000000,-0.000000,0.000000,0.000000,0.000000,0.000000|eff|0.000000,515.625000,-338.378906,-32.226562,60.424805,28.198242
cobot_dynamixel_driver/joint_states|name|J1,J2,J3,J4,J5,J6|pos|-0.000013,0.000025,0.000000,-0.000025,0.000000,0.000041|vel|0.000000,-0.000000,0.000000,0.000000,0.000000,0.000000|eff|0.000000,499.511719,-241.699219,0.000000,60.424805,28.198242
cobot_dynamixel_driver/joint_states|name|J1,J2,J3,J4,J5,J6|pos|-0.000013,0.000025,0.000000,-0.000025,0.000000,0.000041|vel|0.000000,-0.000000,0.000000,0.000000,0.000000,0.000000|eff|-32.226562,499.511719,-338.378906,0.000000,60.424805,28.198242
cobot_dynamixel_driver/joint_states|name|J1,J2,J3,J4,J5,J6|pos|-0.000013,0.000025,0.000000,-0.000025,0.000000,0.000041|vel|0.000000,-0.000000,0.000000,0.000000,0.000000,0.000000|eff|0.000000,563.964844,-273.925781,0.000000,60.424805,28.198242
cobot_dynamixel_driver/joint_states|name|J1,J2,J3,J4,J5,J6|pos|-0.000013,0.000025,0.000000,-0.000025,0.000000,0.000041|vel|0.000000,-0.000000,0.000000,0.000000,0.000000,0.000000|eff|0.000000,531.738281,-322.265625,-48.339844,60.424805,28.198242
cobot_dynamixel_driver/joint_states|name|J1,J2,J3,J4,J5,J6|pos|-0.000013,0.000025,0.000000,-0.000025,0.000000,0.000041|vel|0.000000,-0.000000,0.000000,0.000000,0.000000,0.000000|eff|0.000000,628.417969,-241.699219,0.000000,60.424805,28.198242
cobot_dynamixel_driver/joint_states|name|J1,J2,J3,J4,J5,J6|pos|-0.000013,0.000025,0.000000,-0.000025,0.000000,0.000041|vel|0.000000,-0.000000,0.000000,0.000000,0.000000,0.000000|eff|0.000000,499.511719,-338.378906,0.000000,60.424805,28.198242
cobot_dynamixel_driver/joint_states|name|J1,J2,J3,J4,J5,J6|pos|-0.000013,0.000025,0.000000,-0.000025,0.000000,0.000041|vel|0.000000,-0.000000,0.000000,0.000000,0.000000,0.000000|eff|0.000000,515.625000,-338.378906,-32.226562,60.424805,28.198242
cobot_dynamixel_driver/joint_states|name|J1,J2,J3,J4,J5,J6|pos|-0.000013,0.000025,0.000000,-0.000025,0.000000,0.000041|vel|0.000000,-0.000000,0.000000,0.000000,0.000000,0.000000|eff|0.000000,515.625000,-273.925781,0.000000,60.424805,20.141602
cobot_dynamixel_driver/joint_states|name|J1,J2,J3,J4,J5,J6|pos|-0.000013,0.000025,0.000000,-0.000025,0.000000,0.000041|vel|0.000000,-0.000000,0.000000,0.000000,0.000000,0.000000|eff|0.000000,515.625000,-338.378906,0.000000,60.424805,28.198242
cobot_dynamixel_driver/joint_states|name|J1,J2,J3,J4,J5,J6|pos|-0.000013,0.000025,0.000000,-0.000025,0.000000,0.000041|vel|0.000000,-0.000000,0.000000,0.000000,0.000000,0.000000|eff|0.000000,580.078125,-257.812500,-80.566406,60.424805,28.198242
cobot_dynamixel_driver/joint_states|name|J1,J2,J3,J4,J5,J6|pos|-0.000013,0.000025,0.000000,-0.000025,0.000000,0.000041|vel|0.000000,-0.000000,0.000000,0.000000,0.000000,0.000000|eff|0.000000,660.644531,-257.812500,-80.566406,60.424805,24.169922
cobot_dynamixel_driver/joint_states|name|J1,J2,J3,J4,J5,J6|pos|-0.000013,0.000025,0.000000,-0.000025,0.000000,0.000041|vel|0.000000,-0.000000,0.000000,0.000000,0.000000,0.000000|eff|0.000000,515.625000,-322.265625,-64.453125,60.424805,28.198242
cobot_dynamixel_driver/joint_states|name|J1,J2,J3,J4,J5,J6|pos|-0.000013,0.000025,0.000000,-0.000025,0.000000,0.000041|vel|0.000000,-0.000000,0.000000,0.000000,0.000000,0.000000|eff|-32.226562,596.191406,-322.265625,-48.339844,60.424805,20.141602
cobot_dynamixel_driver/joint_states|name|J1,J2,J3,J4,J5,J6|pos|-0.000013,0.000025,0.000000,-0.000025,0.000000,0.000041|vel|0.000000,-0.000000,0.000000,0.000000,0.000000,0.000000|eff|0.000000,596.191406,-338.378906,-32.226562,60.424805,24.169922
cobot_dynamixel_driver/joint_states|name|J1,J2,J3,J4,J5,J6|pos|-0.000013,0.000025,0.000000,-0.000025,0.000000,0.000041|vel|0.000000,-0.000000,0.000000,0.000000,0.000000,0.000000|eff|0.000000,580.078125,-322.265625,0.000000,60.424805,20.141602
cobot_dynamixel_driver/joint_states|name|J1,J2,J3,J4,J5,J6|pos|-0.000013,0.000025,0.000000,-0.000025,0.000000,0.000041|vel|0.000000,-0.000000,0.000000,0.000000,0.000000,0.000000|eff|-64.453125,499.511719,-290.039062,0.000000,60.424805,28.198242
cobot_dynamixel_driver/joint_states|name|J1,J2,J3,J4,J5,J6|pos|-0.000013,0.000025,0.000000,-0.000025,0.000000,0.000041|vel|0.000000,-0.000000,0.000000,0.000000,0.000000,0.000000|eff|0.000000,499.511719,-322.265625,-48.339844,60.424805,28.198242
cobot_dynamixel_driver/joint_states|name|J1,J2,J3,J4,J5,J6|pos|-0.000013,0.000025,0.000000,-0.000025,0.000000,0.000041|vel|0.000000,-0.000000,0.000000,0.000000,0.000000,0.000000|eff|-64.453125,499.511719,-306.152344,0.000000,60.424805,28.198242
cobot_dynamixel_driver/joint_states|name|J1,J2,J3,J4,J5,J6|pos|-0.000013,0.000025,0.000000,-0.000025,0.000000,0.000041|vel|0.000000,-0.000000,0.000000,0.000000,0.000000,0.000000|eff|-32.226562,499.511719,-257.812500,0.000000,60.424805,20.141602
cobot_dynamixel_driver/joint_states|name|J1,J2,J3,J4,J5,J6|pos|-0.000013,0.000025,0.000000,-0.000025,0.000000,0.000041|vel|0.000000,-0.000000,0.000000,0.000000,0.000000,0.000000|eff|0.000000,499.511719,-338.378906,0.000000,60.424805,20.141602
cobot_dynamixel_driver/joint_states|name|J1,J2,J3,J4,J5,J6|pos|-0.000013,0.000025,0.000000,-0.000025,0.000000,0.000041|vel|0.000000,-0.000000,0.000000,0.000000,0.000000,0.000000|eff|0.000000,499.511719,-273.925781,0.000000,60.424805,20.141602
cobot_dynamixel_driver/joint_states|name|J1,J2,J3,J4,J5,J6|pos|-0.000013,0.000025,0.000000,-0.000025,0.000000,0.000041|vel|0.000000,-0.000000,0.000000,0.000000,0.000000,0.000000|eff|-64.453125,499.511719,-338.378906,0.000000,60.424805,28.198242
cobot_dynamixel_driver/joint_states|name|J1,J2,J3,J4,J5,J6|pos|-0.000013,0.000025,0.000000,-0.000025,0.000000,0.000041|vel|0.000000,-0.000000,0.000000,0.000000,0.000000,0.000000|eff|0.000000,531.738281,-290.039062,-80.566406,60.424805,20.141602
cobot_dynamixel_driver/joint_states|name|J1,J2,J3,J4,J5,J6|pos|-0.000013,0.000025,0.000000,-0.000025,0.000000,0.000041|vel|0.000000,-0.000000,0.000000,0.000000,0.000000,0.000000|eff|0.000000,580.078125,-273.925781,0.000000,60.424805,28.198242
cobot_dynamixel_driver/joint_states|name|J1,J2,J3,J4,J5,J6|pos|-0.000013,0.000025,0.000000,-0.000025,0.000000,0.000041|vel|0.000000,-0.000000,0.000000,0.000000,0.000000,0.000000|eff|0.000000,499.511719,-290.039062,-32.226562,60.424805,20.141602
cobot_dynamixel_driver/joint_states|name|J1,J2,J3,J4,J5,J6|pos|-0.000013,0.000025,0.000000,-0.000025,0.000000,0.000041|vel|0.000000,-0.000000,0.000000,0.000000,0.000000,0.000000|eff|0.000000,499.511719,-338.378906,0.000000,60.424805,16.113281
cobot_dynamixel_driver/joint_states|name|J1,J2,J3,J4,J5,J6|pos|-0.000013,0.000025,0.000000,-0.000025,0.000000,0.000041|vel|0.000000,-0.000000,0.000000,0.000000,0.000000,0.000000|eff|0.000000,499.511719,-338.378906,0.000000,60.424805,28.198242
cobot_dynamixel_driver/joint_states|name|J1,J2,J3,J4,J5,J6|pos|-0.000013,0.000025,0.000000,-0.000025,0.000000,0.000041|vel|0.000000,-0.000000,0.000000,0.000000,0.000000,0.000000|eff|-32.226562,596.191406,-338.378906,0.000000,60.424805,20.141602
cobot_dynamixel_driver/joint_states|name|J1,J2,J3,J4,J5,J6|pos|-0.000013,0.000025,0.000000,-0.000025,0.000000,0.000041|vel|0.000000,-0.000000,0.000000,0.000000,0.000000,0.000000|eff|0.000000,499.511719,-290.039062,-48.339844,60.424805,20.141602
cobot_dynamixel_driver/joint_states|name|J1,J2,J3,J4,J5,J6|pos|-0.000013,0.000025,0.000000,-0.000025,0.000000,0.000041|vel|0.000000,-0.000000,0.000000,0.000000,0.000000,0.000000|eff|0.000000,531.738281,-290.039062,0.000000,60.424805,20.141602
cobot_dynamixel_driver/joint_states|name|J1,J2,J3,J4,J5,J6|pos|-0.000013,0.000025,0.000000,-0.000025,0.000000,0.000041|vel|0.000000,-0.000000,0.000000,0.000000,0.000000,0.000000|eff|0.000000,515.625000,-322.265625,0.000000,60.424805,20.141602
cobot_dynamixel_driver/joint_states|name|J1,J2,J3,J4,J5,J6|pos|-0.000013,0.000025,0.000000,-0.000025,0.000000,0.000041|vel|0.000000,-0.000000,0.000000,0.000000,0.000000,0.000000|eff|-32.226562,515.625000,-257.812500,0.000000,60.424805,28.198242
cobot_dynamixel_driver/joint_states|name|J1,J2,J3,J4,J5,J6|pos|-0.000013,0.000025,0.000000,-0.000025,0.000000,0.000041|vel|0.000000,-0.000000,0.000000,0.000000,0.000000,0.000000|eff|-64.453125,499.511719,-338.378906,-48.339844,60.424805,28.198242
cobot_dynamixel_driver/joint_states|name|J1,J2,J3,J4,J5,J6|pos|-0.000013,-0.000000,0.000000,-0.000025,0.000000,0.000041|vel|0.000000,-0.000000,0.000000,0.000000,0.000000,0.000000|eff|0.000000,467.285156,-338.378906,0.000000,60.424805,24.169922
cobot_dynamixel_driver/joint_states|name|J1,J2,J3,J4,J5,J6|pos|-0.000013,-0.000025,0.000000,-0.000025,0.000000,0.000041|vel|0.000000,-0.001043,0.000000,0.000000,0.000000,0.000000|eff|0.000000,563.964844,-322.265625,-48.339844,60.424805,20.141602
cobot_dynamixel_driver/joint_states|name|J1,J2,J3,J4,J5,J6|pos|-0.000013,-0.000025,0.000000,-0.000025,0.000000,0.000041|vel|0.000000,0.001043,0.000000,0.000000,0.000000,0.000000|eff|0.000000,515.625000,-338.378906,0.000000,60.424805,20.141602
cobot_dynamixel_driver/joint_states|name|J1,J2,J3,J4,J5,J6|pos|-0.000013,-0.000038,0.000000,-0.000025,0.000000,0.000041|vel|0.000000,-0.001043,0.000000,0.000000,0.000000,0.000000|eff|0.000000,515.625000,-322.265625,0.000000,60.424805,28.198242
cobot_dynamixel_driver/joint_states|name|J1,J2,J3,J4,J5,J6|pos|-0.000013,-0.000038,0.000000,-0.000025,0.000000,0.000041|vel|0.000000,-0.001043,0.000000,0.000000,0.000000,0.000000|eff|0.000000,483.398438,-338.378906,-48.339844,60.424805,28.198242
cobot_dynamixel_driver/joint_states|name|J1,J2,J3,J4,J5,J6|pos|-0.000013,-0.000038,0.000000,-0.000025,0.000000,0.000041|vel|0.000000,0.001043,0.000000,0.000000,0.000000,0.000000|eff|0.000000,435.058594,-273.925781,0.000000,60.424805,20.141602
cobot_dynamixel_driver/joint_states|name|J1,J2,J3,J4,J5,J6|pos|-0.000013,-0.000038,0.000000,-0.000025,0.000000,0.000041|vel|0.000000,-0.000000,0.000000,0.000000,0.000000,0.000000|eff|-32.226562,515.625000,-338.378906,-64.453125,60.424805,20.141602
cobot_dynamixel_driver/joint_states|name|J1,J2,J3,J4,J5,J6|pos|-0.000013,-0.000038,0.000000,-0.000025,0.000000,0.000041|vel|0.000000,-0.000000,0.000000,0.000000,0.000000,0.000000|eff|0.000000,499.511719,-273.925781,-80.566406,60.424805,20.141602
cobot_dynamixel_driver/joint_states|name|J1,J2,J3,J4,J5,J6|pos|-0.000013,-0.000038,0.000000,-0.000025,0.000000,0.000041|vel|0.000000,-0.000000,0.000000,0.000000,0.000000,0.000000|eff|0.000000,499.511719,-306.152344,-32.226562,60.424805,24.169922
cobot_dynamixel_driver/joint_states|name|J1,J2,J3,J4,J5,J6|pos|-0.000013,-0.000038,0.000000,-0.000025,0.000000,0.000041|vel|0.000000,-0.000000,0.000000,0.000000,0.000000,0.000000|eff|-96.679688,515.625000,-338.378906,0.000000,60.424805,28.198242
cobot_dynamixel_driver/joint_states|name|J1,J2,J3,J4,J5,J6|pos|-0.000013,-0.000038,0.000000,-0.000025,0.000000,0.000041|vel|0.000000,-0.000000,0.000000,0.000000,0.000000,0.000000|eff|0.000000,499.511719,-241.699219,0.000000,60.424805,20.141602
cobot_dynamixel_driver/joint_states|name|J1,J2,J3,J4,J5,J6|pos|-0.000013,-0.000038,0.000000,-0.000025,0.000000,0.000041|vel|0.000000,-0.000000,0.000000,0.000000,0.000000,0.000000|eff|0.000000,499.511719,-338.378906,0.000000,60.424805,20.141602
cobot_dynamixel_driver/joint_states|name|J1,J2,J3,J4,J5,J6|pos|-0.000013,-0.000038,0.000000,-0.000025,0.000000,0.000041|vel|0.000000,-0.000000,0.000000,0.000000,0.000000,0.000000|eff|-32.226562,515.625000,-290.039062,0.000000,60.424805,20.141602
cobot_dynamixel_driver/joint_states|name|J1,J2,J3,J4,J5,J6|pos|-0.000013,-0.000038,0.000000,-0.000025,0.000000,0.000041|vel|0.000000,-0.000000,0.000000,0.000000,0.000000,0.000000|eff|-32.226562,451.171875,-338.378906,-48.339844,60.424805,20.141602
cobot_dynamixel_driver/joint_states|name|J1,J2,J3,J4,J5,J6|pos|-0.000013,-0.000025,0.000000,-0.000025,0.000000,0.000041|vel|0.000000,-0.000000,0.000000,0.000000,0.000000,0.000000|eff|0.000000,499.511719,-290.039062,0.000000,60.424805,24.169922
cobot_dynamixel_driver/joint_states|name|J1,J2,J3,J4,J5,J6|pos|-0.000013,-0.000025,0.000000,-0.000025,0.000000,0.000041|vel|0.000000,-0.000000,0.000000,0.000000,0.000000,0.000000|eff|0.000000,499.511719,-338.378906,0.000000,60.424805,20.141602
cobot_dynamixel_driver/joint_states|name|J1,J2,J3,J4,J5,J6|pos|-0.000013,-0.000025,0.000000,-0.000025,0.000000,0.000041|vel|0.000000,-0.000000,0.000000,0.000000,0.000000,0.000000|eff|-96.679688,499.511719,-241.699219,0.000000,60.424805,28.198242
cobot_dynamixel_driver/joint_states|name|J1,J2,J3,J4,J5,J6|pos|-0.000013,-0.000025,0.000000,-0.000025,0.000000,0.000041|vel|0.000000,-0.000000,0.000000,0.000000,0.000000,0.000000|eff|0.000000,499.511719,-241.699219,0.000000,60.424805,28.198242
cobot_dynamixel_driver/joint_states|name|J1,J2,J3,J4,J5,J6|pos|-0.000013,-0.000025,0.000000,-0.000025,0.000000,0.000041|vel|0.000000,-0.000000,0.000000,0.000000,0.000000,0.000000|eff|-32.226562,467.285156,-338.378906,-80.566406,60.424805,28.198242
cobot_dynamixel_driver/joint_states|name|J1,J2,J3,J4,J5,J6|pos|-0.000013,-0.000025,0.000000,-0.000025,0.000000,0.000041|vel|0.000000,-0.000000,0.000000,0.000000,0.000000,0.000000|eff|0.000000,418.945312,-273.925781,0.000000,60.424805,20.141602
cobot_dynamixel_driver/joint_states|name|J1,J2,J3,J4,J5,J6|pos|-0.000013,-0.000025,0.000000,-0.000025,0.000000,0.000041|vel|0.000000,-0.000000,0.000000,0.000000,0.000000,0.000000|eff|0.000000,499.511719,-290.039062,0.000000,60.424805,28.198242
cobot_dynamixel_driver/joint_states|name|J1,J2,J3,J4,J5,J6|pos|-0.000013,-0.000025,0.000000,-0.000025,0.000000,0.000041|vel|0.000000,-0.000000,0.000000,0.000000,0.000000,0.000000|eff|0.000000,499.511719,-338.378906,0.000000,60.424805,28.198242
cobot_dynamixel_driver/joint_states|name|J1,J2,J3,J4,J5,J6|pos|-0.000013,-0.000025,0.000000,-0.000025,0.000000,0.000041|vel|0.000000,-0.000000,0.000000,0.000000,0.000000,0.000000|eff|0.000000,499.511719,-338.378906,0.000000,60.424805,16.113281
cobot_dynamixel_driver/joint_states|name|J1,J2,J3,J4,J5,J6|pos|-0.000013,-0.000025,0.000000,-0.000025,0.000000,0.000041|vel|0.000000,-0.000000,0.000000,0.000000,0.000000,0.000000|eff|0.000000,515.625000,-273.925781,0.000000,60.424805,20.141602
cobot_dynamixel_driver/joint_states|name|J1,J2,J3,J4,J5,J6|pos|-0.000013,-0.000025,0.000000,-0.000025,0.000000,0.000041|vel|0.000000,-0.000000,0.000000,0.000000,0.000000,0.000000|eff|0.000000,499.511719,-338.378906,0.000000,60.424805,28.198242
cobot_dynamixel_driver/joint_states|name|J1,J2,J3,J4,J5,J6|pos|-0.000013,-0.000025,0.000000,-0.000025,0.000000,0.000041|vel|0.000000,-0.000000,0.000000,0.000000,0.000000,0.000000|eff|0.000000,499.511719,-322.265625,0.000000,60.424805,28.198242
