surachairobotic/cobot/cobot_dynamixel_driver/log/2018-12-07T08:11:50.325719_driver_log.txt
cobot_dynamixel_driver/joint_states|name|J1,J2,J3,J4,J5,J6|pos|-0.250152,-1.268785,1.296275,0.001014,-1.317204,-0.000083|vel|0.000000,-0.000000,0.000000,0.000000,0.000000,0.000000|eff|0.000000,0.000000,0.000000,0.000000,0.000000,0.000000
cobot_dynamixel_driver/joint_states|name|J1,J2,J3,J4,J5,J6|pos|-0.250152,-1.268785,1.296275,0.001014,-1.317204,-0.000083|vel|0.000000,-0.000000,0.000000,0.000000,0.000000,0.000000|eff|0.000000,0.000000,0.000000,0.000000,0.000000,0.000000
cobot_dynamixel_driver/joint_states|name|J1,J2,J3,J4,J5,J6|pos|-0.250152,-1.268785,1.296275,0.001014,-1.317204,-0.000083|vel|0.000000,-0.000000,0.000000,0.000000,0.000000,0.000000|eff|0.000000,0.000000,0.000000,0.000000,0.000000,0.000000
cobot_dynamixel_driver/joint_states|name|J1,J2,J3,J4,J5,J6|pos|-0.250152,-1.268785,1.296275,0.001014,-1.317204,-0.000083|vel|0.000000,-0.000000,0.000000,0.000000,0.000000,0.000000|eff|0.000000,0.000000,0.000000,0.000000,0.000000,0.000000
cobot_dynamixel_driver/joint_states|name|J1,J2,J3,J4,J5,J6|pos|-0.250152,-1.268785,1.296275,0.001014,-1.317204,-0.000083|vel|0.000000,-0.000000,0.000000,0.000000,0.000000,0.000000|eff|0.000000,0.000000,0.000000,0.000000,0.000000,0.000000
cobot_dynamixel_driver/joint_states|name|J1,J2,J3,J4,J5,J6|pos|-0.250152,-1.268785,1.296275,0.001014,-1.317204,-0.000083|vel|0.000000,-0.000000,0.000000,0.000000,0.000000,0.000000|eff|0.000000,0.000000,0.000000,0.000000,0.000000,0.000000
cobot_dynamixel_driver/joint_states|name|J1,J2,J3,J4,J5,J6|pos|-0.250152,-1.268785,1.296275,0.001014,-1.317204,-0.000083|vel|0.000000,-0.000000,0.000000,0.000000,0.000000,0.000000|eff|0.000000,0.000000,0.000000,0.000000,0.000000,0.000000
cobot_dynamixel_driver/joint_states|name|J1,J2,J3,J4,J5,J6|pos|-0.250152,-1.268785,1.296275,0.001014,-1.317204,-0.000083|vel|0.000000,-0.000000,0.000000,0.000000,0.000000,0.000000|eff|0.000000,0.000000,0.000000,0.000000,0.000000,0.000000
cobot_dynamixel_driver/joint_states|name|J1,J2,J3,J4,J5,J6|pos|-0.250152,-1.268785,1.296275,0.001014,-1.317204,-0.000083|vel|0.000000,-0.000000,0.000000,0.000000,0.000000,0.000000|eff|0.000000,0.000000,0.000000,0.000000,0.000000,0.000000
cobot_dynamixel_driver/joint_states|name|J1,J2,J3,J4,J5,J6|pos|-0.250152,-1.268785,1.296275,0.001014,-1.317204,-0.000083|vel|0.000000,-0.000000,0.000000,0.000000,0.000000,0.000000|eff|0.000000,0.000000,0.000000,0.000000,0.000000,0.000000
cobot_dynamixel_driver/joint_states|name|J1,J2,J3,J4,J5,J6|pos|-0.250152,-1.268785,1.296275,0.001014,-1.317204,-0.000083|vel|0.000000,-0.000000,0.000000,0.000000,0.000000,0.000000|eff|0.000000,0.000000,0.000000,0.000000,0.000000,0.000000
cobot_dynamixel_driver/joint_states|name|J1,J2,J3,J4,J5,J6|pos|-0.250152,-1.268785,1.296275,0.001014,-1.317204,-0.000083|vel|0.000000,-0.000000,0.000000,0.000000,0.000000,0.000000|eff|0.000000,0.000000,0.000000,0.000000,0.000000,0.000000
cobot_dynamixel_driver/joint_states|name|J1,J2,J3,J4,J5,J6|pos|-0.250152,-1.268785,1.296275,0.001014,-1.317204,-0.000083|vel|0.000000,-0.000000,0.000000,0.000000,0.000000,0.000000|eff|0.000000,0.000000,0.000000,0.000000,0.000000,0.000000
cobot_dynamixel_driver/joint_states|name|J1,J2,J3,J4,J5,J6|pos|-0.250152,-1.268785,1.296275,0.001014,-1.317204,-0.000083|vel|0.000000,-0.000000,0.000000,0.000000,0.000000,0.000000|eff|0.000000,0.000000,0.000000,0.000000,0.000000,0.000000
cobot_dynamixel_driver/joint_states|name|J1,J2,J3,J4,J5,J6|pos|-0.250152,-1.268785,1.296275,0.001014,-1.317204,-0.000083|vel|0.000000,-0.000000,0.000000,0.000000,0.000000,0.000000|eff|0.000000,0.000000,0.000000,0.000000,0.000000,0.000000
cobot_dynamixel_driver/joint_states|name|J1,J2,J3,J4,J5,J6|pos|-0.250152,-1.268785,1.296275,0.001014,-1.317204,-0.000083|vel|0.000000,-0.000000,0.000000,0.000000,0.000000,0.000000|eff|0.000000,0.000000,0.000000,0.000000,0.000000,0.000000
cobot_dynamixel_driver/joint_states|name|J1,J2,J3,J4,J5,J6|pos|-0.250152,-1.268785,1.296275,0.001014,-1.317204,-0.000083|vel|0.000000,-0.000000,0.000000,0.000000,0.000000,0.000000|eff|0.000000,0.000000,0.000000,0.000000,0.000000,0.000000
cobot_dynamixel_driver/joint_states|name|J1,J2,J3,J4,J5,J6|pos|-0.250152,-1.268785,1.296275,0.001014,-1.317204,-0.000083|vel|0.000000,-0.000000,0.000000,0.000000,0.000000,0.000000|eff|0.000000,0.000000,0.000000,0.000000,0.000000,0.000000
cobot_dynamixel_driver/joint_states|name|J1,J2,J3,J4,J5,J6|pos|-0.250152,-1.268785,1.296275,0.001014,-1.317204,-0.000083|vel|0.000000,-0.000000,0.000000,0.000000,0.000000,0.000000|eff|0.000000,0.000000,0.000000,0.000000,0.000000,0.000000
cobot_dynamixel_driver/joint_states|name|J1,J2,J3,J4,J5,J6|pos|-0.250152,-1.268785,1.296275,0.001014,-1.317204,-0.000083|vel|0.000000,-0.000000,0.000000,0.000000,0.000000,0.000000|eff|0.000000,0.000000,0.000000,0.000000,0.000000,0.000000
cobot_dynamixel_driver/joint_states|name|J1,J2,J3,J4,J5,J6|pos|-0.250152,-1.268785,1.296275,0.001014,-1.317204,-0.000083|vel|0.000000,-0.000000,0.000000,0.000000,0.000000,0.000000|eff|0.000000,0.000000,0.000000,0.000000,0.000000,0.000000
cobot_dynamixel_driver/joint_states|name|J1,J2,J3,J4,J5,J6|pos|-0.250152,-1.268785,1.296275,0.001014,-1.317204,-0.000083|vel|0.000000,-0.000000,0.000000,0.000000,0.000000,0.000000|eff|0.000000,0.000000,0.000000,0.000000,0.000000,0.000000
cobot_dynamixel_driver/joint_states|name|J1,J2,J3,J4,J5,J6|pos|-0.250152,-1.268785,1.296275,0.001014,-1.317204,-0.000083|vel|0.000000,-0.000000,0.000000,0.000000,0.000000,0.000000|eff|0.000000,0.000000,0.000000,0.000000,0.000000,0.000000
cobot_dynamixel_driver/joint_states|name|J1,J2,J3,J4,J5,J6|pos|-0.250152,-1.268785,1.296275,0.001014,-1.317204,-0.000083|vel|0.000000,-0.000000,0.000000,0.000000,0.000000,0.000000|eff|0.000000,0.000000,0.000000,0.000000,0.000000,0.000000
cobot_dynamixel_driver/joint_states|name|J1,J2,J3,J4,J5,J6|pos|-0.250152,-1.268785,1.296275,0.001014,-1.317204,-0.000083|vel|0.000000,-0.000000,0.000000,0.000000,0.000000,0.000000|eff|0.000000,0.000000,0.000000,0.000000,0.000000,0.000000
cobot_dynamixel_driver/joint_states|name|J1,J2,J3,J4,J5,J6|pos|-0.250152,-1.268785,1.296275,0.001014,-1.317204,-0.000083|vel|0.000000,-0.000000,0.000000,0.000000,0.000000,0.000000|eff|0.000000,0.000000,0.000000,0.000000,0.000000,0.000000
cobot_dynamixel_driver/joint_states|name|J1,J2,J3,J4,J5,J6|pos|-0.250152,-1.268785,1.296275,0.001014,-1.317204,-0.000083|vel|0.000000,-0.000000,0.000000,0.000000,0.000000,0.000000|eff|0.000000,0.000000,0.000000,0.000000,0.000000,0.000000
cobot_dynamixel_driver/joint_states|name|J1,J2,J3,J4,J5,J6|pos|-0.250152,-1.268785,1.296275,0.001014,-1.317204,-0.000083|vel|0.000000,-0.000000,0.000000,0.000000,0.000000,0.000000|eff|0.000000,0.000000,0.000000,0.000000,0.000000,0.000000
cobot_dynamixel_driver/joint_states|name|J1,J2,J3,J4,J5,J6|pos|-0.250152,-1.268785,1.296275,0.001014,-1.317204,-0.000083|vel|0.000000,-0.000000,0.000000,0.000000,0.000000,0.000000|eff|0.000000,0.000000,0.000000,0.000000,0.000000,0.000000
cobot_dynamixel_driver/joint_states|name|J1,J2,J3,J4,J5,J6|pos|-0.250152,-1.268785,1.296275,0.001014,-1.317204,-0.000083|vel|0.000000,-0.000000,0.000000,0.000000,0.000000,0.000000|eff|0.000000,0.000000,0.000000,0.000000,0.000000,0.000000
cobot_dynamixel_driver/joint_states|name|J1,J2,J3,J4,J5,J6|pos|-0.250152,-1.268785,1.296275,0.001014,-1.317204,-0.000083|vel|0.000000,-0.000000,0.000000,0.000000,0.000000,0.000000|eff|0.000000,0.000000,0.000000,0.000000,0.000000,0.000000
cobot_dynamixel_driver/joint_states|name|J1,J2,J3,J4,J5,J6|pos|-0.250152,-1.268785,1.296275,0.001014,-1.317204,-0.000083|vel|0.000000,-0.000000,0.000000,0.000000,0.000000,0.000000|eff|0.000000,0.000000,0.000000,0.000000,0.000000,0.000000
cobot_dynamixel_driver/joint_states|name|J1,J2,J3,J4,J5,J6|pos|-0.250152,-1.268785,1.296275,0.001014,-1.317204,-0.000083|vel|0.000000,-0.000000,0.000000,0.000000,0.000000,0.000000|eff|0.000000,0.000000,0.000000,0.000000,0.000000,0.000000
cobot_dynamixel_driver/joint_states|name|J1,J2,J3,J4,J5,J6|pos|-0.250152,-1.268785,1.296275,0.001014,-1.317204,-0.000083|vel|0.000000,-0.000000,0.000000,0.000000,0.000000,0.000000|eff|0.000000,0.000000,0.000000,0.000000,0.000000,0.000000
cobot_dynamixel_driver/joint_states|name|J1,J2,J3,J4,J5,J6|pos|-0.250152,-1.268785,1.296275,0.001014,-1.317204,-0.000083|vel|0.000000,-0.000000,0.000000,0.000000,0.000000,0.000000|eff|0.000000,0.000000,0.000000,0.000000,0.000000,0.000000
cobot_dynamixel_driver/joint_states|name|J1,J2,J3,J4,J5,J6|pos|-0.250152,-1.268785,1.296275,0.001014,-1.317204,-0.000083|vel|0.000000,-0.000000,0.000000,0.000000,0.000000,0.000000|eff|0.000000,0.000000,0.000000,0.000000,0.000000,0.000000
cobot_dynamixel_driver/joint_states|name|J1,J2,J3,J4,J5,J6|pos|-0.250152,-1.268785,1.296275,0.001014,-1.317204,-0.000083|vel|0.000000,-0.000000,0.000000,0.000000,0.000000,0.000000|eff|0.000000,0.000000,0.000000,0.000000,0.000000,0.000000
cobot_dynamixel_driver/joint_states|name|J1,J2,J3,J4,J5,J6|pos|-0.250152,-1.268785,1.296275,0.001014,-1.317204,-0.000083|vel|0.000000,-0.000000,0.000000,0.000000,0.000000,0.000000|eff|0.000000,0.000000,0.000000,0.000000,0.000000,0.000000
cobot_dynamixel_driver/joint_states|name|J1,J2,J3,J4,J5,J6|pos|-0.250152,-1.268785,1.296275,0.001014,-1.317204,-0.000083|vel|0.000000,-0.000000,0.000000,0.000000,0.000000,0.000000|eff|0.000000,0.000000,0.000000,0.000000,0.000000,0.000000
cobot_dynamixel_driver/joint_states|name|J1,J2,J3,J4,J5,J6|pos|-0.250152,-1.268785,1.296275,0.001014,-1.317204,-0.000083|vel|0.000000,-0.000000,0.000000,0.000000,0.000000,0.000000|eff|0.000000,0.000000,0.000000,0.000000,0.000000,0.000000
cobot_dynamixel_driver/joint_states|name|J1,J2,J3,J4,J5,J6|pos|-0.250152,-1.268785,1.296275,0.001014,-1.317204,-0.000083|vel|0.000000,-0.000000,0.000000,0.000000,0.000000,0.000000|eff|0.000000,0.000000,0.000000,0.000000,0.000000,0.000000
cobot_dynamixel_driver/joint_states|name|J1,J2,J3,J4,J5,J6|pos|-0.250152,-1.268785,1.296275,0.001014,-1.317204,-0.000083|vel|0.000000,-0.000000,0.000000,0.000000,0.000000,0.000000|eff|0.000000,0.000000,0.000000,0.000000,0.000000,0.000000
cobot_dynamixel_driver/joint_states|name|J1,J2,J3,J4,J5,J6|pos|-0.250152,-1.268785,1.296275,0.001014,-1.317204,-0.000083|vel|0.000000,-0.000000,0.000000,0.000000,0.000000,0.000000|eff|0.000000,0.000000,0.000000,0.000000,0.000000,0.000000
cobot_dynamixel_driver/joint_states|name|J1,J2,J3,J4,J5,J6|pos|-0.250152,-1.268785,1.296275,0.001014,-1.317204,-0.000083|vel|0.000000,-0.000000,0.000000,0.000000,0.000000,0.000000|eff|0.000000,0.000000,0.000000,0.000000,0.000000,0.000000
cobot_dynamixel_driver/joint_states|name|J1,J2,J3,J4,J5,J6|pos|-0.250152,-1.268785,1.296275,0.001014,-1.317204,-0.000083|vel|0.000000,-0.000000,0.000000,0.000000,0.000000,0.000000|eff|0.000000,0.000000,0.000000,0.000000,0.000000,0.000000
cobot_dynamixel_driver/joint_states|name|J1,J2,J3,J4,J5,J6|pos|-0.250152,-1.268785,1.296275,0.001014,-1.317204,-0.000083|vel|0.000000,-0.000000,0.000000,0.000000,0.000000,0.000000|eff|0.000000,0.000000,0.000000,0.000000,0.000000,0.000000
cobot_dynamixel_driver/joint_states|name|J1,J2,J3,J4,J5,J6|pos|-0.250152,-1.268785,1.296275,0.001014,-1.317204,-0.000083|vel|0.000000,-0.000000,0.000000,0.000000,0.000000,0.000000|eff|0.000000,0.000000,0.000000,0.000000,0.000000,0.000000
cobot_dynamixel_driver/joint_states|name|J1,J2,J3,J4,J5,J6|pos|-0.250152,-1.268785,1.296275,0.001014,-1.317204,-0.000083|vel|0.000000,-0.000000,0.000000,0.000000,0.000000,0.000000|eff|0.000000,0.000000,0.000000,0.000000,0.000000,0.000000
cobot_dynamixel_driver/joint_states|name|J1,J2,J3,J4,J5,J6|pos|-0.250152,-1.268785,1.296275,0.001014,-1.317204,-0.000083|vel|0.000000,-0.000000,0.000000,0.000000,0.000000,0.000000|eff|0.000000,0.000000,0.000000,0.000000,0.000000,0.000000
cobot_dynamixel_driver/joint_states|name|J1,J2,J3,J4,J5,J6|pos|-0.250152,-1.268785,1.296275,0.001014,-1.317204,-0.000083|vel|0.000000,-0.000000,0.000000,0.000000,0.000000,0.000000|eff|0.000000,0.000000,0.000000,0.000000,0.000000,0.000000
cobot_dynamixel_driver/joint_states|name|J1,J2,J3,J4,J5,J6|pos|-0.250152,-1.268785,1.296275,0.001014,-1.317204,-0.000083|vel|0.000000,-0.000000,0.000000,0.000000,0.000000,0.000000|eff|0.000000,0.000000,0.000000,0.000000,0.000000,0.000000
cobot_dynamixel_driver/joint_states|name|J1,J2,J3,J4,J5,J6|pos|-0.250152,-1.268785,1.296275,0.001014,-1.317204,-0.000083|vel|0.000000,-0.000000,0.000000,0.000000,0.000000,0.000000|eff|0.000000,0.000000,0.000000,0.000000,0.000000,0.000000
cobot_dynamixel_driver/joint_states|name|J1,J2,J3,J4,J5,J6|pos|-0.250152,-1.268785,1.296275,0.001014,-1.317204,-0.000083|vel|0.000000,-0.000000,0.000000,0.000000,0.000000,0.000000|eff|0.000000,0.000000,0.000000,0.000000,0.000000,0.000000
cobot_dynamixel_driver/joint_states|name|J1,J2,J3,J4,J5,J6|pos|-0.250152,-1.268785,1.296275,0.001014,-1.317204,-0.000083|vel|0.000000,-0.000000,0.000000,0.000000,0.000000,0.000000|eff|0.000000,0.000000,0.000000,0.000000,0.000000,0.000000
cobot_dynamixel_driver/joint_states|name|J1,J2,J3,J4,J5,J6|pos|-0.250152,-1.268785,1.296275,0.001014,-1.317204,-0.000083|vel|0.000000,-0.000000,0.000000,0.000000,0.000000,0.000000|eff|0.000000,0.000000,0.000000,0.000000,0.000000,0.000000
cobot_dynamixel_driver/joint_states|name|J1,J2,J3,J4,J5,J6|pos|-0.250152,-1.268785,1.296275,0.001014,-1.317204,-0.000083|vel|0.000000,-0.000000,0.000000,0.000000,0.000000,0.000000|eff|0.000000,0.000000,0.000000,0.000000,0.000000,0.000000
cobot_dynamixel_driver/joint_states|name|J1,J2,J3,J4,J5,J6|pos|-0.250152,-1.268785,1.296275,0.001014,-1.317204,-0.000083|vel|0.000000,-0.000000,0.000000,0.000000,0.000000,0.000000|eff|0.000000,0.000000,0.000000,0.000000,0.000000,0.000000
cobot_dynamixel_driver/joint_states|name|J1,J2,J3,J4,J5,J6|pos|-0.250152,-1.268785,1.296275,0.001014,-1.317204,-0.000083|vel|0.000000,-0.000000,0.000000,0.000000,0.000000,0.000000|eff|0.000000,0.000000,0.000000,0.000000,0.000000,0.000000
cobot_dynamixel_driver/joint_states|name|J1,J2,J3,J4,J5,J6|pos|-0.250152,-1.268785,1.296275,0.001014,-1.317204,-0.000083|vel|0.000000,-0.000000,0.000000,0.000000,0.000000,0.000000|eff|0.000000,0.000000,0.000000,0.000000,0.000000,0.000000
cobot_dynamixel_driver/joint_states|name|J1,J2,J3,J4,J5,J6|pos|-0.250152,-1.268785,1.296275,0.001014,-1.317204,-0.000083|vel|0.000000,-0.000000,0.000000,0.000000,0.000000,0.000000|eff|0.000000,0.000000,0.000000,0.000000,0.000000,0.000000
cobot_dynamixel_driver/joint_states|name|J1,J2,J3,J4,J5,J6|pos|-0.250152,-1.268785,1.296275,0.001014,-1.317204,-0.000083|vel|0.000000,-0.000000,0.000000,0.000000,0.000000,0.000000|eff|0.000000,0.000000,0.000000,0.000000,0.000000,0.000000
cobot_dynamixel_driver/joint_states|name|J1,J2,J3,J4,J5,J6|pos|-0.250152,-1.268785,1.296275,0.001014,-1.317204,-0.000083|vel|0.000000,-0.000000,0.000000,0.000000,0.000000,0.000000|eff|0.000000,0.000000,0.000000,0.000000,0.000000,0.000000
cobot_dynamixel_driver/joint_states|name|J1,J2,J3,J4,J5,J6|pos|-0.250152,-1.268785,1.296275,0.001014,-1.317204,-0.000083|vel|0.000000,-0.000000,0.000000,0.000000,0.000000,0.000000|eff|0.000000,0.000000,0.000000,0.000000,0.000000,0.000000
cobot_dynamixel_driver/joint_states|name|J1,J2,J3,J4,J5,J6|pos|-0.250152,-1.268785,1.296275,0.001014,-1.317204,-0.000083|vel|0.000000,-0.000000,0.000000,0.000000,0.000000,0.000000|eff|0.000000,0.000000,0.000000,0.000000,0.000000,0.000000
cobot_dynamixel_driver/joint_states|name|J1,J2,J3,J4,J5,J6|pos|-0.250152,-1.268785,1.296275,0.001014,-1.317204,-0.000083|vel|0.000000,-0.000000,0.000000,0.000000,0.000000,0.000000|eff|0.000000,0.000000,0.000000,0.000000,0.000000,0.000000
cobot_dynamixel_driver/joint_states|name|J1,J2,J3,J4,J5,J6|pos|-0.250152,-1.268785,1.296275,0.001014,-1.317204,-0.000083|vel|0.000000,-0.000000,0.000000,0.000000,0.000000,0.000000|eff|0.000000,0.000000,0.000000,0.000000,0.000000,0.000000
cobot_dynamixel_driver/joint_states|name|J1,J2,J3,J4,J5,J6|pos|-0.250152,-1.268785,1.296275,0.001014,-1.317204,-0.000083|vel|0.000000,-0.000000,0.000000,0.000000,0.000000,0.000000|eff|0.000000,0.000000,0.000000,0.000000,0.000000,0.000000
cobot_dynamixel_driver/joint_states|name|J1,J2,J3,J4,J5,J6|pos|-0.250152,-1.268785,1.296275,0.001014,-1.317204,-0.000083|vel|0.000000,-0.000000,0.000000,0.000000,0.000000,0.000000|eff|0.000000,0.000000,0.000000,0.000000,0.000000,0.000000
cobot_dynamixel_driver/joint_states|name|J1,J2,J3,J4,J5,J6|pos|-0.250152,-1.268785,1.296275,0.001014,-1.317204,-0.000083|vel|0.000000,-0.000000,0.000000,0.000000,0.000000,0.000000|eff|0.000000,0.000000,0.000000,0.000000,0.000000,0.000000
cobot_dynamixel_driver/joint_states|name|J1,J2,J3,J4,J5,J6|pos|-0.250152,-1.268785,1.296275,0.001014,-1.317204,-0.000083|vel|0.000000,-0.000000,0.000000,0.000000,0.000000,0.000000|eff|0.000000,0.000000,0.000000,0.000000,0.000000,0.000000
cobot_dynamixel_driver/joint_states|name|J1,J2,J3,J4,J5,J6|pos|-0.250152,-1.268785,1.296275,0.001014,-1.317204,-0.000083|vel|0.000000,-0.000000,0.000000,0.000000,0.000000,0.000000|eff|0.000000,0.000000,0.000000,0.000000,0.000000,0.000000
cobot_dynamixel_driver/joint_states|name|J1,J2,J3,J4,J5,J6|pos|-0.250152,-1.268785,1.296275,0.001014,-1.317204,-0.000083|vel|0.000000,-0.000000,0.000000,0.000000,0.000000,0.000000|eff|0.000000,0.000000,0.000000,0.000000,0.000000,0.000000
cobot_dynamixel_driver/joint_states|name|J1,J2,J3,J4,J5,J6|pos|-0.250152,-1.268785,1.296275,0.001014,-1.317204,-0.000083|vel|0.000000,-0.000000,0.000000,0.000000,0.000000,0.000000|eff|0.000000,0.000000,0.000000,0.000000,0.000000,0.000000
cobot_dynamixel_driver/joint_states|name|J1,J2,J3,J4,J5,J6|pos|-0.250152,-1.268785,1.296275,0.001014,-1.317204,-0.000083|vel|0.000000,-0.000000,0.000000,0.000000,0.000000,0.000000|eff|0.000000,0.000000,0.000000,0.000000,0.000000,0.000000
cobot_dynamixel_driver/joint_states|name|J1,J2,J3,J4,J5,J6|pos|-0.250152,-1.268785,1.296275,0.001014,-1.317204,-0.000083|vel|0.000000,-0.000000,0.000000,0.000000,0.000000,0.000000|eff|0.000000,0.000000,0.000000,0.000000,0.000000,0.000000
cobot_dynamixel_driver/joint_states|name|J1,J2,J3,J4,J5,J6|pos|-0.250152,-1.268785,1.296275,0.001014,-1.317204,-0.000083|vel|0.000000,-0.000000,0.000000,0.000000,0.000000,0.000000|eff|0.000000,0.000000,0.000000,0.000000,0.000000,0.000000
cobot_dynamixel_driver/joint_states|name|J1,J2,J3,J4,J5,J6|pos|-0.250152,-1.268785,1.296275,0.001014,-1.317204,-0.000083|vel|0.000000,-0.000000,0.000000,0.000000,0.000000,0.000000|eff|0.000000,0.000000,0.000000,0.000000,0.000000,0.000000
cobot_dynamixel_driver/joint_states|name|J1,J2,J3,J4,J5,J6|pos|-0.250152,-1.268785,1.296275,0.001014,-1.317204,-0.000083|vel|0.000000,-0.000000,0.000000,0.000000,0.000000,0.000000|eff|0.000000,0.000000,0.000000,0.000000,0.000000,0.000000
cobot_dynamixel_driver/joint_states|name|J1,J2,J3,J4,J5,J6|pos|-0.250152,-1.268785,1.296275,0.001014,-1.317204,-0.000083|vel|0.000000,-0.000000,0.000000,0.000000,0.000000,0.000000|eff|0.000000,0.000000,0.000000,0.000000,0.000000,0.000000
cobot_dynamixel_driver/joint_states|name|J1,J2,J3,J4,J5,J6|pos|-0.250152,-1.268785,1.296275,0.001014,-1.317204,-0.000083|vel|0.000000,-0.000000,0.000000,0.000000,0.000000,0.000000|eff|0.000000,0.000000,0.000000,0.000000,0.000000,0.000000
cobot_dynamixel_driver/joint_states|name|J1,J2,J3,J4,J5,J6|pos|-0.250152,-1.268785,1.296275,0.001014,-1.317204,-0.000083|vel|0.000000,-0.000000,0.000000,0.000000,0.000000,0.000000|eff|0.000000,0.000000,0.000000,0.000000,0.000000,0.000000
cobot_dynamixel_driver/joint_states|name|J1,J2,J3,J4,J5,J6|pos|-0.250152,-1.268785,1.296275,0.001014,-1.317204,-0.000083|vel|0.000000,-0.000000,0.000000,0.000000,0.000000,0.000000|eff|0.000000,0.000000,0.000000,0.000000,0.000000,0.000000
cobot_dynamixel_driver/joint_states|name|J1,J2,J3,J4,J5,J6|pos|-0.250152,-1.268785,1.296275,0.001014,-1.317204,-0.000083|vel|0.000000,-0.000000,0.000000,0.000000,0.000000,0.000000|eff|0.000000,0.000000,0.000000,0.000000,0.000000,0.000000
cobot_dynamixel_driver/joint_states|name|J1,J2,J3,J4,J5,J6|pos|-0.250152,-1.268785,1.296275,0.001014,-1.317204,-0.000083|vel|0.000000,-0.000000,0.000000,0.000000,0.000000,0.000000|eff|0.000000,0.000000,0.000000,0.000000,0.000000,0.000000
cobot_dynamixel_driver/joint_states|name|J1,J2,J3,J4,J5,J6|pos|-0.250152,-1.268785,1.296275,0.001014,-1.317204,-0.000083|vel|0.000000,-0.000000,0.000000,0.000000,0.000000,0.000000|eff|0.000000,0.000000,0.000000,0.000000,0.000000,0.000000
cobot_dynamixel_driver/joint_states|name|J1,J2,J3,J4,J5,J6|pos|-0.250152,-1.268785,1.296275,0.001014,-1.317204,-0.000083|vel|0.000000,-0.000000,0.000000,0.000000,0.000000,0.000000|eff|0.000000,0.000000,0.000000,0.000000,0.000000,0.000000
cobot_dynamixel_driver/joint_states|name|J1,J2,J3,J4,J5,J6|pos|-0.250152,-1.268785,1.296275,0.001014,-1.317204,-0.000083|vel|0.000000,-0.000000,0.000000,0.000000,0.000000,0.000000|eff|0.000000,0.000000,0.000000,0.000000,0.000000,0.000000
cobot_dynamixel_driver/joint_states|name|J1,J2,J3,J4,J5,J6|pos|-0.250152,-1.268785,1.296275,0.001014,-1.317204,-0.000083|vel|0.000000,-0.000000,0.000000,0.000000,0.000000,0.000000|eff|0.000000,0.000000,0.000000,0.000000,0.000000,0.000000
cobot_dynamixel_driver/joint_states|name|J1,J2,J3,J4,J5,J6|pos|-0.250152,-1.268785,1.296275,0.001014,-1.317204,-0.000083|vel|0.000000,-0.000000,0.000000,0.000000,0.000000,0.000000|eff|0.000000,0.000000,0.000000,0.000000,0.000000,0.000000
cobot_dynamixel_driver/joint_states|name|J1,J2,J3,J4,J5,J6|pos|-0.250152,-1.268785,1.296275,0.001014,-1.317204,-0.000083|vel|0.000000,-0.000000,0.000000,0.000000,0.000000,0.000000|eff|0.000000,0.000000,0.000000,0.000000,0.000000,0.000000
cobot_dynamixel_driver/joint_states|name|J1,J2,J3,J4,J5,J6|pos|-0.250152,-1.268785,1.296275,0.001014,-1.317204,-0.000083|vel|0.000000,-0.000000,0.000000,0.000000,0.000000,0.000000|eff|0.000000,0.000000,0.000000,0.000000,0.000000,0.000000
cobot_dynamixel_driver/joint_states|name|J1,J2,J3,J4,J5,J6|pos|-0.250152,-1.268785,1.296275,0.001014,-1.317204,-0.000083|vel|0.000000,-0.000000,0.000000,0.000000,0.000000,0.000000|eff|0.000000,0.000000,0.000000,0.000000,0.000000,0.000000
cobot_dynamixel_driver/joint_states|name|J1,J2,J3,J4,J5,J6|pos|-0.250152,-1.268785,1.296275,0.001014,-1.317204,-0.000083|vel|0.000000,-0.000000,0.000000,0.000000,0.000000,0.000000|eff|0.000000,0.000000,0.000000,0.000000,0.000000,0.000000
cobot_dynamixel_driver/joint_states|name|J1,J2,J3,J4,J5,J6|pos|-0.250152,-1.268785,1.296275,0.001014,-1.317204,-0.000083|vel|0.000000,-0.000000,0.000000,0.000000,0.000000,0.000000|eff|0.000000,0.000000,0.000000,0.000000,0.000000,0.000000
cobot_dynamixel_driver/joint_states|name|J1,J2,J3,J4,J5,J6|pos|-0.250152,-1.268785,1.296275,0.001014,-1.317204,-0.000083|vel|0.000000,-0.000000,0.000000,0.000000,0.000000,0.000000|eff|0.000000,0.000000,0.000000,0.000000,0.000000,0.000000
cobot_dynamixel_driver/joint_states|name|J1,J2,J3,J4,J5,J6|pos|-0.250152,-1.268785,1.296275,0.001014,-1.317204,-0.000083|vel|0.000000,-0.000000,0.000000,0.000000,0.000000,0.000000|eff|0.000000,0.000000,0.000000,0.000000,0.000000,0.000000
cobot_dynamixel_driver/joint_states|name|J1,J2,J3,J4,J5,J6|pos|-0.250152,-1.268785,1.296275,0.001014,-1.317204,-0.000083|vel|0.000000,-0.000000,0.000000,0.000000,0.000000,0.000000|eff|0.000000,0.000000,0.000000,0.000000,0.000000,0.000000
cobot_dynamixel_driver/joint_states|name|J1,J2,J3,J4,J5,J6|pos|-0.250152,-1.268785,1.296275,0.001014,-1.317204,-0.000083|vel|0.000000,-0.000000,0.000000,0.000000,0.000000,0.000000|eff|0.000000,0.000000,0.000000,0.000000,0.000000,0.000000
cobot_dynamixel_driver/joint_states|name|J1,J2,J3,J4,J5,J6|pos|-0.250152,-1.268785,1.296275,0.001014,-1.317204,-0.000083|vel|0.000000,-0.000000,0.000000,0.000000,0.000000,0.000000|eff|0.000000,0.000000,0.000000,0.000000,0.000000,0.000000
cobot_dynamixel_driver/joint_states|name|J1,J2,J3,J4,J5,J6|pos|-0.250152,-1.268785,1.296275,0.001014,-1.317204,-0.000083|vel|0.000000,-0.000000,0.000000,0.000000,0.000000,0.000000|eff|0.000000,0.000000,0.000000,0.000000,0.000000,0.000000
cobot_dynamixel_driver/joint_states|name|J1,J2,J3,J4,J5,J6|pos|-0.250152,-1.268785,1.296275,0.001014,-1.317204,-0.000083|vel|0.000000,-0.000000,0.000000,0.000000,0.000000,0.000000|eff|0.000000,0.000000,0.000000,0.000000,0.000000,0.000000
cobot_dynamixel_driver/joint_states|name|J1,J2,J3,J4,J5,J6|pos|-0.250152,-1.268785,1.296275,0.001014,-1.317204,-0.000083|vel|0.000000,-0.000000,0.000000,0.000000,0.000000,0.000000|eff|0.000000,0.000000,0.000000,0.000000,0.000000,0.000000
cobot_dynamixel_driver/joint_states|name|J1,J2,J3,J4,J5,J6|pos|-0.250152,-1.268785,1.296275,0.001014,-1.317204,-0.000083|vel|0.000000,-0.000000,0.000000,0.000000,0.000000,0.000000|eff|0.000000,0.000000,0.000000,0.000000,0.000000,0.000000
cobot_dynamixel_driver/joint_states|name|J1,J2,J3,J4,J5,J6|pos|-0.250152,-1.268785,1.296275,0.001014,-1.317204,-0.000083|vel|0.000000,-0.000000,0.000000,0.000000,0.000000,0.000000|eff|0.000000,0.000000,0.000000,0.000000,0.000000,0.000000
cobot_dynamixel_driver/joint_states|name|J1,J2,J3,J4,J5,J6|pos|-0.250152,-1.268785,1.296275,0.001014,-1.317204,-0.000083|vel|0.000000,-0.000000,0.000000,0.000000,0.000000,0.000000|eff|0.000000,0.000000,0.000000,0.000000,0.000000,0.000000
cobot_dynamixel_driver/joint_states|name|J1,J2,J3,J4,J5,J6|pos|-0.250152,-1.268785,1.296275,0.001014,-1.317204,-0.000083|vel|0.000000,-0.000000,0.000000,0.000000,0.000000,0.000000|eff|0.000000,0.000000,0.000000,0.000000,0.000000,0.000000
cobot_dynamixel_driver/joint_states|name|J1,J2,J3,J4,J5,J6|pos|-0.250152,-1.268785,1.296275,0.001014,-1.317204,-0.000083|vel|0.000000,-0.000000,0.000000,0.000000,0.000000,0.000000|eff|0.000000,0.000000,0.000000,0.000000,0.000000,0.000000
cobot_dynamixel_driver/joint_states|name|J1,J2,J3,J4,J5,J6|pos|-0.250152,-1.268785,1.296275,0.001014,-1.317204,-0.000083|vel|0.000000,-0.000000,0.000000,0.000000,0.000000,0.000000|eff|0.000000,0.000000,0.000000,0.000000,0.000000,0.000000
cobot_dynamixel_driver/joint_states|name|J1,J2,J3,J4,J5,J6|pos|-0.250152,-1.268785,1.296275,0.001014,-1.317204,-0.000083|vel|0.000000,-0.000000,0.000000,0.000000,0.000000,0.000000|eff|0.000000,0.000000,0.000000,0.000000,0.000000,0.000000
cobot_dynamixel_driver/joint_states|name|J1,J2,J3,J4,J5,J6|pos|-0.250152,-1.268785,1.296275,0.001014,-1.317204,-0.000083|vel|0.000000,-0.000000,0.000000,0.000000,0.000000,0.000000|eff|0.000000,0.000000,0.000000,0.000000,0.000000,0.000000
cobot_dynamixel_driver/joint_states|name|J1,J2,J3,J4,J5,J6|pos|-0.250152,-1.268785,1.296275,0.001014,-1.317204,-0.000083|vel|0.000000,-0.000000,0.000000,0.000000,0.000000,0.000000|eff|0.000000,0.000000,0.000000,0.000000,0.000000,0.000000
cobot_dynamixel_driver/joint_states|name|J1,J2,J3,J4,J5,J6|pos|-0.250152,-1.268785,1.296275,0.001014,-1.317204,-0.000083|vel|0.000000,-0.000000,0.000000,0.000000,0.000000,0.000000|eff|0.000000,0.000000,0.000000,0.000000,0.000000,0.000000
cobot_dynamixel_driver/joint_states|name|J1,J2,J3,J4,J5,J6|pos|-0.250152,-1.268785,1.296275,0.001014,-1.317204,-0.000083|vel|0.000000,-0.000000,0.000000,0.000000,0.000000,0.000000|eff|0.000000,0.000000,0.000000,0.000000,0.000000,0.000000
cobot_dynamixel_driver/joint_states|name|J1,J2,J3,J4,J5,J6|pos|-0.250152,-1.268785,1.296275,0.001014,-1.317204,-0.000083|vel|0.000000,-0.000000,0.000000,0.000000,0.000000,0.000000|eff|0.000000,0.000000,0.000000,0.000000,0.000000,0.000000
cobot_dynamixel_driver/joint_states|name|J1,J2,J3,J4,J5,J6|pos|-0.250152,-1.268785,1.296275,0.001014,-1.317204,-0.000083|vel|0.000000,-0.000000,0.000000,0.000000,0.000000,0.000000|eff|0.000000,0.000000,0.000000,0.000000,0.000000,0.000000
cobot_dynamixel_driver/joint_states|name|J1,J2,J3,J4,J5,J6|pos|-0.250152,-1.268785,1.296275,0.001014,-1.317204,-0.000083|vel|0.000000,-0.000000,0.000000,0.000000,0.000000,0.000000|eff|0.000000,0.000000,0.000000,0.000000,0.000000,0.000000
cobot_dynamixel_driver/joint_states|name|J1,J2,J3,J4,J5,J6|pos|-0.250152,-1.268785,1.296275,0.001014,-1.317204,-0.000083|vel|0.000000,-0.000000,0.000000,0.000000,0.000000,0.000000|eff|0.000000,0.000000,0.000000,0.000000,0.000000,0.000000
cobot_dynamixel_driver/joint_states|name|J1,J2,J3,J4,J5,J6|pos|-0.250152,-1.268785,1.296275,0.001014,-1.317204,-0.000083|vel|0.000000,-0.000000,0.000000,0.000000,0.000000,0.000000|eff|0.000000,0.000000,0.000000,0.000000,0.000000,0.000000
cobot_dynamixel_driver/joint_states|name|J1,J2,J3,J4,J5,J6|pos|-0.250152,-1.268785,1.296275,0.001014,-1.317204,-0.000083|vel|0.000000,-0.000000,0.000000,0.000000,0.000000,0.000000|eff|0.000000,0.000000,0.000000,0.000000,0.000000,0.000000
cobot_dynamixel_driver/joint_states|name|J1,J2,J3,J4,J5,J6|pos|-0.250152,-1.268785,1.296275,0.001014,-1.317204,-0.000083|vel|0.000000,-0.000000,0.000000,0.000000,0.000000,0.000000|eff|0.000000,0.000000,0.000000,0.000000,0.000000,0.000000
cobot_dynamixel_driver/joint_states|name|J1,J2,J3,J4,J5,J6|pos|-0.250152,-1.268785,1.296275,0.001014,-1.317204,-0.000083|vel|0.000000,-0.000000,0.000000,0.000000,0.000000,0.000000|eff|0.000000,0.000000,0.000000,0.000000,0.000000,0.000000
cobot_dynamixel_driver/joint_states|name|J1,J2,J3,J4,J5,J6|pos|-0.250152,-1.268785,1.296275,0.001014,-1.317204,-0.000083|vel|0.000000,-0.000000,0.000000,0.000000,0.000000,0.000000|eff|0.000000,0.000000,0.000000,0.000000,0.000000,0.000000
cobot_dynamixel_driver/joint_states|name|J1,J2,J3,J4,J5,J6|pos|-0.250152,-1.268785,1.296275,0.001014,-1.317204,-0.000083|vel|0.000000,-0.000000,0.000000,0.000000,0.000000,0.000000|eff|0.000000,0.000000,0.000000,0.000000,0.000000,0.000000
cobot_dynamixel_driver/joint_states|name|J1,J2,J3,J4,J5,J6|pos|-0.250152,-1.268785,1.296275,0.001014,-1.317204,-0.000083|vel|0.000000,-0.000000,0.000000,0.000000,0.000000,0.000000|eff|0.000000,0.000000,0.000000,0.000000,0.000000,0.000000
cobot_dynamixel_driver/joint_states|name|J1,J2,J3,J4,J5,J6|pos|-0.250152,-1.268785,1.296275,0.001014,-1.317204,-0.000083|vel|0.000000,-0.000000,0.000000,0.000000,0.000000,0.000000|eff|0.000000,0.000000,0.000000,0.000000,0.000000,0.000000
cobot_dynamixel_driver/joint_states|name|J1,J2,J3,J4,J5,J6|pos|-0.250152,-1.268785,1.296275,0.001014,-1.317204,-0.000083|vel|0.000000,-0.000000,0.000000,0.000000,0.000000,0.000000|eff|0.000000,0.000000,0.000000,0.000000,0.000000,0.000000
cobot_dynamixel_driver/joint_states|name|J1,J2,J3,J4,J5,J6|pos|-0.250152,-1.268785,1.296275,0.001014,-1.317204,-0.000083|vel|0.000000,-0.000000,0.000000,0.000000,0.000000,0.000000|eff|0.000000,0.000000,0.000000,0.000000,0.000000,0.000000
cobot_dynamixel_driver/joint_states|name|J1,J2,J3,J4,J5,J6|pos|-0.250152,-1.268785,1.296275,0.001014,-1.317204,-0.000083|vel|0.000000,-0.000000,0.000000,0.000000,0.000000,0.000000|eff|0.000000,0.000000,0.000000,0.000000,0.000000,0.000000
cobot_dynamixel_driver/joint_states|name|J1,J2,J3,J4,J5,J6|pos|-0.250152,-1.268785,1.296275,0.001014,-1.317204,-0.000083|vel|0.000000,-0.000000,0.000000,0.000000,0.000000,0.000000|eff|0.000000,0.000000,0.000000,0.000000,0.000000,0.000000
cobot_dynamixel_driver/joint_states|name|J1,J2,J3,J4,J5,J6|pos|-0.250152,-1.268785,1.296275,0.001014,-1.317204,-0.000083|vel|0.000000,-0.000000,0.000000,0.000000,0.000000,0.000000|eff|0.000000,0.000000,0.000000,0.000000,0.000000,0.000000
cobot_dynamixel_driver/joint_states|name|J1,J2,J3,J4,J5,J6|pos|-0.250152,-1.268785,1.296275,0.001014,-1.317204,-0.000083|vel|0.000000,-0.000000,0.000000,0.000000,0.000000,0.000000|eff|0.000000,0.000000,0.000000,0.000000,0.000000,0.000000
cobot_dynamixel_driver/joint_states|name|J1,J2,J3,J4,J5,J6|pos|-0.250152,-1.268785,1.296275,0.001014,-1.317204,-0.000083|vel|0.000000,-0.000000,0.000000,0.000000,0.000000,0.000000|eff|0.000000,0.000000,0.000000,0.000000,0.000000,0.000000
cobot_dynamixel_driver/joint_states|name|J1,J2,J3,J4,J5,J6|pos|-0.250152,-1.268785,1.296275,0.001014,-1.317204,-0.000083|vel|0.000000,-0.000000,0.000000,0.000000,0.000000,0.000000|eff|0.000000,0.000000,0.000000,0.000000,0.000000,0.000000
cobot_dynamixel_driver/joint_states|name|J1,J2,J3,J4,J5,J6|pos|-0.250152,-1.268785,1.296275,0.001014,-1.317204,-0.000083|vel|0.000000,-0.000000,0.000000,0.000000,0.000000,0.000000|eff|0.000000,0.000000,0.000000,0.000000,0.000000,0.000000
cobot_dynamixel_driver/joint_states|name|J1,J2,J3,J4,J5,J6|pos|-0.250152,-1.268785,1.296275,0.001014,-1.317204,-0.000083|vel|0.000000,-0.000000,0.000000,0.000000,0.000000,0.000000|eff|0.000000,0.000000,0.000000,0.000000,0.000000,0.000000
cobot_dynamixel_driver/joint_states|name|J1,J2,J3,J4,J5,J6|pos|-0.250152,-1.268785,1.296275,0.001014,-1.317204,-0.000083|vel|0.000000,-0.000000,0.000000,0.000000,0.000000,0.000000|eff|0.000000,0.000000,0.000000,0.000000,0.000000,0.000000
cobot_dynamixel_driver/joint_states|name|J1,J2,J3,J4,J5,J6|pos|-0.250152,-1.268785,1.296275,0.001014,-1.317204,-0.000083|vel|0.000000,-0.000000,0.000000,0.000000,0.000000,0.000000|eff|0.000000,0.000000,0.000000,0.000000,0.000000,0.000000
cobot_dynamixel_driver/joint_states|name|J1,J2,J3,J4,J5,J6|pos|-0.250152,-1.268785,1.296275,0.001014,-1.317204,-0.000083|vel|0.000000,-0.000000,0.000000,0.000000,0.000000,0.000000|eff|0.000000,0.000000,0.000000,0.000000,0.000000,0.000000
cobot_dynamixel_driver/joint_states|name|J1,J2,J3,J4,J5,J6|pos|-0.250152,-1.268785,1.296275,0.001014,-1.317204,-0.000083|vel|0.000000,-0.000000,0.000000,0.000000,0.000000,0.000000|eff|0.000000,0.000000,0.000000,0.000000,0.000000,0.000000
cobot_dynamixel_driver/joint_states|name|J1,J2,J3,J4,J5,J6|pos|-0.250152,-1.268785,1.296275,0.001014,-1.317204,-0.000083|vel|0.000000,-0.000000,0.000000,0.000000,0.000000,0.000000|eff|0.000000,0.000000,0.000000,0.000000,0.000000,0.000000
cobot_dynamixel_driver/joint_states|name|J1,J2,J3,J4,J5,J6|pos|-0.250152,-1.268785,1.296275,0.001014,-1.317204,-0.000083|vel|0.000000,-0.000000,0.000000,0.000000,0.000000,0.000000|eff|0.000000,0.000000,0.000000,0.000000,0.000000,0.000000
cobot_dynamixel_driver/joint_states|name|J1,J2,J3,J4,J5,J6|pos|-0.250152,-1.268785,1.296275,0.001014,-1.317204,-0.000083|vel|0.000000,-0.000000,0.000000,0.000000,0.000000,0.000000|eff|0.000000,0.000000,0.000000,0.000000,0.000000,0.000000
cobot_dynamixel_driver/joint_states|name|J1,J2,J3,J4,J5,J6|pos|-0.250152,-1.268785,1.296275,0.001014,-1.317204,-0.000083|vel|0.000000,-0.000000,0.000000,0.000000,0.000000,0.000000|eff|0.000000,0.000000,0.000000,0.000000,0.000000,0.000000
cobot_dynamixel_driver/joint_states|name|J1,J2,J3,J4,J5,J6|pos|-0.250152,-1.268785,1.296275,0.001014,-1.317204,-0.000083|vel|0.000000,-0.000000,0.000000,0.000000,0.000000,0.000000|eff|0.000000,0.000000,0.000000,0.000000,0.000000,0.000000
cobot_dynamixel_driver/joint_states|name|J1,J2,J3,J4,J5,J6|pos|-0.250152,-1.268785,1.296275,0.001014,-1.317204,-0.000083|vel|0.000000,-0.000000,0.000000,0.000000,0.000000,0.000000|eff|0.000000,0.000000,0.000000,0.000000,0.000000,0.000000
cobot_dynamixel_driver/joint_states|name|J1,J2,J3,J4,J5,J6|pos|-0.250152,-1.268785,1.296275,0.001014,-1.317204,-0.000083|vel|0.000000,-0.000000,0.000000,0.000000,0.000000,0.000000|eff|0.000000,0.000000,0.000000,0.000000,0.000000,0.000000
cobot_dynamixel_driver/joint_states|name|J1,J2,J3,J4,J5,J6|pos|-0.250152,-1.268785,1.296275,0.001014,-1.317204,-0.000083|vel|0.000000,-0.000000,0.000000,0.000000,0.000000,0.000000|eff|0.000000,0.000000,0.000000,0.000000,0.000000,0.000000
cobot_dynamixel_driver/goal|-:J1,J2,J3,J4,J5,J6:0.000000,0.000000,0.000000,0.000000,0.000000,0.000000:0.700000,0.700000,0.700000,0.700000,0.700000,0.700000:pos_vel_
cobot_dynamixel_driver/joint_states|name|J1,J2,J3,J4,J5,J6|pos|-0.250152,-1.268785,1.294497,0.001014,-1.317204,-0.000083|vel|0.000000,-0.000000,0.000000,0.000000,0.000000,0.000000|eff|0.000000,0.000000,0.000000,0.000000,0.000000,0.000000
cobot_dynamixel_driver/joint_states|name|J1,J2,J3,J4,J5,J6|pos|-0.250152,-1.268785,1.294472,0.001001,-1.317162,-0.000083|vel|0.000000,-0.000000,0.000000,0.000000,0.000000,0.000000|eff|257.812500,-322.265625,-193.359375,-96.679688,88.623047,0.000000
cobot_dynamixel_driver/joint_states|name|J1,J2,J3,J4,J5,J6|pos|-0.249739,-1.268347,1.294059,0.001001,-1.316066,-0.000083|vel|0.038600,0.041312,-0.040686,0.000000,0.100652,0.000000|eff|708.984375,-612.304688,-596.191406,-112.792969,136.962891,0.000000
cobot_dynamixel_driver/joint_states|name|J1,J2,J3,J4,J5,J6|pos|-0.248299,-1.266857,1.292732,0.000989,-1.313212,-0.000083|vel|0.109539,0.113504,-0.099733,0.000000,0.187172,0.000000|eff|1031.250000,-1192.382812,-1095.703125,-112.792969,116.821289,0.000000
cobot_dynamixel_driver/joint_states|name|J1,J2,J3,J4,J5,J6|pos|-0.245370,-1.264216,1.290191,0.000976,-1.308785,-0.000083|vel|0.189034,0.160867,-0.171090,0.000000,0.269555,0.000000|eff|1192.382812,-1611.328125,-1659.667969,-193.359375,88.623047,0.000000
cobot_dynamixel_driver/joint_states|name|J1,J2,J3,J4,J5,J6|pos|-0.240976,-1.260347,1.285960,0.000951,-1.303138,-0.000083|vel|0.261434,0.233684,-0.279795,-0.001669,0.306438,0.000000|eff|1176.269531,-1869.140625,-1659.667969,-257.812500,76.538086,0.000000
cobot_dynamixel_driver/joint_states|name|J1,J2,J3,J4,J5,J6|pos|-0.235180,-1.254940,1.279838,0.000851,-1.296581,-0.000083|vel|0.339051,0.321942,-0.327784,-0.005008,0.379859,0.000000|eff|1272.949219,-1804.687500,-1401.855469,-161.132812,80.566406,0.000000
cobot_dynamixel_driver/joint_states|name|J1,J2,J3,J4,J5,J6|pos|-0.228195,-1.248280,1.272428,0.000751,-1.289196,-0.000083|vel|0.379946,0.373269,-0.412494,-0.004799,0.424325,0.000000|eff|1691.894531,-2320.312500,-1401.855469,-177.246094,64.453125,0.000000
cobot_dynamixel_driver/joint_states|name|J1,J2,J3,J4,J5,J6|pos|-0.220321,-1.240456,1.264228,0.000676,-1.281046,-0.000083|vel|0.417711,0.434194,-0.457353,-0.003964,0.383995,0.000000|eff|789.550781,-1289.062500,-1289.062500,-225.585938,52.368164,12.084961
cobot_dynamixel_driver/joint_states|name|J1,J2,J3,J4,J5,J6|pos|-0.211571,-1.231869,1.255365,0.000613,-1.272213,-0.000083|vel|0.462152,0.451094,-0.433150,-0.002712,0.495678,0.000000|eff|1595.214844,-1885.253906,-1514.648438,-209.472656,84.594727,0.000000
cobot_dynamixel_driver/joint_states|name|J1,J2,J3,J4,J5,J6|pos|-0.202320,-1.222467,1.245926,0.000538,-1.262781,-0.000083|vel|0.469455,0.514731,-0.498666,-0.003756,0.532216,0.000000|eff|1434.082031,-2046.386719,-1337.402344,-241.699219,80.566406,0.000000
cobot_dynamixel_driver/joint_states|name|J1,J2,J3,J4,J5,J6|pos|-0.192593,-1.212415,1.236012,0.000463,-1.252810,-0.000083|vel|0.540186,0.524538,-0.499917,-0.003547,0.510500,0.000000|eff|1965.820312,-886.230469,-1305.175781,-193.359375,36.254883,0.000000
cobot_dynamixel_driver/joint_states|name|J1,J2,J3,J4,J5,J6|pos|-0.182128,-1.201787,1.225622,0.000401,-1.242509,-0.000083|vel|0.558547,0.535179,-0.567102,-0.003756,0.595641,0.000000|eff|1530.761719,-1289.062500,-1144.042969,-209.472656,60.424805,0.000000
cobot_dynamixel_driver/joint_states|name|J1,J2,J3,J4,J5,J6|pos|-0.171249,-1.190921,1.214831,0.000338,-1.231773,-0.000083|vel|0.596103,0.554374,-0.580872,-0.003130,0.560482,0.000000|eff|515.625000,-3319.335938,-531.738281,-177.246094,48.339844,12.084961
cobot_dynamixel_driver/joint_states|name|J1,J2,J3,J4,J5,J6|pos|-0.160133,-1.179630,1.203540,0.000313,-1.220748,-0.000083|vel|0.556669,0.581081,-0.607370,-0.001878,0.507053,0.000000|eff|1031.250000,-2239.746094,-1546.875000,-209.472656,32.226562,12.084961
cobot_dynamixel_driver/joint_states|name|J1,J2,J3,J4,J5,J6|pos|-0.148779,-1.168101,1.192098,0.000288,-1.209392,-0.000083|vel|0.574613,0.583376,-0.627192,-0.001043,0.583577,0.000000|eff|2626.464844,-2884.277344,-1595.214844,-193.359375,56.396484,12.084961
cobot_dynamixel_driver/joint_states|name|J1,J2,J3,J4,J5,J6|pos|-0.137137,-1.156334,1.180331,0.000250,-1.197787,-0.000083|vel|0.630322,0.618011,-0.614673,-0.002086,0.585989,0.000000|eff|676.757812,-2336.425781,-2014.160156,-177.246094,68.481445,12.084961
cobot_dynamixel_driver/joint_states|name|J1,J2,J3,J4,J5,J6|pos|-0.125145,-1.144266,1.168464,0.000200,-1.185893,-0.000083|vel|0.594226,0.628652,-0.611126,-0.002504,0.653895,0.000000|eff|1289.062500,-1917.480469,-821.777344,-177.246094,56.396484,0.000000
cobot_dynamixel_driver/joint_states|name|J1,J2,J3,J4,J5,J6|pos|-0.112977,-1.131948,1.156359,0.000163,-1.173854,-0.000083|vel|0.625314,0.602780,-0.652021,-0.002295,0.681816,0.000000|eff|435.058594,-1063.476562,-918.457031,-193.359375,32.226562,12.084961
cobot_dynamixel_driver/joint_states|name|J1,J2,J3,J4,J5,J6|pos|-0.100647,-1.119492,1.143991,0.000138,-1.161629,-0.000083|vel|0.627609,0.657863,-0.647639,-0.001252,0.718354,0.000000|eff|999.023438,-966.796875,-1949.707031,-145.019531,44.311523,12.084961
cobot_dynamixel_driver/joint_states|name|J1,J2,J3,J4,J5,J6|pos|-0.088304,-1.106912,1.131522,0.000125,-1.149197,-0.000083|vel|0.619055,0.566267,-0.690620,-0.000835,0.697327,0.000000|eff|1401.855469,-1063.476562,-1740.234375,-209.472656,40.283203,12.084961
cobot_dynamixel_driver/joint_states|name|J1,J2,J3,J4,J5,J6|pos|-0.076612,-1.094231,1.118892,0.000100,-1.136703,-0.000083|vel|0.599442,0.652438,-0.658072,-0.000835,0.635281,0.000000|eff|-193.359375,-1724.121094,-2110.839844,-161.132812,40.283203,12.084961
cobot_dynamixel_driver/joint_states|name|J1,J2,J3,J4,J5,J6|pos|-0.066309,-1.081374,1.106286,0.000075,-1.124044,-0.000083|vel|0.488442,0.643675,-0.671634,-0.001043,0.642865,0.000000|eff|789.550781,-1885.253906,-1192.382812,-193.359375,32.226562,12.084961
cobot_dynamixel_driver/joint_states|name|J1,J2,J3,J4,J5,J6|pos|-0.057434,-1.068431,1.093367,0.000050,-1.111364,-0.000083|vel|0.423970,0.682692,-0.661827,-0.001252,0.589092,0.000000|eff|145.019531,-805.664062,-628.417969,-209.472656,48.339844,12.084961
cobot_dynamixel_driver/joint_states|name|J1,J2,J3,J4,J5,J6|pos|-0.049760,-1.055449,1.080410,0.000038,-1.098497,-0.000083|vel|0.366592,0.673511,-0.684152,-0.001252,0.692157,0.000000|eff|789.550781,-2803.710938,-1708.007812,-112.792969,0.000000,12.084961
cobot_dynamixel_driver/joint_states|name|J1,J2,J3,J4,J5,J6|pos|-0.043088,-1.042305,1.067379,0.000025,-1.085652,-0.000083|vel|0.342181,0.696254,-0.691455,-0.000626,0.679403,0.000000|eff|-128.906250,-499.511719,-741.210938,-193.359375,52.368164,20.141602
cobot_dynamixel_driver/joint_states|name|J1,J2,J3,J4,J5,J6|pos|-0.037467,-1.029249,1.054272,0.000013,-1.072744,-0.000083|vel|0.250585,0.663705,-0.766359,-0.000626,0.580474,0.000000|eff|531.738281,-3496.582031,-1949.707031,-112.792969,104.736328,20.141602
cobot_dynamixel_driver/joint_states|name|J1,J2,J3,J4,J5,J6|pos|-0.032735,-1.016117,1.041304,0.000013,-1.059795,-0.000083|vel|0.239735,0.682066,-0.698966,-0.000626,0.645278,0.000000|eff|145.019531,-1015.136719,-660.644531,-161.132812,60.424805,16.113281
cobot_dynamixel_driver/joint_states|name|J1,J2,J3,J4,J5,J6|pos|-0.028404,-1.002772,1.027922,0.000000,-1.046784,-0.000083|vel|0.201970,0.662453,-0.695628,-0.000626,0.682850,0.000000|eff|80.566406,-483.398438,-1047.363281,-96.679688,-12.084961,20.141602
cobot_dynamixel_driver/joint_states|name|J1,J2,J3,J4,J5,J6|pos|-0.024623,-0.989466,1.014790,0.000000,-1.033773,-0.000083|vel|0.180479,0.698132,-0.694167,-0.000209,0.603569,0.000000|eff|322.265625,-2352.539062,-1530.761719,-145.019531,0.000000,20.141602
cobot_dynamixel_driver/joint_states|name|J1,J2,J3,J4,J5,J6|pos|-0.021381,-0.976059,1.001395,0.000000,-1.020555,-0.000083|vel|0.150226,0.714406,-0.702096,-0.000209,0.627698,0.000000|eff|225.585938,-3077.636719,-934.570312,-112.792969,64.453125,12.084961
cobot_dynamixel_driver/joint_states|name|J1,J2,J3,J4,J5,J6|pos|-0.018665,-0.962689,0.988139,0.000000,-1.007233,-0.000083|vel|0.126857,0.728177,-0.663914,-0.000209,0.721801,0.000000|eff|273.925781,-2239.746094,-966.796875,-209.472656,20.141602,24.169922
cobot_dynamixel_driver/joint_states|name|J1,J2,J3,J4,J5,J6|pos|-0.016274,-0.949307,0.974844,0.000000,-0.994264,-0.000083|vel|0.116008,0.650978,-0.702722,-0.000209,0.705945,0.000000|eff|290.039062,-999.023438,-1562.988281,-112.792969,56.396484,20.141602
cobot_dynamixel_driver/joint_states|name|J1,J2,J3,J4,J5,J6|pos|-0.014196,-0.936013,0.961199,0.000000,-0.980777,-0.000083|vel|0.103280,0.707312,-0.732558,-0.000209,0.733176,0.000000|eff|257.812500,-370.605469,-1466.308594,-112.792969,-24.169922,20.141602
cobot_dynamixel_driver/joint_states|name|J1,J2,J3,J4,J5,J6|pos|-0.012381,-0.922481,0.947880,0.000000,-0.967435,-0.000083|vel|0.080329,0.700218,-0.567102,-0.000209,0.648725,0.000000|eff|209.472656,-418.945312,-2046.386719,-112.792969,92.651367,20.141602
cobot_dynamixel_driver/joint_states|name|J1,J2,J3,J4,J5,J6|pos|-0.010753,-0.908485,0.933759,0.000000,-0.953265,-0.000083|vel|0.076991,0.683735,-0.680188,0.000000,0.707324,0.000000|eff|209.472656,-2126.953125,-547.851562,-112.792969,-28.198242,20.141602
cobot_dynamixel_driver/joint_states|name|J1,J2,J3,J4,J5,J6|pos|-0.009389,-0.895717,0.921129,-0.000013,-0.940544,-0.000083|vel|0.071149,0.692290,-0.682066,0.000000,0.679058,0.000000|eff|177.246094,-3061.523438,-757.324219,-112.792969,0.000000,24.169922
cobot_dynamixel_driver/joint_states|name|J1,J2,J3,J4,J5,J6|pos|-0.008174,-0.882435,0.907759,-0.000013,-0.927450,-0.000083|vel|0.057378,0.693124,-0.710025,0.000000,0.709737,0.000000|eff|177.246094,-2094.726562,-499.511719,-209.472656,92.651367,20.141602
cobot_dynamixel_driver/joint_states|name|J1,J2,J3,J4,J5,J6|pos|-0.007173,-0.868978,0.894239,-0.000013,-0.913901,-0.000083|vel|0.047154,0.663288,-0.708981,0.000000,0.608395,0.000000|eff|257.812500,-1176.269531,-531.738281,-112.792969,-52.368164,24.169922
cobot_dynamixel_driver/joint_states|name|J1,J2,J3,J4,J5,J6|pos|-0.006297,-0.855470,0.880832,-0.000013,-0.900435,-0.000083|vel|0.042564,0.646387,-0.739861,0.000000,0.620459,0.000000|eff|241.699219,-934.570312,-1337.402344,-193.359375,48.339844,24.169922
cobot_dynamixel_driver/joint_states|name|J1,J2,J3,J4,J5,J6|pos|-0.005470,-0.841888,0.867288,-0.000013,-0.887175,-0.000041|vel|0.045068,0.707729,-0.627192,0.000000,0.606327,0.000000|eff|177.246094,-934.570312,-1740.234375,-128.906250,36.254883,28.198242
cobot_dynamixel_driver/joint_states|name|J1,J2,J3,J4,J5,J6|pos|-0.004707,-0.828181,0.853906,-0.000013,-0.873792,0.000021|vel|0.035887,0.692707,-0.721291,0.000000,0.723869,0.003792|eff|193.359375,-1869.140625,-2288.085938,-145.019531,40.283203,20.141602
cobot_dynamixel_driver/joint_states|name|J1,J2,J3,J4,J5,J6|pos|-0.004093,-0.814649,0.840286,-0.000013,-0.860305,0.000062|vel|0.029211,0.671634,-0.746955,0.000000,0.751101,0.004136|eff|128.906250,-1611.328125,-2223.632812,-193.359375,44.311523,12.084961
cobot_dynamixel_driver/joint_states|name|J1,J2,J3,J4,J5,J6|pos|-0.003555,-0.801141,0.826666,-0.000013,-0.846860,0.000062|vel|0.024620,0.698340,-0.642632,0.000000,0.597020,0.004136|eff|161.132812,-1337.402344,-2094.726562,-145.019531,0.000000,0.000000
cobot_dynamixel_driver/joint_states|name|J1,J2,J3,J4,J5,J6|pos|-0.003117,-0.787584,0.813021,-0.000013,-0.833393,0.000062|vel|0.021491,0.674555,-0.724838,0.000000,0.678369,0.004136|eff|257.812500,-1256.835938,-1530.761719,-112.792969,20.141602,0.000000
cobot_dynamixel_driver/joint_states|name|J1,J2,J3,J4,J5,J6|pos|-0.002691,-0.774090,0.799539,-0.000013,-0.820238,0.000062|vel|0.024203,0.671216,-0.703765,0.000000,0.705600,0.004136|eff|128.906250,-854.003906,-1595.214844,-112.792969,68.481445,-16.113281
cobot_dynamixel_driver/joint_states|name|J1,J2,J3,J4,J5,J6|pos|-0.002366,-0.760470,0.786257,-0.000013,-0.807040,0.000062|vel|0.015023,0.662244,-0.688534,0.000000,0.617012,0.004136|eff|177.246094,-1176.269531,-1611.328125,-128.906250,84.594727,-24.169922
cobot_dynamixel_driver/joint_states|name|J1,J2,J3,J4,J5,J6|pos|-0.002053,-0.747025,0.772875,-0.000013,-0.793533,0.000041|vel|0.015440,0.642632,-0.729220,0.000000,0.749377,-0.004136|eff|177.246094,-596.191406,-982.910156,-209.472656,88.623047,-16.113281
cobot_dynamixel_driver/joint_states|name|J1,J2,J3,J4,J5,J6|pos|-0.001765,-0.733643,0.759468,-0.000025,-0.779942,0.000041|vel|0.014397,0.689786,-0.705852,0.000000,0.683539,0.000000|eff|193.359375,0.000000,-676.757812,-112.792969,24.169922,-12.084961
cobot_dynamixel_driver/joint_states|name|J1,J2,J3,J4,J5,J6|pos|-0.001540,-0.720274,0.745773,-0.000025,-0.766745,0.000041|vel|0.009389,0.679354,-0.711902,0.000000,0.652861,0.000000|eff|96.679688,-676.757812,-1079.589844,-128.906250,92.651367,-20.141602
cobot_dynamixel_driver/joint_states|name|J1,J2,J3,J4,J5,J6|pos|-0.001352,-0.706591,0.732178,-0.000025,-0.753672,0.000041|vel|0.010432,0.713363,-0.703765,0.000000,0.711805,0.000000|eff|177.246094,-145.019531,-1208.496094,-193.359375,108.764648,-16.113281
cobot_dynamixel_driver/joint_states|name|J1,J2,J3,J4,J5,J6|pos|-0.001164,-0.692884,0.718484,-0.000025,-0.740082,0.000041|vel|0.007929,0.621350,-0.707729,0.000000,0.605293,0.000000|eff|241.699219,32.226562,-1627.441406,-145.019531,20.141602,-16.113281
cobot_dynamixel_driver/joint_states|name|J1,J2,J3,J4,J5,J6|pos|-0.001026,-0.679302,0.704751,-0.000025,-0.726553,0.000041|vel|0.006468,0.676850,-0.696671,0.000000,0.679748,0.000000|eff|161.132812,-322.265625,-2352.539062,-112.792969,32.226562,-16.113281
cobot_dynamixel_driver/joint_states|name|J1,J2,J3,J4,J5,J6|pos|-0.000926,-0.665707,0.691031,-0.000025,-0.713149,0.000041|vel|0.004799,0.674346,-0.625731,0.000000,0.694915,0.000000|eff|161.132812,-161.132812,-1611.328125,-112.792969,40.283203,-16.113281
cobot_dynamixel_driver/joint_states|name|J1,J2,J3,J4,J5,J6|pos|-0.000801,-0.652312,0.677449,-0.000025,-0.699456,0.000041|vel|0.006051,0.628026,-0.624688,0.000000,0.728006,0.000000|eff|177.246094,-370.605469,-1885.253906,-128.906250,20.141602,-16.113281
cobot_dynamixel_driver/joint_states|name|J1,J2,J3,J4,J5,J6|pos|-0.000701,-0.638642,0.664004,-0.000025,-0.686010,0.000041|vel|0.005008,0.689577,-0.736314,0.000000,0.682505,0.000000|eff|225.585938,32.226562,-1981.933594,-193.359375,-16.113281,-16.113281
cobot_dynamixel_driver/joint_states|name|J1,J2,J3,J4,J5,J6|pos|-0.000613,-0.625048,0.650447,-0.000025,-0.672709,0.000041|vel|0.003756,0.700427,-0.594226,0.000000,0.772127,0.000000|eff|177.246094,-386.718750,-1708.007812,-145.019531,92.651367,-16.113281
cobot_dynamixel_driver/joint_states|name|J1,J2,J3,J4,J5,J6|pos|-0.000538,-0.611490,0.636915,-0.000025,-0.659160,0.000041|vel|0.003547,0.738818,-0.644092,0.000000,0.671820,0.000000|eff|241.699219,-161.132812,-1981.933594,-112.792969,100.708008,-16.113281
cobot_dynamixel_driver/joint_states|name|J1,J2,J3,J4,J5,J6|pos|-0.000501,-0.597895,0.623345,-0.000025,-0.645632,0.000041|vel|0.002504,0.730889,-0.693541,0.000000,0.678024,0.000000|eff|145.019531,-338.378906,-2400.878906,-145.019531,-12.084961,-16.113281
cobot_dynamixel_driver/joint_states|name|J1,J2,J3,J4,J5,J6|pos|-0.000476,-0.584251,0.609938,-0.000025,-0.632083,0.000041|vel|0.001252,0.717327,-0.746955,0.000000,0.704221,0.000000|eff|225.585938,-402.832031,-1772.460938,-193.359375,0.000000,-20.141602
cobot_dynamixel_driver/joint_states|name|J1,J2,J3,J4,J5,J6|pos|-0.000426,-0.570593,0.596356,-0.000025,-0.618617,0.000041|vel|0.002295,0.726299,-0.603197,0.000000,0.746619,0.000000|eff|96.679688,-821.777344,-1853.027344,-112.792969,48.339844,-16.113281
cobot_dynamixel_driver/joint_states|name|J1,J2,J3,J4,J5,J6|pos|-0.000325,-0.557049,0.582611,-0.000025,-0.605089,0.000041|vel|0.004382,0.660575,-0.708981,0.000000,0.669407,0.000000|eff|193.359375,-902.343750,-2207.519531,-209.472656,8.056641,-16.113281
cobot_dynamixel_driver/joint_states|name|J1,J2,J3,J4,J5,J6|pos|-0.000288,-0.543529,0.568978,-0.000025,-0.591788,0.000041|vel|0.002086,0.646179,-0.640963,0.000000,0.617012,0.000000|eff|290.039062,-837.890625,-1514.648438,-177.246094,108.764648,-16.113281
cobot_dynamixel_driver/joint_states|name|J1,J2,J3,J4,J5,J6|pos|-0.000225,-0.530009,0.555396,-0.000038,-0.578198,0.000041|vel|0.003130,0.648265,-0.678728,0.000000,0.750066,0.000000|eff|161.132812,-483.398438,-1514.648438,-112.792969,60.424805,-16.113281
cobot_dynamixel_driver/joint_states|name|J1,J2,J3,J4,J5,J6|pos|-0.000175,-0.516377,0.542139,-0.000038,-0.564649,0.000041|vel|0.002295,0.709190,-0.699384,0.000000,0.623217,0.000000|eff|80.566406,-741.210938,-1836.914062,-128.906250,64.453125,-16.113281
cobot_dynamixel_driver/joint_states|name|J1,J2,J3,J4,J5,J6|pos|-0.000150,-0.502732,0.528469,-0.000038,-0.551369,0.000041|vel|0.002295,0.684361,-0.628861,0.000000,0.603224,0.000000|eff|161.132812,-1708.007812,-2255.859375,-209.472656,16.113281,-16.113281
cobot_dynamixel_driver/joint_states|name|J1,J2,J3,J4,J5,J6|pos|-0.000125,-0.489250,0.514712,-0.000038,-0.538048,0.000041|vel|0.000835,0.724421,-0.728177,0.000000,0.685952,0.000000|eff|161.132812,-934.570312,-1482.421875,-112.792969,32.226562,-16.113281
cobot_dynamixel_driver/joint_states|name|J1,J2,J3,J4,J5,J6|pos|-0.000100,-0.475642,0.501117,-0.000038,-0.524478,0.000041|vel|0.001043,0.678519,-0.666626,0.000000,0.689055,0.000000|eff|96.679688,-1063.476562,-1031.250000,-112.792969,40.283203,-16.113281
cobot_dynamixel_driver/joint_states|name|J1,J2,J3,J4,J5,J6|pos|-0.000075,-0.462060,0.487810,-0.000038,-0.511032,0.000041|vel|0.001461,0.712111,-0.680814,0.000000,0.688021,0.000000|eff|161.132812,-902.343750,-2046.386719,-112.792969,72.509766,-16.113281
cobot_dynamixel_driver/joint_states|name|J1,J2,J3,J4,J5,J6|pos|-0.000050,-0.448516,0.474240,-0.000038,-0.497463,0.000041|vel|0.001252,0.644718,-0.736731,0.000000,0.596675,0.000000|eff|145.019531,-1144.042969,-1933.593750,-112.792969,64.453125,-16.113281
cobot_dynamixel_driver/joint_states|name|J1,J2,J3,J4,J5,J6|pos|-0.000038,-0.434971,0.460596,-0.000038,-0.483955,0.000041|vel|0.000835,0.662870,-0.711902,0.000000,0.693536,0.000000|eff|145.019531,-982.910156,-2336.425781,-193.359375,20.141602,-16.113281
cobot_dynamixel_driver/joint_states|name|J1,J2,J3,J4,J5,J6|pos|-0.000013,-0.421451,0.446838,-0.000038,-0.470551,0.000041|vel|0.000835,0.642632,-0.692498,0.000000,0.672854,0.000000|eff|273.925781,-854.003906,-950.683594,-112.792969,76.538086,-16.113281
cobot_dynamixel_driver/joint_states|name|J1,J2,J3,J4,J5,J6|pos|0.000000,-0.407994,0.433156,-0.000038,-0.456961,0.000041|vel|0.000835,0.688117,-0.635329,0.000000,0.670441,0.000000|eff|145.019531,-112.792969,-708.984375,-177.246094,32.226562,-16.113281
cobot_dynamixel_driver/joint_states|name|J1,J2,J3,J4,J5,J6|pos|0.000013,-0.394537,0.419648,-0.000038,-0.443536,0.000041|vel|0.000626,0.688534,-0.736731,0.000000,0.682850,0.000000|eff|161.132812,112.792969,-499.511719,-193.359375,96.679688,-16.113281
cobot_dynamixel_driver/joint_states|name|J1,J2,J3,J4,J5,J6|pos|0.000025,-0.380892,0.406116,-0.000038,-0.430028,0.000041|vel|0.000626,0.603823,-0.623436,0.000000,0.652516,0.000000|eff|145.019531,-48.339844,-934.570312,-161.132812,8.056641,-16.113281
cobot_dynamixel_driver/joint_states|name|J1,J2,J3,J4,J5,J6|pos|0.000025,-0.367385,0.392547,-0.000038,-0.416480,0.000041|vel|0.000626,0.585671,-0.645344,0.000000,0.731797,0.000000|eff|145.019531,-128.906250,-757.324219,-177.246094,32.226562,-16.113281
cobot_dynamixel_driver/joint_states|name|J1,J2,J3,J4,J5,J6|pos|0.000038,-0.353840,0.378989,-0.000038,-0.403365,0.000041|vel|0.000626,0.650978,-0.709607,0.000000,0.610118,0.000000|eff|0.000000,96.679688,-1079.589844,-145.019531,132.934570,-16.113281
cobot_dynamixel_driver/joint_states|name|J1,J2,J3,J4,J5,J6|pos|0.000050,-0.340170,0.365657,-0.000038,-0.389733,0.000041|vel|0.000209,0.707104,-0.725464,0.000000,0.715596,0.000000|eff|128.906250,-354.492188,-1144.042969,-145.019531,68.481445,-16.113281
cobot_dynamixel_driver/joint_states|name|J1,J2,J3,J4,J5,J6|pos|0.000063,-0.326525,0.352138,-0.000038,-0.376495,0.000041|vel|0.000209,0.698549,-0.725464,0.000000,0.691123,0.000000|eff|112.792969,-290.039062,-1627.441406,-112.792969,120.849609,-16.113281
cobot_dynamixel_driver/joint_states|name|J1,J2,J3,J4,J5,J6|pos|0.000063,-0.312981,0.338493,-0.000038,-0.362925,0.000041|vel|0.000417,0.710442,-0.607996,0.000000,0.736968,0.000000|eff|0.000000,-435.058594,-2094.726562,-112.792969,84.594727,-16.113281
cobot_dynamixel_driver/joint_states|name|J1,J2,J3,J4,J5,J6|pos|0.000063,-0.299373,0.324723,-0.000038,-0.349376,0.000041|vel|0.000417,0.679771,-0.775331,0.000000,0.621149,0.000000|eff|112.792969,-660.644531,-725.097656,-112.792969,56.396484,-16.113281
cobot_dynamixel_driver/joint_states|name|J1,J2,J3,J4,J5,J6|pos|0.000075,-0.285804,0.311053,-0.000038,-0.336034,0.000041|vel|0.000417,0.643675,-0.704182,0.000000,0.687331,0.000000|eff|0.000000,-999.023438,-515.625000,-112.792969,32.226562,-16.113281
cobot_dynamixel_driver/joint_states|name|J1,J2,J3,J4,J5,J6|pos|0.000075,-0.272271,0.297596,-0.000038,-0.322899,0.000041|vel|0.000417,0.640337,-0.635329,0.000000,0.613221,0.000000|eff|177.246094,-757.324219,-660.644531,-145.019531,116.821289,-16.113281
cobot_dynamixel_driver/joint_states|name|J1,J2,J3,J4,J5,J6|pos|0.000075,-0.258727,0.283976,-0.000038,-0.309309,0.000041|vel|0.000417,0.643675,-0.717744,0.000000,0.694570,0.000000|eff|112.792969,-531.738281,-467.285156,-112.792969,92.651367,-16.113281
cobot_dynamixel_driver/joint_states|name|J1,J2,J3,J4,J5,J6|pos|0.000075,-0.245144,0.270469,-0.000038,-0.295760,0.000041|vel|0.000417,0.720666,-0.723378,0.000000,0.625630,0.000000|eff|80.566406,-483.398438,-918.457031,-112.792969,80.566406,-16.113281
cobot_dynamixel_driver/joint_states|name|J1,J2,J3,J4,J5,J6|pos|0.000075,-0.231575,0.256924,-0.000038,-0.282314,0.000041|vel|0.000000,0.684570,-0.734436,0.000000,0.683195,0.000000|eff|161.132812,-467.285156,-934.570312,-112.792969,116.821289,-16.113281
cobot_dynamixel_driver/joint_states|name|J1,J2,J3,J4,J5,J6|pos|0.000075,-0.217880,0.243667,-0.000038,-0.268745,0.000041|vel|0.000000,0.710025,-0.673511,0.000000,0.693880,0.000000|eff|128.906250,-1595.214844,-870.117188,-112.792969,100.708008,-16.113281
cobot_dynamixel_driver/joint_states|name|J1,J2,J3,J4,J5,J6|pos|0.000075,-0.204272,0.230235,-0.000038,-0.255402,0.000041|vel|0.000000,0.729846,-0.672468,0.000000,0.730763,0.000000|eff|32.226562,-1853.027344,-1788.574219,-112.792969,116.821289,-16.113281
cobot_dynamixel_driver/joint_states|name|J1,J2,J3,J4,J5,J6|pos|0.000075,-0.190803,0.216878,-0.000038,-0.241812,0.000041|vel|0.000000,0.721917,-0.701887,0.000000,0.589781,0.000000|eff|177.246094,-1095.703125,-1015.136719,-145.019531,88.623047,-16.113281
cobot_dynamixel_driver/joint_states|name|J1,J2,J3,J4,J5,J6|pos|0.000075,-0.177296,0.203571,-0.000038,-0.228222,0.000041|vel|0.000000,0.710025,-0.692290,0.000000,0.676990,0.000000|eff|112.792969,-708.984375,-580.078125,-112.792969,100.708008,-16.113281
cobot_dynamixel_driver/joint_states|name|J1,J2,J3,J4,J5,J6|pos|0.000075,-0.163726,0.189989,-0.000038,-0.214735,0.000041|vel|0.000000,0.710442,-0.749667,0.000000,0.669407,0.000000|eff|80.566406,-1079.589844,-563.964844,-112.792969,0.000000,-16.113281
cobot_dynamixel_driver/joint_states|name|J1,J2,J3,J4,J5,J6|pos|0.000075,-0.150106,0.176257,-0.000038,-0.201517,0.000041|vel|0.000000,0.707938,-0.729011,0.000000,0.657687,0.000000|eff|80.566406,-1530.761719,-982.910156,-112.792969,36.254883,-16.113281
cobot_dynamixel_driver/joint_states|name|J1,J2,J3,J4,J5,J6|pos|0.000075,-0.136461,0.162499,-0.000038,-0.188444,0.000041|vel|0.000000,0.721083,-0.726925,0.000000,0.732831,0.000000|eff|0.000000,-1289.062500,-1385.742188,-112.792969,0.000000,-16.113281
cobot_dynamixel_driver/joint_states|name|J1,J2,J3,J4,J5,J6|pos|0.000075,-0.122891,0.148917,-0.000038,-0.175060,0.000041|vel|0.000000,0.687491,-0.689369,0.000000,0.682850,0.000000|eff|128.906250,-2030.273438,-1562.988281,-96.679688,80.566406,-16.113281
cobot_dynamixel_driver/joint_states|name|J1,J2,J3,J4,J5,J6|pos|0.000075,-0.109359,0.135297,-0.000038,-0.161408,0.000041|vel|0.000000,0.679354,-0.704182,0.000000,0.700085,0.000000|eff|112.792969,-1482.421875,-1772.460938,-112.792969,20.141602,-16.113281
cobot_dynamixel_driver/joint_states|name|J1,J2,J3,J4,J5,J6|pos|0.000088,-0.095977,0.121715,-0.000038,-0.147880,0.000041|vel|0.000000,0.613838,-0.747372,0.000000,0.756960,0.000000|eff|0.000000,-32.226562,-1788.574219,-112.792969,36.254883,-16.113281
cobot_dynamixel_driver/joint_states|name|J1,J2,J3,J4,J5,J6|pos|0.000075,-0.083371,0.108057,-0.000038,-0.134414,0.000041|vel|0.000000,0.638250,-0.646179,0.000000,0.608395,0.000000|eff|80.566406,80.566406,-1820.800781,-112.792969,76.538086,-16.113281
cobot_dynamixel_driver/joint_states|name|J1,J2,J3,J4,J5,J6|pos|0.000088,-0.072168,0.094863,-0.000038,-0.121009,0.000041|vel|0.000000,0.544150,-0.648891,0.000000,0.614255,0.000000|eff|0.000000,1208.496094,-886.230469,-96.679688,128.906250,-16.113281
cobot_dynamixel_driver/joint_states|name|J1,J2,J3,J4,J5,J6|pos|0.000088,-0.062403,0.082495,-0.000038,-0.107481,0.000041|vel|0.000000,0.461526,-0.595060,0.000000,0.699396,0.000000|eff|0.000000,32.226562,-338.378906,-112.792969,36.254883,-16.113281
cobot_dynamixel_driver/joint_states|name|J1,J2,J3,J4,J5,J6|pos|0.000088,-0.054116,0.071567,-0.000038,-0.094553,0.000041|vel|0.000000,0.394342,-0.465073,0.000000,0.650448,0.000000|eff|0.000000,177.246094,-1192.382812,-112.792969,84.594727,-16.113281
cobot_dynamixel_driver/joint_states|name|J1,J2,J3,J4,J5,J6|pos|0.000088,-0.047018,0.062266,-0.000038,-0.082245,0.000041|vel|0.000000,0.323402,-0.445043,0.000000,0.510500,0.000000|eff|0.000000,628.417969,-950.683594,-112.792969,-32.226562,-16.113281
cobot_dynamixel_driver/joint_states|name|J1,J2,J3,J4,J5,J6|pos|0.000088,-0.040947,0.054404,-0.000038,-0.071737,0.000041|vel|0.000000,0.291479,-0.370348,0.000000,0.483269,0.000000|eff|80.566406,692.871094,-563.964844,-112.792969,0.000000,-16.113281
cobot_dynamixel_driver/joint_states|name|J1,J2,J3,J4,J5,J6|pos|0.000075,-0.035689,0.047557,-0.000038,-0.062780,0.000041|vel|0.000000,0.239526,-0.320064,0.000000,0.431564,0.000000|eff|32.226562,596.191406,-1015.136719,-112.792969,20.141602,-16.113281
cobot_dynamixel_driver/joint_states|name|J1,J2,J3,J4,J5,J6|pos|0.000075,-0.031133,0.041573,-0.000038,-0.054961,0.000041|vel|0.000000,0.213654,-0.291062,0.000000,0.371931,0.000000|eff|128.906250,273.925781,-741.210938,-112.792969,8.056641,-16.113281
cobot_dynamixel_driver/joint_states|name|J1,J2,J3,J4,J5,J6|pos|0.000088,-0.027152,0.036365,-0.000038,-0.048073,0.000041|vel|0.000000,0.179227,-0.253714,0.000000,0.276449,0.000000|eff|0.000000,370.605469,-789.550781,-112.792969,12.084961,-16.113281
cobot_dynamixel_driver/joint_states|name|J1,J2,J3,J4,J5,J6|pos|0.000088,-0.023697,0.031896,-0.000038,-0.042157,0.000041|vel|0.000000,0.162953,-0.223878,0.000000,0.302302,0.000000|eff|0.000000,209.472656,-886.230469,-112.792969,48.339844,-16.113281
cobot_dynamixel_driver/joint_states|name|J1,J2,J3,J4,J5,J6|pos|0.000075,-0.020755,0.027878,-0.000038,-0.036903,0.000041|vel|0.000000,0.136038,-0.204474,0.000000,0.280930,0.000000|eff|145.019531,241.699219,-773.437500,-112.792969,32.226562,-16.113281
cobot_dynamixel_driver/joint_states|name|J1,J2,J3,J4,J5,J6|pos|0.000075,-0.018239,0.024323,-0.000038,-0.032290,0.000041|vel|0.000000,0.119763,-0.185070,0.000000,0.192342,0.000000|eff|0.000000,145.019531,-741.210938,-96.679688,40.283203,-16.113281
cobot_dynamixel_driver/joint_states|name|J1,J2,J3,J4,J5,J6|pos|0.000075,-0.016023,0.021281,-0.000038,-0.028339,0.000041|vel|0.000000,0.111417,-0.158363,0.000000,0.183725,0.000000|eff|0.000000,161.132812,-837.890625,-32.226562,60.424805,-16.113281
cobot_dynamixel_driver/joint_states|name|J1,J2,J3,J4,J5,J6|pos|0.000075,-0.014008,0.018727,-0.000038,-0.024822,0.000041|vel|0.000000,0.102446,-0.119555,0.000000,0.144774,0.000000|eff|112.792969,177.246094,-886.230469,-112.792969,52.368164,-16.113281
cobot_dynamixel_driver/joint_states|name|J1,J2,J3,J4,J5,J6|pos|0.000075,-0.012218,0.016449,-0.000038,-0.021782,0.000041|vel|0.000000,0.082833,-0.105784,0.000000,0.147187,0.000000|eff|128.906250,257.812500,-902.343750,-96.679688,56.396484,-16.113281
cobot_dynamixel_driver/joint_states|name|J1,J2,J3,J4,J5,J6|pos|0.000075,-0.010728,0.014408,-0.000038,-0.019072,0.000041|vel|0.000000,0.074904,-0.100985,0.000000,0.128573,0.000000|eff|128.906250,209.472656,-837.890625,-112.792969,56.396484,-16.113281
cobot_dynamixel_driver/joint_states|name|J1,J2,J3,J4,J5,J6|pos|0.000075,-0.009439,0.012656,-0.000038,-0.016672,0.000041|vel|0.000000,0.061551,-0.085754,0.000000,0.114785,0.000000|eff|128.906250,177.246094,-837.890625,-96.679688,52.368164,-16.113281
cobot_dynamixel_driver/joint_states|name|J1,J2,J3,J4,J5,J6|pos|0.000075,-0.008287,0.011066,-0.000038,-0.014583,0.000041|vel|0.000000,0.059464,-0.086171,0.000000,0.099618,0.000000|eff|112.792969,209.472656,-821.777344,-96.679688,64.453125,-16.113281
cobot_dynamixel_driver/joint_states|name|J1,J2,J3,J4,J5,J6|pos|0.000075,-0.007248,0.009627,-0.000038,-0.012784,0.000041|vel|0.000000,0.052370,-0.064055,0.000000,0.095827,0.000000|eff|128.906250,209.472656,-805.664062,-112.792969,64.453125,-16.113281
cobot_dynamixel_driver/joint_states|name|J1,J2,J3,J4,J5,J6|pos|0.000075,-0.006309,0.008462,-0.000038,-0.011191,0.000041|vel|0.000000,0.047780,-0.053622,0.000000,0.078247,0.000000|eff|0.000000,193.359375,-870.117188,-112.792969,64.453125,-16.113281
cobot_dynamixel_driver/joint_states|name|J1,J2,J3,J4,J5,J6|pos|0.000075,-0.005483,0.007486,-0.000038,-0.009826,0.000041|vel|0.000000,0.040477,-0.038600,0.000000,0.061357,0.000000|eff|80.566406,241.699219,-918.457031,-112.792969,64.453125,-16.113281
cobot_dynamixel_driver/joint_states|name|J1,J2,J3,J4,J5,J6|pos|0.000075,-0.004820,0.006647,-0.000038,-0.008605,0.000041|vel|0.000000,0.029836,-0.039434,0.000000,0.067906,0.000000|eff|64.453125,145.019531,-918.457031,-112.792969,64.453125,-16.113281
cobot_dynamixel_driver/joint_states|name|J1,J2,J3,J4,J5,J6|pos|0.000075,-0.004269,0.005833,-0.000038,-0.007529,0.000041|vel|0.000000,0.032549,-0.046737,0.000000,0.049981,0.000000|eff|0.000000,257.812500,-854.003906,-96.679688,76.538086,-16.113281
cobot_dynamixel_driver/joint_states|name|J1,J2,J3,J4,J5,J6|pos|0.000075,-0.003793,0.005057,-0.000038,-0.006599,0.000041|vel|0.000000,0.029419,-0.042773,0.000000,0.038951,0.000000|eff|0.000000,112.792969,-886.230469,-112.792969,72.509766,-16.113281
cobot_dynamixel_driver/joint_states|name|J1,J2,J3,J4,J5,J6|pos|0.000075,-0.003330,0.004394,-0.000038,-0.005833,0.000041|vel|0.000000,0.025038,-0.026915,0.000000,0.038951,0.000000|eff|112.792969,225.585938,-902.343750,-64.453125,72.509766,-16.113281
cobot_dynamixel_driver/joint_states|name|J1,J2,J3,J4,J5,J6|pos|0.000075,-0.002867,0.003806,-0.000038,-0.005151,0.000041|vel|0.000000,0.020865,-0.031714,0.000000,0.034470,0.000000|eff|128.906250,193.359375,-821.777344,-96.679688,84.594727,-16.113281
cobot_dynamixel_driver/joint_states|name|J1,J2,J3,J4,J5,J6|pos|0.000075,-0.002479,0.003330,-0.000038,-0.004551,0.000041|vel|0.000000,0.018361,-0.019613,0.000000,0.033781,0.000000|eff|0.000000,193.359375,-886.230469,-80.566406,80.566406,-16.113281
cobot_dynamixel_driver/joint_states|name|J1,J2,J3,J4,J5,J6|pos|0.000075,-0.002153,0.002929,-0.000038,-0.003930,0.000041|vel|0.000000,0.015023,-0.024620,0.000000,0.028265,0.000000|eff|0.000000,193.359375,-870.117188,-80.566406,84.594727,-16.113281
cobot_dynamixel_driver/joint_states|name|J1,J2,J3,J4,J5,J6|pos|0.000075,-0.001890,0.002516,-0.000038,-0.003434,0.000041|vel|0.000000,0.012102,-0.012936,0.000000,0.024129,0.000000|eff|0.000000,177.246094,-837.890625,-96.679688,96.679688,-16.113281
cobot_dynamixel_driver/joint_states|name|J1,J2,J3,J4,J5,J6|pos|0.000075,-0.001665,0.002316,-0.000038,-0.003041,0.000041|vel|0.000000,0.010015,-0.008763,0.000000,0.019303,0.000000|eff|80.566406,177.246094,-950.683594,-96.679688,84.594727,-16.113281
cobot_dynamixel_driver/joint_states|name|J1,J2,J3,J4,J5,J6|pos|0.000075,-0.001477,0.002078,-0.000038,-0.002627,0.000041|vel|0.000000,0.010641,-0.016483,0.000000,0.019993,0.000000|eff|80.566406,161.132812,-918.457031,-112.792969,84.594727,-16.113281
cobot_dynamixel_driver/joint_states|name|J1,J2,J3,J4,J5,J6|pos|0.000075,-0.001264,0.001702,-0.000038,-0.002337,0.000041|vel|0.000000,0.011267,-0.018152,0.000000,0.012409,0.000000|eff|0.000000,402.832031,-821.777344,-96.679688,96.679688,-16.113281
cobot_dynamixel_driver/joint_states|name|J1,J2,J3,J4,J5,J6|pos|0.000075,-0.001102,0.001490,-0.000038,-0.002069,0.000041|vel|0.000000,0.006468,-0.007094,0.000000,0.012754,0.000000|eff|0.000000,80.566406,-854.003906,-112.792969,96.679688,-16.113281
cobot_dynamixel_driver/joint_states|name|J1,J2,J3,J4,J5,J6|pos|0.000075,-0.001014,0.001452,-0.000038,-0.001800,0.000041|vel|0.000000,0.003964,-0.002086,0.000000,0.014477,0.000000|eff|0.000000,80.566406,-950.683594,-96.679688,88.623047,-16.113281
cobot_dynamixel_driver/joint_states|name|J1,J2,J3,J4,J5,J6|pos|0.000075,-0.000901,0.001339,-0.000038,-0.001572,0.000041|vel|0.000000,0.005633,-0.007929,0.000000,0.008617,0.000000|eff|0.000000,241.699219,-918.457031,-96.679688,76.538086,-16.113281
cobot_dynamixel_driver/joint_states|name|J1,J2,J3,J4,J5,J6|pos|0.000075,-0.000801,0.001164,-0.000038,-0.001407,0.000041|vel|0.000000,0.005633,-0.009180,0.000000,0.009652,0.000000|eff|0.000000,193.359375,-950.683594,-96.679688,96.679688,-16.113281
cobot_dynamixel_driver/joint_states|name|J1,J2,J3,J4,J5,J6|pos|0.000063,-0.000689,0.000951,-0.000038,-0.001179,0.000041|vel|0.000000,0.005425,-0.013353,0.000000,0.013788,0.000000|eff|0.000000,209.472656,-918.457031,-96.679688,72.509766,-16.113281
cobot_dynamixel_driver/joint_states|name|J1,J2,J3,J4,J5,J6|pos|0.000063,-0.000601,0.000714,-0.000038,-0.000993,0.000041|vel|0.000000,0.003964,-0.009598,0.000000,0.007239,0.000000|eff|0.000000,193.359375,-821.777344,-96.679688,68.481445,-16.113281
cobot_dynamixel_driver/joint_states|name|J1,J2,J3,J4,J5,J6|pos|0.000063,-0.000538,0.000613,-0.000038,-0.000869,0.000041|vel|0.000000,0.003130,-0.005216,0.000000,0.005515,0.000000|eff|0.000000,177.246094,-886.230469,-96.679688,80.566406,-16.113281
cobot_dynamixel_driver/joint_states|name|J1,J2,J3,J4,J5,J6|pos|0.000063,-0.000463,0.000601,-0.000038,-0.000827,0.000041|vel|0.000000,0.003756,-0.002086,0.000000,0.003447,0.000000|eff|0.000000,177.246094,-918.457031,0.000000,84.594727,-16.113281
cobot_dynamixel_driver/joint_states|name|J1,J2,J3,J4,J5,J6|pos|0.000063,-0.000388,0.000588,-0.000038,-0.000745,0.000041|vel|0.000000,0.004173,-0.000626,0.000000,0.004136,0.000000|eff|0.000000,96.679688,-902.343750,0.000000,88.623047,-16.113281
cobot_dynamixel_driver/joint_states|name|J1,J2,J3,J4,J5,J6|pos|0.000063,-0.000288,0.000563,-0.000038,-0.000600,0.000041|vel|0.000000,0.004590,-0.001252,0.000000,0.006549,0.000000|eff|0.000000,193.359375,-902.343750,-32.226562,68.481445,-16.113281
cobot_dynamixel_driver/joint_states|name|J1,J2,J3,J4,J5,J6|pos|0.000063,-0.000200,0.000538,-0.000038,-0.000538,0.000041|vel|0.000000,0.003964,-0.001252,0.000000,0.004136,0.000000|eff|0.000000,177.246094,-918.457031,0.000000,80.566406,-16.113281
cobot_dynamixel_driver/joint_states|name|J1,J2,J3,J4,J5,J6|pos|0.000063,-0.000138,0.000526,-0.000038,-0.000517,0.000041|vel|0.000000,0.004590,-0.000835,0.000000,0.004136,0.000000|eff|0.000000,241.699219,-934.570312,-96.679688,76.538086,-16.113281
cobot_dynamixel_driver/joint_states|name|J1,J2,J3,J4,J5,J6|pos|0.000063,-0.000138,0.000501,-0.000038,-0.000517,0.000041|vel|0.000000,0.004590,-0.000835,0.000000,0.004136,0.000000|eff|0.000000,225.585938,-982.910156,-32.226562,80.566406,-16.113281
cobot_dynamixel_driver/joint_states|name|J1,J2,J3,J4,J5,J6|pos|0.000063,-0.000138,0.000501,-0.000038,-0.000517,0.000041|vel|0.000000,0.004590,-0.000835,0.000000,0.004136,0.000000|eff|0.000000,402.832031,-982.910156,-96.679688,68.481445,-16.113281
cobot_dynamixel_driver/joint_states|name|J1,J2,J3,J4,J5,J6|pos|0.000063,-0.000138,0.000488,-0.000038,-0.000517,0.000041|vel|0.000000,0.004590,-0.000835,0.000000,0.004136,0.000000|eff|0.000000,241.699219,-1031.250000,-96.679688,72.509766,-16.113281
cobot_dynamixel_driver/joint_states|name|J1,J2,J3,J4,J5,J6|pos|0.000063,-0.000138,0.000476,-0.000038,-0.000517,0.000041|vel|0.000000,0.000209,-0.000417,0.000000,0.004136,0.000000|eff|0.000000,225.585938,-982.910156,-48.339844,76.538086,-16.113281
cobot_dynamixel_driver/joint_states|name|J1,J2,J3,J4,J5,J6|pos|0.000063,-0.000138,0.000426,-0.000038,-0.000517,0.000041|vel|0.000000,0.000209,-0.002295,0.000000,0.000000,0.000000|eff|0.000000,241.699219,-999.023438,0.000000,80.566406,-16.113281
cobot_dynamixel_driver/joint_states|name|J1,J2,J3,J4,J5,J6|pos|0.000063,-0.000138,0.000313,-0.000038,-0.000496,0.000041|vel|0.000000,0.000209,-0.007094,0.000000,0.000000,0.000000|eff|0.000000,257.812500,-999.023438,-96.679688,88.623047,-16.113281
cobot_dynamixel_driver/joint_states|name|J1,J2,J3,J4,J5,J6|pos|0.000063,-0.000138,0.000188,-0.000038,-0.000434,0.000041|vel|0.000000,0.000209,-0.006051,0.000000,0.004136,0.000000|eff|0.000000,225.585938,-934.570312,-96.679688,84.594727,-16.113281
cobot_dynamixel_driver/joint_states|name|J1,J2,J3,J4,J5,J6|pos|0.000063,-0.000138,0.000038,-0.000038,-0.000393,0.000041|vel|0.000000,0.000209,-0.008346,0.000000,0.004136,0.000000|eff|0.000000,306.152344,-902.343750,0.000000,80.566406,-16.113281
cobot_dynamixel_driver/joint_states|name|J1,J2,J3,J4,J5,J6|pos|0.000063,-0.000125,-0.000175,-0.000038,-0.000393,0.000041|vel|0.000000,-0.000000,-0.006885,0.000000,0.004136,0.000000|eff|0.000000,241.699219,-821.777344,-80.566406,76.538086,-16.113281
cobot_dynamixel_driver/joint_states|name|J1,J2,J3,J4,J5,J6|pos|0.000063,-0.000125,-0.000263,-0.000038,-0.000393,0.000041|vel|0.000000,-0.000000,-0.002712,0.000000,0.004136,0.000000|eff|0.000000,241.699219,-789.550781,-48.339844,72.509766,-16.113281
cobot_dynamixel_driver/joint_states|name|J1,J2,J3,J4,J5,J6|pos|0.000063,-0.000125,-0.000275,-0.000038,-0.000393,0.000041|vel|0.000000,-0.000000,-0.002712,0.000000,0.004136,0.000000|eff|0.000000,225.585938,-789.550781,0.000000,72.509766,-16.113281
cobot_dynamixel_driver/joint_states|name|J1,J2,J3,J4,J5,J6|pos|0.000063,-0.000125,-0.000275,-0.000038,-0.000393,0.000041|vel|0.000000,-0.000000,-0.002712,0.000000,0.004136,0.000000|eff|0.000000,225.585938,-789.550781,-48.339844,68.481445,-16.113281
cobot_dynamixel_driver/joint_states|name|J1,J2,J3,J4,J5,J6|pos|0.000063,-0.000125,-0.000275,-0.000038,-0.000393,0.000041|vel|0.000000,-0.000000,-0.002712,0.000000,0.000000,0.000000|eff|0.000000,225.585938,-741.210938,-96.679688,68.481445,-16.113281
cobot_dynamixel_driver/joint_states|name|J1,J2,J3,J4,J5,J6|pos|0.000063,-0.000113,-0.000275,-0.000038,-0.000393,0.000041|vel|0.000000,-0.000000,-0.000417,0.000000,0.000000,0.000000|eff|0.000000,96.679688,-757.324219,-48.339844,80.566406,-16.113281
cobot_dynamixel_driver/joint_states|name|J1,J2,J3,J4,J5,J6|pos|0.000050,-0.000113,-0.000275,-0.000038,-0.000393,0.000041|vel|0.000000,-0.000000,-0.000417,0.000000,0.000000,0.000000|eff|0.000000,225.585938,-741.210938,0.000000,84.594727,-16.113281
cobot_dynamixel_driver/joint_states|name|J1,J2,J3,J4,J5,J6|pos|0.000050,-0.000100,-0.000275,-0.000038,-0.000393,0.000041|vel|0.000000,-0.000000,0.000417,0.000000,0.000000,0.000000|eff|0.000000,225.585938,-708.984375,-48.339844,76.538086,-16.113281
cobot_dynamixel_driver/joint_states|name|J1,J2,J3,J4,J5,J6|pos|0.000038,-0.000100,-0.000275,-0.000038,-0.000310,0.000041|vel|0.000000,-0.000000,0.000417,0.000000,0.002413,0.000000|eff|0.000000,225.585938,-692.871094,-32.226562,84.594727,-16.113281
cobot_dynamixel_driver/joint_states|name|J1,J2,J3,J4,J5,J6|pos|0.000038,-0.000100,-0.000275,-0.000038,-0.000269,0.000041|vel|0.000000,-0.000000,0.000417,0.000000,0.003792,0.000000|eff|0.000000,241.699219,-708.984375,0.000000,76.538086,-16.113281
cobot_dynamixel_driver/joint_states|name|J1,J2,J3,J4,J5,J6|pos|0.000038,-0.000088,-0.000275,-0.000038,-0.000269,0.000041|vel|0.000000,-0.000000,0.000417,0.000000,0.003792,0.000000|eff|0.000000,209.472656,-692.871094,-48.339844,76.538086,-16.113281
cobot_dynamixel_driver/joint_states|name|J1,J2,J3,J4,J5,J6|pos|0.000025,-0.000063,-0.000275,-0.000038,-0.000269,0.000041|vel|-0.000209,0.001043,0.000417,0.000000,0.003792,0.000000|eff|0.000000,257.812500,-692.871094,0.000000,72.509766,-16.113281
cobot_dynamixel_driver/joint_states|name|J1,J2,J3,J4,J5,J6|pos|0.000013,-0.000063,-0.000275,-0.000038,-0.000269,0.000041|vel|-0.000209,0.001043,0.000417,0.000000,0.003792,0.000000|eff|0.000000,225.585938,-692.871094,-32.226562,64.453125,-16.113281
cobot_dynamixel_driver/joint_states|name|J1,J2,J3,J4,J5,J6|pos|-0.000013,-0.000050,-0.000275,-0.000038,-0.000269,0.000041|vel|-0.000626,0.001043,0.000000,0.000000,0.003792,0.000000|eff|0.000000,225.585938,-676.757812,0.000000,60.424805,-16.113281
cobot_dynamixel_driver/joint_states|name|J1,J2,J3,J4,J5,J6|pos|-0.000025,-0.000050,-0.000275,-0.000038,-0.000269,0.000041|vel|-0.000835,0.001043,0.000000,0.000000,0.003792,0.000000|eff|0.000000,225.585938,-660.644531,-32.226562,60.424805,-16.113281
cobot_dynamixel_driver/joint_states|name|J1,J2,J3,J4,J5,J6|pos|-0.000038,-0.000050,-0.000263,-0.000038,-0.000269,0.000041|vel|-0.000835,0.001043,0.000000,0.000000,0.000000,0.000000|eff|0.000000,225.585938,-644.531250,-80.566406,72.509766,-16.113281
cobot_dynamixel_driver/joint_states|name|J1,J2,J3,J4,J5,J6|pos|-0.000050,-0.000050,-0.000263,-0.000038,-0.000269,0.000041|vel|-0.000417,0.001043,0.000000,0.000000,0.000000,0.000000|eff|0.000000,225.585938,-660.644531,0.000000,68.481445,-16.113281
cobot_dynamixel_driver/joint_states|name|J1,J2,J3,J4,J5,J6|pos|-0.000063,-0.000050,-0.000263,-0.000038,-0.000269,0.000041|vel|-0.000417,-0.000000,0.000000,0.000000,0.000000,0.000000|eff|0.000000,225.585938,-676.757812,0.000000,72.509766,-16.113281
cobot_dynamixel_driver/joint_states|name|J1,J2,J3,J4,J5,J6|pos|-0.000063,-0.000050,-0.000263,-0.000038,-0.000269,0.000041|vel|-0.000417,-0.000000,0.000000,0.000000,0.000000,0.000000|eff|0.000000,225.585938,-596.191406,-48.339844,80.566406,-16.113281
cobot_dynamixel_driver/joint_states|name|J1,J2,J3,J4,J5,J6|pos|-0.000063,-0.000050,-0.000263,-0.000038,-0.000269,0.000041|vel|-0.000417,-0.000000,0.000000,0.000000,0.000000,0.000000|eff|0.000000,225.585938,-596.191406,0.000000,76.538086,-16.113281
cobot_dynamixel_driver/joint_states|name|J1,J2,J3,J4,J5,J6|pos|-0.000063,-0.000050,-0.000250,-0.000038,-0.000269,0.000041|vel|-0.000417,-0.000000,0.000000,0.000000,0.000000,0.000000|eff|0.000000,225.585938,-596.191406,-80.566406,88.623047,-16.113281
cobot_dynamixel_driver/joint_states|name|J1,J2,J3,J4,J5,J6|pos|-0.000063,-0.000050,-0.000250,-0.000038,-0.000248,0.000041|vel|-0.000417,-0.000000,0.000000,0.000000,0.000000,0.000000|eff|0.000000,225.585938,-612.304688,0.000000,92.651367,-16.113281
cobot_dynamixel_driver/joint_states|name|J1,J2,J3,J4,J5,J6|pos|-0.000063,-0.000050,-0.000250,-0.000038,-0.000186,0.000041|vel|0.000000,-0.000000,0.000000,0.000000,0.003102,0.000000|eff|0.000000,225.585938,-596.191406,-64.453125,76.538086,-16.113281
cobot_dynamixel_driver/joint_states|name|J1,J2,J3,J4,J5,J6|pos|-0.000063,-0.000050,-0.000238,-0.000038,-0.000124,0.000041|vel|0.000000,-0.000000,0.000000,0.000000,0.003447,0.000000|eff|0.000000,225.585938,-580.078125,-48.339844,80.566406,-16.113281
cobot_dynamixel_driver/joint_states|name|J1,J2,J3,J4,J5,J6|pos|-0.000063,-0.000050,-0.000238,-0.000038,-0.000124,0.000041|vel|0.000000,-0.000000,0.000000,0.000000,0.003447,0.000000|eff|0.000000,225.585938,-596.191406,0.000000,68.481445,-16.113281
cobot_dynamixel_driver/joint_states|name|J1,J2,J3,J4,J5,J6|pos|-0.000063,-0.000050,-0.000238,-0.000038,-0.000124,0.000041|vel|0.000000,-0.000000,0.000000,0.000000,0.003447,0.000000|eff|0.000000,225.585938,-580.078125,-48.339844,64.453125,-16.113281
cobot_dynamixel_driver/joint_states|name|J1,J2,J3,J4,J5,J6|pos|-0.000063,-0.000050,-0.000225,-0.000038,-0.000124,0.000041|vel|0.000000,-0.000000,0.000000,0.000000,0.003447,0.000000|eff|0.000000,225.585938,-580.078125,0.000000,60.424805,-16.113281
cobot_dynamixel_driver/goal|-:J1,J2,J3,J4,J5,J6:1.047198,0.000000,0.000000,0.000000,0.000000,0.000000:0.500000,0.500000,0.500000,0.500000,0.500000,0.500000:pos_vel_
cobot_dynamixel_driver/joint_states|name|J1,J2,J3,J4,J5,J6|pos|-0.000063,-0.000038,-0.000225,-0.000038,-0.000124,0.000041|vel|0.000000,-0.000000,0.000000,0.000000,0.003447,0.000000|eff|0.000000,225.585938,-580.078125,0.000000,56.396484,-16.113281
cobot_dynamixel_driver/joint_states|name|J1,J2,J3,J4,J5,J6|pos|-0.000050,-0.000038,-0.000225,-0.000025,-0.000124,0.000041|vel|0.000000,-0.000000,0.000000,0.000000,0.003447,0.000000|eff|418.945312,225.585938,-580.078125,-32.226562,48.339844,-16.113281
cobot_dynamixel_driver/joint_states|name|J1,J2,J3,J4,J5,J6|pos|0.000513,-0.000038,-0.000225,-0.000025,-0.000124,0.000041|vel|0.050075,-0.000000,0.000000,0.000000,0.000000,0.000000|eff|741.210938,225.585938,-547.851562,0.000000,48.339844,-16.113281
cobot_dynamixel_driver/joint_states|name|J1,J2,J3,J4,J5,J6|pos|0.002091,-0.000038,-0.000213,-0.000025,-0.000124,0.000041|vel|0.116633,-0.000000,0.000000,0.000000,0.000000,0.000000|eff|837.890625,128.906250,-580.078125,-48.339844,48.339844,-16.113281
cobot_dynamixel_driver/joint_states|name|J1,J2,J3,J4,J5,J6|pos|0.004807,-0.000025,-0.000213,-0.000025,-0.000124,0.000041|vel|0.168586,-0.000000,0.000000,0.000000,0.000000,0.000000|eff|837.890625,257.812500,-499.511719,0.000000,48.339844,-16.113281
cobot_dynamixel_driver/joint_states|name|J1,J2,J3,J4,J5,J6|pos|0.008562,-0.000025,-0.000200,-0.000025,-0.000124,0.000041|vel|0.212402,-0.000000,0.000000,0.000000,0.000000,0.000000|eff|902.343750,128.906250,-547.851562,-48.339844,52.368164,-16.113281
cobot_dynamixel_driver/joint_states|name|J1,J2,J3,J4,J5,J6|pos|0.013194,-0.000025,-0.000200,-0.000025,-0.000124,0.000041|vel|0.256009,-0.000000,0.000000,0.000000,0.000000,0.000000|eff|499.511719,241.699219,-563.964844,0.000000,56.396484,-16.113281
cobot_dynamixel_driver/joint_states|name|J1,J2,J3,J4,J5,J6|pos|0.018539,-0.000013,-0.000200,-0.000025,-0.000124,0.000041|vel|0.284385,-0.000000,0.000209,0.000000,0.000000,0.000000|eff|563.964844,241.699219,-531.738281,-48.339844,56.396484,-16.113281
cobot_dynamixel_driver/joint_states|name|J1,J2,J3,J4,J5,J6|pos|0.024461,-0.000000,-0.000188,-0.000025,-0.000124,0.000041|vel|0.323611,-0.000000,0.000209,0.000000,0.000000,0.000000|eff|1095.703125,225.585938,-563.964844,-48.339844,56.396484,-16.113281
cobot_dynamixel_driver/joint_states|name|J1,J2,J3,J4,J5,J6|pos|0.030882,-0.000000,-0.000188,-0.000025,-0.000124,0.000041|vel|0.341555,0.000209,0.000209,0.000000,0.000000,0.000000|eff|402.832031,193.359375,-563.964844,0.000000,56.396484,-16.113281
cobot_dynamixel_driver/joint_states|name|J1,J2,J3,J4,J5,J6|pos|0.037730,0.000013,-0.000188,-0.000025,-0.000124,0.000041|vel|0.364506,0.000209,0.000209,0.000000,0.000000,0.000000|eff|1256.835938,241.699219,-483.398438,0.000000,60.424805,-16.113281
cobot_dynamixel_driver/joint_states|name|J1,J2,J3,J4,J5,J6|pos|0.044978,0.000013,-0.000188,-0.000025,-0.000124,0.000041|vel|0.384953,0.000209,0.000209,0.000000,0.000000,0.000000|eff|1176.269531,209.472656,-483.398438,0.000000,60.424805,-16.113281
cobot_dynamixel_driver/joint_states|name|J1,J2,J3,J4,J5,J6|pos|0.052476,0.000025,-0.000175,-0.000025,-0.000124,0.000041|vel|0.400810,0.000209,0.000209,0.000000,0.000000,0.000000|eff|1740.234375,128.906250,-467.285156,-80.566406,60.424805,-16.113281
cobot_dynamixel_driver/joint_states|name|J1,J2,J3,J4,J5,J6|pos|0.060313,0.000038,-0.000175,-0.000025,-0.000124,0.000041|vel|0.440870,0.000209,0.000000,0.000000,0.000000,0.000000|eff|418.945312,257.812500,-483.398438,-48.339844,60.424805,-16.113281
cobot_dynamixel_driver/joint_states|name|J1,J2,J3,J4,J5,J6|pos|0.068324,0.000050,-0.000175,-0.000025,-0.000124,0.000041|vel|0.446712,0.000209,0.000000,0.000000,0.000000,0.000000|eff|483.398438,241.699219,-483.398438,-48.339844,64.453125,-16.113281
cobot_dynamixel_driver/joint_states|name|J1,J2,J3,J4,J5,J6|pos|0.076612,0.000050,-0.000175,-0.000025,-0.000124,0.000041|vel|0.425431,0.000209,0.000000,0.000000,0.000000,0.000000|eff|1111.816406,225.585938,-467.285156,-80.566406,68.481445,-16.113281
cobot_dynamixel_driver/joint_states|name|J1,J2,J3,J4,J5,J6|pos|0.085036,0.000050,-0.000163,-0.000025,-0.000124,0.000041|vel|0.442540,0.000209,0.000000,0.000000,0.000000,0.000000|eff|596.191406,225.585938,-467.285156,-80.566406,72.509766,-16.113281
cobot_dynamixel_driver/joint_states|name|J1,J2,J3,J4,J5,J6|pos|0.093636,0.000050,-0.000163,-0.000025,-0.000124,0.000041|vel|0.440870,0.000209,0.000000,0.000000,0.000000,0.000000|eff|257.812500,209.472656,-435.058594,0.000000,68.481445,-16.113281
cobot_dynamixel_driver/joint_states|name|J1,J2,J3,J4,J5,J6|pos|0.102387,0.000063,-0.000163,-0.000025,-0.000103,0.000041|vel|0.450885,0.000209,0.000000,0.000000,0.000000,0.000000|eff|1514.648438,225.585938,-467.285156,0.000000,68.481445,-16.113281
cobot_dynamixel_driver/joint_states|name|J1,J2,J3,J4,J5,J6|pos|0.111325,0.000063,-0.000150,-0.000025,-0.000083,0.000041|vel|0.469038,0.000209,0.000000,0.000000,0.000000,0.000000|eff|177.246094,225.585938,-435.058594,-48.339844,72.509766,-16.113281
cobot_dynamixel_driver/joint_states|name|J1,J2,J3,J4,J5,J6|pos|0.120363,0.000063,-0.000150,-0.000025,-0.000083,0.000041|vel|0.471541,0.000209,0.000209,0.000000,0.000000,0.000000|eff|515.625000,225.585938,-435.058594,-80.566406,72.509766,-16.113281
cobot_dynamixel_driver/joint_states|name|J1,J2,J3,J4,J5,J6|pos|0.129501,0.000063,-0.000150,-0.000025,-0.000083,0.000041|vel|0.472167,0.000209,0.000209,0.000000,0.000000,0.000000|eff|1450.195312,225.585938,-451.171875,0.000000,68.481445,-16.113281
cobot_dynamixel_driver/joint_states|name|J1,J2,J3,J4,J5,J6|pos|0.138664,0.000063,-0.000150,-0.000025,-0.000062,0.000041|vel|0.438575,0.000209,0.000209,0.000000,0.000000,0.000000|eff|676.757812,225.585938,-370.605469,-80.566406,72.509766,-16.113281
cobot_dynamixel_driver/joint_states|name|J1,J2,J3,J4,J5,J6|pos|0.147878,0.000063,-0.000138,-0.000025,-0.000062,0.000041|vel|0.481765,-0.000000,0.000209,0.000000,0.000345,0.000000|eff|273.925781,225.585938,-451.171875,-80.566406,72.509766,-16.113281
cobot_dynamixel_driver/joint_states|name|J1,J2,J3,J4,J5,J6|pos|0.157166,0.000075,-0.000138,-0.000025,-0.000062,0.000041|vel|0.514940,-0.000000,0.000209,0.000000,0.000345,0.000000|eff|177.246094,225.585938,-451.171875,-80.566406,72.509766,-16.113281
cobot_dynamixel_driver/joint_states|name|J1,J2,J3,J4,J5,J6|pos|0.166505,0.000075,-0.000138,-0.000025,-0.000062,0.000041|vel|0.495953,-0.000000,0.000209,0.000000,0.000345,0.000000|eff|112.792969,225.585938,-418.945312,-48.339844,72.509766,-16.113281
cobot_dynamixel_driver/joint_states|name|J1,J2,J3,J4,J5,J6|pos|0.175906,0.000075,-0.000125,-0.000025,-0.000062,0.000041|vel|0.489068,-0.000000,0.000000,0.000000,0.000345,0.000000|eff|128.906250,225.585938,-418.945312,-32.226562,68.481445,-16.113281
cobot_dynamixel_driver/joint_states|name|J1,J2,J3,J4,J5,J6|pos|0.185295,0.000075,-0.000125,-0.000025,-0.000041,0.000041|vel|0.471959,-0.000000,0.000000,0.000000,0.000345,0.000000|eff|128.906250,225.585938,-451.171875,-64.453125,76.538086,-16.113281
cobot_dynamixel_driver/joint_states|name|J1,J2,J3,J4,J5,J6|pos|0.194796,0.000075,-0.000125,-0.000025,-0.000041,0.000041|vel|0.501378,-0.000000,0.000000,0.000000,0.000345,0.000000|eff|193.359375,225.585938,-386.718750,-48.339844,72.509766,-16.113281
cobot_dynamixel_driver/joint_states|name|J1,J2,J3,J4,J5,J6|pos|0.204335,0.000075,-0.000125,-0.000025,-0.000041,0.000041|vel|0.476340,-0.000000,0.000000,0.000000,0.000000,0.000000|eff|612.304688,225.585938,-467.285156,-32.226562,72.509766,-16.113281
cobot_dynamixel_driver/joint_states|name|J1,J2,J3,J4,J5,J6|pos|0.213786,0.000075,-0.000125,-0.000025,-0.000021,0.000041|vel|0.452763,-0.000000,0.000000,0.000000,0.000000,0.000000|eff|741.210938,241.699219,-386.718750,-80.566406,68.481445,-16.113281
cobot_dynamixel_driver/joint_states|name|J1,J2,J3,J4,J5,J6|pos|0.223275,0.000075,-0.000113,-0.000025,0.000000,0.000041|vel|0.437323,-0.000000,0.000000,0.000000,0.000000,0.000000|eff|1256.835938,225.585938,-370.605469,-96.679688,72.509766,-16.113281
cobot_dynamixel_driver/joint_states|name|J1,J2,J3,J4,J5,J6|pos|0.232826,0.000075,-0.000100,-0.000025,0.000000,0.000041|vel|0.483226,-0.000000,0.000000,0.000000,0.000000,0.000000|eff|1949.707031,225.585938,-386.718750,0.000000,72.509766,-16.113281
cobot_dynamixel_driver/joint_states|name|J1,J2,J3,J4,J5,J6|pos|0.242491,0.000075,-0.000100,-0.000025,0.000000,0.000041|vel|0.505134,-0.000000,0.000000,0.000000,0.000000,0.000000|eff|708.984375,225.585938,-451.171875,0.000000,72.509766,-16.113281
cobot_dynamixel_driver/joint_states|name|J1,J2,J3,J4,J5,J6|pos|0.252105,0.000075,-0.000100,-0.000025,0.000000,0.000041|vel|0.491572,-0.000000,0.000000,0.000000,0.000000,0.000000|eff|193.359375,273.925781,-386.718750,0.000000,76.538086,-16.113281
cobot_dynamixel_driver/joint_states|name|J1,J2,J3,J4,J5,J6|pos|0.261719,0.000075,-0.000100,-0.000025,0.000000,0.000041|vel|0.491572,-0.000000,0.000000,0.000000,0.000000,0.000000|eff|596.191406,225.585938,-435.058594,-48.339844,72.509766,-16.113281
cobot_dynamixel_driver/joint_states|name|J1,J2,J3,J4,J5,J6|pos|0.271308,0.000075,-0.000100,-0.000025,0.000000,0.000041|vel|0.499083,-0.000000,0.000000,0.000000,0.000000,0.000000|eff|1450.195312,370.605469,-435.058594,0.000000,72.509766,-16.113281
cobot_dynamixel_driver/joint_states|name|J1,J2,J3,J4,J5,J6|pos|0.280984,0.000075,-0.000088,-0.000025,0.000000,0.000041|vel|0.486773,-0.000000,0.000000,0.000000,0.000000,0.000000|eff|2191.406250,306.152344,-354.492188,0.000000,68.481445,-16.113281
cobot_dynamixel_driver/joint_states|name|J1,J2,J3,J4,J5,J6|pos|0.290611,0.000075,-0.000088,-0.000025,0.000000,0.000041|vel|0.501169,-0.000000,0.000000,0.000000,0.000000,0.000000|eff|225.585938,322.265625,-418.945312,0.000000,72.509766,-16.113281
cobot_dynamixel_driver/joint_states|name|J1,J2,J3,J4,J5,J6|pos|0.300187,0.000075,-0.000088,-0.000025,0.000021,0.000041|vel|0.502630,-0.000000,0.000000,0.000000,0.000000,0.000000|eff|257.812500,290.039062,-370.605469,0.000000,68.481445,-16.113281
cobot_dynamixel_driver/joint_states|name|J1,J2,J3,J4,J5,J6|pos|0.309751,0.000075,-0.000088,-0.000025,0.000021,0.000041|vel|0.487399,-0.000000,0.000000,0.000000,0.000000,0.000000|eff|692.871094,370.605469,-354.492188,-48.339844,72.509766,-16.113281
cobot_dynamixel_driver/joint_states|name|J1,J2,J3,J4,J5,J6|pos|0.319440,0.000075,-0.000088,-0.000025,0.000021,0.000041|vel|0.440453,-0.000000,0.000000,0.000000,0.000000,0.000000|eff|1804.687500,225.585938,-370.605469,0.000000,72.509766,-16.113281
cobot_dynamixel_driver/joint_states|name|J1,J2,J3,J4,J5,J6|pos|0.329179,0.000075,-0.000088,-0.000025,0.000021,0.000041|vel|0.542899,-0.000000,0.000000,0.000000,0.000000,0.000000|eff|209.472656,241.699219,-354.492188,-80.566406,76.538086,-16.113281
cobot_dynamixel_driver/joint_states|name|J1,J2,J3,J4,J5,J6|pos|0.338818,0.000075,-0.000075,-0.000025,0.000062,0.000041|vel|0.481348,-0.000000,0.000000,0.000000,0.000000,0.000000|eff|306.152344,241.699219,-386.718750,-80.566406,76.538086,-16.113281
cobot_dynamixel_driver/joint_states|name|J1,J2,J3,J4,J5,J6|pos|0.348382,0.000075,-0.000075,-0.000025,0.000083,0.000041|vel|0.504716,-0.000000,0.000000,0.000000,0.000345,0.000000|eff|805.664062,306.152344,-354.492188,0.000000,72.509766,-16.113281
cobot_dynamixel_driver/joint_states|name|J1,J2,J3,J4,J5,J6|pos|0.358021,0.000075,-0.000075,-0.000025,0.000083,0.000041|vel|0.516192,-0.000000,0.000000,0.000000,0.000345,0.000000|eff|1708.007812,257.812500,-402.832031,-80.566406,64.453125,-16.113281
cobot_dynamixel_driver/joint_states|name|J1,J2,J3,J4,J5,J6|pos|0.367748,0.000075,-0.000075,-0.000025,0.000083,0.000041|vel|0.544359,-0.000000,0.000000,0.000000,0.000345,0.000000|eff|225.585938,354.492188,-402.832031,0.000000,64.453125,-16.113281
cobot_dynamixel_driver/joint_states|name|J1,J2,J3,J4,J5,J6|pos|0.377500,0.000075,-0.000075,-0.000025,0.000083,0.000041|vel|0.481348,-0.000000,0.000000,0.000000,0.000345,0.000000|eff|612.304688,225.585938,-402.832031,-80.566406,72.509766,-16.113281
cobot_dynamixel_driver/joint_states|name|J1,J2,J3,J4,J5,J6|pos|0.387176,0.000075,-0.000075,-0.000025,0.000083,0.000041|vel|0.483226,-0.000000,0.000000,0.000000,0.000345,0.000000|eff|1514.648438,225.585938,-338.378906,0.000000,64.453125,-16.113281
cobot_dynamixel_driver/joint_states|name|J1,J2,J3,J4,J5,J6|pos|0.396803,0.000075,-0.000063,-0.000025,0.000083,0.000041|vel|0.502004,-0.000000,0.000000,0.000000,0.000345,0.000000|eff|757.324219,354.492188,-354.492188,0.000000,64.453125,-16.113281
cobot_dynamixel_driver/joint_states|name|J1,J2,J3,J4,J5,J6|pos|0.406542,0.000075,-0.000063,-0.000025,0.000083,0.000041|vel|0.486147,-0.000000,0.000000,0.000000,0.000000,0.000000|eff|209.472656,370.605469,-402.832031,-64.453125,60.424805,-16.113281
cobot_dynamixel_driver/joint_states|name|J1,J2,J3,J4,J5,J6|pos|0.416231,0.000075,-0.000063,-0.000025,0.000083,0.000041|vel|0.501587,-0.000000,0.000000,0.000000,0.000000,0.000000|eff|886.230469,386.718750,-338.378906,-32.226562,64.453125,-16.113281
cobot_dynamixel_driver/joint_states|name|J1,J2,J3,J4,J5,J6|pos|0.425845,0.000075,-0.000063,-0.000025,0.000083,0.000041|vel|0.489694,-0.000000,0.000000,0.000000,0.000000,0.000000|eff|1917.480469,225.585938,-338.378906,-48.339844,68.481445,-16.113281
cobot_dynamixel_driver/joint_states|name|J1,J2,J3,J4,J5,J6|pos|0.435497,0.000075,-0.000063,-0.000025,0.000083,0.000041|vel|0.487399,-0.000000,0.000000,0.000000,0.000000,0.000000|eff|934.570312,402.832031,-338.378906,0.000000,60.424805,-16.113281
cobot_dynamixel_driver/joint_states|name|J1,J2,J3,J4,J5,J6|pos|0.445223,0.000075,-0.000063,-0.000025,0.000083,0.000041|vel|0.506594,-0.000000,0.000000,0.000000,0.000000,0.000000|eff|306.152344,225.585938,-338.378906,0.000000,60.424805,-16.113281
cobot_dynamixel_driver/joint_states|name|J1,J2,J3,J4,J5,J6|pos|0.455012,0.000075,-0.000063,-0.000025,0.000083,0.000041|vel|0.474462,-0.000000,0.000000,0.000000,0.000000,0.000000|eff|1643.554688,225.585938,-338.378906,0.000000,60.424805,-16.113281
cobot_dynamixel_driver/joint_states|name|J1,J2,J3,J4,J5,J6|pos|0.464664,0.000075,-0.000050,-0.000025,0.000083,0.000041|vel|0.480722,-0.000000,0.000000,0.000000,0.000000,0.000000|eff|1289.062500,306.152344,-354.492188,-32.226562,60.424805,-16.113281
cobot_dynamixel_driver/joint_states|name|J1,J2,J3,J4,J5,J6|pos|0.474215,0.000075,-0.000050,-0.000025,0.000083,0.000041|vel|0.485312,-0.000000,0.000000,0.000000,0.000000,0.000000|eff|370.605469,241.699219,-354.492188,-80.566406,64.453125,-16.113281
cobot_dynamixel_driver/joint_states|name|J1,J2,J3,J4,J5,J6|pos|0.483879,0.000075,-0.000050,-0.000025,0.000083,0.000041|vel|0.513062,-0.000000,0.000000,0.000000,0.000000,0.000000|eff|499.511719,402.832031,-338.378906,-64.453125,56.396484,-16.113281
cobot_dynamixel_driver/joint_states|name|J1,J2,J3,J4,J5,J6|pos|0.493631,0.000075,-0.000038,-0.000025,0.000083,0.000041|vel|0.504925,-0.000000,0.000000,0.000000,0.000000,0.000000|eff|1724.121094,241.699219,-354.492188,-64.453125,56.396484,-16.113281
cobot_dynamixel_driver/joint_states|name|J1,J2,J3,J4,J5,J6|pos|0.503383,0.000075,-0.000038,-0.000025,0.000083,0.000041|vel|0.506177,-0.000000,0.000000,0.000000,0.000000,0.000000|eff|290.039062,225.585938,-322.265625,-80.566406,56.396484,-16.113281
cobot_dynamixel_driver/joint_states|name|J1,J2,J3,J4,J5,J6|pos|0.513059,0.000075,-0.000038,-0.000025,0.000083,0.000041|vel|0.478009,-0.000000,0.000000,0.000000,0.000000,0.000000|eff|354.492188,290.039062,-338.378906,0.000000,56.396484,-16.113281
cobot_dynamixel_driver/joint_states|name|J1,J2,J3,J4,J5,J6|pos|0.522699,0.000075,-0.000038,-0.000025,0.000083,0.000041|vel|0.450468,-0.000000,0.000000,0.000000,0.000000,0.000000|eff|1224.609375,241.699219,-338.378906,0.000000,56.396484,-16.113281
cobot_dynamixel_driver/joint_states|name|J1,J2,J3,J4,J5,J6|pos|0.532413,0.000075,-0.000038,-0.000025,0.000083,0.000041|vel|0.509515,-0.000000,0.000000,0.000000,0.000000,0.000000|eff|1111.816406,370.605469,-338.378906,-80.566406,56.396484,-16.113281
cobot_dynamixel_driver/joint_states|name|J1,J2,J3,J4,J5,J6|pos|0.542127,0.000075,-0.000038,-0.000025,0.000083,0.000041|vel|0.493241,-0.000000,0.000000,0.000000,0.000000,0.000000|eff|177.246094,322.265625,-338.378906,-48.339844,48.339844,-16.113281
cobot_dynamixel_driver/joint_states|name|J1,J2,J3,J4,J5,J6|pos|0.551766,0.000075,-0.000038,-0.000025,0.000083,0.000041|vel|0.458814,-0.000000,0.000000,0.000000,0.000000,0.000000|eff|805.664062,257.812500,-338.378906,-80.566406,52.368164,-16.113281
cobot_dynamixel_driver/joint_states|name|J1,J2,J3,J4,J5,J6|pos|0.561430,0.000075,-0.000038,-0.000025,0.000083,0.000041|vel|0.494701,-0.000000,0.000000,0.000000,0.000000,0.000000|eff|1756.347656,418.945312,-338.378906,0.000000,56.396484,-16.113281
cobot_dynamixel_driver/joint_states|name|J1,J2,J3,J4,J5,J6|pos|0.571207,0.000075,-0.000038,-0.000025,0.000083,0.000041|vel|0.513897,-0.000000,0.000000,0.000000,0.000000,0.000000|eff|193.359375,467.285156,-338.378906,0.000000,52.368164,-16.113281
cobot_dynamixel_driver/joint_states|name|J1,J2,J3,J4,J5,J6|pos|0.580908,0.000075,-0.000038,-0.000025,0.000083,0.000041|vel|0.479261,-0.000000,0.000000,0.000000,0.000000,0.000000|eff|644.531250,241.699219,-338.378906,0.000000,52.368164,-16.113281
cobot_dynamixel_driver/joint_states|name|J1,J2,J3,J4,J5,J6|pos|0.590535,0.000075,-0.000038,-0.000025,0.000083,0.000041|vel|0.492406,-0.000000,0.000000,0.000000,0.000000,0.000000|eff|1498.535156,418.945312,-338.378906,0.000000,52.368164,-16.113281
cobot_dynamixel_driver/joint_states|name|J1,J2,J3,J4,J5,J6|pos|0.600136,0.000075,-0.000025,-0.000025,0.000083,0.000041|vel|0.511393,-0.000000,0.000000,0.000000,0.000000,0.000000|eff|1998.046875,370.605469,-338.378906,-80.566406,52.368164,-16.113281
cobot_dynamixel_driver/joint_states|name|J1,J2,J3,J4,J5,J6|pos|0.609863,0.000075,-0.000025,-0.000025,0.000083,0.000041|vel|0.490320,-0.000000,0.000000,0.000000,0.000000,0.000000|eff|48.339844,273.925781,-338.378906,0.000000,48.339844,-16.113281
cobot_dynamixel_driver/joint_states|name|J1,J2,J3,J4,J5,J6|pos|0.619665,0.000075,-0.000025,-0.000025,0.000083,0.000041|vel|0.518696,-0.000000,0.000000,0.000000,0.000000,0.000000|eff|902.343750,386.718750,-338.378906,0.000000,44.311523,-16.113281
cobot_dynamixel_driver/joint_states|name|J1,J2,J3,J4,J5,J6|pos|0.629404,0.000075,-0.000025,-0.000025,0.000083,0.000041|vel|0.490946,-0.000000,0.000000,0.000000,0.000000,0.000000|eff|1127.929688,257.812500,-338.378906,-80.566406,48.339844,-16.113281
cobot_dynamixel_driver/joint_states|name|J1,J2,J3,J4,J5,J6|pos|0.639055,0.000075,-0.000025,-0.000025,0.000083,0.000041|vel|0.496579,-0.000000,0.000000,0.000000,0.000000,0.000000|eff|145.019531,402.832031,-338.378906,0.000000,48.339844,-16.113281
cobot_dynamixel_driver/joint_states|name|J1,J2,J3,J4,J5,J6|pos|0.648707,0.000075,-0.000025,-0.000025,0.000083,0.000041|vel|0.499083,-0.000000,0.000000,0.000000,0.000000,0.000000|eff|580.078125,386.718750,-338.378906,-80.566406,48.339844,-16.113281
cobot_dynamixel_driver/joint_states|name|J1,J2,J3,J4,J5,J6|pos|0.658421,0.000075,-0.000025,-0.000025,0.000083,0.000041|vel|0.477801,-0.000000,0.000000,0.000000,0.000000,0.000000|eff|1579.101562,322.265625,-338.378906,-80.566406,24.169922,-16.113281
cobot_dynamixel_driver/joint_states|name|J1,J2,J3,J4,J5,J6|pos|0.668098,0.000075,-0.000025,-0.000025,0.000083,0.000041|vel|0.488442,-0.000000,0.000000,0.000000,0.000000,0.000000|eff|821.777344,435.058594,-338.378906,-48.339844,36.254883,-16.113281
cobot_dynamixel_driver/joint_states|name|J1,J2,J3,J4,J5,J6|pos|0.677762,0.000075,-0.000025,-0.000025,0.000083,0.000041|vel|0.494701,-0.000000,0.000000,0.000000,0.000000,0.000000|eff|209.472656,241.699219,-338.378906,-80.566406,44.311523,-16.113281
cobot_dynamixel_driver/joint_states|name|J1,J2,J3,J4,J5,J6|pos|0.687451,0.000075,-0.000025,-0.000025,0.000083,0.000041|vel|0.470498,-0.000000,0.000000,0.000000,0.000000,0.000000|eff|934.570312,241.699219,-322.265625,-48.339844,40.283203,-16.113281
cobot_dynamixel_driver/joint_states|name|J1,J2,J3,J4,J5,J6|pos|0.697203,0.000075,-0.000025,-0.000025,0.000083,0.000041|vel|0.521825,-0.000000,0.000000,0.000000,0.000000,0.000000|eff|435.058594,418.945312,-338.378906,-48.339844,44.311523,-16.113281
cobot_dynamixel_driver/joint_states|name|J1,J2,J3,J4,J5,J6|pos|0.706917,0.000075,-0.000025,-0.000025,0.000083,0.000041|vel|0.507220,-0.000000,0.000000,0.000000,0.000000,0.000000|eff|209.472656,467.285156,-338.378906,-48.339844,40.283203,-16.113281
cobot_dynamixel_driver/joint_states|name|J1,J2,J3,J4,J5,J6|pos|0.716506,0.000075,-0.000025,-0.000025,0.000083,0.000041|vel|0.464656,-0.000000,0.000000,0.000000,0.000000,0.000000|eff|563.964844,418.945312,-338.378906,0.000000,28.198242,-16.113281
cobot_dynamixel_driver/joint_states|name|J1,J2,J3,J4,J5,J6|pos|0.726132,0.000075,-0.000025,-0.000025,0.000083,0.000041|vel|0.489485,-0.000000,0.000000,0.000000,0.000000,0.000000|eff|1369.628906,257.812500,-338.378906,-80.566406,48.339844,-16.113281
