surachairobotic/cobot/cobot_dynamixel_driver/log/2018-12-20T07:33:40.313172_driver_log.txt
cobot_dynamixel_driver/joint_states|name|J1,J2,J3,J4,J5,J6|pos|0.012618,-1.268785,1.296362,0.001014,-1.366869,0.488299|vel|0.000000,-0.000000,0.000000,0.000000,0.000000,0.000000|eff|0.000000,0.000000,0.000000,0.000000,0.000000,0.000000
cobot_dynamixel_driver/joint_states|name|J1,J2,J3,J4,J5,J6|pos|0.012618,-1.268785,1.296362,0.001014,-1.366869,0.488299|vel|0.000000,-0.000000,0.000000,0.000000,0.000000,0.000000|eff|0.000000,0.000000,0.000000,0.000000,0.000000,0.000000
cobot_dynamixel_driver/joint_states|name|J1,J2,J3,J4,J5,J6|pos|0.012618,-1.268785,1.296362,0.001014,-1.366869,0.488299|vel|0.000000,-0.000000,0.000000,0.000000,0.000000,0.000000|eff|0.000000,0.000000,0.000000,0.000000,0.000000,0.000000
cobot_dynamixel_driver/joint_states|name|J1,J2,J3,J4,J5,J6|pos|0.012618,-1.268785,1.296362,0.001014,-1.366869,0.488299|vel|0.000000,-0.000000,0.000000,0.000000,0.000000,0.000000|eff|0.000000,0.000000,-32.226562,0.000000,0.000000,0.000000
cobot_dynamixel_driver/joint_states|name|J1,J2,J3,J4,J5,J6|pos|0.012618,-1.268785,1.296362,0.001014,-1.366869,0.488299|vel|0.000000,-0.000000,0.000000,0.000000,0.000000,0.000000|eff|0.000000,0.000000,0.000000,0.000000,0.000000,0.000000
cobot_dynamixel_driver/joint_states|name|J1,J2,J3,J4,J5,J6|pos|0.012618,-1.268785,1.296362,0.001014,-1.366869,0.488299|vel|0.000000,-0.000000,0.000000,0.000000,0.000000,0.000000|eff|0.000000,0.000000,-32.226562,0.000000,0.000000,0.000000
cobot_dynamixel_driver/joint_states|name|J1,J2,J3,J4,J5,J6|pos|0.012618,-1.268785,1.296362,0.001014,-1.366869,0.488299|vel|0.000000,-0.000000,0.000000,0.000000,0.000000,0.000000|eff|0.000000,0.000000,-32.226562,0.000000,0.000000,0.000000
cobot_dynamixel_driver/joint_states|name|J1,J2,J3,J4,J5,J6|pos|0.012618,-1.268785,1.296362,0.001014,-1.366869,0.488299|vel|0.000000,-0.000000,0.000000,0.000000,0.000000,0.000000|eff|0.000000,0.000000,-32.226562,0.000000,0.000000,0.000000
cobot_dynamixel_driver/joint_states|name|J1,J2,J3,J4,J5,J6|pos|0.012618,-1.268785,1.296362,0.001014,-1.366869,0.488299|vel|0.000000,-0.000000,0.000000,0.000000,0.000000,0.000000|eff|0.000000,0.000000,0.000000,0.000000,0.000000,0.000000
cobot_dynamixel_driver/joint_states|name|J1,J2,J3,J4,J5,J6|pos|0.012618,-1.268785,1.296362,0.001014,-1.366869,0.488299|vel|0.000000,-0.000000,0.000000,0.000000,0.000000,0.000000|eff|0.000000,0.000000,0.000000,0.000000,0.000000,0.000000
cobot_dynamixel_driver/joint_states|name|J1,J2,J3,J4,J5,J6|pos|0.012618,-1.268785,1.296362,0.001014,-1.366869,0.488299|vel|0.000000,-0.000000,0.000000,0.000000,0.000000,0.000000|eff|0.000000,0.000000,-32.226562,0.000000,0.000000,0.000000
cobot_dynamixel_driver/joint_states|name|J1,J2,J3,J4,J5,J6|pos|0.012618,-1.268785,1.296362,0.001014,-1.366869,0.488299|vel|0.000000,-0.000000,0.000000,0.000000,0.000000,0.000000|eff|0.000000,0.000000,-32.226562,0.000000,0.000000,0.000000
cobot_dynamixel_driver/joint_states|name|J1,J2,J3,J4,J5,J6|pos|0.012618,-1.268785,1.296362,0.001014,-1.366869,0.488299|vel|0.000000,-0.000000,0.000000,0.000000,0.000000,0.000000|eff|0.000000,0.000000,-32.226562,0.000000,0.000000,0.000000
cobot_dynamixel_driver/joint_states|name|J1,J2,J3,J4,J5,J6|pos|0.012618,-1.268785,1.296362,0.001014,-1.366869,0.488299|vel|0.000000,-0.000000,0.000000,0.000000,0.000000,0.000000|eff|0.000000,0.000000,0.000000,0.000000,0.000000,0.000000
cobot_dynamixel_driver/joint_states|name|J1,J2,J3,J4,J5,J6|pos|0.012618,-1.268785,1.296362,0.001014,-1.366869,0.488299|vel|0.000000,-0.000000,0.000000,0.000000,0.000000,0.000000|eff|0.000000,0.000000,-32.226562,0.000000,0.000000,0.000000
cobot_dynamixel_driver/joint_states|name|J1,J2,J3,J4,J5,J6|pos|0.012618,-1.268785,1.296362,0.001014,-1.366869,0.488299|vel|0.000000,-0.000000,0.000000,0.000000,0.000000,0.000000|eff|0.000000,0.000000,0.000000,0.000000,0.000000,0.000000
cobot_dynamixel_driver/joint_states|name|J1,J2,J3,J4,J5,J6|pos|0.012618,-1.268785,1.296362,0.001014,-1.366869,0.488299|vel|0.000000,-0.000000,0.000000,0.000000,0.000000,0.000000|eff|0.000000,0.000000,-32.226562,0.000000,0.000000,0.000000
cobot_dynamixel_driver/joint_states|name|J1,J2,J3,J4,J5,J6|pos|0.012618,-1.268785,1.296362,0.001014,-1.366869,0.488299|vel|0.000000,-0.000000,0.000000,0.000000,0.000000,0.000000|eff|0.000000,0.000000,0.000000,0.000000,0.000000,0.000000
cobot_dynamixel_driver/joint_states|name|J1,J2,J3,J4,J5,J6|pos|0.012618,-1.268785,1.296362,0.001014,-1.366869,0.488299|vel|0.000000,-0.000000,0.000000,0.000000,0.000000,0.000000|eff|0.000000,0.000000,-32.226562,0.000000,0.000000,0.000000
cobot_dynamixel_driver/joint_states|name|J1,J2,J3,J4,J5,J6|pos|0.012618,-1.268785,1.296362,0.001014,-1.366869,0.488299|vel|0.000000,-0.000000,0.000000,0.000000,0.000000,0.000000|eff|0.000000,0.000000,0.000000,0.000000,0.000000,0.000000
cobot_dynamixel_driver/joint_states|name|J1,J2,J3,J4,J5,J6|pos|0.012618,-1.268785,1.296362,0.001014,-1.366869,0.488299|vel|0.000000,-0.000000,0.000000,0.000000,0.000000,0.000000|eff|0.000000,0.000000,-32.226562,0.000000,0.000000,0.000000
cobot_dynamixel_driver/joint_states|name|J1,J2,J3,J4,J5,J6|pos|0.012618,-1.268785,1.296362,0.001014,-1.366869,0.488299|vel|0.000000,-0.000000,0.000000,0.000000,0.000000,0.000000|eff|0.000000,0.000000,0.000000,0.000000,0.000000,0.000000
cobot_dynamixel_driver/joint_states|name|J1,J2,J3,J4,J5,J6|pos|0.012618,-1.268785,1.296362,0.001014,-1.366869,0.488299|vel|0.000000,-0.000000,0.000000,0.000000,0.000000,0.000000|eff|0.000000,0.000000,0.000000,0.000000,0.000000,0.000000
cobot_dynamixel_driver/joint_states|name|J1,J2,J3,J4,J5,J6|pos|0.012618,-1.268785,1.296362,0.001014,-1.366869,0.488299|vel|0.000000,-0.000000,0.000000,0.000000,0.000000,0.000000|eff|0.000000,0.000000,0.000000,0.000000,0.000000,0.000000
cobot_dynamixel_driver/joint_states|name|J1,J2,J3,J4,J5,J6|pos|0.012618,-1.268785,1.296362,0.001014,-1.366869,0.488299|vel|0.000000,-0.000000,0.000000,0.000000,0.000000,0.000000|eff|0.000000,0.000000,0.000000,0.000000,0.000000,0.000000
cobot_dynamixel_driver/joint_states|name|J1,J2,J3,J4,J5,J6|pos|0.012618,-1.268785,1.296362,0.001014,-1.366869,0.488299|vel|0.000000,-0.000000,0.000000,0.000000,0.000000,0.000000|eff|0.000000,0.000000,-32.226562,0.000000,0.000000,0.000000
cobot_dynamixel_driver/joint_states|name|J1,J2,J3,J4,J5,J6|pos|0.012618,-1.268785,1.296362,0.001014,-1.366869,0.488299|vel|0.000000,-0.000000,0.000000,0.000000,0.000000,0.000000|eff|0.000000,0.000000,0.000000,0.000000,0.000000,0.000000
cobot_dynamixel_driver/joint_states|name|J1,J2,J3,J4,J5,J6|pos|0.012618,-1.268785,1.296362,0.001014,-1.366869,0.488299|vel|0.000000,-0.000000,0.000000,0.000000,0.000000,0.000000|eff|0.000000,0.000000,0.000000,0.000000,0.000000,0.000000
cobot_dynamixel_driver/joint_states|name|J1,J2,J3,J4,J5,J6|pos|0.012618,-1.268785,1.296362,0.001014,-1.366869,0.488299|vel|0.000000,-0.000000,0.000000,0.000000,0.000000,0.000000|eff|0.000000,0.000000,-32.226562,0.000000,0.000000,0.000000
cobot_dynamixel_driver/joint_states|name|J1,J2,J3,J4,J5,J6|pos|0.012618,-1.268785,1.296362,0.001014,-1.366869,0.488299|vel|0.000000,-0.000000,0.000000,0.000000,0.000000,0.000000|eff|0.000000,0.000000,-32.226562,0.000000,0.000000,0.000000
cobot_dynamixel_driver/joint_states|name|J1,J2,J3,J4,J5,J6|pos|0.012618,-1.268785,1.296362,0.001014,-1.366869,0.488299|vel|0.000000,-0.000000,0.000000,0.000000,0.000000,0.000000|eff|0.000000,0.000000,0.000000,0.000000,0.000000,0.000000
cobot_dynamixel_driver/joint_states|name|J1,J2,J3,J4,J5,J6|pos|0.012618,-1.268785,1.296362,0.001014,-1.366869,0.488299|vel|0.000000,-0.000000,0.000000,0.000000,0.000000,0.000000|eff|0.000000,0.000000,-32.226562,0.000000,0.000000,0.000000
cobot_dynamixel_driver/joint_states|name|J1,J2,J3,J4,J5,J6|pos|0.012618,-1.268785,1.296362,0.001014,-1.366869,0.488299|vel|0.000000,-0.000000,0.000000,0.000000,0.000000,0.000000|eff|0.000000,0.000000,-32.226562,0.000000,0.000000,0.000000
cobot_dynamixel_driver/joint_states|name|J1,J2,J3,J4,J5,J6|pos|0.012618,-1.268785,1.296362,0.001014,-1.366869,0.488299|vel|0.000000,-0.000000,0.000000,0.000000,0.000000,0.000000|eff|0.000000,0.000000,0.000000,0.000000,0.000000,0.000000
cobot_dynamixel_driver/joint_states|name|J1,J2,J3,J4,J5,J6|pos|0.012618,-1.268785,1.296362,0.001014,-1.366869,0.488299|vel|0.000000,-0.000000,0.000000,0.000000,0.000000,0.000000|eff|0.000000,0.000000,-32.226562,0.000000,0.000000,0.000000
cobot_dynamixel_driver/joint_states|name|J1,J2,J3,J4,J5,J6|pos|0.012618,-1.268785,1.296362,0.001014,-1.366869,0.488299|vel|0.000000,-0.000000,0.000000,0.000000,0.000000,0.000000|eff|0.000000,0.000000,-32.226562,0.000000,0.000000,0.000000
cobot_dynamixel_driver/joint_states|name|J1,J2,J3,J4,J5,J6|pos|0.012618,-1.268785,1.296362,0.001014,-1.366869,0.488299|vel|0.000000,-0.000000,0.000000,0.000000,0.000000,0.000000|eff|0.000000,0.000000,0.000000,0.000000,0.000000,0.000000
cobot_dynamixel_driver/joint_states|name|J1,J2,J3,J4,J5,J6|pos|0.012618,-1.268785,1.296362,0.001014,-1.366869,0.488299|vel|0.000000,-0.000000,0.000000,0.000000,0.000000,0.000000|eff|0.000000,0.000000,-32.226562,0.000000,0.000000,0.000000
cobot_dynamixel_driver/joint_states|name|J1,J2,J3,J4,J5,J6|pos|0.012618,-1.268785,1.296362,0.001014,-1.366869,0.488299|vel|0.000000,-0.000000,0.000000,0.000000,0.000000,0.000000|eff|0.000000,0.000000,-32.226562,0.000000,0.000000,0.000000
cobot_dynamixel_driver/joint_states|name|J1,J2,J3,J4,J5,J6|pos|0.012618,-1.268785,1.296362,0.001014,-1.366869,0.488299|vel|0.000000,-0.000000,0.000000,0.000000,0.000000,0.000000|eff|0.000000,0.000000,-32.226562,0.000000,0.000000,0.000000
cobot_dynamixel_driver/joint_states|name|J1,J2,J3,J4,J5,J6|pos|0.012618,-1.268785,1.296362,0.001014,-1.366869,0.488299|vel|0.000000,-0.000000,0.000000,0.000000,0.000000,0.000000|eff|0.000000,0.000000,0.000000,0.000000,0.000000,0.000000
cobot_dynamixel_driver/joint_states|name|J1,J2,J3,J4,J5,J6|pos|0.012618,-1.268785,1.296362,0.001014,-1.366869,0.488299|vel|0.000000,-0.000000,0.000000,0.000000,0.000000,0.000000|eff|0.000000,0.000000,-32.226562,0.000000,0.000000,0.000000
cobot_dynamixel_driver/joint_states|name|J1,J2,J3,J4,J5,J6|pos|0.012618,-1.268785,1.296362,0.001014,-1.366869,0.488299|vel|0.000000,-0.000000,0.000000,0.000000,0.000000,0.000000|eff|0.000000,0.000000,-32.226562,0.000000,0.000000,0.000000
cobot_dynamixel_driver/joint_states|name|J1,J2,J3,J4,J5,J6|pos|0.012618,-1.268785,1.296362,0.001014,-1.366869,0.488299|vel|0.000000,-0.000000,0.000000,0.000000,0.000000,0.000000|eff|0.000000,0.000000,0.000000,0.000000,0.000000,0.000000
cobot_dynamixel_driver/joint_states|name|J1,J2,J3,J4,J5,J6|pos|0.012618,-1.268785,1.296362,0.001014,-1.366869,0.488299|vel|0.000000,-0.000000,0.000000,0.000000,0.000000,0.000000|eff|0.000000,0.000000,0.000000,0.000000,0.000000,0.000000
cobot_dynamixel_driver/joint_states|name|J1,J2,J3,J4,J5,J6|pos|0.012618,-1.268785,1.296362,0.001014,-1.366869,0.488299|vel|0.000000,-0.000000,0.000000,0.000000,0.000000,0.000000|eff|0.000000,0.000000,0.000000,0.000000,0.000000,0.000000
cobot_dynamixel_driver/joint_states|name|J1,J2,J3,J4,J5,J6|pos|0.012618,-1.268785,1.296362,0.001014,-1.366869,0.488299|vel|0.000000,-0.000000,0.000000,0.000000,0.000000,0.000000|eff|0.000000,0.000000,-32.226562,0.000000,0.000000,0.000000
cobot_dynamixel_driver/goal|-:J1,J2,J3,J4,J5,J6:0.000000,0.000000,0.000000,0.000000,0.000000,0.000000:0.700000,0.700000,0.700000,0.700000,0.700000,0.700000:pos_vel_
cobot_dynamixel_driver/joint_states|name|J1,J2,J3,J4,J5,J6|pos|0.012618,-1.268785,1.296300,0.001014,-1.368628,0.488299|vel|0.000000,-0.000000,0.000000,0.000000,0.000000,0.000000|eff|0.000000,0.000000,0.000000,0.000000,0.000000,0.000000
cobot_dynamixel_driver/joint_states|name|J1,J2,J3,J4,J5,J6|pos|0.012606,-1.268785,1.296300,0.001014,-1.368545,0.488258|vel|0.000000,-0.000000,0.000000,0.000000,0.012754,0.000000|eff|-257.812500,-306.152344,-145.019531,-96.679688,88.623047,-92.651367
cobot_dynamixel_driver/joint_states|name|J1,J2,J3,J4,J5,J6|pos|0.012218,-1.268322,1.295787,0.000939,-1.367407,0.487203|vel|-0.037974,0.041521,-0.050910,-0.006468,0.108580,-0.097895|eff|-628.417969,-757.324219,-435.058594,-80.566406,140.991211,-132.934570
cobot_dynamixel_driver/joint_states|name|J1,J2,J3,J4,J5,J6|pos|0.011079,-1.266882,1.294272,0.000914,-1.364470,0.484390|vel|-0.073235,0.106201,-0.091179,-0.001878,0.210611,-0.186483|eff|-386.718750,-1111.816406,-821.777344,-96.679688,124.877930,-193.359375
cobot_dynamixel_driver/joint_states|name|J1,J2,J3,J4,J5,J6|pos|0.009764,-1.264153,1.291806,0.000901,-1.360002,0.480025|vel|-0.067602,0.172342,-0.136038,-0.001878,0.279896,-0.277828|eff|-370.605469,-1901.367188,-1498.535156,-112.792969,84.594727,-149.047852
cobot_dynamixel_driver/joint_states|name|J1,J2,J3,J4,J5,J6|pos|0.008575,-1.260172,1.287900,0.000901,-1.354313,0.474233|vel|-0.061133,0.234102,-0.271449,-0.001878,0.272657,-0.302646|eff|-370.605469,-2046.386719,-1530.761719,-177.246094,68.481445,-112.792969
cobot_dynamixel_driver/joint_states|name|J1,J2,J3,J4,J5,J6|pos|0.007473,-1.254614,1.281966,0.000889,-1.347694,0.467572|vel|-0.050075,0.319647,-0.341972,-0.001878,0.352972,-0.320226|eff|-322.265625,-2094.726562,-1595.214844,-177.246094,72.509766,-132.934570
cobot_dynamixel_driver/joint_states|name|J1,J2,J3,J4,J5,J6|pos|0.006547,-1.247829,1.274693,0.000864,-1.340227,0.460105|vel|-0.046111,0.350944,-0.411451,-0.001669,0.347802,-0.370552|eff|-290.039062,-1917.480469,-1482.421875,-209.472656,56.396484,-128.906250
cobot_dynamixel_driver/joint_states|name|J1,J2,J3,J4,J5,J6|pos|0.005683,-1.239943,1.266657,0.000789,-1.332035,0.451872|vel|-0.044024,0.416250,-0.494493,-0.003547,0.383306,-0.427083|eff|-241.699219,-1708.007812,-1546.875000,-257.812500,72.509766,-108.764648
cobot_dynamixel_driver/joint_states|name|J1,J2,J3,J4,J5,J6|pos|0.004882,-1.231243,1.257906,0.000714,-1.323182,0.443019|vel|-0.035261,0.496579,-0.407696,-0.003547,0.465345,-0.485337|eff|-161.132812,-1385.742188,-1063.476562,-193.359375,32.226562,-120.849609
cobot_dynamixel_driver/joint_states|name|J1,J2,J3,J4,J5,J6|pos|0.004206,-1.221841,1.248405,0.000651,-1.313729,0.433504|vel|-0.030462,0.496788,-0.455893,-0.002921,0.451901,-0.509121|eff|-257.812500,-1289.062500,-886.230469,-177.246094,60.424805,-88.623047
cobot_dynamixel_driver/joint_states|name|J1,J2,J3,J4,J5,J6|pos|0.003630,-1.211727,1.238466,0.000601,-1.303779,0.423513|vel|-0.029419,0.527459,-0.528919,-0.002504,0.550485,-0.526356|eff|-193.359375,-1240.722656,-1659.667969,-273.925781,12.084961,-88.623047
cobot_dynamixel_driver/joint_states|name|J1,J2,J3,J4,J5,J6|pos|0.003092,-1.201161,1.228213,0.000526,-1.293436,0.413087|vel|-0.022951,0.557921,-0.556669,-0.003964,0.538421,-0.505330|eff|-177.246094,-934.570312,-1466.308594,-273.925781,32.226562,-96.679688
cobot_dynamixel_driver/joint_states|name|J1,J2,J3,J4,J5,J6|pos|0.002666,-1.190346,1.217372,0.000438,-1.282742,0.402372|vel|-0.019821,0.575865,-0.510767,-0.005216,0.551864,-0.520496|eff|-193.359375,-1933.593750,-1498.535156,-161.132812,44.311523,-72.509766
cobot_dynamixel_driver/joint_states|name|J1,J2,J3,J4,J5,J6|pos|0.002316,-1.179017,1.206119,0.000363,-1.271593,0.391285|vel|-0.017735,0.592974,-0.624062,-0.003547,0.499814,-0.576338|eff|-193.359375,-1160.156250,-1708.007812,-225.585938,0.000000,-92.651367
cobot_dynamixel_driver/joint_states|name|J1,J2,J3,J4,J5,J6|pos|0.002003,-1.167425,1.194689,0.000275,-1.260216,0.379866|vel|-0.013353,0.603823,-0.615716,-0.003547,0.576338,-0.516360|eff|-209.472656,-1546.875000,-1788.574219,-177.246094,32.226562,-80.566406
cobot_dynamixel_driver/joint_states|name|J1,J2,J3,J4,J5,J6|pos|0.001740,-1.155570,1.182947,0.000238,-1.248632,0.368241|vel|-0.014605,0.583167,-0.597564,-0.002295,0.597020,-0.582887|eff|-177.246094,-3367.675781,-1434.082031,-193.359375,84.594727,-64.453125
cobot_dynamixel_driver/joint_states|name|J1,J2,J3,J4,J5,J6|pos|0.001502,-1.143427,1.171017,0.000188,-1.236717,0.356306|vel|-0.011058,0.664957,-0.625940,-0.002295,0.577717,-0.655274|eff|-145.019531,-1498.535156,-1063.476562,-177.246094,20.141602,-48.339844
cobot_dynamixel_driver/joint_states|name|J1,J2,J3,J4,J5,J6|pos|0.001277,-1.131184,1.159012,0.000138,-1.224657,0.344267|vel|-0.010641,0.658697,-0.622184,-0.002712,0.671820,-0.622872|eff|-80.566406,-660.644531,-2110.839844,-161.132812,36.254883,-80.566406
cobot_dynamixel_driver/joint_states|name|J1,J2,J3,J4,J5,J6|pos|0.001102,-1.118729,1.146632,0.000113,-1.212494,0.332062|vel|-0.007720,0.613838,-0.653481,-0.002295,0.650448,-0.592194|eff|-96.679688,-725.097656,-2046.386719,-193.359375,44.311523,-80.566406
cobot_dynamixel_driver/joint_states|name|J1,J2,J3,J4,J5,J6|pos|0.000976,-1.106123,1.134226,0.000100,-1.200042,0.319734|vel|-0.005425,0.580664,-0.653481,-0.001043,0.669062,-0.659410|eff|-161.132812,-580.078125,-1885.253906,-209.472656,56.396484,-72.509766
cobot_dynamixel_driver/joint_states|name|J1,J2,J3,J4,J5,J6|pos|0.000826,-1.093442,1.121520,0.000075,-1.187507,0.307240|vel|-0.008346,0.637833,-0.633660,-0.001043,0.660445,-0.607361|eff|-96.679688,-1176.269531,-2368.652344,-145.019531,32.226562,-52.368164
cobot_dynamixel_driver/joint_states|name|J1,J2,J3,J4,J5,J6|pos|0.000689,-1.080511,1.108864,0.000063,-1.174888,0.294643|vel|-0.006468,0.697088,-0.640754,-0.001043,0.575993,-0.595296|eff|-177.246094,-2513.671875,-1498.535156,-225.585938,40.283203,-96.679688
cobot_dynamixel_driver/joint_states|name|J1,J2,J3,J4,J5,J6|pos|0.000576,-1.067692,1.095921,0.000063,-1.162188,0.281921|vel|-0.005425,0.650560,-0.678728,-0.000626,0.663202,-0.682161|eff|-112.792969,-386.718750,-1031.250000,-177.246094,64.453125,-60.424805
cobot_dynamixel_driver/joint_states|name|J1,J2,J3,J4,J5,J6|pos|0.000488,-1.054761,1.082989,0.000050,-1.149425,0.269117|vel|-0.003964,0.680188,-0.724421,-0.000626,0.752135,-0.608395|eff|-161.132812,-1321.289062,-1160.156250,-128.906250,32.226562,-84.594727
cobot_dynamixel_driver/joint_states|name|J1,J2,J3,J4,J5,J6|pos|0.000413,-1.041654,1.069883,0.000050,-1.136579,0.256230|vel|-0.003547,0.652855,-0.665166,-0.000626,0.647346,-0.676301|eff|-80.566406,-692.871094,-870.117188,-161.132812,0.000000,-76.538086
cobot_dynamixel_driver/joint_states|name|J1,J2,J3,J4,J5,J6|pos|0.000376,-1.028648,1.056864,0.000050,-1.123651,0.243219|vel|-0.002504,0.654525,-0.690203,-0.000626,0.706634,-0.685263|eff|-128.906250,-1611.328125,-1434.082031,-128.906250,20.141602,-52.368164
cobot_dynamixel_driver/joint_states|name|J1,J2,J3,J4,J5,J6|pos|0.000313,-1.015503,1.043770,0.000050,-1.110702,0.230166|vel|-0.002504,0.624897,-0.668504,-0.000626,0.684918,-0.703532|eff|-64.453125,-805.664062,-918.457031,-177.246094,52.368164,-80.566406
cobot_dynamixel_driver/joint_states|name|J1,J2,J3,J4,J5,J6|pos|0.000263,-1.002096,1.030588,0.000038,-1.097608,0.217114|vel|-0.002921,0.683109,-0.685196,-0.000626,0.676301,-0.630800|eff|-64.453125,-2191.406250,-1015.136719,-193.359375,36.254883,-56.396484
cobot_dynamixel_driver/joint_states|name|J1,J2,J3,J4,J5,J6|pos|0.000213,-0.988702,1.017481,0.000038,-1.084493,0.204020|vel|-0.002504,0.721709,-0.691872,0.000000,0.668717,-0.732831|eff|-128.906250,-3367.675781,-1659.667969,-128.906250,64.453125,-84.594727
cobot_dynamixel_driver/joint_states|name|J1,J2,J3,J4,J5,J6|pos|0.000188,-0.975458,1.004162,0.000038,-1.071193,0.190926|vel|-0.001461,0.683944,-0.729846,0.000000,0.703532,-0.685952|eff|-193.359375,-1482.421875,-870.117188,-112.792969,-20.141602,-104.736328
cobot_dynamixel_driver/joint_states|name|J1,J2,J3,J4,J5,J6|pos|0.000150,-0.962864,0.990930,0.000038,-1.058223,0.177791|vel|-0.001878,0.676015,-0.701261,0.000000,0.598399,-0.657342|eff|-145.019531,-563.964844,-1305.175781,-128.906250,52.368164,-72.509766
cobot_dynamixel_driver/joint_states|name|J1,J2,J3,J4,J5,J6|pos|0.000138,-0.948806,0.977573,0.000038,-1.044798,0.164656|vel|-0.001043,0.704182,-0.642840,0.000000,0.672509,-0.668373|eff|-161.132812,-950.683594,-2320.312500,-177.246094,0.000000,-64.453125
cobot_dynamixel_driver/joint_states|name|J1,J2,J3,J4,J5,J6|pos|0.000138,-0.936163,0.964129,0.000025,-1.031477,0.151520|vel|-0.001043,0.679145,-0.728803,0.000000,0.638039,-0.628732|eff|-80.566406,-3416.015625,-1885.253906,-128.906250,-8.056641,-120.849609
cobot_dynamixel_driver/joint_states|name|J1,J2,J3,J4,J5,J6|pos|0.000125,-0.921967,0.950734,0.000025,-1.018424,0.138013|vel|-0.001043,0.710233,-0.711694,0.000000,0.568065,-0.720078|eff|-161.132812,-3528.808594,-1627.441406,-209.472656,20.141602,-48.339844
cobot_dynamixel_driver/joint_states|name|J1,J2,J3,J4,J5,J6|pos|0.000125,-0.908435,0.937227,0.000025,-1.005144,0.124567|vel|-0.001043,0.692916,-0.682275,0.000000,0.742483,-0.747998|eff|-112.792969,-2674.804688,-1192.382812,-145.019531,28.198242,-36.254883
cobot_dynamixel_driver/joint_states|name|J1,J2,J3,J4,J5,J6|pos|0.000113,-0.895729,0.923757,0.000025,-0.991719,0.111474|vel|-0.001043,0.709816,-0.728803,0.000000,0.719733,-0.701464|eff|-32.226562,-1514.648438,-854.003906,-177.246094,16.113281,-88.623047
cobot_dynamixel_driver/joint_states|name|J1,J2,J3,J4,J5,J6|pos|0.000113,-0.881709,0.910451,0.000025,-0.978626,0.098049|vel|-0.000209,0.712946,-0.719414,0.000000,0.671475,-0.679403|eff|-177.246094,-805.664062,-563.964844,-112.792969,96.679688,-24.169922
cobot_dynamixel_driver/joint_states|name|J1,J2,J3,J4,J5,J6|pos|0.000100,-0.869053,0.896868,0.000013,-0.964994,0.085286|vel|-0.000209,0.701261,-0.668087,0.000000,0.726282,-0.574959|eff|0.000000,-322.265625,-628.417969,-209.472656,36.254883,48.339844
cobot_dynamixel_driver/joint_states|name|J1,J2,J3,J4,J5,J6|pos|0.000100,-0.855521,0.883336,0.000013,-0.951507,0.074281|vel|-0.000209,0.674763,-0.677684,0.000000,0.767301,-0.521875|eff|-145.019531,-660.644531,-418.945312,-209.472656,36.254883,20.141602
cobot_dynamixel_driver/joint_states|name|J1,J2,J3,J4,J5,J6|pos|0.000075,-0.842051,0.869816,0.000013,-0.938082,0.064911|vel|-0.000417,0.702513,-0.655359,0.000000,0.611842,-0.430530|eff|-145.019531,-1675.781250,-821.777344,-225.585938,24.169922,0.000000
cobot_dynamixel_driver/joint_states|name|J1,J2,J3,J4,J5,J6|pos|0.000063,-0.828481,0.856547,0.000013,-0.924554,0.056885|vel|-0.001043,0.755718,-0.682275,0.000000,0.703532,-0.404677|eff|-96.679688,-1063.476562,-1611.328125,-161.132812,-12.084961,-8.056641
cobot_dynamixel_driver/joint_states|name|J1,J2,J3,J4,J5,J6|pos|0.000050,-0.814987,0.843140,0.000000,-0.911129,0.049748|vel|-0.001043,0.708147,-0.674555,0.000000,0.772472,-0.335393|eff|-177.246094,-1804.687500,-1788.574219,-225.585938,32.226562,0.000000
cobot_dynamixel_driver/joint_states|name|J1,J2,J3,J4,J5,J6|pos|0.000038,-0.800716,0.829783,0.000000,-0.897663,0.043563|vel|-0.001043,0.726090,-0.698549,0.000000,0.581164,-0.298165|eff|-80.566406,-1224.609375,-1240.722656,-225.585938,68.481445,-8.056641
cobot_dynamixel_driver/joint_states|name|J1,J2,J3,J4,J5,J6|pos|0.000038,-0.787809,0.816263,0.000000,-0.884238,0.038165|vel|-0.000417,0.677684,-0.676641,0.000000,0.631834,-0.243013|eff|-177.246094,-1514.648438,-1111.816406,-161.132812,68.481445,0.000000
cobot_dynamixel_driver/joint_states|name|J1,J2,J3,J4,J5,J6|pos|0.000038,-0.773589,0.802518,0.000000,-0.870772,0.033428|vel|-0.000417,0.679771,-0.717327,0.000000,0.740760,-0.230949|eff|-161.132812,-1337.402344,-1804.687500,-225.585938,-20.141602,-16.113281
cobot_dynamixel_driver/joint_states|name|J1,J2,J3,J4,J5,J6|pos|0.000025,-0.760682,0.788924,0.000000,-0.857513,0.029311|vel|-0.000417,0.699592,-0.681857,0.000000,0.686297,-0.204062|eff|-80.566406,-1272.949219,-1643.554688,-128.906250,40.283203,-32.226562
cobot_dynamixel_driver/joint_states|name|J1,J2,J3,J4,J5,J6|pos|0.000025,-0.747213,0.775291,-0.000013,-0.844191,0.025691|vel|-0.000417,0.701261,-0.607370,0.000000,0.714562,-0.170282|eff|-177.246094,-2465.332031,-2046.386719,-128.906250,132.934570,-44.311523
cobot_dynamixel_driver/joint_states|name|J1,J2,J3,J4,J5,J6|pos|0.000025,-0.733606,0.761734,-0.000013,-0.830560,0.022485|vel|-0.000417,0.653690,-0.711068,0.000000,0.683539,-0.161664|eff|-112.792969,-2014.160156,-1804.687500,-128.906250,8.056641,-40.283203
cobot_dynamixel_driver/joint_states|name|J1,J2,J3,J4,J5,J6|pos|0.000013,-0.719986,0.748152,-0.000013,-0.817217,0.019713|vel|-0.000417,0.732767,-0.633660,0.000000,0.599777,-0.137880|eff|-177.246094,-757.324219,-2062.500000,-128.906250,104.736328,-44.311523
cobot_dynamixel_driver/joint_states|name|J1,J2,J3,J4,J5,J6|pos|0.000013,-0.706403,0.734845,-0.000013,-0.803606,0.017272|vel|-0.000209,0.711694,-0.715032,0.000000,0.776608,-0.117198|eff|-161.132812,-950.683594,-1192.382812,-161.132812,40.283203,-44.311523
cobot_dynamixel_driver/joint_states|name|J1,J2,J3,J4,J5,J6|pos|0.000013,-0.692846,0.721238,-0.000025,-0.790430,0.015121|vel|-0.000209,0.667669,-0.625731,0.000000,0.711460,-0.095482|eff|-193.359375,-1047.363281,-1369.628906,-145.019531,92.651367,-44.311523
cobot_dynamixel_driver/joint_states|name|J1,J2,J3,J4,J5,J6|pos|0.000000,-0.679302,0.707643,-0.000025,-0.776860,0.013239|vel|-0.000209,0.706478,-0.707729,0.000000,0.701808,-0.089277|eff|-32.226562,-1224.609375,-1353.515625,-112.792969,8.056641,-48.339844
cobot_dynamixel_driver/joint_states|name|J1,J2,J3,J4,J5,J6|pos|0.000000,-0.665744,0.693948,-0.000025,-0.763332,0.011625|vel|-0.000209,0.759474,-0.738401,0.000000,0.683195,-0.076868|eff|-193.359375,-886.230469,-1998.046875,-161.132812,40.283203,-48.339844
cobot_dynamixel_driver/joint_states|name|J1,J2,J3,J4,J5,J6|pos|0.000000,-0.652187,0.680353,-0.000025,-0.749762,0.010177|vel|-0.000209,0.705852,-0.688325,0.000000,0.697327,-0.064114|eff|-193.359375,-1272.949219,-1901.367188,-128.906250,0.000000,-64.453125
cobot_dynamixel_driver/joint_states|name|J1,J2,J3,J4,J5,J6|pos|0.000000,-0.638642,0.666771,-0.000025,-0.736317,0.008915|vel|-0.000209,0.708147,-0.726925,0.000000,0.675267,-0.062391|eff|0.000000,-1353.515625,-2175.292969,-145.019531,76.538086,-56.396484
cobot_dynamixel_driver/joint_states|name|J1,J2,J3,J4,J5,J6|pos|0.000000,-0.625110,0.653151,-0.000038,-0.722830,0.007757|vel|0.000000,0.695419,-0.619263,0.000000,0.738691,-0.049981|eff|-177.246094,-2223.632812,-1401.855469,-128.906250,16.113281,-52.368164
cobot_dynamixel_driver/joint_states|name|J1,J2,J3,J4,J5,J6|pos|0.000000,-0.611553,0.639544,-0.000038,-0.709385,0.006805|vel|0.000000,0.692707,-0.703765,0.000000,0.674577,-0.047224|eff|-80.566406,-1562.988281,-2159.179688,-128.906250,48.339844,-52.368164
cobot_dynamixel_driver/joint_states|name|J1,J2,J3,J4,J5,J6|pos|-0.000013,-0.597870,0.625936,-0.000038,-0.695980,0.005957|vel|0.000000,0.669756,-0.713363,0.000000,0.711805,-0.044122|eff|-32.226562,-354.492188,-1595.214844,-209.472656,0.000000,-56.396484
cobot_dynamixel_driver/joint_states|name|J1,J2,J3,J4,J5,J6|pos|-0.000013,-0.584326,0.612417,-0.000038,-0.682411,0.005233|vel|0.000000,0.708981,-0.717744,0.000000,0.602535,-0.031023|eff|-177.246094,-821.777344,-2642.578125,-209.472656,12.084961,-52.368164
cobot_dynamixel_driver/joint_states|name|J1,J2,J3,J4,J5,J6|pos|-0.000013,-0.570794,0.598772,-0.000038,-0.669007,0.004551|vel|0.000000,0.728385,-0.684152,0.000000,0.689744,-0.033781|eff|-193.359375,-1176.269531,-1353.515625,-128.906250,12.084961,-44.311523
cobot_dynamixel_driver/joint_states|name|J1,J2,J3,J4,J5,J6|pos|-0.000013,-0.557199,0.585202,-0.000038,-0.655416,0.003972|vel|0.000000,0.709190,-0.724004,0.000000,0.721456,-0.027576|eff|-48.339844,-64.453125,-1466.308594,-225.585938,64.453125,-60.424805
cobot_dynamixel_driver/joint_states|name|J1,J2,J3,J4,J5,J6|pos|-0.000013,-0.543641,0.571520,-0.000050,-0.641950,0.003517|vel|0.000000,0.697506,-0.642214,0.000000,0.735244,-0.022750|eff|-96.679688,-644.531250,-1224.609375,-128.906250,88.623047,-68.481445
cobot_dynamixel_driver/joint_states|name|J1,J2,J3,J4,J5,J6|pos|-0.000013,-0.530122,0.557900,-0.000050,-0.628484,0.003082|vel|0.000000,0.664957,-0.700010,0.000000,0.708702,-0.021371|eff|-161.132812,-1321.289062,-628.417969,-225.585938,0.000000,-64.453125
cobot_dynamixel_driver/joint_states|name|J1,J2,J3,J4,J5,J6|pos|-0.000013,-0.516502,0.544418,-0.000050,-0.615473,0.002710|vel|0.000000,0.738401,-0.714823,0.000000,0.709392,-0.018269|eff|-32.226562,-435.058594,-1144.042969,-177.246094,28.198242,-64.453125
cobot_dynamixel_driver/joint_states|name|J1,J2,J3,J4,J5,J6|pos|-0.000013,-0.502957,0.530648,-0.000050,-0.602048,0.002317|vel|0.000000,0.703974,-0.697714,0.000000,0.619770,-0.018958|eff|-96.679688,-725.097656,-467.285156,-225.585938,48.339844,-48.339844
cobot_dynamixel_driver/joint_states|name|J1,J2,J3,J4,J5,J6|pos|-0.000013,-0.489475,0.517065,-0.000050,-0.588458,0.002048|vel|0.000000,0.675598,-0.705434,0.000000,0.770059,-0.011375|eff|-161.132812,-1321.289062,-692.871094,-112.792969,92.651367,-56.396484
cobot_dynamixel_driver/joint_states|name|J1,J2,J3,J4,J5,J6|pos|-0.000013,-0.475843,0.503521,-0.000050,-0.574909,0.001841|vel|0.000000,0.703348,-0.698966,0.000000,0.741449,-0.011720|eff|-193.359375,-725.097656,-708.984375,-128.906250,44.311523,-68.481445
cobot_dynamixel_driver/joint_states|name|J1,J2,J3,J4,J5,J6|pos|-0.000025,-0.462223,0.490164,-0.000050,-0.561360,0.001634|vel|0.000000,0.717119,-0.723587,0.000000,0.674233,-0.012064|eff|-177.246094,0.000000,-1160.156250,-128.906250,56.396484,-60.424805
cobot_dynamixel_driver/joint_states|name|J1,J2,J3,J4,J5,J6|pos|-0.000025,-0.448015,0.476606,-0.000050,-0.548245,0.001386|vel|0.000000,0.678728,-0.687699,0.000000,0.684918,-0.011030|eff|-177.246094,-161.132812,-580.078125,-177.246094,36.254883,-60.424805
cobot_dynamixel_driver/joint_states|name|J1,J2,J3,J4,J5,J6|pos|-0.000025,-0.435134,0.463149,-0.000050,-0.534965,0.001241|vel|0.000000,0.671008,-0.731098,0.000000,0.681127,-0.006205|eff|-32.226562,48.339844,-1772.460938,-112.792969,36.254883,-64.453125
cobot_dynamixel_driver/joint_states|name|J1,J2,J3,J4,J5,J6|pos|-0.000025,-0.421564,0.449429,-0.000050,-0.521437,0.001096|vel|0.000000,0.712111,-0.713363,0.000000,0.819696,-0.007239|eff|-177.246094,-370.605469,-886.230469,-161.132812,32.226562,-60.424805
cobot_dynamixel_driver/joint_states|name|J1,J2,J3,J4,J5,J6|pos|-0.000025,-0.407994,0.435759,-0.000050,-0.507950,0.000931|vel|0.000000,0.663079,-0.714406,0.000000,0.704221,-0.008962|eff|-177.246094,-660.644531,-531.738281,-128.906250,28.198242,-56.396484
cobot_dynamixel_driver/joint_states|name|J1,J2,J3,J4,J5,J6|pos|-0.000038,-0.394437,0.422177,-0.000050,-0.494381,0.000786|vel|0.000000,0.692498,-0.693333,0.000000,0.592883,-0.006549|eff|-32.226562,-435.058594,-515.625000,-112.792969,96.679688,-52.368164
cobot_dynamixel_driver/joint_states|name|J1,J2,J3,J4,J5,J6|pos|-0.000038,-0.380817,0.408582,-0.000050,-0.480832,0.000662|vel|0.000000,0.831666,-0.721917,0.000000,0.695259,-0.006205|eff|-161.132812,354.492188,-580.078125,-112.792969,24.169922,-52.368164
cobot_dynamixel_driver/joint_states|name|J1,J2,J3,J4,J5,J6|pos|-0.000038,-0.367272,0.395050,-0.000050,-0.467304,0.000579|vel|0.000000,0.730889,-0.721083,0.000000,0.601156,-0.005515|eff|-128.906250,499.511719,-547.851562,-193.359375,0.000000,-52.368164
cobot_dynamixel_driver/joint_states|name|J1,J2,J3,J4,J5,J6|pos|-0.000038,-0.353026,0.381418,-0.000050,-0.454168,0.000559|vel|0.000000,0.646805,-0.682900,0.000000,0.580474,-0.003792|eff|-177.246094,112.792969,-805.664062,-145.019531,145.019531,-48.339844
cobot_dynamixel_driver/joint_states|name|J1,J2,J3,J4,J5,J6|pos|-0.000038,-0.340120,0.367923,-0.000050,-0.440516,0.000559|vel|0.000000,0.670382,-0.683109,0.000000,0.711460,-0.003792|eff|-128.906250,290.039062,-467.285156,-128.906250,-16.113281,-48.339844
cobot_dynamixel_driver/joint_states|name|J1,J2,J3,J4,J5,J6|pos|-0.000050,-0.326500,0.354278,-0.000063,-0.427277,0.000559|vel|0.000000,0.653690,-0.702931,0.000000,0.688021,-0.003792|eff|-161.132812,145.019531,-644.531250,-112.792969,0.000000,-52.368164
cobot_dynamixel_driver/joint_states|name|J1,J2,J3,J4,J5,J6|pos|-0.000050,-0.312968,0.340734,-0.000063,-0.413997,0.000559|vel|0.000000,0.611543,-0.723169,0.000000,0.701808,-0.003792|eff|0.000000,0.000000,-483.398438,-128.906250,28.198242,-56.396484
cobot_dynamixel_driver/joint_states|name|J1,J2,J3,J4,J5,J6|pos|-0.000063,-0.299361,0.327226,-0.000063,-0.400386,0.000517|vel|0.000000,0.666835,-0.697923,0.000000,0.678714,-0.000345|eff|-32.226562,531.738281,-354.492188,-112.792969,80.566406,-60.424805
cobot_dynamixel_driver/joint_states|name|J1,J2,J3,J4,J5,J6|pos|-0.000063,-0.285754,0.313895,-0.000063,-0.387024,0.000393|vel|0.000000,0.705434,-0.706895,0.000000,0.593573,-0.006205|eff|-96.679688,515.625000,-1417.968750,-128.906250,100.708008,-56.396484
cobot_dynamixel_driver/joint_states|name|J1,J2,J3,J4,J5,J6|pos|-0.000063,-0.272096,0.300425,-0.000063,-0.373433,0.000331|vel|0.000000,0.708981,-0.724213,0.000000,0.709392,-0.006549|eff|-161.132812,322.265625,-1740.234375,-128.906250,60.424805,-48.339844
cobot_dynamixel_driver/joint_states|name|J1,J2,J3,J4,J5,J6|pos|-0.000063,-0.258576,0.286705,-0.000063,-0.359905,0.000331|vel|0.000000,0.681440,-0.731307,0.000000,0.711115,-0.006549|eff|-177.246094,418.945312,-1047.363281,-112.792969,36.254883,-40.283203
cobot_dynamixel_driver/joint_states|name|J1,J2,J3,J4,J5,J6|pos|-0.000063,-0.245094,0.273048,-0.000063,-0.346501,0.000331|vel|0.000000,0.704391,-0.646805,0.000000,0.686297,-0.006549|eff|-193.359375,435.058594,-580.078125,-128.906250,52.368164,-24.169922
cobot_dynamixel_driver/joint_states|name|J1,J2,J3,J4,J5,J6|pos|-0.000063,-0.231500,0.259553,-0.000063,-0.333014,0.000331|vel|0.000000,0.696880,-0.604032,0.000000,0.654929,-0.006549|eff|-177.246094,467.285156,-982.910156,-112.792969,88.623047,-12.084961
cobot_dynamixel_driver/joint_states|name|J1,J2,J3,J4,J5,J6|pos|-0.000063,-0.217942,0.246183,-0.000063,-0.319465,0.000331|vel|0.000000,0.708564,-0.703765,0.000000,0.680782,-0.006549|eff|-193.359375,531.738281,-1643.554688,-128.906250,52.368164,0.000000
cobot_dynamixel_driver/joint_states|name|J1,J2,J3,J4,J5,J6|pos|-0.000063,-0.204373,0.232551,-0.000063,-0.306061,0.000331|vel|0.000000,0.701679,-0.742365,0.000000,0.675267,-0.006549|eff|0.000000,741.210938,-1450.195312,-112.792969,52.368164,0.000000
cobot_dynamixel_driver/joint_states|name|J1,J2,J3,J4,J5,J6|pos|-0.000063,-0.190890,0.218906,-0.000063,-0.292574,0.000331|vel|0.000000,0.663288,-0.730472,0.000000,0.724903,0.000000|eff|-177.246094,290.039062,-1111.816406,-80.566406,8.056641,-28.198242
cobot_dynamixel_driver/joint_states|name|J1,J2,J3,J4,J5,J6|pos|-0.000063,-0.177358,0.205311,-0.000063,-0.279439,0.000331|vel|0.000000,0.704182,-0.713154,0.000000,0.613221,0.000000|eff|0.000000,612.304688,-1063.476562,-112.792969,100.708008,-24.169922
cobot_dynamixel_driver/joint_states|name|J1,J2,J3,J4,J5,J6|pos|-0.000063,-0.163751,0.191679,-0.000063,-0.265890,0.000331|vel|0.000000,0.659741,-0.740070,0.000000,0.695949,0.000000|eff|-32.226562,708.984375,-483.398438,-112.792969,16.113281,0.000000
cobot_dynamixel_driver/joint_states|name|J1,J2,J3,J4,J5,J6|pos|-0.000063,-0.150131,0.178297,-0.000063,-0.252444,0.000331|vel|0.000000,0.718579,-0.638667,0.000000,0.681471,0.000000|eff|-32.226562,660.644531,-1579.101562,-112.792969,120.849609,-24.169922
cobot_dynamixel_driver/joint_states|name|J1,J2,J3,J4,J5,J6|pos|-0.000063,-0.136599,0.164940,-0.000063,-0.238916,0.000331|vel|0.000000,0.664122,-0.673094,0.000000,0.613910,0.000000|eff|0.000000,547.851562,-1949.707031,-64.453125,48.339844,-36.254883
cobot_dynamixel_driver/joint_states|name|J1,J2,J3,J4,J5,J6|pos|-0.000063,-0.123042,0.151358,-0.000063,-0.225429,0.000331|vel|0.000000,0.676432,-0.715032,0.000000,0.647001,0.000000|eff|-177.246094,692.871094,-435.058594,-112.792969,88.623047,-40.283203
cobot_dynamixel_driver/joint_states|name|J1,J2,J3,J4,J5,J6|pos|-0.000063,-0.109409,0.137663,-0.000050,-0.212273,0.000331|vel|0.000000,0.741113,-0.715867,0.000000,0.656998,0.000000|eff|-96.679688,628.417969,-1917.480469,-80.566406,173.217773,-40.283203
cobot_dynamixel_driver/joint_states|name|J1,J2,J3,J4,J5,J6|pos|-0.000063,-0.095965,0.124093,-0.000050,-0.198911,0.000331|vel|0.000000,0.667252,-0.742156,0.000000,0.716975,0.000000|eff|-80.566406,1015.136719,-1691.894531,-80.566406,76.538086,-40.283203
cobot_dynamixel_driver/joint_states|name|J1,J2,J3,J4,J5,J6|pos|-0.000063,-0.083384,0.110411,-0.000050,-0.185300,0.000331|vel|0.000000,0.621767,-0.738609,0.000000,0.751790,0.000000|eff|0.000000,1240.722656,-902.343750,-48.339844,40.283203,-40.283203
cobot_dynamixel_driver/joint_states|name|J1,J2,J3,J4,J5,J6|pos|-0.000063,-0.072218,0.096954,-0.000050,-0.171751,0.000331|vel|0.000000,0.530588,-0.721709,0.000000,0.712839,0.000000|eff|-96.679688,-821.777344,-1466.308594,-64.453125,64.453125,-56.396484
cobot_dynamixel_driver/joint_states|name|J1,J2,J3,J4,J5,J6|pos|-0.000063,-0.062516,0.084185,-0.000050,-0.158657,0.000331|vel|0.000000,0.462152,-0.631573,0.000000,0.620459,0.000000|eff|0.000000,934.570312,-193.359375,-32.226562,132.934570,-52.368164
cobot_dynamixel_driver/joint_states|name|J1,J2,J3,J4,J5,J6|pos|-0.000063,-0.054154,0.073006,-0.000050,-0.145087,0.000290|vel|0.000000,0.394342,-0.544568,0.000000,0.706634,0.000000|eff|-161.132812,999.023438,-1659.667969,-64.453125,44.311523,-56.396484
cobot_dynamixel_driver/joint_states|name|J1,J2,J3,J4,J5,J6|pos|-0.000063,-0.047181,0.063605,-0.000050,-0.131476,0.000228|vel|0.000000,0.331331,-0.408530,0.000000,0.680092,-0.002758|eff|-128.906250,-64.453125,-1369.628906,-112.792969,76.538086,-52.368164
cobot_dynamixel_driver/joint_states|name|J1,J2,J3,J4,J5,J6|pos|-0.000063,-0.041135,0.055518,-0.000050,-0.117989,0.000207|vel|0.000000,0.286889,-0.392673,0.000000,0.737313,-0.002758|eff|-145.019531,290.039062,-886.230469,-64.453125,64.453125,-52.368164
cobot_dynamixel_driver/joint_states|name|J1,J2,J3,J4,J5,J6|pos|-0.000063,-0.034813,0.047519,-0.000050,-0.102475,0.000207|vel|0.000000,0.238066,-0.331957,0.000000,0.618046,-0.002758|eff|0.000000,515.625000,-644.531250,-64.453125,149.047852,-48.339844
cobot_dynamixel_driver/joint_states|name|J1,J2,J3,J4,J5,J6|pos|-0.000063,-0.030970,0.042086,-0.000050,-0.091098,0.000207|vel|0.000000,0.223252,-0.300034,0.000000,0.571857,-0.002758|eff|-32.226562,660.644531,-660.644531,-112.792969,28.198242,-44.311523
cobot_dynamixel_driver/joint_states|name|J1,J2,J3,J4,J5,J6|pos|-0.000063,-0.027227,0.037016,-0.000050,-0.078977,0.000207|vel|0.000000,0.192372,-0.214697,0.000000,0.540144,-0.002758|eff|-161.132812,193.359375,-660.644531,-112.792969,-44.311523,-48.339844
cobot_dynamixel_driver/joint_states|name|J1,J2,J3,J4,J5,J6|pos|-0.000063,-0.023772,0.032435,-0.000050,-0.069068,0.000207|vel|0.000000,0.161910,-0.192790,0.000000,0.444663,-0.002758|eff|0.000000,467.285156,-821.777344,-112.792969,0.000000,-44.311523
cobot_dynamixel_driver/joint_states|name|J1,J2,J3,J4,J5,J6|pos|-0.000063,-0.020818,0.028341,-0.000050,-0.060525,0.000207|vel|0.000000,0.147096,-0.193415,0.000000,0.431909,0.000000|eff|-161.132812,128.906250,-757.324219,-96.679688,20.141602,-40.283203
cobot_dynamixel_driver/joint_states|name|J1,J2,J3,J4,J5,J6|pos|-0.000063,-0.018264,0.024736,-0.000050,-0.052996,0.000207|vel|0.000000,0.122058,-0.177767,0.000000,0.362624,0.000000|eff|0.000000,322.265625,-741.210938,-112.792969,8.056641,-44.311523
cobot_dynamixel_driver/joint_states|name|J1,J2,J3,J4,J5,J6|pos|-0.000063,-0.016011,0.021606,-0.000050,-0.046418,0.000207|vel|0.000000,0.106410,-0.152103,0.000000,0.310919,0.000000|eff|-32.226562,273.925781,-725.097656,-112.792969,28.198242,-52.368164
cobot_dynamixel_driver/joint_states|name|J1,J2,J3,J4,J5,J6|pos|-0.000063,-0.013945,0.019003,-0.000050,-0.040688,0.000207|vel|0.000000,0.095769,-0.128109,0.000000,0.311953,0.000000|eff|-128.906250,306.152344,-837.890625,-112.792969,36.254883,-52.368164
cobot_dynamixel_driver/joint_states|name|J1,J2,J3,J4,J5,J6|pos|-0.000063,-0.012180,0.016662,-0.000050,-0.035620,0.000207|vel|0.000000,0.076573,-0.114338,0.000000,0.244047,0.000000|eff|0.000000,322.265625,-821.777344,-64.453125,36.254883,-52.368164
cobot_dynamixel_driver/joint_states|name|J1,J2,J3,J4,J5,J6|pos|-0.000063,-0.010741,0.014584,-0.000050,-0.031132,0.000207|vel|0.000000,0.071566,-0.100568,0.000000,0.194066,0.000000|eff|0.000000,145.019531,-789.550781,-96.679688,32.226562,-56.396484
cobot_dynamixel_driver/joint_states|name|J1,J2,J3,J4,J5,J6|pos|-0.000063,-0.009451,0.012831,-0.000050,-0.027284,0.000165|vel|0.000000,0.062594,-0.084502,0.000000,0.196824,0.000000|eff|-80.566406,193.359375,-854.003906,-80.566406,48.339844,-56.396484
cobot_dynamixel_driver/joint_states|name|J1,J2,J3,J4,J5,J6|pos|-0.000063,-0.008262,0.011229,-0.000050,-0.023912,0.000124|vel|0.000000,0.059673,-0.081998,0.000000,0.159251,-0.002413|eff|-80.566406,209.472656,-886.230469,-112.792969,52.368164,-56.396484
cobot_dynamixel_driver/joint_states|name|J1,J2,J3,J4,J5,J6|pos|-0.000063,-0.007185,0.009814,-0.000050,-0.020975,0.000083|vel|0.000000,0.049449,-0.065932,0.000000,0.142706,-0.002413|eff|0.000000,241.699219,-837.890625,-112.792969,68.481445,-44.311523
cobot_dynamixel_driver/joint_states|name|J1,J2,J3,J4,J5,J6|pos|-0.000063,-0.006272,0.008613,-0.000050,-0.018369,0.000083|vel|0.000000,0.042564,-0.056126,0.000000,0.144084,-0.002413|eff|-80.566406,241.699219,-837.890625,-112.792969,60.424805,-48.339844
cobot_dynamixel_driver/joint_states|name|J1,J2,J3,J4,J5,J6|pos|-0.000063,-0.005521,0.007649,-0.000050,-0.016052,0.000083|vel|0.000000,0.029419,-0.044024,0.000000,0.113061,-0.002413|eff|-64.453125,177.246094,-950.683594,-64.453125,56.396484,-48.339844
cobot_dynamixel_driver/joint_states|name|J1,J2,J3,J4,J5,J6|pos|-0.000050,-0.004895,0.006797,-0.000050,-0.014025,0.000083|vel|0.000000,0.032758,-0.039852,0.000000,0.104789,-0.002413|eff|-80.566406,112.792969,-950.683594,-64.453125,52.368164,-44.311523
cobot_dynamixel_driver/joint_states|name|J1,J2,J3,J4,J5,J6|pos|-0.000050,-0.004294,0.005946,-0.000050,-0.012266,0.000083|vel|0.000000,0.030671,-0.038808,0.000000,0.088243,-0.002413|eff|0.000000,193.359375,-934.570312,0.000000,52.368164,-36.254883
cobot_dynamixel_driver/joint_states|name|J1,J2,J3,J4,J5,J6|pos|-0.000050,-0.003755,0.005195,-0.000050,-0.010777,0.000083|vel|0.000000,0.028376,-0.040686,0.000000,0.080315,-0.002413|eff|-145.019531,193.359375,-902.343750,-80.566406,60.424805,-36.254883
cobot_dynamixel_driver/joint_states|name|J1,J2,J3,J4,J5,J6|pos|-0.000050,-0.003255,0.004532,-0.000050,-0.009515,0.000083|vel|0.000000,0.022951,-0.035679,0.000000,0.061012,0.000000|eff|-112.792969,209.472656,-886.230469,-96.679688,72.509766,-36.254883
cobot_dynamixel_driver/joint_states|name|J1,J2,J3,J4,J5,J6|pos|-0.000050,-0.002854,0.003881,-0.000050,-0.008233,0.000083|vel|0.000000,0.020030,-0.025455,0.000000,0.055497,0.000000|eff|-64.453125,241.699219,-870.117188,-32.226562,72.509766,-36.254883
cobot_dynamixel_driver/joint_states|name|J1,J2,J3,J4,J5,J6|pos|-0.000050,-0.002479,0.003405,-0.000050,-0.007240,0.000083|vel|0.000000,0.018570,-0.022951,0.000000,0.043432,0.000000|eff|0.000000,241.699219,-918.457031,-112.792969,64.453125,-36.254883
cobot_dynamixel_driver/joint_states|name|J1,J2,J3,J4,J5,J6|pos|-0.000050,-0.002141,0.002942,-0.000050,-0.006392,0.000083|vel|0.000000,0.015857,-0.022117,0.000000,0.034125,0.000000|eff|-80.566406,225.585938,-854.003906,-64.453125,80.566406,-36.254883
cobot_dynamixel_driver/joint_states|name|J1,J2,J3,J4,J5,J6|pos|-0.000050,-0.001853,0.002679,-0.000050,-0.005585,0.000083|vel|0.000000,0.013353,-0.012310,0.000000,0.033091,0.000000|eff|-64.453125,209.472656,-918.457031,-112.792969,88.623047,-36.254883
cobot_dynamixel_driver/joint_states|name|J1,J2,J3,J4,J5,J6|pos|-0.000050,-0.001615,0.002403,-0.000050,-0.004882,0.000083|vel|0.000000,0.008972,-0.019821,0.000000,0.032746,0.000000|eff|0.000000,145.019531,-934.570312,-112.792969,68.481445,-36.254883
cobot_dynamixel_driver/joint_states|name|J1,J2,J3,J4,J5,J6|pos|-0.000050,-0.001452,0.001990,-0.000050,-0.004323,0.000083|vel|0.000000,0.010015,-0.018570,0.000000,0.032057,0.000000|eff|0.000000,161.132812,-837.890625,-64.453125,76.538086,-40.283203
cobot_dynamixel_driver/joint_states|name|J1,J2,J3,J4,J5,J6|pos|-0.000050,-0.001302,0.001790,-0.000050,-0.003827,0.000083|vel|0.000000,0.006677,-0.006051,0.000000,0.026197,0.000000|eff|0.000000,322.265625,-918.457031,-80.566406,80.566406,-36.254883
cobot_dynamixel_driver/joint_states|name|J1,J2,J3,J4,J5,J6|pos|-0.000050,-0.001164,0.001677,-0.000050,-0.003310,0.000083|vel|0.000000,0.006259,-0.008137,0.000000,0.026197,0.000000|eff|0.000000,290.039062,-982.910156,-64.453125,64.453125,-40.283203
cobot_dynamixel_driver/joint_states|name|J1,J2,J3,J4,J5,J6|pos|-0.000050,-0.001039,0.001490,-0.000050,-0.002937,0.000083|vel|0.000000,0.006468,-0.010641,0.000000,0.018614,0.000000|eff|-128.906250,112.792969,-918.457031,-64.453125,92.651367,-44.311523
cobot_dynamixel_driver/joint_states|name|J1,J2,J3,J4,J5,J6|pos|-0.000050,-0.000901,0.001227,-0.000050,-0.002586,0.000083|vel|0.000000,0.006885,-0.013771,0.000000,0.016890,0.000000|eff|0.000000,128.906250,-870.117188,0.000000,76.538086,-44.311523
cobot_dynamixel_driver/joint_states|name|J1,J2,J3,J4,J5,J6|pos|-0.000050,-0.000751,0.000989,-0.000050,-0.002255,0.000083|vel|0.000000,0.007094,-0.010015,0.000000,0.013788,0.000000|eff|0.000000,128.906250,-821.777344,-32.226562,76.538086,-40.283203
cobot_dynamixel_driver/joint_states|name|J1,J2,J3,J4,J5,J6|pos|-0.000050,-0.000638,0.000889,-0.000050,-0.001965,0.000083|vel|0.000000,0.005216,-0.004382,0.000000,0.015167,0.000000|eff|0.000000,241.699219,-902.343750,0.000000,80.566406,-40.283203
cobot_dynamixel_driver/joint_states|name|J1,J2,J3,J4,J5,J6|pos|-0.000050,-0.000551,0.000889,-0.000050,-0.001696,0.000083|vel|0.000000,0.004382,-0.004382,0.000000,0.009996,0.000000|eff|-128.906250,241.699219,-918.457031,-96.679688,76.538086,-44.311523
cobot_dynamixel_driver/joint_states|name|J1,J2,J3,J4,J5,J6|pos|-0.000050,-0.000476,0.000876,-0.000050,-0.001531,0.000083|vel|0.000000,0.003756,-0.004382,0.000000,0.007239,0.000000|eff|-64.453125,193.359375,-918.457031,-32.226562,88.623047,-40.283203
cobot_dynamixel_driver/joint_states|name|J1,J2,J3,J4,J5,J6|pos|-0.000050,-0.000388,0.000864,-0.000050,-0.001365,0.000083|vel|0.000000,0.005008,-0.000417,0.000000,0.008962,0.000000|eff|0.000000,338.378906,-966.796875,-80.566406,84.594727,-48.339844
cobot_dynamixel_driver/joint_states|name|J1,J2,J3,J4,J5,J6|pos|-0.000050,-0.000388,0.000826,-0.000050,-0.001158,0.000083|vel|0.000000,0.003338,-0.001461,0.000000,0.010686,0.000000|eff|0.000000,225.585938,-982.910156,0.000000,80.566406,-52.368164
cobot_dynamixel_driver/joint_states|name|J1,J2,J3,J4,J5,J6|pos|-0.000050,-0.000388,0.000826,-0.000050,-0.001014,0.000083|vel|0.000000,0.003338,-0.001461,0.000000,0.005515,0.000000|eff|-80.566406,225.585938,-982.910156,-112.792969,76.538086,-52.368164
cobot_dynamixel_driver/joint_states|name|J1,J2,J3,J4,J5,J6|pos|-0.000050,-0.000388,0.000789,-0.000050,-0.000952,0.000083|vel|0.000000,0.003338,-0.001669,0.000000,0.003447,0.000000|eff|-80.566406,306.152344,-1079.589844,-32.226562,84.594727,-52.368164
cobot_dynamixel_driver/joint_states|name|J1,J2,J3,J4,J5,J6|pos|-0.000050,-0.000388,0.000689,-0.000050,-0.000786,0.000083|vel|0.000000,0.003338,-0.005842,0.000000,0.009307,0.000000|eff|0.000000,257.812500,-999.023438,-112.792969,80.566406,-52.368164
cobot_dynamixel_driver/joint_states|name|J1,J2,J3,J4,J5,J6|pos|-0.000050,-0.000388,0.000538,-0.000050,-0.000662,0.000083|vel|0.000000,0.003338,-0.008137,0.000000,0.005515,0.000000|eff|0.000000,225.585938,-966.796875,-64.453125,72.509766,-40.283203
cobot_dynamixel_driver/joint_states|name|J1,J2,J3,J4,J5,J6|pos|-0.000050,-0.000388,0.000325,-0.000050,-0.000621,0.000083|vel|0.000000,0.003338,-0.011267,0.000000,0.003102,0.000000|eff|-145.019531,241.699219,-870.117188,-112.792969,76.538086,-40.283203
cobot_dynamixel_driver/joint_states|name|J1,J2,J3,J4,J5,J6|pos|-0.000050,-0.000376,0.000100,-0.000050,-0.000579,0.000083|vel|0.000000,-0.000000,-0.010432,0.000000,0.002068,0.000000|eff|0.000000,225.585938,-773.437500,0.000000,84.594727,-52.368164
cobot_dynamixel_driver/joint_states|name|J1,J2,J3,J4,J5,J6|pos|-0.000038,-0.000376,-0.000025,-0.000050,-0.000455,0.000083|vel|0.000000,-0.000000,-0.005008,0.000000,0.005515,0.000000|eff|0.000000,161.132812,-821.777344,-80.566406,80.566406,-56.396484
cobot_dynamixel_driver/joint_states|name|J1,J2,J3,J4,J5,J6|pos|-0.000038,-0.000363,-0.000075,-0.000050,-0.000393,0.000062|vel|0.000000,-0.000000,-0.002921,0.000000,0.003447,0.000000|eff|0.000000,177.246094,-854.003906,0.000000,80.566406,-52.368164
cobot_dynamixel_driver/joint_states|name|J1,J2,J3,J4,J5,J6|pos|-0.000038,-0.000338,-0.000075,-0.000050,-0.000352,0.000062|vel|0.000000,0.001043,-0.002921,0.000000,0.001723,0.000000|eff|0.000000,257.812500,-854.003906,0.000000,72.509766,-52.368164
cobot_dynamixel_driver/joint_states|name|J1,J2,J3,J4,J5,J6|pos|-0.000038,-0.000300,-0.000075,-0.000050,-0.000352,0.000062|vel|0.000000,0.001461,-0.002921,0.000000,0.001723,0.000000|eff|0.000000,257.812500,-773.437500,-80.566406,80.566406,-52.368164
cobot_dynamixel_driver/joint_states|name|J1,J2,J3,J4,J5,J6|pos|-0.000038,-0.000275,-0.000075,-0.000050,-0.000331,0.000062|vel|0.000000,0.001252,-0.002921,0.000000,0.001723,0.000000|eff|0.000000,241.699219,-757.324219,0.000000,80.566406,-60.424805
cobot_dynamixel_driver/joint_states|name|J1,J2,J3,J4,J5,J6|pos|-0.000038,-0.000263,-0.000075,-0.000050,-0.000310,0.000041|vel|0.000000,0.000835,-0.002921,0.000000,0.000689,0.000000|eff|0.000000,48.339844,-757.324219,-96.679688,72.509766,-56.396484
cobot_dynamixel_driver/joint_states|name|J1,J2,J3,J4,J5,J6|pos|-0.000038,-0.000250,-0.000075,-0.000050,-0.000269,0.000000|vel|0.000000,0.000835,-0.002921,0.000000,0.001379,-0.002413|eff|0.000000,241.699219,-757.324219,0.000000,76.538086,-56.396484
cobot_dynamixel_driver/joint_states|name|J1,J2,J3,J4,J5,J6|pos|-0.000038,-0.000225,-0.000075,-0.000050,-0.000186,-0.000021|vel|0.000000,0.000626,0.000000,0.000000,0.004826,-0.002413|eff|0.000000,96.679688,-708.984375,-64.453125,76.538086,-48.339844
cobot_dynamixel_driver/joint_states|name|J1,J2,J3,J4,J5,J6|pos|-0.000025,-0.000188,-0.000075,-0.000050,-0.000165,-0.000021|vel|0.000000,0.002295,0.000000,0.000000,0.004826,-0.002413|eff|0.000000,161.132812,-708.984375,-96.679688,64.453125,-44.311523
cobot_dynamixel_driver/joint_states|name|J1,J2,J3,J4,J5,J6|pos|-0.000025,-0.000125,-0.000075,-0.000050,-0.000165,-0.000021|vel|0.000000,0.002712,0.000000,0.000000,0.004826,-0.002413|eff|0.000000,241.699219,-773.437500,0.000000,56.396484,-32.226562
cobot_dynamixel_driver/joint_states|name|J1,J2,J3,J4,J5,J6|pos|-0.000025,-0.000100,-0.000075,-0.000050,-0.000165,-0.000021|vel|0.000000,0.001878,0.000000,0.000000,0.004826,-0.002413|eff|0.000000,209.472656,-708.984375,-48.339844,44.311523,-32.226562
cobot_dynamixel_driver/joint_states|name|J1,J2,J3,J4,J5,J6|pos|-0.000025,-0.000088,-0.000075,-0.000050,-0.000165,-0.000021|vel|0.000000,0.001878,0.000000,0.000000,0.004826,-0.002413|eff|0.000000,177.246094,-708.984375,0.000000,28.198242,-32.226562
cobot_dynamixel_driver/joint_states|name|J1,J2,J3,J4,J5,J6|pos|-0.000025,-0.000088,-0.000075,-0.000050,-0.000165,-0.000021|vel|0.000000,0.000417,0.000000,0.000000,0.004826,0.000000|eff|0.000000,225.585938,-757.324219,-32.226562,32.226562,-32.226562
cobot_dynamixel_driver/joint_states|name|J1,J2,J3,J4,J5,J6|pos|-0.000025,-0.000088,-0.000075,-0.000050,-0.000165,-0.000021|vel|0.000000,0.000417,0.000000,0.000000,0.004826,0.000000|eff|0.000000,225.585938,-757.324219,0.000000,24.169922,-36.254883
cobot_dynamixel_driver/joint_states|name|J1,J2,J3,J4,J5,J6|pos|-0.000025,-0.000075,-0.000075,-0.000050,-0.000165,-0.000021|vel|0.000000,0.000417,0.000000,0.000000,0.000000,0.000000|eff|0.000000,193.359375,-725.097656,0.000000,28.198242,-36.254883
cobot_dynamixel_driver/joint_states|name|J1,J2,J3,J4,J5,J6|pos|-0.000025,-0.000063,-0.000075,-0.000050,-0.000165,-0.000021|vel|0.000000,0.000417,0.000000,0.000000,0.000000,0.000000|eff|0.000000,241.699219,-708.984375,-64.453125,32.226562,-32.226562
cobot_dynamixel_driver/joint_states|name|J1,J2,J3,J4,J5,J6|pos|-0.000025,-0.000050,-0.000075,-0.000050,-0.000165,-0.000021|vel|0.000000,0.000417,0.000000,0.000000,0.000000,0.000000|eff|0.000000,145.019531,-741.210938,-48.339844,32.226562,-12.084961
cobot_dynamixel_driver/joint_states|name|J1,J2,J3,J4,J5,J6|pos|-0.000025,-0.000038,-0.000075,-0.000050,-0.000165,-0.000021|vel|0.000000,0.000417,0.000000,0.000000,0.000000,0.000000|eff|0.000000,209.472656,-741.210938,-80.566406,56.396484,-28.198242
cobot_dynamixel_driver/joint_states|name|J1,J2,J3,J4,J5,J6|pos|-0.000025,-0.000025,-0.000075,-0.000038,-0.000165,-0.000021|vel|0.000000,0.000417,0.000000,0.000000,0.000000,0.000000|eff|0.000000,257.812500,-692.871094,0.000000,48.339844,-20.141602
cobot_dynamixel_driver/joint_states|name|J1,J2,J3,J4,J5,J6|pos|-0.000025,-0.000013,-0.000075,-0.000038,-0.000165,-0.000021|vel|0.000000,0.000626,0.000000,0.000000,0.000000,0.000000|eff|0.000000,193.359375,-692.871094,0.000000,52.368164,-32.226562
cobot_dynamixel_driver/joint_states|name|J1,J2,J3,J4,J5,J6|pos|-0.000025,-0.000000,-0.000075,-0.000038,-0.000165,-0.000021|vel|0.000000,0.000626,0.000000,0.000000,0.000000,0.000000|eff|0.000000,225.585938,-692.871094,-80.566406,56.396484,-32.226562
cobot_dynamixel_driver/joint_states|name|J1,J2,J3,J4,J5,J6|pos|-0.000025,-0.000000,-0.000075,-0.000038,-0.000165,-0.000021|vel|0.000000,0.000626,0.000000,0.000000,0.000000,0.000000|eff|0.000000,225.585938,-692.871094,0.000000,60.424805,-36.254883
cobot_dynamixel_driver/joint_states|name|J1,J2,J3,J4,J5,J6|pos|-0.000025,0.000013,-0.000075,-0.000038,-0.000165,-0.000021|vel|0.000000,0.000626,0.000000,0.000000,0.000000,0.000000|eff|0.000000,225.585938,-692.871094,0.000000,56.396484,-32.226562
cobot_dynamixel_driver/joint_states|name|J1,J2,J3,J4,J5,J6|pos|-0.000013,0.000013,-0.000075,-0.000038,-0.000165,-0.000021|vel|0.000000,0.000626,0.000000,0.000000,0.000000,0.000000|eff|0.000000,225.585938,-708.984375,-32.226562,60.424805,-36.254883
cobot_dynamixel_driver/joint_states|name|J1,J2,J3,J4,J5,J6|pos|-0.000013,0.000013,-0.000075,-0.000038,-0.000165,-0.000021|vel|0.000000,0.000209,0.000000,0.000000,0.000000,0.000000|eff|0.000000,225.585938,-692.871094,0.000000,56.396484,-32.226562
cobot_dynamixel_driver/joint_states|name|J1,J2,J3,J4,J5,J6|pos|-0.000013,0.000013,-0.000075,-0.000038,-0.000165,-0.000021|vel|0.000000,0.000209,0.000000,0.000000,0.000000,0.000000|eff|0.000000,225.585938,-708.984375,0.000000,48.339844,-36.254883
cobot_dynamixel_driver/joint_states|name|J1,J2,J3,J4,J5,J6|pos|-0.000013,0.000025,-0.000075,-0.000038,-0.000165,-0.000021|vel|0.000000,0.000209,0.000000,0.000000,0.000000,0.000000|eff|0.000000,225.585938,-692.871094,-32.226562,60.424805,-36.254883
cobot_dynamixel_driver/joint_states|name|J1,J2,J3,J4,J5,J6|pos|-0.000013,0.000025,-0.000075,-0.000038,-0.000165,-0.000021|vel|0.000000,0.000209,0.000000,0.000000,0.000000,0.000000|eff|0.000000,225.585938,-692.871094,0.000000,64.453125,-36.254883
cobot_dynamixel_driver/joint_states|name|J1,J2,J3,J4,J5,J6|pos|-0.000013,0.000025,-0.000075,-0.000038,-0.000165,-0.000021|vel|0.000000,0.000209,0.000000,0.000000,0.000000,0.000000|eff|-48.339844,225.585938,-692.871094,0.000000,60.424805,-20.141602
cobot_dynamixel_driver/joint_states|name|J1,J2,J3,J4,J5,J6|pos|-0.000013,0.000025,-0.000075,-0.000038,-0.000165,-0.000021|vel|0.000000,0.000209,0.000000,0.000000,0.000000,0.000000|eff|0.000000,225.585938,-692.871094,0.000000,64.453125,-36.254883
cobot_dynamixel_driver/joint_states|name|J1,J2,J3,J4,J5,J6|pos|-0.000013,0.000038,-0.000075,-0.000038,-0.000165,-0.000021|vel|0.000000,-0.000000,0.000000,0.000000,0.000000,0.000000|eff|0.000000,225.585938,-692.871094,-80.566406,68.481445,-36.254883
cobot_dynamixel_driver/joint_states|name|J1,J2,J3,J4,J5,J6|pos|-0.000013,0.000038,-0.000075,-0.000038,-0.000165,-0.000021|vel|0.000000,-0.000000,0.000000,0.000000,0.000000,0.000000|eff|0.000000,225.585938,-692.871094,0.000000,68.481445,-36.254883
cobot_dynamixel_driver/joint_states|name|J1,J2,J3,J4,J5,J6|pos|-0.000013,0.000038,-0.000075,-0.000038,-0.000165,-0.000021|vel|0.000000,-0.000000,0.000000,0.000000,0.000000,0.000000|eff|0.000000,225.585938,-692.871094,0.000000,72.509766,-36.254883
cobot_dynamixel_driver/joint_states|name|J1,J2,J3,J4,J5,J6|pos|-0.000013,0.000050,-0.000075,-0.000038,-0.000165,-0.000021|vel|0.000000,-0.000000,0.000000,0.000000,0.000000,0.000000|eff|0.000000,225.585938,-692.871094,0.000000,72.509766,-32.226562
cobot_dynamixel_driver/joint_states|name|J1,J2,J3,J4,J5,J6|pos|-0.000013,0.000050,-0.000075,-0.000038,-0.000165,-0.000021|vel|0.000000,-0.000000,0.000000,0.000000,0.000000,0.000000|eff|0.000000,225.585938,-676.757812,-80.566406,72.509766,-32.226562
cobot_dynamixel_driver/joint_states|name|J1,J2,J3,J4,J5,J6|pos|-0.000013,0.000050,-0.000075,-0.000038,-0.000124,-0.000021|vel|0.000000,-0.000000,0.000000,0.000000,0.000000,0.000000|eff|0.000000,225.585938,-692.871094,0.000000,72.509766,-36.254883
cobot_dynamixel_driver/joint_states|name|J1,J2,J3,J4,J5,J6|pos|-0.000013,0.000063,-0.000075,-0.000038,-0.000103,-0.000021|vel|0.000000,-0.000000,0.000000,0.000000,0.001723,0.000000|eff|-48.339844,225.585938,-692.871094,0.000000,80.566406,-36.254883
cobot_dynamixel_driver/joint_states|name|J1,J2,J3,J4,J5,J6|pos|-0.000013,0.000063,-0.000075,-0.000038,-0.000062,-0.000021|vel|0.000000,-0.000000,0.000000,0.000000,0.001723,0.000000|eff|0.000000,225.585938,-692.871094,0.000000,68.481445,-36.254883
cobot_dynamixel_driver/joint_states|name|J1,J2,J3,J4,J5,J6|pos|-0.000013,0.000063,-0.000075,-0.000038,-0.000041,-0.000021|vel|0.000000,-0.000000,0.000000,0.000000,0.001723,0.000000|eff|0.000000,225.585938,-676.757812,0.000000,68.481445,-32.226562
cobot_dynamixel_driver/joint_states|name|J1,J2,J3,J4,J5,J6|pos|-0.000013,0.000063,-0.000075,-0.000038,-0.000041,-0.000021|vel|0.000000,-0.000000,0.000000,0.000000,0.001723,0.000000|eff|-80.566406,225.585938,-628.417969,0.000000,64.453125,-36.254883
cobot_dynamixel_driver/joint_states|name|J1,J2,J3,J4,J5,J6|pos|-0.000013,0.000063,-0.000075,-0.000038,-0.000041,-0.000021|vel|0.000000,-0.000000,0.000000,0.000000,0.001723,0.000000|eff|0.000000,209.472656,-692.871094,0.000000,52.368164,-32.226562
cobot_dynamixel_driver/joint_states|name|J1,J2,J3,J4,J5,J6|pos|-0.000013,0.000063,-0.000063,-0.000038,-0.000041,-0.000021|vel|0.000000,-0.000000,0.000000,0.000000,0.001723,0.000000|eff|0.000000,370.605469,-660.644531,0.000000,64.453125,-36.254883
cobot_dynamixel_driver/joint_states|name|J1,J2,J3,J4,J5,J6|pos|-0.000013,0.000063,-0.000063,-0.000038,-0.000041,-0.000021|vel|0.000000,-0.000000,0.000000,0.000000,0.001723,0.000000|eff|0.000000,225.585938,-660.644531,0.000000,40.283203,-28.198242
cobot_dynamixel_driver/joint_states|name|J1,J2,J3,J4,J5,J6|pos|-0.000013,0.000063,-0.000063,-0.000038,-0.000041,-0.000021|vel|0.000000,-0.000000,0.000000,0.000000,0.000000,0.000000|eff|-112.792969,225.585938,-612.304688,0.000000,48.339844,-32.226562
cobot_dynamixel_driver/joint_states|name|J1,J2,J3,J4,J5,J6|pos|-0.000013,0.000063,-0.000063,-0.000038,-0.000041,-0.000021|vel|0.000000,-0.000000,0.000000,0.000000,0.000000,0.000000|eff|0.000000,209.472656,-660.644531,0.000000,60.424805,-20.141602
cobot_dynamixel_driver/joint_states|name|J1,J2,J3,J4,J5,J6|pos|-0.000013,0.000063,-0.000063,-0.000038,-0.000041,-0.000021|vel|0.000000,-0.000000,0.000000,0.000000,0.000000,0.000000|eff|0.000000,338.378906,-660.644531,0.000000,56.396484,-36.254883
cobot_dynamixel_driver/joint_states|name|J1,J2,J3,J4,J5,J6|pos|-0.000013,0.000063,-0.000063,-0.000038,-0.000041,-0.000021|vel|0.000000,-0.000000,0.000000,0.000000,0.000000,0.000000|eff|0.000000,273.925781,-676.757812,0.000000,60.424805,-36.254883
cobot_dynamixel_driver/joint_states|name|J1,J2,J3,J4,J5,J6|pos|-0.000013,0.000063,-0.000063,-0.000038,-0.000041,-0.000021|vel|0.000000,-0.000000,0.000000,0.000000,0.000000,0.000000|eff|0.000000,241.699219,-660.644531,0.000000,48.339844,-32.226562
cobot_dynamixel_driver/joint_states|name|J1,J2,J3,J4,J5,J6|pos|-0.000013,0.000063,-0.000063,-0.000038,-0.000041,-0.000021|vel|0.000000,-0.000000,0.000000,0.000000,0.000000,0.000000|eff|0.000000,241.699219,-596.191406,0.000000,36.254883,-20.141602
cobot_dynamixel_driver/joint_states|name|J1,J2,J3,J4,J5,J6|pos|-0.000013,0.000063,-0.000063,-0.000025,-0.000041,-0.000021|vel|0.000000,-0.000000,0.000000,0.000000,0.000000,0.000000|eff|0.000000,354.492188,-676.757812,0.000000,56.396484,-20.141602
cobot_dynamixel_driver/joint_states|name|J1,J2,J3,J4,J5,J6|pos|-0.000013,0.000063,-0.000063,-0.000025,-0.000041,-0.000021|vel|0.000000,-0.000000,0.000000,0.000000,0.000000,0.000000|eff|0.000000,402.832031,-628.417969,0.000000,56.396484,-32.226562
cobot_dynamixel_driver/joint_states|name|J1,J2,J3,J4,J5,J6|pos|-0.000013,0.000063,-0.000063,-0.000025,-0.000041,-0.000021|vel|0.000000,-0.000000,0.000000,0.000000,0.000000,0.000000|eff|0.000000,241.699219,-596.191406,0.000000,60.424805,-24.169922
cobot_dynamixel_driver/joint_states|name|J1,J2,J3,J4,J5,J6|pos|-0.000013,0.000063,-0.000063,-0.000025,-0.000041,-0.000021|vel|0.000000,-0.000000,0.000000,0.000000,0.000000,0.000000|eff|0.000000,370.605469,-660.644531,0.000000,48.339844,-32.226562
cobot_dynamixel_driver/joint_states|name|J1,J2,J3,J4,J5,J6|pos|-0.000013,0.000063,-0.000063,-0.000025,-0.000041,-0.000021|vel|0.000000,-0.000000,0.000000,0.000000,0.000000,0.000000|eff|0.000000,209.472656,-660.644531,0.000000,52.368164,-36.254883
cobot_dynamixel_driver/joint_states|name|J1,J2,J3,J4,J5,J6|pos|-0.000013,0.000063,-0.000063,-0.000025,-0.000041,-0.000021|vel|0.000000,-0.000000,0.000000,0.000000,0.000000,0.000000|eff|0.000000,225.585938,-628.417969,0.000000,56.396484,-28.198242
cobot_dynamixel_driver/joint_states|name|J1,J2,J3,J4,J5,J6|pos|-0.000013,0.000063,-0.000063,-0.000025,-0.000041,-0.000021|vel|0.000000,-0.000000,0.000000,0.000000,0.000000,0.000000|eff|0.000000,257.812500,-596.191406,0.000000,60.424805,-36.254883
cobot_dynamixel_driver/joint_states|name|J1,J2,J3,J4,J5,J6|pos|-0.000013,0.000063,-0.000063,-0.000025,-0.000041,-0.000021|vel|0.000000,-0.000000,0.000000,0.000000,0.000000,0.000000|eff|0.000000,225.585938,-644.531250,0.000000,60.424805,-36.254883
cobot_dynamixel_driver/joint_states|name|J1,J2,J3,J4,J5,J6|pos|-0.000013,0.000063,-0.000063,-0.000025,-0.000041,-0.000021|vel|0.000000,-0.000000,0.000000,0.000000,0.000000,0.000000|eff|0.000000,225.585938,-660.644531,0.000000,60.424805,-36.254883
cobot_dynamixel_driver/joint_states|name|J1,J2,J3,J4,J5,J6|pos|-0.000013,0.000063,-0.000063,-0.000025,-0.000041,-0.000021|vel|0.000000,-0.000000,0.000000,0.000000,0.000000,0.000000|eff|0.000000,225.585938,-596.191406,0.000000,60.424805,-8.056641
cobot_dynamixel_driver/joint_states|name|J1,J2,J3,J4,J5,J6|pos|-0.000013,0.000063,-0.000063,-0.000025,-0.000041,-0.000021|vel|0.000000,-0.000000,0.000000,0.000000,0.000000,0.000000|eff|0.000000,273.925781,-596.191406,0.000000,64.453125,-32.226562
cobot_dynamixel_driver/joint_states|name|J1,J2,J3,J4,J5,J6|pos|-0.000013,0.000063,-0.000063,-0.000025,-0.000041,-0.000021|vel|0.000000,-0.000000,0.000000,0.000000,0.000000,0.000000|eff|0.000000,354.492188,-612.304688,0.000000,52.368164,-20.141602
cobot_dynamixel_driver/joint_states|name|J1,J2,J3,J4,J5,J6|pos|0.000000,0.000063,-0.000063,-0.000025,-0.000041,-0.000021|vel|0.000000,-0.000000,0.000000,0.000000,0.000000,0.000000|eff|0.000000,306.152344,-596.191406,0.000000,60.424805,-32.226562
cobot_dynamixel_driver/joint_states|name|J1,J2,J3,J4,J5,J6|pos|0.000000,0.000063,-0.000063,-0.000025,-0.000041,-0.000021|vel|0.000000,-0.000000,0.000000,0.000000,0.000000,0.000000|eff|-80.566406,225.585938,-612.304688,0.000000,60.424805,-32.226562
cobot_dynamixel_driver/joint_states|name|J1,J2,J3,J4,J5,J6|pos|0.000000,0.000063,-0.000050,-0.000025,-0.000041,-0.000021|vel|0.000000,-0.000000,0.000000,0.000000,0.000000,0.000000|eff|0.000000,322.265625,-612.304688,0.000000,60.424805,-36.254883
cobot_dynamixel_driver/joint_states|name|J1,J2,J3,J4,J5,J6|pos|0.000000,0.000063,-0.000050,-0.000025,-0.000041,-0.000021|vel|0.000000,-0.000000,0.000000,0.000000,0.000000,0.000000|eff|0.000000,241.699219,-660.644531,0.000000,44.311523,-12.084961
cobot_dynamixel_driver/joint_states|name|J1,J2,J3,J4,J5,J6|pos|0.000000,0.000063,-0.000050,-0.000025,-0.000041,-0.000021|vel|0.000000,-0.000000,0.000000,0.000000,0.000000,0.000000|eff|0.000000,306.152344,-612.304688,0.000000,48.339844,-28.198242
cobot_dynamixel_driver/joint_states|name|J1,J2,J3,J4,J5,J6|pos|0.000000,0.000063,-0.000050,-0.000025,-0.000041,-0.000021|vel|0.000000,-0.000000,0.000000,0.000000,0.000000,0.000000|eff|0.000000,370.605469,-676.757812,0.000000,56.396484,-32.226562
cobot_dynamixel_driver/joint_states|name|J1,J2,J3,J4,J5,J6|pos|0.000000,0.000063,-0.000050,-0.000025,-0.000041,-0.000021|vel|0.000000,-0.000000,0.000000,0.000000,0.000000,0.000000|eff|0.000000,257.812500,-628.417969,0.000000,56.396484,-20.141602
cobot_dynamixel_driver/joint_states|name|J1,J2,J3,J4,J5,J6|pos|0.000000,0.000063,-0.000050,-0.000025,-0.000041,-0.000021|vel|0.000000,-0.000000,0.000000,0.000000,0.000000,0.000000|eff|-80.566406,225.585938,-596.191406,0.000000,48.339844,-20.141602
cobot_dynamixel_driver/joint_states|name|J1,J2,J3,J4,J5,J6|pos|0.000000,0.000063,-0.000050,-0.000025,-0.000041,-0.000021|vel|0.000000,-0.000000,0.000000,0.000000,0.000000,0.000000|eff|0.000000,322.265625,-628.417969,0.000000,60.424805,-36.254883
cobot_dynamixel_driver/joint_states|name|J1,J2,J3,J4,J5,J6|pos|0.000000,0.000063,-0.000050,-0.000025,-0.000041,-0.000021|vel|0.000000,-0.000000,0.000000,0.000000,0.000000,0.000000|eff|0.000000,354.492188,-660.644531,0.000000,44.311523,-20.141602
cobot_dynamixel_driver/joint_states|name|J1,J2,J3,J4,J5,J6|pos|0.000000,0.000063,-0.000050,-0.000025,-0.000041,-0.000021|vel|0.000000,-0.000000,0.000000,0.000000,0.000000,0.000000|eff|0.000000,435.058594,-596.191406,0.000000,44.311523,-28.198242
cobot_dynamixel_driver/joint_states|name|J1,J2,J3,J4,J5,J6|pos|0.000000,0.000063,-0.000050,-0.000025,-0.000041,-0.000021|vel|0.000000,-0.000000,0.000000,0.000000,0.000000,0.000000|eff|0.000000,402.832031,-580.078125,0.000000,60.424805,-36.254883
cobot_dynamixel_driver/joint_states|name|J1,J2,J3,J4,J5,J6|pos|0.000000,0.000063,-0.000050,-0.000025,-0.000041,-0.000021|vel|0.000000,-0.000000,0.000000,0.000000,0.000000,0.000000|eff|0.000000,225.585938,-580.078125,0.000000,44.311523,-36.254883
cobot_dynamixel_driver/joint_states|name|J1,J2,J3,J4,J5,J6|pos|0.000000,0.000063,-0.000050,-0.000025,-0.000041,-0.000021|vel|0.000000,-0.000000,0.000000,0.000000,0.000000,0.000000|eff|0.000000,225.585938,-596.191406,0.000000,60.424805,-28.198242
cobot_dynamixel_driver/joint_states|name|J1,J2,J3,J4,J5,J6|pos|0.000000,0.000063,-0.000050,-0.000025,-0.000041,-0.000021|vel|0.000000,-0.000000,0.000000,0.000000,0.000000,0.000000|eff|0.000000,225.585938,-660.644531,0.000000,52.368164,-8.056641
cobot_dynamixel_driver/joint_states|name|J1,J2,J3,J4,J5,J6|pos|0.000000,0.000063,-0.000050,-0.000025,-0.000041,-0.000021|vel|0.000000,-0.000000,0.000000,0.000000,0.000000,0.000000|eff|0.000000,273.925781,-596.191406,0.000000,52.368164,-32.226562
cobot_dynamixel_driver/joint_states|name|J1,J2,J3,J4,J5,J6|pos|0.000000,0.000063,-0.000050,-0.000025,-0.000041,-0.000021|vel|0.000000,-0.000000,0.000000,0.000000,0.000000,0.000000|eff|-48.339844,370.605469,-596.191406,0.000000,48.339844,-20.141602
cobot_dynamixel_driver/joint_states|name|J1,J2,J3,J4,J5,J6|pos|0.000000,0.000063,-0.000038,-0.000025,-0.000041,-0.000021|vel|0.000000,-0.000000,0.000000,0.000000,0.000000,0.000000|eff|0.000000,418.945312,-596.191406,0.000000,60.424805,-20.141602
cobot_dynamixel_driver/joint_states|name|J1,J2,J3,J4,J5,J6|pos|0.000000,0.000063,-0.000038,-0.000025,-0.000041,-0.000021|vel|0.000000,-0.000000,0.000000,0.000000,0.000000,0.000000|eff|0.000000,418.945312,-580.078125,0.000000,44.311523,-32.226562
cobot_dynamixel_driver/joint_states|name|J1,J2,J3,J4,J5,J6|pos|0.000000,0.000063,-0.000038,-0.000025,-0.000041,-0.000021|vel|0.000000,-0.000000,0.000000,0.000000,0.000000,0.000000|eff|0.000000,386.718750,-628.417969,0.000000,56.396484,-20.141602
cobot_dynamixel_driver/joint_states|name|J1,J2,J3,J4,J5,J6|pos|0.000000,0.000063,-0.000038,-0.000025,-0.000041,-0.000021|vel|0.000000,-0.000000,0.000000,0.000000,0.000000,0.000000|eff|0.000000,290.039062,-580.078125,0.000000,60.424805,-32.226562
cobot_dynamixel_driver/joint_states|name|J1,J2,J3,J4,J5,J6|pos|0.000000,0.000063,-0.000038,-0.000025,-0.000041,-0.000021|vel|0.000000,-0.000000,0.000000,0.000000,0.000000,0.000000|eff|0.000000,322.265625,-580.078125,0.000000,56.396484,-20.141602
cobot_dynamixel_driver/joint_states|name|J1,J2,J3,J4,J5,J6|pos|0.000000,0.000063,-0.000038,-0.000025,-0.000041,-0.000021|vel|0.000000,-0.000000,0.000000,0.000000,0.000000,0.000000|eff|0.000000,241.699219,-596.191406,0.000000,36.254883,-36.254883
cobot_dynamixel_driver/joint_states|name|J1,J2,J3,J4,J5,J6|pos|0.000000,0.000063,-0.000038,-0.000025,-0.000041,-0.000021|vel|0.000000,-0.000000,0.000000,0.000000,0.000000,0.000000|eff|-112.792969,370.605469,-596.191406,0.000000,60.424805,-32.226562
cobot_dynamixel_driver/joint_states|name|J1,J2,J3,J4,J5,J6|pos|0.000000,0.000063,-0.000038,-0.000025,-0.000041,-0.000021|vel|0.000000,-0.000000,0.000000,0.000000,0.000000,0.000000|eff|0.000000,225.585938,-596.191406,0.000000,48.339844,-28.198242
cobot_dynamixel_driver/joint_states|name|J1,J2,J3,J4,J5,J6|pos|0.000000,0.000063,-0.000038,-0.000025,-0.000041,-0.000021|vel|0.000000,-0.000000,0.000000,0.000000,0.000000,0.000000|eff|0.000000,290.039062,-580.078125,0.000000,60.424805,-12.084961
cobot_dynamixel_driver/joint_states|name|J1,J2,J3,J4,J5,J6|pos|0.000000,0.000063,-0.000038,-0.000025,-0.000041,-0.000021|vel|0.000000,-0.000000,0.000000,0.000000,0.000000,0.000000|eff|0.000000,322.265625,-612.304688,0.000000,48.339844,-36.254883
cobot_dynamixel_driver/joint_states|name|J1,J2,J3,J4,J5,J6|pos|0.000000,0.000063,-0.000038,-0.000025,-0.000041,-0.000021|vel|0.000000,-0.000000,0.000000,0.000000,0.000000,0.000000|eff|0.000000,290.039062,-580.078125,0.000000,40.283203,-32.226562
cobot_dynamixel_driver/joint_states|name|J1,J2,J3,J4,J5,J6|pos|0.000000,0.000063,-0.000038,-0.000025,-0.000041,-0.000021|vel|0.000000,-0.000000,0.000000,0.000000,0.000000,0.000000|eff|-48.339844,273.925781,-612.304688,0.000000,48.339844,-20.141602
cobot_dynamixel_driver/joint_states|name|J1,J2,J3,J4,J5,J6|pos|0.000000,0.000063,-0.000038,-0.000025,-0.000041,-0.000021|vel|0.000000,-0.000000,0.000000,0.000000,0.000000,0.000000|eff|0.000000,435.058594,-580.078125,0.000000,44.311523,-36.254883
cobot_dynamixel_driver/joint_states|name|J1,J2,J3,J4,J5,J6|pos|0.000000,0.000063,-0.000038,-0.000025,-0.000041,-0.000021|vel|0.000000,-0.000000,0.000000,0.000000,0.000000,0.000000|eff|0.000000,435.058594,-596.191406,0.000000,60.424805,-36.254883
cobot_dynamixel_driver/joint_states|name|J1,J2,J3,J4,J5,J6|pos|0.000000,0.000063,-0.000038,-0.000025,-0.000041,-0.000021|vel|0.000000,-0.000000,0.000000,0.000000,0.000000,0.000000|eff|0.000000,241.699219,-580.078125,0.000000,60.424805,-36.254883
cobot_dynamixel_driver/joint_states|name|J1,J2,J3,J4,J5,J6|pos|0.000000,0.000063,-0.000038,-0.000025,-0.000041,-0.000021|vel|0.000000,-0.000000,0.000000,0.000000,0.000000,0.000000|eff|0.000000,241.699219,-580.078125,0.000000,60.424805,-12.084961
cobot_dynamixel_driver/joint_states|name|J1,J2,J3,J4,J5,J6|pos|0.000000,0.000063,-0.000038,-0.000025,-0.000041,-0.000021|vel|0.000000,-0.000000,0.000000,0.000000,0.000000,0.000000|eff|0.000000,418.945312,-580.078125,0.000000,60.424805,-20.141602
cobot_dynamixel_driver/joint_states|name|J1,J2,J3,J4,J5,J6|pos|0.000000,0.000063,-0.000038,-0.000025,-0.000041,-0.000021|vel|0.000000,-0.000000,0.000000,0.000000,0.000000,0.000000|eff|0.000000,241.699219,-580.078125,0.000000,52.368164,-32.226562
cobot_dynamixel_driver/joint_states|name|J1,J2,J3,J4,J5,J6|pos|0.000000,0.000063,-0.000038,-0.000025,-0.000041,-0.000021|vel|0.000000,-0.000000,0.000000,0.000000,0.000000,0.000000|eff|0.000000,290.039062,-580.078125,0.000000,52.368164,-12.084961
cobot_dynamixel_driver/joint_states|name|J1,J2,J3,J4,J5,J6|pos|0.000000,0.000063,-0.000038,-0.000025,-0.000041,-0.000021|vel|0.000000,-0.000000,0.000000,0.000000,0.000000,0.000000|eff|0.000000,241.699219,-580.078125,0.000000,60.424805,-20.141602
cobot_dynamixel_driver/joint_states|name|J1,J2,J3,J4,J5,J6|pos|0.000000,0.000063,-0.000038,-0.000025,-0.000041,-0.000021|vel|0.000000,-0.000000,0.000000,0.000000,0.000000,0.000000|eff|0.000000,257.812500,-563.964844,0.000000,36.254883,-32.226562
cobot_dynamixel_driver/joint_states|name|J1,J2,J3,J4,J5,J6|pos|0.000000,0.000063,-0.000038,-0.000025,-0.000041,-0.000021|vel|0.000000,-0.000000,0.000000,0.000000,0.000000,0.000000|eff|-48.339844,418.945312,-580.078125,0.000000,48.339844,-36.254883
cobot_dynamixel_driver/joint_states|name|J1,J2,J3,J4,J5,J6|pos|0.000000,0.000063,-0.000038,-0.000025,-0.000041,-0.000021|vel|0.000000,-0.000000,0.000000,0.000000,0.000000,0.000000|eff|0.000000,322.265625,-580.078125,0.000000,60.424805,-8.056641
cobot_dynamixel_driver/joint_states|name|J1,J2,J3,J4,J5,J6|pos|0.000000,0.000063,-0.000038,-0.000025,-0.000041,-0.000021|vel|0.000000,-0.000000,0.000000,0.000000,0.000000,0.000000|eff|0.000000,241.699219,-580.078125,0.000000,48.339844,-12.084961
cobot_dynamixel_driver/joint_states|name|J1,J2,J3,J4,J5,J6|pos|0.000000,0.000063,-0.000038,-0.000025,-0.000041,-0.000021|vel|0.000000,-0.000000,0.000000,0.000000,0.000000,0.000000|eff|0.000000,418.945312,-580.078125,0.000000,60.424805,-36.254883
cobot_dynamixel_driver/joint_states|name|J1,J2,J3,J4,J5,J6|pos|0.000000,0.000063,-0.000038,-0.000025,-0.000041,-0.000021|vel|0.000000,-0.000000,0.000000,0.000000,0.000000,0.000000|eff|-48.339844,467.285156,-580.078125,0.000000,36.254883,-36.254883
cobot_dynamixel_driver/joint_states|name|J1,J2,J3,J4,J5,J6|pos|0.000000,0.000050,-0.000038,-0.000025,-0.000041,-0.000021|vel|0.000000,-0.000000,0.000000,0.000000,0.000000,0.000000|eff|0.000000,418.945312,-580.078125,0.000000,52.368164,-36.254883
cobot_dynamixel_driver/joint_states|name|J1,J2,J3,J4,J5,J6|pos|0.000000,0.000050,-0.000038,-0.000025,-0.000041,-0.000021|vel|0.000000,-0.000000,0.000000,0.000000,0.000000,0.000000|eff|0.000000,338.378906,-580.078125,0.000000,36.254883,-36.254883
cobot_dynamixel_driver/joint_states|name|J1,J2,J3,J4,J5,J6|pos|0.000000,0.000050,-0.000025,-0.000025,-0.000041,-0.000021|vel|0.000000,-0.000000,0.000000,0.000000,0.000000,0.000000|eff|0.000000,338.378906,-563.964844,0.000000,52.368164,-36.254883
cobot_dynamixel_driver/joint_states|name|J1,J2,J3,J4,J5,J6|pos|0.000000,0.000050,-0.000025,-0.000025,-0.000041,-0.000021|vel|0.000000,-0.000000,0.000000,0.000000,0.000000,0.000000|eff|-48.339844,322.265625,-563.964844,0.000000,36.254883,-12.084961
cobot_dynamixel_driver/joint_states|name|J1,J2,J3,J4,J5,J6|pos|0.000000,0.000050,-0.000025,-0.000025,-0.000041,-0.000021|vel|0.000000,-0.000000,0.000000,0.000000,0.000000,0.000000|eff|0.000000,451.171875,-580.078125,0.000000,52.368164,-20.141602
cobot_dynamixel_driver/joint_states|name|J1,J2,J3,J4,J5,J6|pos|0.000000,0.000050,-0.000025,-0.000025,-0.000041,-0.000021|vel|0.000000,-0.000000,0.000000,0.000000,0.000000,0.000000|eff|0.000000,338.378906,-580.078125,0.000000,60.424805,-36.254883
cobot_dynamixel_driver/joint_states|name|J1,J2,J3,J4,J5,J6|pos|0.000000,0.000050,-0.000025,-0.000025,-0.000041,-0.000021|vel|0.000000,-0.000000,0.000000,0.000000,0.000000,0.000000|eff|0.000000,306.152344,-580.078125,0.000000,60.424805,-36.254883
cobot_dynamixel_driver/joint_states|name|J1,J2,J3,J4,J5,J6|pos|0.000000,0.000050,-0.000025,-0.000025,-0.000041,-0.000021|vel|0.000000,-0.000000,0.000000,0.000000,0.000000,0.000000|eff|-112.792969,338.378906,-580.078125,0.000000,48.339844,-32.226562
cobot_dynamixel_driver/joint_states|name|J1,J2,J3,J4,J5,J6|pos|0.000000,0.000050,-0.000025,-0.000025,-0.000041,-0.000021|vel|0.000000,-0.000000,0.000000,0.000000,0.000000,0.000000|eff|0.000000,451.171875,-531.738281,0.000000,48.339844,-8.056641
cobot_dynamixel_driver/joint_states|name|J1,J2,J3,J4,J5,J6|pos|0.000000,0.000050,-0.000025,-0.000025,-0.000041,-0.000021|vel|0.000000,-0.000000,0.000000,0.000000,0.000000,0.000000|eff|0.000000,418.945312,-531.738281,0.000000,48.339844,-24.169922
cobot_dynamixel_driver/joint_states|name|J1,J2,J3,J4,J5,J6|pos|0.000000,0.000050,-0.000025,-0.000025,-0.000041,-0.000021|vel|0.000000,-0.000000,0.000000,0.000000,0.000000,0.000000|eff|-80.566406,386.718750,-515.625000,0.000000,64.453125,-36.254883
cobot_dynamixel_driver/joint_states|name|J1,J2,J3,J4,J5,J6|pos|0.000000,0.000050,-0.000025,-0.000025,-0.000041,-0.000021|vel|0.000000,-0.000000,0.000000,0.000000,0.000000,0.000000|eff|0.000000,418.945312,-580.078125,0.000000,52.368164,-36.254883
cobot_dynamixel_driver/joint_states|name|J1,J2,J3,J4,J5,J6|pos|0.000000,0.000050,-0.000025,-0.000025,-0.000041,-0.000021|vel|0.000000,-0.000000,0.000000,0.000000,0.000000,0.000000|eff|0.000000,386.718750,-563.964844,0.000000,60.424805,-8.056641
cobot_dynamixel_driver/joint_states|name|J1,J2,J3,J4,J5,J6|pos|0.000000,0.000050,-0.000025,-0.000025,-0.000041,-0.000021|vel|0.000000,-0.000000,0.000000,0.000000,0.000000,0.000000|eff|0.000000,306.152344,-580.078125,0.000000,44.311523,-36.254883
cobot_dynamixel_driver/joint_states|name|J1,J2,J3,J4,J5,J6|pos|0.000000,0.000050,-0.000025,-0.000025,-0.000041,-0.000021|vel|0.000000,-0.000000,0.000000,0.000000,0.000000,0.000000|eff|-80.566406,273.925781,-580.078125,0.000000,48.339844,-36.254883
cobot_dynamixel_driver/joint_states|name|J1,J2,J3,J4,J5,J6|pos|0.000000,0.000050,-0.000025,-0.000025,-0.000041,-0.000021|vel|0.000000,-0.000000,0.000000,0.000000,0.000000,0.000000|eff|0.000000,338.378906,-580.078125,0.000000,60.424805,-28.198242
cobot_dynamixel_driver/joint_states|name|J1,J2,J3,J4,J5,J6|pos|0.000000,0.000050,-0.000025,-0.000025,-0.000041,-0.000021|vel|0.000000,-0.000000,0.000000,0.000000,0.000000,0.000000|eff|0.000000,386.718750,-580.078125,0.000000,44.311523,-28.198242
cobot_dynamixel_driver/joint_states|name|J1,J2,J3,J4,J5,J6|pos|0.000000,0.000050,-0.000025,-0.000025,-0.000041,-0.000021|vel|0.000000,-0.000000,0.000000,0.000000,0.000000,0.000000|eff|0.000000,354.492188,-580.078125,0.000000,44.311523,-20.141602
cobot_dynamixel_driver/joint_states|name|J1,J2,J3,J4,J5,J6|pos|0.000000,0.000050,-0.000025,-0.000025,-0.000041,-0.000021|vel|0.000000,-0.000000,0.000000,0.000000,0.000000,0.000000|eff|0.000000,483.398438,-580.078125,0.000000,60.424805,-20.141602
cobot_dynamixel_driver/joint_states|name|J1,J2,J3,J4,J5,J6|pos|0.000000,0.000050,-0.000025,-0.000025,-0.000041,-0.000021|vel|0.000000,-0.000000,0.000000,0.000000,0.000000,0.000000|eff|0.000000,435.058594,-531.738281,0.000000,64.453125,-36.254883
cobot_dynamixel_driver/joint_states|name|J1,J2,J3,J4,J5,J6|pos|0.000000,0.000050,-0.000025,-0.000025,-0.000041,-0.000021|vel|0.000000,-0.000000,0.000000,0.000000,0.000000,0.000000|eff|0.000000,273.925781,-580.078125,0.000000,60.424805,-36.254883
cobot_dynamixel_driver/joint_states|name|J1,J2,J3,J4,J5,J6|pos|0.000000,0.000050,-0.000025,-0.000025,-0.000041,-0.000021|vel|0.000000,-0.000000,0.000000,0.000000,0.000000,0.000000|eff|0.000000,435.058594,-580.078125,0.000000,60.424805,-20.141602
cobot_dynamixel_driver/joint_states|name|J1,J2,J3,J4,J5,J6|pos|0.000000,0.000050,-0.000025,-0.000025,-0.000041,-0.000021|vel|0.000000,-0.000000,0.000000,0.000000,0.000000,0.000000|eff|-80.566406,467.285156,-499.511719,0.000000,44.311523,-36.254883
cobot_dynamixel_driver/joint_states|name|J1,J2,J3,J4,J5,J6|pos|0.000000,0.000050,-0.000025,-0.000025,-0.000041,-0.000021|vel|0.000000,-0.000000,0.000000,0.000000,0.000000,0.000000|eff|0.000000,402.832031,-580.078125,0.000000,56.396484,-36.254883
cobot_dynamixel_driver/joint_states|name|J1,J2,J3,J4,J5,J6|pos|0.000000,0.000050,-0.000025,-0.000025,-0.000041,-0.000021|vel|0.000000,-0.000000,0.000000,0.000000,0.000000,0.000000|eff|0.000000,306.152344,-515.625000,0.000000,52.368164,-36.254883
cobot_dynamixel_driver/joint_states|name|J1,J2,J3,J4,J5,J6|pos|0.000000,0.000050,-0.000025,-0.000025,-0.000041,-0.000021|vel|0.000000,-0.000000,0.000000,0.000000,0.000000,0.000000|eff|0.000000,467.285156,-531.738281,0.000000,52.368164,-12.084961
cobot_dynamixel_driver/joint_states|name|J1,J2,J3,J4,J5,J6|pos|0.000000,0.000050,-0.000025,-0.000025,-0.000041,-0.000021|vel|0.000000,-0.000000,0.000000,0.000000,0.000000,0.000000|eff|0.000000,402.832031,-580.078125,0.000000,60.424805,-36.254883
cobot_dynamixel_driver/joint_states|name|J1,J2,J3,J4,J5,J6|pos|0.000000,0.000050,-0.000025,-0.000025,-0.000041,-0.000021|vel|0.000000,-0.000000,0.000000,0.000000,0.000000,0.000000|eff|-48.339844,257.812500,-580.078125,0.000000,48.339844,-28.198242
cobot_dynamixel_driver/joint_states|name|J1,J2,J3,J4,J5,J6|pos|0.000000,0.000050,-0.000025,-0.000025,-0.000041,-0.000021|vel|0.000000,-0.000000,0.000000,0.000000,0.000000,0.000000|eff|0.000000,402.832031,-580.078125,0.000000,36.254883,-36.254883
cobot_dynamixel_driver/joint_states|name|J1,J2,J3,J4,J5,J6|pos|0.000000,0.000050,-0.000025,-0.000025,-0.000041,-0.000021|vel|0.000000,-0.000000,0.000000,0.000000,0.000000,0.000000|eff|0.000000,451.171875,-580.078125,0.000000,44.311523,-32.226562
cobot_dynamixel_driver/joint_states|name|J1,J2,J3,J4,J5,J6|pos|0.000000,0.000050,-0.000025,-0.000025,-0.000041,-0.000021|vel|0.000000,-0.000000,0.000000,0.000000,0.000000,0.000000|eff|0.000000,451.171875,-580.078125,0.000000,56.396484,-20.141602
cobot_dynamixel_driver/joint_states|name|J1,J2,J3,J4,J5,J6|pos|0.000000,0.000050,-0.000025,-0.000025,-0.000041,-0.000021|vel|0.000000,-0.000000,0.000000,0.000000,0.000000,0.000000|eff|0.000000,306.152344,-580.078125,0.000000,60.424805,-36.254883
cobot_dynamixel_driver/joint_states|name|J1,J2,J3,J4,J5,J6|pos|0.000000,0.000050,-0.000025,-0.000025,-0.000041,-0.000021|vel|0.000000,-0.000000,0.000000,0.000000,0.000000,0.000000|eff|0.000000,402.832031,-563.964844,0.000000,60.424805,-36.254883
cobot_dynamixel_driver/joint_states|name|J1,J2,J3,J4,J5,J6|pos|0.000000,0.000050,-0.000025,-0.000025,-0.000041,-0.000021|vel|0.000000,-0.000000,0.000000,0.000000,0.000000,0.000000|eff|0.000000,402.832031,-531.738281,0.000000,60.424805,-36.254883
cobot_dynamixel_driver/joint_states|name|J1,J2,J3,J4,J5,J6|pos|0.000000,0.000050,-0.000025,-0.000025,-0.000041,-0.000021|vel|0.000000,-0.000000,0.000000,0.000000,0.000000,0.000000|eff|-80.566406,451.171875,-580.078125,0.000000,52.368164,-32.226562
cobot_dynamixel_driver/joint_states|name|J1,J2,J3,J4,J5,J6|pos|0.000000,0.000050,-0.000025,-0.000025,-0.000041,-0.000021|vel|0.000000,-0.000000,0.000000,0.000000,0.000000,0.000000|eff|0.000000,306.152344,-580.078125,0.000000,60.424805,-28.198242
cobot_dynamixel_driver/joint_states|name|J1,J2,J3,J4,J5,J6|pos|0.000000,0.000050,-0.000025,-0.000025,-0.000041,-0.000021|vel|0.000000,-0.000000,0.000000,0.000000,0.000000,0.000000|eff|0.000000,354.492188,-580.078125,0.000000,60.424805,-32.226562
cobot_dynamixel_driver/joint_states|name|J1,J2,J3,J4,J5,J6|pos|0.000000,0.000050,-0.000025,-0.000025,-0.000041,-0.000021|vel|0.000000,-0.000000,0.000000,0.000000,0.000000,0.000000|eff|0.000000,306.152344,-580.078125,0.000000,44.311523,-32.226562
cobot_dynamixel_driver/joint_states|name|J1,J2,J3,J4,J5,J6|pos|0.000000,0.000050,-0.000025,-0.000025,-0.000041,-0.000021|vel|0.000000,-0.000000,0.000000,0.000000,0.000000,0.000000|eff|-112.792969,435.058594,-547.851562,0.000000,36.254883,-36.254883
cobot_dynamixel_driver/joint_states|name|J1,J2,J3,J4,J5,J6|pos|0.000000,0.000050,-0.000025,-0.000025,-0.000041,-0.000021|vel|0.000000,-0.000000,0.000000,0.000000,0.000000,0.000000|eff|0.000000,402.832031,-580.078125,0.000000,60.424805,-8.056641
cobot_dynamixel_driver/joint_states|name|J1,J2,J3,J4,J5,J6|pos|0.000000,0.000050,-0.000025,-0.000025,-0.000041,-0.000021|vel|0.000000,-0.000000,0.000000,0.000000,0.000000,0.000000|eff|0.000000,402.832031,-563.964844,0.000000,60.424805,-28.198242
cobot_dynamixel_driver/joint_states|name|J1,J2,J3,J4,J5,J6|pos|0.000000,0.000050,-0.000025,-0.000025,-0.000041,-0.000021|vel|0.000000,-0.000000,0.000000,0.000000,0.000000,0.000000|eff|0.000000,418.945312,-580.078125,0.000000,60.424805,-32.226562
cobot_dynamixel_driver/joint_states|name|J1,J2,J3,J4,J5,J6|pos|0.000000,0.000050,-0.000025,-0.000025,-0.000041,-0.000021|vel|0.000000,-0.000000,0.000000,0.000000,0.000000,0.000000|eff|-48.339844,418.945312,-563.964844,0.000000,52.368164,-36.254883
cobot_dynamixel_driver/joint_states|name|J1,J2,J3,J4,J5,J6|pos|0.000000,0.000050,-0.000025,-0.000025,-0.000041,-0.000021|vel|0.000000,-0.000000,0.000000,0.000000,0.000000,0.000000|eff|0.000000,402.832031,-563.964844,0.000000,60.424805,-32.226562
cobot_dynamixel_driver/joint_states|name|J1,J2,J3,J4,J5,J6|pos|0.000000,0.000050,-0.000025,-0.000025,-0.000041,-0.000021|vel|0.000000,-0.000000,0.000000,0.000000,0.000000,0.000000|eff|0.000000,451.171875,-580.078125,0.000000,44.311523,-28.198242
cobot_dynamixel_driver/joint_states|name|J1,J2,J3,J4,J5,J6|pos|0.000000,0.000050,-0.000025,-0.000025,-0.000041,-0.000021|vel|0.000000,-0.000000,0.000000,0.000000,0.000000,0.000000|eff|0.000000,451.171875,-563.964844,0.000000,60.424805,-20.141602
cobot_dynamixel_driver/joint_states|name|J1,J2,J3,J4,J5,J6|pos|0.000000,0.000050,-0.000025,-0.000025,-0.000041,-0.000021|vel|0.000000,-0.000000,0.000000,0.000000,0.000000,0.000000|eff|0.000000,483.398438,-580.078125,0.000000,60.424805,-32.226562
cobot_dynamixel_driver/joint_states|name|J1,J2,J3,J4,J5,J6|pos|0.000000,0.000038,-0.000025,-0.000025,-0.000041,-0.000021|vel|0.000000,-0.000000,0.000000,0.000000,0.000000,0.000000|eff|0.000000,435.058594,-531.738281,0.000000,48.339844,-36.254883
cobot_dynamixel_driver/joint_states|name|J1,J2,J3,J4,J5,J6|pos|0.000000,0.000038,-0.000025,-0.000025,-0.000041,-0.000021|vel|0.000000,-0.000000,0.000000,0.000000,0.000000,0.000000|eff|0.000000,418.945312,-580.078125,0.000000,52.368164,-20.141602
cobot_dynamixel_driver/joint_states|name|J1,J2,J3,J4,J5,J6|pos|0.000000,0.000038,-0.000025,-0.000025,-0.000041,-0.000021|vel|0.000000,-0.000000,0.000000,0.000000,0.000000,0.000000|eff|0.000000,338.378906,-580.078125,0.000000,48.339844,-36.254883
cobot_dynamixel_driver/joint_states|name|J1,J2,J3,J4,J5,J6|pos|0.000000,0.000038,-0.000025,-0.000025,-0.000041,-0.000021|vel|0.000000,-0.000000,0.000000,0.000000,0.000000,0.000000|eff|-112.792969,483.398438,-563.964844,0.000000,36.254883,-28.198242
cobot_dynamixel_driver/joint_states|name|J1,J2,J3,J4,J5,J6|pos|0.000000,0.000038,-0.000025,-0.000025,-0.000041,-0.000021|vel|0.000000,-0.000000,0.000000,0.000000,0.000000,0.000000|eff|0.000000,306.152344,-563.964844,0.000000,60.424805,-20.141602
cobot_dynamixel_driver/joint_states|name|J1,J2,J3,J4,J5,J6|pos|0.000000,0.000038,-0.000025,-0.000025,-0.000041,-0.000021|vel|0.000000,-0.000000,0.000000,0.000000,0.000000,0.000000|eff|0.000000,402.832031,-580.078125,0.000000,56.396484,-28.198242
cobot_dynamixel_driver/joint_states|name|J1,J2,J3,J4,J5,J6|pos|0.000000,0.000038,-0.000025,-0.000025,-0.000041,-0.000021|vel|0.000000,-0.000000,0.000000,0.000000,0.000000,0.000000|eff|-80.566406,483.398438,-547.851562,0.000000,60.424805,-8.056641
cobot_dynamixel_driver/joint_states|name|J1,J2,J3,J4,J5,J6|pos|0.000000,0.000038,-0.000025,-0.000025,-0.000041,-0.000021|vel|0.000000,-0.000000,0.000000,0.000000,0.000000,0.000000|eff|0.000000,483.398438,-499.511719,0.000000,60.424805,-36.254883
cobot_dynamixel_driver/joint_states|name|J1,J2,J3,J4,J5,J6|pos|0.000000,0.000038,-0.000025,-0.000025,-0.000041,-0.000021|vel|0.000000,-0.000000,0.000000,0.000000,0.000000,0.000000|eff|0.000000,467.285156,-499.511719,0.000000,40.283203,-32.226562
cobot_dynamixel_driver/joint_states|name|J1,J2,J3,J4,J5,J6|pos|0.000000,0.000038,-0.000025,-0.000025,-0.000041,-0.000021|vel|0.000000,-0.000000,0.000000,0.000000,0.000000,0.000000|eff|0.000000,467.285156,-580.078125,0.000000,60.424805,-12.084961
cobot_dynamixel_driver/joint_states|name|J1,J2,J3,J4,J5,J6|pos|0.000000,0.000038,-0.000025,-0.000025,-0.000041,-0.000021|vel|0.000000,-0.000000,0.000000,0.000000,0.000000,0.000000|eff|-48.339844,467.285156,-580.078125,0.000000,60.424805,-28.198242
cobot_dynamixel_driver/joint_states|name|J1,J2,J3,J4,J5,J6|pos|0.000000,0.000038,-0.000025,-0.000025,-0.000041,-0.000021|vel|0.000000,-0.000000,0.000000,0.000000,0.000000,0.000000|eff|0.000000,402.832031,-580.078125,0.000000,60.424805,-36.254883
cobot_dynamixel_driver/joint_states|name|J1,J2,J3,J4,J5,J6|pos|0.000000,0.000038,-0.000025,-0.000025,-0.000041,-0.000021|vel|0.000000,-0.000000,0.000000,0.000000,0.000000,0.000000|eff|0.000000,435.058594,-531.738281,0.000000,48.339844,-32.226562
cobot_dynamixel_driver/joint_states|name|J1,J2,J3,J4,J5,J6|pos|0.000000,0.000038,-0.000025,-0.000025,-0.000041,-0.000021|vel|0.000000,-0.000000,0.000000,0.000000,0.000000,0.000000|eff|0.000000,435.058594,-515.625000,0.000000,60.424805,-36.254883
cobot_dynamixel_driver/joint_states|name|J1,J2,J3,J4,J5,J6|pos|0.000000,0.000038,-0.000025,-0.000025,-0.000041,-0.000021|vel|0.000000,-0.000000,0.000000,0.000000,0.000000,0.000000|eff|0.000000,306.152344,-580.078125,0.000000,40.283203,-36.254883
cobot_dynamixel_driver/joint_states|name|J1,J2,J3,J4,J5,J6|pos|0.000000,0.000038,-0.000025,-0.000025,-0.000041,-0.000021|vel|0.000000,-0.000000,0.000000,0.000000,0.000000,0.000000|eff|0.000000,418.945312,-563.964844,0.000000,48.339844,-32.226562
cobot_dynamixel_driver/joint_states|name|J1,J2,J3,J4,J5,J6|pos|0.000000,0.000038,-0.000025,-0.000025,-0.000041,-0.000021|vel|0.000000,-0.000000,0.000000,0.000000,0.000000,0.000000|eff|0.000000,354.492188,-580.078125,0.000000,40.283203,-36.254883
cobot_dynamixel_driver/joint_states|name|J1,J2,J3,J4,J5,J6|pos|0.000000,0.000038,-0.000025,-0.000025,-0.000041,-0.000021|vel|0.000000,-0.000000,0.000000,0.000000,0.000000,0.000000|eff|0.000000,306.152344,-547.851562,0.000000,48.339844,-20.141602
cobot_dynamixel_driver/joint_states|name|J1,J2,J3,J4,J5,J6|pos|0.000000,0.000038,-0.000025,-0.000025,-0.000041,-0.000021|vel|0.000000,-0.000000,0.000000,0.000000,0.000000,0.000000|eff|0.000000,435.058594,-580.078125,0.000000,60.424805,-20.141602
cobot_dynamixel_driver/joint_states|name|J1,J2,J3,J4,J5,J6|pos|0.000000,0.000038,-0.000025,-0.000025,-0.000041,-0.000021|vel|0.000000,-0.000000,0.000000,0.000000,0.000000,0.000000|eff|0.000000,483.398438,-580.078125,0.000000,60.424805,-36.254883
cobot_dynamixel_driver/joint_states|name|J1,J2,J3,J4,J5,J6|pos|0.000000,0.000038,-0.000025,-0.000025,-0.000041,-0.000021|vel|0.000000,-0.000000,0.000000,0.000000,0.000000,0.000000|eff|-112.792969,467.285156,-547.851562,0.000000,60.424805,-36.254883
cobot_dynamixel_driver/joint_states|name|J1,J2,J3,J4,J5,J6|pos|0.000000,0.000038,-0.000025,-0.000025,-0.000041,-0.000021|vel|0.000000,-0.000000,0.000000,0.000000,0.000000,0.000000|eff|0.000000,483.398438,-515.625000,0.000000,60.424805,-32.226562
cobot_dynamixel_driver/joint_states|name|J1,J2,J3,J4,J5,J6|pos|0.000000,0.000038,-0.000025,-0.000025,-0.000041,-0.000021|vel|0.000000,-0.000000,0.000000,0.000000,0.000000,0.000000|eff|0.000000,483.398438,-580.078125,0.000000,52.368164,-28.198242
cobot_dynamixel_driver/joint_states|name|J1,J2,J3,J4,J5,J6|pos|0.000000,0.000038,-0.000025,-0.000025,-0.000041,-0.000021|vel|0.000000,-0.000000,0.000000,0.000000,0.000000,0.000000|eff|0.000000,273.925781,-580.078125,0.000000,60.424805,-36.254883
cobot_dynamixel_driver/joint_states|name|J1,J2,J3,J4,J5,J6|pos|0.000000,0.000038,-0.000025,-0.000025,-0.000041,-0.000021|vel|0.000000,-0.000000,0.000000,0.000000,0.000000,0.000000|eff|-112.792969,451.171875,-580.078125,0.000000,52.368164,-36.254883
cobot_dynamixel_driver/joint_states|name|J1,J2,J3,J4,J5,J6|pos|0.000000,0.000038,-0.000025,-0.000025,-0.000041,-0.000021|vel|0.000000,-0.000000,0.000000,0.000000,0.000000,0.000000|eff|0.000000,483.398438,-563.964844,0.000000,44.311523,-36.254883
cobot_dynamixel_driver/joint_states|name|J1,J2,J3,J4,J5,J6|pos|0.000000,0.000038,-0.000025,-0.000025,-0.000041,-0.000021|vel|0.000000,-0.000000,0.000000,0.000000,0.000000,0.000000|eff|0.000000,273.925781,-580.078125,0.000000,60.424805,-36.254883
cobot_dynamixel_driver/joint_states|name|J1,J2,J3,J4,J5,J6|pos|0.000000,0.000038,-0.000025,-0.000025,-0.000041,-0.000021|vel|0.000000,-0.000000,0.000000,0.000000,0.000000,0.000000|eff|0.000000,402.832031,-580.078125,0.000000,60.424805,-32.226562
cobot_dynamixel_driver/joint_states|name|J1,J2,J3,J4,J5,J6|pos|0.000000,0.000038,-0.000025,-0.000025,-0.000041,-0.000021|vel|0.000000,-0.000000,0.000000,0.000000,0.000000,0.000000|eff|-48.339844,499.511719,-580.078125,0.000000,48.339844,-20.141602
cobot_dynamixel_driver/joint_states|name|J1,J2,J3,J4,J5,J6|pos|0.000000,0.000038,-0.000025,-0.000025,-0.000041,-0.000021|vel|0.000000,-0.000000,0.000000,0.000000,0.000000,0.000000|eff|0.000000,306.152344,-580.078125,0.000000,60.424805,-24.169922
cobot_dynamixel_driver/joint_states|name|J1,J2,J3,J4,J5,J6|pos|0.000000,0.000025,-0.000025,-0.000025,-0.000041,-0.000021|vel|0.000000,-0.000000,0.000000,0.000000,0.000000,0.000000|eff|0.000000,499.511719,-580.078125,0.000000,44.311523,-32.226562
cobot_dynamixel_driver/joint_states|name|J1,J2,J3,J4,J5,J6|pos|0.000000,0.000025,-0.000025,-0.000025,-0.000041,-0.000021|vel|0.000000,-0.000000,0.000000,0.000000,0.000000,0.000000|eff|0.000000,435.058594,-531.738281,0.000000,60.424805,-12.084961
cobot_dynamixel_driver/joint_states|name|J1,J2,J3,J4,J5,J6|pos|0.000000,0.000025,-0.000025,-0.000025,-0.000041,-0.000021|vel|0.000000,-0.000000,0.000000,0.000000,0.000000,0.000000|eff|-112.792969,499.511719,-580.078125,0.000000,60.424805,-20.141602
cobot_dynamixel_driver/joint_states|name|J1,J2,J3,J4,J5,J6|pos|0.000000,0.000025,-0.000025,-0.000025,-0.000041,-0.000021|vel|0.000000,-0.000000,0.000000,0.000000,0.000000,0.000000|eff|0.000000,483.398438,-531.738281,0.000000,48.339844,-12.084961
cobot_dynamixel_driver/joint_states|name|J1,J2,J3,J4,J5,J6|pos|0.000000,0.000025,-0.000025,-0.000025,-0.000041,-0.000021|vel|0.000000,-0.000000,0.000000,0.000000,0.000000,0.000000|eff|0.000000,435.058594,-580.078125,0.000000,40.283203,-32.226562
cobot_dynamixel_driver/joint_states|name|J1,J2,J3,J4,J5,J6|pos|0.000000,0.000025,-0.000025,-0.000025,-0.000041,-0.000021|vel|0.000000,-0.000000,0.000000,0.000000,0.000000,0.000000|eff|0.000000,483.398438,-515.625000,0.000000,60.424805,-20.141602
cobot_dynamixel_driver/joint_states|name|J1,J2,J3,J4,J5,J6|pos|0.000000,0.000025,-0.000025,-0.000025,-0.000041,-0.000021|vel|0.000000,-0.000000,0.000000,0.000000,0.000000,0.000000|eff|0.000000,451.171875,-531.738281,0.000000,60.424805,-36.254883
cobot_dynamixel_driver/joint_states|name|J1,J2,J3,J4,J5,J6|pos|0.000000,0.000025,-0.000025,-0.000025,-0.000041,-0.000021|vel|0.000000,-0.000000,0.000000,0.000000,0.000000,0.000000|eff|0.000000,306.152344,-580.078125,0.000000,60.424805,-32.226562
cobot_dynamixel_driver/joint_states|name|J1,J2,J3,J4,J5,J6|pos|0.000000,0.000025,-0.000025,-0.000025,-0.000041,-0.000021|vel|0.000000,-0.000000,0.000000,0.000000,0.000000,0.000000|eff|0.000000,499.511719,-547.851562,0.000000,60.424805,-36.254883
cobot_dynamixel_driver/joint_states|name|J1,J2,J3,J4,J5,J6|pos|0.000000,0.000025,-0.000025,-0.000025,-0.000041,-0.000021|vel|0.000000,-0.000000,0.000000,0.000000,0.000000,0.000000|eff|-48.339844,418.945312,-547.851562,0.000000,48.339844,-28.198242
cobot_dynamixel_driver/joint_states|name|J1,J2,J3,J4,J5,J6|pos|0.000000,0.000025,-0.000025,-0.000025,-0.000041,-0.000021|vel|0.000000,-0.000000,0.000000,0.000000,0.000000,0.000000|eff|0.000000,483.398438,-580.078125,0.000000,52.368164,-12.084961
cobot_dynamixel_driver/joint_states|name|J1,J2,J3,J4,J5,J6|pos|0.000000,0.000025,-0.000025,-0.000025,-0.000041,-0.000021|vel|0.000000,-0.000000,0.000000,0.000000,0.000000,0.000000|eff|0.000000,499.511719,-580.078125,0.000000,60.424805,-36.254883
cobot_dynamixel_driver/joint_states|name|J1,J2,J3,J4,J5,J6|pos|0.000000,0.000025,-0.000025,-0.000025,-0.000041,-0.000021|vel|0.000000,-0.000000,0.000000,0.000000,0.000000,0.000000|eff|0.000000,435.058594,-515.625000,0.000000,60.424805,-8.056641
cobot_dynamixel_driver/joint_states|name|J1,J2,J3,J4,J5,J6|pos|0.000000,0.000025,-0.000025,-0.000025,-0.000041,-0.000021|vel|0.000000,-0.000000,0.000000,0.000000,0.000000,0.000000|eff|0.000000,499.511719,-547.851562,0.000000,44.311523,-36.254883
cobot_dynamixel_driver/goal|-:J1,J2,J3,J4,J5,J6:0.000000,0.000000,0.000000,0.000000,0.000000,0.000000:0.250000,0.250000,0.250000,0.250000,0.250000,0.250000:pos_vel_
cobot_dynamixel_driver/goal|-:J1,J2,J3,J4,J5,J6:0.000000,0.000000,0.000000,0.000000,0.000000,0.000000:0.250000,0.250000,0.250000,0.250000,0.250000,0.250000:pos_vel_
cobot_dynamixel_driver/joint_states|name|J1,J2,J3,J4,J5,J6|pos|0.000000,0.000025,-0.000025,-0.000025,-0.000041,-0.000021|vel|0.000000,-0.000000,0.000000,0.000000,0.000000,0.000000|eff|0.000000,451.171875,-531.738281,0.000000,44.311523,-36.254883
cobot_dynamixel_driver/joint_states|name|J1,J2,J3,J4,J5,J6|pos|0.000000,0.000025,-0.000025,-0.000025,-0.000041,-0.000021|vel|0.000000,-0.000000,0.000000,0.000000,0.000000,0.000000|eff|0.000000,402.832031,-515.625000,0.000000,48.339844,-8.056641
cobot_dynamixel_driver/joint_states|name|J1,J2,J3,J4,J5,J6|pos|0.000000,0.000025,-0.000025,-0.000025,-0.000041,-0.000021|vel|0.000000,-0.000000,0.000000,0.000000,0.000000,0.000000|eff|0.000000,483.398438,-499.511719,0.000000,56.396484,-36.254883
cobot_dynamixel_driver/joint_states|name|J1,J2,J3,J4,J5,J6|pos|0.000000,0.000025,-0.000025,-0.000025,-0.000041,-0.000021|vel|0.000000,-0.000000,0.000000,0.000000,0.000000,0.000000|eff|0.000000,499.511719,-580.078125,0.000000,52.368164,-8.056641
cobot_dynamixel_driver/joint_states|name|J1,J2,J3,J4,J5,J6|pos|0.000000,0.000025,-0.000025,-0.000025,-0.000041,-0.000021|vel|0.000000,-0.000000,0.000000,0.000000,0.000000,0.000000|eff|0.000000,483.398438,-580.078125,0.000000,60.424805,-12.084961
cobot_dynamixel_driver/joint_states|name|J1,J2,J3,J4,J5,J6|pos|0.000000,0.000025,-0.000025,-0.000025,-0.000041,-0.000021|vel|0.000000,-0.000000,0.000000,0.000000,0.000000,0.000000|eff|-48.339844,499.511719,-580.078125,0.000000,52.368164,-32.226562
cobot_dynamixel_driver/joint_states|name|J1,J2,J3,J4,J5,J6|pos|0.000000,0.000025,-0.000025,-0.000025,-0.000041,-0.000021|vel|0.000000,-0.000000,0.000000,0.000000,0.000000,0.000000|eff|0.000000,354.492188,-563.964844,0.000000,60.424805,-32.226562
cobot_dynamixel_driver/joint_states|name|J1,J2,J3,J4,J5,J6|pos|0.000000,0.000025,-0.000025,-0.000025,-0.000041,-0.000021|vel|0.000000,-0.000000,0.000000,0.000000,0.000000,0.000000|eff|0.000000,435.058594,-580.078125,0.000000,56.396484,-32.226562
cobot_dynamixel_driver/joint_states|name|J1,J2,J3,J4,J5,J6|pos|0.000000,0.000025,-0.000025,-0.000025,-0.000041,-0.000021|vel|0.000000,-0.000000,0.000000,0.000000,0.000000,0.000000|eff|-112.792969,354.492188,-580.078125,0.000000,48.339844,-24.169922
cobot_dynamixel_driver/joint_states|name|J1,J2,J3,J4,J5,J6|pos|0.000000,0.000025,-0.000025,-0.000025,-0.000041,-0.000021|vel|0.000000,-0.000000,0.000000,0.000000,0.000000,0.000000|eff|-112.792969,435.058594,-499.511719,0.000000,56.396484,-36.254883
cobot_dynamixel_driver/joint_states|name|J1,J2,J3,J4,J5,J6|pos|0.000000,0.000025,-0.000025,-0.000025,-0.000041,-0.000021|vel|0.000000,-0.000000,0.000000,0.000000,0.000000,0.000000|eff|0.000000,354.492188,-580.078125,0.000000,48.339844,-20.141602
cobot_dynamixel_driver/joint_states|name|J1,J2,J3,J4,J5,J6|pos|0.000000,0.000025,-0.000025,-0.000025,-0.000041,-0.000021|vel|0.000000,-0.000000,0.000000,0.000000,0.000000,0.000000|eff|0.000000,499.511719,-531.738281,0.000000,48.339844,-24.169922
cobot_dynamixel_driver/joint_states|name|J1,J2,J3,J4,J5,J6|pos|0.000000,0.000025,-0.000025,-0.000025,-0.000041,-0.000021|vel|0.000000,-0.000000,0.000000,0.000000,0.000000,0.000000|eff|0.000000,273.925781,-563.964844,0.000000,60.424805,-32.226562
cobot_dynamixel_driver/joint_states|name|J1,J2,J3,J4,J5,J6|pos|0.000000,0.000025,-0.000025,-0.000025,-0.000041,-0.000021|vel|0.000000,-0.000000,0.000000,0.000000,0.000000,0.000000|eff|0.000000,354.492188,-580.078125,0.000000,48.339844,-36.254883
cobot_dynamixel_driver/joint_states|name|J1,J2,J3,J4,J5,J6|pos|0.000000,0.000025,-0.000025,-0.000025,-0.000041,-0.000021|vel|0.000000,-0.000000,0.000000,0.000000,0.000000,0.000000|eff|0.000000,483.398438,-563.964844,0.000000,40.283203,-36.254883
cobot_dynamixel_driver/joint_states|name|J1,J2,J3,J4,J5,J6|pos|0.000000,0.000025,-0.000025,-0.000025,-0.000041,-0.000021|vel|0.000000,-0.000000,0.000000,0.000000,0.000000,0.000000|eff|0.000000,418.945312,-580.078125,0.000000,36.254883,-36.254883
