surachairobotic/cobot/cobot_dynamixel_driver/log/2018-12-25T04:46:45.579019_driver_log.txt
cobot_dynamixel_driver/joint_states|name|J1,J2,J3,J4,J5,J6|pos|0.012618,-1.267658,1.296275,-0.001715,-1.596229,-0.000083|vel|0.000000,-0.000000,0.000000,0.000000,0.000000,0.000000|eff|0.000000,0.000000,0.000000,0.000000,0.000000,0.000000
cobot_dynamixel_driver/joint_states|name|J1,J2,J3,J4,J5,J6|pos|0.012618,-1.267658,1.296275,-0.001715,-1.596229,-0.000083|vel|0.000000,-0.000000,0.000000,0.000000,0.000000,0.000000|eff|0.000000,0.000000,0.000000,0.000000,0.000000,0.000000
cobot_dynamixel_driver/joint_states|name|J1,J2,J3,J4,J5,J6|pos|0.012618,-1.267658,1.296275,-0.001715,-1.596229,-0.000083|vel|0.000000,-0.000000,0.000000,0.000000,0.000000,0.000000|eff|0.000000,0.000000,0.000000,0.000000,0.000000,0.000000
cobot_dynamixel_driver/joint_states|name|J1,J2,J3,J4,J5,J6|pos|0.012618,-1.267658,1.296275,-0.001715,-1.596229,-0.000083|vel|0.000000,-0.000000,0.000000,0.000000,0.000000,0.000000|eff|0.000000,0.000000,0.000000,0.000000,0.000000,0.000000
cobot_dynamixel_driver/joint_states|name|J1,J2,J3,J4,J5,J6|pos|0.012618,-1.267658,1.296275,-0.001715,-1.596229,-0.000083|vel|0.000000,-0.000000,0.000000,0.000000,0.000000,0.000000|eff|0.000000,0.000000,0.000000,0.000000,0.000000,0.000000
cobot_dynamixel_driver/joint_states|name|J1,J2,J3,J4,J5,J6|pos|0.012618,-1.267658,1.296275,-0.001715,-1.596229,-0.000083|vel|0.000000,-0.000000,0.000000,0.000000,0.000000,0.000000|eff|0.000000,0.000000,0.000000,0.000000,0.000000,0.000000
cobot_dynamixel_driver/joint_states|name|J1,J2,J3,J4,J5,J6|pos|0.012618,-1.267658,1.296275,-0.001715,-1.596229,-0.000083|vel|0.000000,-0.000000,0.000000,0.000000,0.000000,0.000000|eff|0.000000,0.000000,0.000000,0.000000,0.000000,0.000000
cobot_dynamixel_driver/joint_states|name|J1,J2,J3,J4,J5,J6|pos|0.012618,-1.267658,1.296275,-0.001715,-1.596229,-0.000083|vel|0.000000,-0.000000,0.000000,0.000000,0.000000,0.000000|eff|0.000000,0.000000,0.000000,0.000000,0.000000,0.000000
cobot_dynamixel_driver/joint_states|name|J1,J2,J3,J4,J5,J6|pos|0.012618,-1.267658,1.296275,-0.001715,-1.596229,-0.000083|vel|0.000000,-0.000000,0.000000,0.000000,0.000000,0.000000|eff|0.000000,0.000000,0.000000,0.000000,0.000000,0.000000
cobot_dynamixel_driver/joint_states|name|J1,J2,J3,J4,J5,J6|pos|0.012618,-1.267658,1.296275,-0.001715,-1.596229,-0.000083|vel|0.000000,-0.000000,0.000000,0.000000,0.000000,0.000000|eff|0.000000,0.000000,0.000000,0.000000,0.000000,0.000000
cobot_dynamixel_driver/joint_states|name|J1,J2,J3,J4,J5,J6|pos|0.012618,-1.267658,1.296275,-0.001715,-1.596229,-0.000083|vel|0.000000,-0.000000,0.000000,0.000000,0.000000,0.000000|eff|0.000000,0.000000,0.000000,0.000000,0.000000,0.000000
cobot_dynamixel_driver/joint_states|name|J1,J2,J3,J4,J5,J6|pos|0.012618,-1.267658,1.296275,-0.001715,-1.596229,-0.000083|vel|0.000000,-0.000000,0.000000,0.000000,0.000000,0.000000|eff|0.000000,0.000000,0.000000,0.000000,0.000000,0.000000
cobot_dynamixel_driver/joint_states|name|J1,J2,J3,J4,J5,J6|pos|0.012618,-1.267658,1.296275,-0.001715,-1.596229,-0.000083|vel|0.000000,-0.000000,0.000000,0.000000,0.000000,0.000000|eff|0.000000,0.000000,0.000000,0.000000,0.000000,0.000000
cobot_dynamixel_driver/joint_states|name|J1,J2,J3,J4,J5,J6|pos|0.012618,-1.267658,1.296275,-0.001715,-1.596229,-0.000083|vel|0.000000,-0.000000,0.000000,0.000000,0.000000,0.000000|eff|0.000000,0.000000,0.000000,0.000000,0.000000,0.000000
cobot_dynamixel_driver/joint_states|name|J1,J2,J3,J4,J5,J6|pos|0.012618,-1.267658,1.296275,-0.001715,-1.596229,-0.000083|vel|0.000000,-0.000000,0.000000,0.000000,0.000000,0.000000|eff|0.000000,0.000000,0.000000,0.000000,0.000000,0.000000
cobot_dynamixel_driver/joint_states|name|J1,J2,J3,J4,J5,J6|pos|0.012618,-1.267658,1.296275,-0.001715,-1.596229,-0.000083|vel|0.000000,-0.000000,0.000000,0.000000,0.000000,0.000000|eff|0.000000,0.000000,0.000000,0.000000,0.000000,0.000000
cobot_dynamixel_driver/joint_states|name|J1,J2,J3,J4,J5,J6|pos|0.012618,-1.267658,1.296275,-0.001715,-1.596229,-0.000083|vel|0.000000,-0.000000,0.000000,0.000000,0.000000,0.000000|eff|0.000000,0.000000,0.000000,0.000000,0.000000,0.000000
cobot_dynamixel_driver/joint_states|name|J1,J2,J3,J4,J5,J6|pos|0.012618,-1.267658,1.296275,-0.001715,-1.596229,-0.000083|vel|0.000000,-0.000000,0.000000,0.000000,0.000000,0.000000|eff|0.000000,0.000000,0.000000,0.000000,0.000000,0.000000
cobot_dynamixel_driver/joint_states|name|J1,J2,J3,J4,J5,J6|pos|0.012618,-1.267658,1.296275,-0.001715,-1.596229,-0.000083|vel|0.000000,-0.000000,0.000000,0.000000,0.000000,0.000000|eff|0.000000,0.000000,0.000000,0.000000,0.000000,0.000000
cobot_dynamixel_driver/joint_states|name|J1,J2,J3,J4,J5,J6|pos|0.012618,-1.267658,1.296275,-0.001715,-1.596229,-0.000083|vel|0.000000,-0.000000,0.000000,0.000000,0.000000,0.000000|eff|0.000000,0.000000,0.000000,0.000000,0.000000,0.000000
cobot_dynamixel_driver/joint_states|name|J1,J2,J3,J4,J5,J6|pos|0.012618,-1.267658,1.296275,-0.001715,-1.596229,-0.000083|vel|0.000000,-0.000000,0.000000,0.000000,0.000000,0.000000|eff|0.000000,0.000000,0.000000,0.000000,0.000000,0.000000
cobot_dynamixel_driver/joint_states|name|J1,J2,J3,J4,J5,J6|pos|0.012618,-1.267658,1.296275,-0.001715,-1.596229,-0.000083|vel|0.000000,-0.000000,0.000000,0.000000,0.000000,0.000000|eff|0.000000,0.000000,0.000000,0.000000,0.000000,0.000000
cobot_dynamixel_driver/joint_states|name|J1,J2,J3,J4,J5,J6|pos|0.012618,-1.267658,1.296275,-0.001715,-1.596229,-0.000083|vel|0.000000,-0.000000,0.000000,0.000000,0.000000,0.000000|eff|0.000000,0.000000,0.000000,0.000000,0.000000,0.000000
cobot_dynamixel_driver/joint_states|name|J1,J2,J3,J4,J5,J6|pos|0.012618,-1.267658,1.296275,-0.001715,-1.596229,-0.000083|vel|0.000000,-0.000000,0.000000,0.000000,0.000000,0.000000|eff|0.000000,0.000000,0.000000,0.000000,0.000000,0.000000
cobot_dynamixel_driver/joint_states|name|J1,J2,J3,J4,J5,J6|pos|0.012618,-1.267658,1.296275,-0.001715,-1.596229,-0.000083|vel|0.000000,-0.000000,0.000000,0.000000,0.000000,0.000000|eff|0.000000,0.000000,0.000000,0.000000,0.000000,0.000000
cobot_dynamixel_driver/joint_states|name|J1,J2,J3,J4,J5,J6|pos|0.012618,-1.267658,1.296275,-0.001715,-1.596229,-0.000083|vel|0.000000,-0.000000,0.000000,0.000000,0.000000,0.000000|eff|0.000000,0.000000,0.000000,0.000000,0.000000,0.000000
cobot_dynamixel_driver/joint_states|name|J1,J2,J3,J4,J5,J6|pos|0.012618,-1.267658,1.296275,-0.001715,-1.596229,-0.000083|vel|0.000000,-0.000000,0.000000,0.000000,0.000000,0.000000|eff|0.000000,0.000000,0.000000,0.000000,0.000000,0.000000
cobot_dynamixel_driver/joint_states|name|J1,J2,J3,J4,J5,J6|pos|0.012618,-1.267658,1.296275,-0.001715,-1.596229,-0.000083|vel|0.000000,-0.000000,0.000000,0.000000,0.000000,0.000000|eff|0.000000,0.000000,0.000000,0.000000,0.000000,0.000000
cobot_dynamixel_driver/joint_states|name|J1,J2,J3,J4,J5,J6|pos|0.012618,-1.267658,1.296275,-0.001715,-1.596229,-0.000083|vel|0.000000,-0.000000,0.000000,0.000000,0.000000,0.000000|eff|0.000000,0.000000,0.000000,0.000000,0.000000,0.000000
cobot_dynamixel_driver/joint_states|name|J1,J2,J3,J4,J5,J6|pos|0.012618,-1.267658,1.296275,-0.001715,-1.596229,-0.000083|vel|0.000000,-0.000000,0.000000,0.000000,0.000000,0.000000|eff|0.000000,0.000000,0.000000,0.000000,0.000000,0.000000
cobot_dynamixel_driver/joint_states|name|J1,J2,J3,J4,J5,J6|pos|0.012618,-1.267658,1.296275,-0.001715,-1.596229,-0.000083|vel|0.000000,-0.000000,0.000000,0.000000,0.000000,0.000000|eff|0.000000,0.000000,0.000000,0.000000,0.000000,0.000000
cobot_dynamixel_driver/joint_states|name|J1,J2,J3,J4,J5,J6|pos|0.012618,-1.267658,1.296275,-0.001715,-1.596229,-0.000083|vel|0.000000,-0.000000,0.000000,0.000000,0.000000,0.000000|eff|0.000000,0.000000,0.000000,0.000000,0.000000,0.000000
cobot_dynamixel_driver/joint_states|name|J1,J2,J3,J4,J5,J6|pos|0.012618,-1.267658,1.296275,-0.001715,-1.596229,-0.000083|vel|0.000000,-0.000000,0.000000,0.000000,0.000000,0.000000|eff|0.000000,0.000000,0.000000,0.000000,0.000000,0.000000
cobot_dynamixel_driver/joint_states|name|J1,J2,J3,J4,J5,J6|pos|0.012618,-1.267658,1.296275,-0.001715,-1.596229,-0.000083|vel|0.000000,-0.000000,0.000000,0.000000,0.000000,0.000000|eff|0.000000,0.000000,0.000000,0.000000,0.000000,0.000000
cobot_dynamixel_driver/joint_states|name|J1,J2,J3,J4,J5,J6|pos|0.012618,-1.267658,1.296275,-0.001715,-1.596229,-0.000083|vel|0.000000,-0.000000,0.000000,0.000000,0.000000,0.000000|eff|0.000000,0.000000,0.000000,0.000000,0.000000,0.000000
cobot_dynamixel_driver/joint_states|name|J1,J2,J3,J4,J5,J6|pos|0.012618,-1.267658,1.296275,-0.001715,-1.596229,-0.000083|vel|0.000000,-0.000000,0.000000,0.000000,0.000000,0.000000|eff|0.000000,0.000000,0.000000,0.000000,0.000000,0.000000
cobot_dynamixel_driver/joint_states|name|J1,J2,J3,J4,J5,J6|pos|0.012618,-1.267658,1.296275,-0.001715,-1.596229,-0.000083|vel|0.000000,-0.000000,0.000000,0.000000,0.000000,0.000000|eff|0.000000,0.000000,0.000000,0.000000,0.000000,0.000000
cobot_dynamixel_driver/joint_states|name|J1,J2,J3,J4,J5,J6|pos|0.012618,-1.267658,1.296275,-0.001715,-1.596229,-0.000083|vel|0.000000,-0.000000,0.000000,0.000000,0.000000,0.000000|eff|0.000000,0.000000,0.000000,0.000000,0.000000,-8.056641
cobot_dynamixel_driver/joint_states|name|J1,J2,J3,J4,J5,J6|pos|0.012618,-1.267658,1.296275,-0.001715,-1.596229,-0.000083|vel|0.000000,-0.000000,0.000000,0.000000,0.000000,0.000000|eff|0.000000,0.000000,0.000000,0.000000,0.000000,0.000000
cobot_dynamixel_driver/joint_states|name|J1,J2,J3,J4,J5,J6|pos|0.012618,-1.267658,1.296275,-0.001715,-1.596229,-0.000083|vel|0.000000,-0.000000,0.000000,0.000000,0.000000,0.000000|eff|0.000000,0.000000,0.000000,0.000000,0.000000,0.000000
cobot_dynamixel_driver/joint_states|name|J1,J2,J3,J4,J5,J6|pos|0.012618,-1.267658,1.296275,-0.001715,-1.596229,-0.000083|vel|0.000000,-0.000000,0.000000,0.000000,0.000000,0.000000|eff|0.000000,0.000000,0.000000,0.000000,0.000000,0.000000
cobot_dynamixel_driver/joint_states|name|J1,J2,J3,J4,J5,J6|pos|0.012618,-1.267658,1.296275,-0.001715,-1.596229,-0.000083|vel|0.000000,-0.000000,0.000000,0.000000,0.000000,0.000000|eff|0.000000,0.000000,0.000000,0.000000,0.000000,0.000000
cobot_dynamixel_driver/joint_states|name|J1,J2,J3,J4,J5,J6|pos|0.012618,-1.267658,1.296275,-0.001715,-1.596229,-0.000083|vel|0.000000,-0.000000,0.000000,0.000000,0.000000,0.000000|eff|0.000000,0.000000,0.000000,0.000000,0.000000,0.000000
cobot_dynamixel_driver/joint_states|name|J1,J2,J3,J4,J5,J6|pos|0.012618,-1.267658,1.296275,-0.001715,-1.596229,-0.000083|vel|0.000000,-0.000000,0.000000,0.000000,0.000000,0.000000|eff|0.000000,0.000000,0.000000,0.000000,0.000000,0.000000
cobot_dynamixel_driver/joint_states|name|J1,J2,J3,J4,J5,J6|pos|0.012618,-1.267658,1.296275,-0.001715,-1.596229,-0.000083|vel|0.000000,-0.000000,0.000000,0.000000,0.000000,0.000000|eff|0.000000,0.000000,0.000000,0.000000,0.000000,0.000000
cobot_dynamixel_driver/joint_states|name|J1,J2,J3,J4,J5,J6|pos|0.012618,-1.267658,1.296275,-0.001715,-1.596229,-0.000083|vel|0.000000,-0.000000,0.000000,0.000000,0.000000,0.000000|eff|0.000000,0.000000,0.000000,0.000000,0.000000,0.000000
cobot_dynamixel_driver/joint_states|name|J1,J2,J3,J4,J5,J6|pos|0.012618,-1.267658,1.296275,-0.001715,-1.596229,-0.000083|vel|0.000000,-0.000000,0.000000,0.000000,0.000000,0.000000|eff|0.000000,0.000000,0.000000,0.000000,0.000000,0.000000
cobot_dynamixel_driver/joint_states|name|J1,J2,J3,J4,J5,J6|pos|0.012618,-1.267658,1.296275,-0.001715,-1.596229,-0.000083|vel|0.000000,-0.000000,0.000000,0.000000,0.000000,0.000000|eff|0.000000,0.000000,0.000000,0.000000,0.000000,0.000000
cobot_dynamixel_driver/joint_states|name|J1,J2,J3,J4,J5,J6|pos|0.012618,-1.267658,1.296275,-0.001715,-1.596229,-0.000083|vel|0.000000,-0.000000,0.000000,0.000000,0.000000,0.000000|eff|0.000000,0.000000,0.000000,0.000000,0.000000,0.000000
cobot_dynamixel_driver/joint_states|name|J1,J2,J3,J4,J5,J6|pos|0.012618,-1.267658,1.296275,-0.001715,-1.596229,-0.000083|vel|0.000000,-0.000000,0.000000,0.000000,0.000000,0.000000|eff|0.000000,0.000000,0.000000,0.000000,0.000000,0.000000
cobot_dynamixel_driver/joint_states|name|J1,J2,J3,J4,J5,J6|pos|0.012618,-1.267658,1.296275,-0.001715,-1.596229,-0.000083|vel|0.000000,-0.000000,0.000000,0.000000,0.000000,0.000000|eff|0.000000,0.000000,0.000000,0.000000,0.000000,0.000000
cobot_dynamixel_driver/joint_states|name|J1,J2,J3,J4,J5,J6|pos|0.012618,-1.267658,1.296275,-0.001715,-1.596229,-0.000083|vel|0.000000,-0.000000,0.000000,0.000000,0.000000,0.000000|eff|0.000000,0.000000,0.000000,0.000000,0.000000,0.000000
cobot_dynamixel_driver/joint_states|name|J1,J2,J3,J4,J5,J6|pos|0.012618,-1.267658,1.296275,-0.001715,-1.596229,-0.000083|vel|0.000000,-0.000000,0.000000,0.000000,0.000000,0.000000|eff|0.000000,0.000000,0.000000,0.000000,0.000000,0.000000
cobot_dynamixel_driver/joint_states|name|J1,J2,J3,J4,J5,J6|pos|0.012618,-1.267658,1.296275,-0.001715,-1.596229,-0.000083|vel|0.000000,-0.000000,0.000000,0.000000,0.000000,0.000000|eff|0.000000,0.000000,0.000000,0.000000,0.000000,0.000000
cobot_dynamixel_driver/joint_states|name|J1,J2,J3,J4,J5,J6|pos|0.012618,-1.267658,1.296275,-0.001715,-1.596229,-0.000083|vel|0.000000,-0.000000,0.000000,0.000000,0.000000,0.000000|eff|0.000000,0.000000,0.000000,0.000000,0.000000,0.000000
cobot_dynamixel_driver/joint_states|name|J1,J2,J3,J4,J5,J6|pos|0.012618,-1.267658,1.296275,-0.001715,-1.596229,-0.000083|vel|0.000000,-0.000000,0.000000,0.000000,0.000000,0.000000|eff|0.000000,0.000000,0.000000,0.000000,0.000000,0.000000
cobot_dynamixel_driver/joint_states|name|J1,J2,J3,J4,J5,J6|pos|0.012618,-1.267658,1.296275,-0.001715,-1.596229,-0.000083|vel|0.000000,-0.000000,0.000000,0.000000,0.000000,0.000000|eff|0.000000,0.000000,0.000000,0.000000,0.000000,0.000000
cobot_dynamixel_driver/joint_states|name|J1,J2,J3,J4,J5,J6|pos|0.012618,-1.267658,1.296275,-0.001715,-1.596229,-0.000083|vel|0.000000,-0.000000,0.000000,0.000000,0.000000,0.000000|eff|0.000000,0.000000,0.000000,0.000000,0.000000,0.000000
cobot_dynamixel_driver/joint_states|name|J1,J2,J3,J4,J5,J6|pos|0.012618,-1.267658,1.296275,-0.001715,-1.596229,-0.000083|vel|0.000000,-0.000000,0.000000,0.000000,0.000000,0.000000|eff|0.000000,0.000000,0.000000,0.000000,0.000000,0.000000
cobot_dynamixel_driver/joint_states|name|J1,J2,J3,J4,J5,J6|pos|0.012618,-1.267658,1.296275,-0.001715,-1.596229,-0.000083|vel|0.000000,-0.000000,0.000000,0.000000,0.000000,0.000000|eff|0.000000,0.000000,0.000000,0.000000,0.000000,0.000000
cobot_dynamixel_driver/joint_states|name|J1,J2,J3,J4,J5,J6|pos|0.012618,-1.267658,1.296275,-0.001715,-1.596229,-0.000083|vel|0.000000,-0.000000,0.000000,0.000000,0.000000,0.000000|eff|0.000000,0.000000,0.000000,0.000000,0.000000,0.000000
cobot_dynamixel_driver/joint_states|name|J1,J2,J3,J4,J5,J6|pos|0.012618,-1.267658,1.296275,-0.001715,-1.596229,-0.000083|vel|0.000000,-0.000000,0.000000,0.000000,0.000000,0.000000|eff|0.000000,0.000000,0.000000,0.000000,0.000000,0.000000
cobot_dynamixel_driver/joint_states|name|J1,J2,J3,J4,J5,J6|pos|0.012618,-1.267658,1.296275,-0.001715,-1.596229,-0.000083|vel|0.000000,-0.000000,0.000000,0.000000,0.000000,0.000000|eff|0.000000,0.000000,0.000000,0.000000,0.000000,0.000000
cobot_dynamixel_driver/joint_states|name|J1,J2,J3,J4,J5,J6|pos|0.012618,-1.267658,1.296275,-0.001715,-1.596229,-0.000083|vel|0.000000,-0.000000,0.000000,0.000000,0.000000,0.000000|eff|0.000000,0.000000,0.000000,0.000000,0.000000,0.000000
cobot_dynamixel_driver/joint_states|name|J1,J2,J3,J4,J5,J6|pos|0.012618,-1.267658,1.296275,-0.001715,-1.596229,-0.000083|vel|0.000000,-0.000000,0.000000,0.000000,0.000000,0.000000|eff|0.000000,0.000000,0.000000,0.000000,0.000000,0.000000
cobot_dynamixel_driver/joint_states|name|J1,J2,J3,J4,J5,J6|pos|0.012618,-1.267658,1.296275,-0.001715,-1.596229,-0.000083|vel|0.000000,-0.000000,0.000000,0.000000,0.000000,0.000000|eff|0.000000,0.000000,0.000000,0.000000,0.000000,0.000000
cobot_dynamixel_driver/joint_states|name|J1,J2,J3,J4,J5,J6|pos|0.012618,-1.267658,1.296275,-0.001715,-1.596229,-0.000083|vel|0.000000,-0.000000,0.000000,0.000000,0.000000,0.000000|eff|0.000000,0.000000,0.000000,0.000000,0.000000,0.000000
cobot_dynamixel_driver/joint_states|name|J1,J2,J3,J4,J5,J6|pos|0.012618,-1.267658,1.296275,-0.001715,-1.596229,-0.000083|vel|0.000000,-0.000000,0.000000,0.000000,0.000000,0.000000|eff|0.000000,0.000000,0.000000,0.000000,0.000000,0.000000
cobot_dynamixel_driver/joint_states|name|J1,J2,J3,J4,J5,J6|pos|0.012618,-1.267658,1.296275,-0.001715,-1.596229,-0.000083|vel|0.000000,-0.000000,0.000000,0.000000,0.000000,0.000000|eff|0.000000,0.000000,0.000000,0.000000,0.000000,0.000000
cobot_dynamixel_driver/joint_states|name|J1,J2,J3,J4,J5,J6|pos|0.012618,-1.267658,1.296275,-0.001715,-1.596229,-0.000083|vel|0.000000,-0.000000,0.000000,0.000000,0.000000,0.000000|eff|0.000000,0.000000,0.000000,0.000000,0.000000,0.000000
cobot_dynamixel_driver/joint_states|name|J1,J2,J3,J4,J5,J6|pos|0.012618,-1.267658,1.296275,-0.001715,-1.596229,-0.000083|vel|0.000000,-0.000000,0.000000,0.000000,0.000000,0.000000|eff|0.000000,0.000000,0.000000,0.000000,0.000000,0.000000
cobot_dynamixel_driver/joint_states|name|J1,J2,J3,J4,J5,J6|pos|0.012618,-1.267658,1.296275,-0.001715,-1.596229,-0.000083|vel|0.000000,-0.000000,0.000000,0.000000,0.000000,0.000000|eff|0.000000,0.000000,0.000000,0.000000,0.000000,0.000000
cobot_dynamixel_driver/joint_states|name|J1,J2,J3,J4,J5,J6|pos|0.012618,-1.267658,1.296275,-0.001715,-1.596229,-0.000083|vel|0.000000,-0.000000,0.000000,0.000000,0.000000,0.000000|eff|0.000000,0.000000,0.000000,0.000000,0.000000,0.000000
cobot_dynamixel_driver/goal|-:J1,J2,J3,J4,J5,J6:0.000000,0.000000,0.000000,0.000000,0.000000,0.000000:0.700000,0.700000,0.700000,0.700000,0.700000,0.700000:pos_vel_
cobot_dynamixel_driver/joint_states|name|J1,J2,J3,J4,J5,J6|pos|0.012205,-1.266694,1.294497,-0.001715,-1.596229,-0.000083|vel|0.000000,-0.000000,0.000000,0.000000,0.000000,0.000000|eff|0.000000,0.000000,0.000000,0.000000,12.084961,0.000000
cobot_dynamixel_driver/joint_states|name|J1,J2,J3,J4,J5,J6|pos|0.011880,-1.266331,1.294109,-0.001552,-1.595340,-0.000083|vel|-0.035679,0.035679,-0.033801,0.007303,0.072042,0.000000|eff|-515.625000,-451.171875,-467.285156,32.226562,140.991211,0.000000
cobot_dynamixel_driver/joint_states|name|J1,J2,J3,J4,J5,J6|pos|0.010365,-1.264291,1.292156,-0.001515,-1.591389,-0.000083|vel|-0.069897,0.121224,-0.111835,0.001252,0.214748,0.000000|eff|-306.152344,-1144.042969,-1111.816406,161.132812,96.679688,0.000000
cobot_dynamixel_driver/joint_states|name|J1,J2,J3,J4,J5,J6|pos|0.008763,-1.260147,1.288050,-0.001339,-1.584707,-0.000083|vel|-0.056961,0.204056,-0.229720,0.007720,0.253354,0.000000|eff|-322.265625,-1836.914062,-1772.460938,161.132812,64.453125,8.056641
cobot_dynamixel_driver/joint_states|name|J1,J2,J3,J4,J5,J6|pos|0.007286,-1.253475,1.280452,-0.001152,-1.576247,-0.000083|vel|-0.053205,0.288350,-0.363254,0.007094,0.370552,0.000000|eff|-225.585938,-2126.953125,-1321.289062,161.132812,68.481445,0.000000
cobot_dynamixel_driver/joint_states|name|J1,J2,J3,J4,J5,J6|pos|0.006059,-1.244374,1.270775,-0.000976,-1.566194,-0.000083|vel|-0.040060,0.379528,-0.435654,0.005633,0.454659,0.000000|eff|-273.925781,-1788.574219,-1337.402344,112.792969,48.339844,8.056641
cobot_dynamixel_driver/joint_states|name|J1,J2,J3,J4,J5,J6|pos|0.005107,-1.233333,1.259359,-0.000864,-1.554775,-0.000083|vel|-0.036722,0.462361,-0.456728,0.003964,0.481545,0.000000|eff|-290.039062,-2046.386719,-1562.988281,145.019531,40.283203,0.000000
cobot_dynamixel_driver/joint_states|name|J1,J2,J3,J4,J5,J6|pos|0.004194,-1.220790,1.246803,-0.000751,-1.542261,-0.000083|vel|-0.029419,0.521408,-0.521825,0.003547,0.482580,0.000000|eff|-257.812500,-1176.269531,-1675.781250,128.906250,44.311523,12.084961
cobot_dynamixel_driver/joint_states|name|J1,J2,J3,J4,J5,J6|pos|0.003530,-1.207045,1.233383,-0.000663,-1.528774,-0.000083|vel|-0.025872,0.575447,-0.534761,0.003338,0.520152,0.000000|eff|-241.699219,-805.664062,-1820.800781,193.359375,44.311523,8.056641
cobot_dynamixel_driver/joint_states|name|J1,J2,J3,J4,J5,J6|pos|0.002892,-1.192574,1.219012,-0.000588,-1.514625,-0.000083|vel|-0.022534,0.598607,-0.525164,0.002086,0.593228,0.000000|eff|-225.585938,-1095.703125,-1240.722656,193.359375,56.396484,8.056641
cobot_dynamixel_driver/joint_states|name|J1,J2,J3,J4,J5,J6|pos|0.002366,-1.177327,1.203915,-0.000513,-1.499773,-0.000083|vel|-0.017735,0.576073,-0.523077,0.003756,0.636660,0.000000|eff|-241.699219,-2110.839844,-1611.328125,177.246094,36.254883,0.000000
cobot_dynamixel_driver/joint_states|name|J1,J2,J3,J4,J5,J6|pos|0.001965,-1.161654,1.188393,-0.000426,-1.484362,-0.000083|vel|-0.015648,0.538308,-0.638876,0.003964,0.634937,0.000000|eff|-225.585938,-2046.386719,-1724.121094,161.132812,40.283203,12.084961
cobot_dynamixel_driver/joint_states|name|J1,J2,J3,J4,J5,J6|pos|0.001565,-1.145493,1.172432,-0.000313,-1.468517,-0.000083|vel|-0.011893,0.607370,-0.616342,0.004382,0.552554,0.000000|eff|-322.265625,-692.871094,-725.097656,161.132812,64.453125,12.084961
cobot_dynamixel_driver/joint_states|name|J1,J2,J3,J4,J5,J6|pos|0.001289,-1.129645,1.156183,-0.000263,-1.452300,-0.000083|vel|-0.009389,0.633243,-0.590261,0.001878,0.653551,0.000000|eff|-241.699219,-3077.636719,-1256.835938,177.246094,28.198242,12.084961
cobot_dynamixel_driver/joint_states|name|J1,J2,J3,J4,J5,J6|pos|0.001026,-1.112883,1.139534,-0.000200,-1.435710,-0.000083|vel|-0.008763,0.651395,-0.693750,0.002086,0.633558,0.000000|eff|-241.699219,-2223.632812,-1385.742188,128.906250,-12.084961,12.084961
cobot_dynamixel_driver/joint_states|name|J1,J2,J3,J4,J5,J6|pos|0.000814,-1.095119,1.122572,-0.000138,-1.418955,-0.000083|vel|-0.007929,0.651812,-0.679979,0.002086,0.630456,0.000000|eff|-225.585938,-837.890625,-2094.726562,128.906250,32.226562,16.113281
cobot_dynamixel_driver/joint_states|name|J1,J2,J3,J4,J5,J6|pos|0.000651,-1.078370,1.105585,-0.000113,-1.401911,-0.000083|vel|-0.005633,0.659532,-0.678102,0.001043,0.703877,0.000000|eff|-145.019531,-1595.214844,-789.550781,209.472656,16.113281,8.056641
cobot_dynamixel_driver/joint_states|name|J1,J2,J3,J4,J5,J6|pos|0.000526,-1.061007,1.088159,-0.000100,-1.384742,-0.000083|vel|-0.002712,0.613213,-0.681857,0.000626,0.774540,0.000000|eff|-128.906250,-1917.480469,-1836.914062,193.359375,0.000000,16.113281
cobot_dynamixel_driver/joint_states|name|J1,J2,J3,J4,J5,J6|pos|0.000401,-1.043369,1.070584,-0.000075,-1.368028,-0.000062|vel|-0.006468,0.628235,-0.716493,0.000626,0.627009,0.000000|eff|-112.792969,-1224.609375,-1514.648438,177.246094,-8.056641,16.113281
cobot_dynamixel_driver/joint_states|name|J1,J2,J3,J4,J5,J6|pos|0.000351,-1.025693,1.052908,-0.000063,-1.350569,-0.000062|vel|-0.004382,0.653481,-0.704182,0.000626,0.669407,0.000000|eff|-80.566406,-660.644531,-1079.589844,177.246094,72.509766,20.141602
cobot_dynamixel_driver/joint_states|name|J1,J2,J3,J4,J5,J6|pos|0.000325,-1.007792,1.035245,-0.000050,-1.333070,-0.000062|vel|-0.001252,0.668087,-0.665583,0.000626,0.697327,0.000000|eff|-112.792969,-1498.535156,-886.230469,128.906250,64.453125,16.113281
cobot_dynamixel_driver/joint_states|name|J1,J2,J3,J4,J5,J6|pos|0.000263,-0.989766,1.017306,-0.000050,-1.315487,-0.000062|vel|-0.002504,0.667878,-0.696045,0.000626,0.648380,0.000000|eff|-290.039062,-3416.015625,-1417.968750,128.906250,28.198242,0.000000
cobot_dynamixel_driver/joint_states|name|J1,J2,J3,J4,J5,J6|pos|0.000200,-0.971740,0.999142,-0.000050,-1.297511,-0.000041|vel|-0.001669,0.682066,-0.704391,0.000626,0.723869,0.000000|eff|-48.339844,-708.984375,-1353.515625,128.906250,-60.424805,20.141602
cobot_dynamixel_driver/joint_states|name|J1,J2,J3,J4,J5,J6|pos|0.000163,-0.953814,0.981241,-0.000050,-1.279639,0.000021|vel|-0.001669,0.684152,-0.622184,0.000209,0.700774,0.002068|eff|-128.906250,-241.699219,-757.324219,128.906250,80.566406,12.084961
cobot_dynamixel_driver/joint_states|name|J1,J2,J3,J4,J5,J6|pos|0.000125,-0.935850,0.963277,-0.000050,-1.261622,0.000041|vel|-0.001461,0.729011,-0.716910,0.000209,0.726627,0.002068|eff|-257.812500,-918.457031,-821.777344,128.906250,-44.311523,8.056641
cobot_dynamixel_driver/joint_states|name|J1,J2,J3,J4,J5,J6|pos|0.000088,-0.917699,0.945376,-0.000050,-1.243709,0.000041|vel|-0.001461,0.705852,-0.707312,0.000209,0.668373,0.002068|eff|-112.792969,-2739.257812,-1127.929688,128.906250,64.453125,8.056641
cobot_dynamixel_driver/joint_states|name|J1,J2,J3,J4,J5,J6|pos|0.000063,-0.899585,0.927125,-0.000038,-1.225692,0.000041|vel|-0.001461,0.693750,-0.701887,0.000209,0.735244,0.002068|eff|-112.792969,-1144.042969,-1836.914062,128.906250,0.000000,-8.056641
cobot_dynamixel_driver/joint_states|name|J1,J2,J3,J4,J5,J6|pos|0.000038,-0.881421,0.909161,-0.000038,-1.207675,0.000041|vel|-0.001252,0.699384,-0.597355,0.000000,0.660445,0.002068|eff|-128.906250,-1337.402344,-708.984375,128.906250,-28.198242,0.000000
cobot_dynamixel_driver/joint_states|name|J1,J2,J3,J4,J5,J6|pos|0.000025,-0.863357,0.891536,-0.000038,-1.189927,0.000041|vel|-0.001252,0.659532,-0.671425,0.000000,0.684918,0.000000|eff|-96.679688,-2690.917969,-1240.722656,128.906250,24.169922,-8.056641
cobot_dynamixel_driver/joint_states|name|J1,J2,J3,J4,J5,J6|pos|0.000025,-0.845281,0.873221,-0.000038,-1.171620,0.000041|vel|-0.000209,0.718162,-0.698549,0.000000,0.715941,0.000000|eff|-112.792969,-644.531250,-515.625000,128.906250,48.339844,-8.056641
cobot_dynamixel_driver/joint_states|name|J1,J2,J3,J4,J5,J6|pos|0.000013,-0.827154,0.855120,-0.000038,-1.153376,0.000041|vel|-0.000209,0.705643,-0.641588,0.000000,0.702498,0.000000|eff|-64.453125,-773.437500,-821.777344,128.906250,0.000000,0.000000
cobot_dynamixel_driver/joint_states|name|J1,J2,J3,J4,J5,J6|pos|0.000013,-0.808890,0.836944,-0.000038,-1.135276,0.000041|vel|-0.000209,0.704391,-0.664957,0.000000,0.673198,0.000000|eff|-145.019531,-1965.820312,-1740.234375,128.906250,12.084961,-8.056641
cobot_dynamixel_driver/joint_states|name|J1,J2,J3,J4,J5,J6|pos|0.000000,-0.790551,0.818792,-0.000025,-1.117031,0.000041|vel|-0.000209,0.733602,-0.712111,0.000000,0.679748,0.000000|eff|-128.906250,-1095.703125,-596.191406,128.906250,72.509766,0.000000
cobot_dynamixel_driver/joint_states|name|J1,J2,J3,J4,J5,J6|pos|0.000000,-0.772299,0.800728,-0.000025,-1.099304,0.000041|vel|-0.000209,0.711485,-0.664540,0.000000,0.782124,0.000000|eff|-145.019531,-418.945312,-950.683594,128.906250,8.056641,0.000000
cobot_dynamixel_driver/joint_states|name|J1,J2,J3,J4,J5,J6|pos|-0.000013,-0.753960,0.782627,-0.000013,-1.081163,0.000041|vel|-0.000209,0.649100,-0.724004,0.000000,0.716286,0.000000|eff|-128.906250,-612.304688,-2094.726562,112.792969,0.000000,0.000000
cobot_dynamixel_driver/joint_states|name|J1,J2,J3,J4,J5,J6|pos|-0.000013,-0.735684,0.764238,0.000000,-1.063063,0.000041|vel|0.000209,0.713989,-0.726090,0.000000,0.653551,0.000000|eff|-128.906250,-2271.972656,-966.796875,112.792969,52.368164,0.000000
cobot_dynamixel_driver/joint_states|name|J1,J2,J3,J4,J5,J6|pos|-0.000025,-0.717983,0.745773,0.000000,-1.044881,0.000041|vel|-0.000209,0.658906,-0.627192,0.000209,0.758339,0.000000|eff|-145.019531,-1015.136719,-1385.742188,128.906250,72.509766,0.000000
cobot_dynamixel_driver/joint_states|name|J1,J2,J3,J4,J5,J6|pos|-0.000025,-0.698880,0.727296,0.000000,-1.026802,0.000041|vel|-0.000209,0.642632,-0.667878,0.000209,0.682161,0.000000|eff|-145.019531,80.566406,-1820.800781,128.906250,-12.084961,0.000000
cobot_dynamixel_driver/joint_states|name|J1,J2,J3,J4,J5,J6|pos|-0.000025,-0.681154,0.708995,0.000000,-1.008764,0.000041|vel|-0.000209,0.727551,-0.719414,0.000209,0.686297,0.000000|eff|-145.019531,-2658.691406,-531.738281,128.906250,24.169922,0.000000
cobot_dynamixel_driver/joint_states|name|J1,J2,J3,J4,J5,J6|pos|-0.000025,-0.662878,0.690718,0.000000,-0.991202,0.000041|vel|-0.000209,0.724838,-0.676015,0.000209,0.730419,0.000000|eff|-80.566406,-96.679688,-1933.593750,128.906250,-12.084961,0.000000
cobot_dynamixel_driver/joint_states|name|J1,J2,J3,J4,J5,J6|pos|-0.000038,-0.644588,0.672429,0.000013,-0.972916,0.000041|vel|-0.000209,0.676641,-0.708147,0.000209,0.736623,0.000000|eff|-96.679688,-1965.820312,-660.644531,128.906250,32.226562,-8.056641
cobot_dynamixel_driver/joint_states|name|J1,J2,J3,J4,J5,J6|pos|-0.000038,-0.625561,0.653301,0.000013,-0.954010,0.000041|vel|-0.000209,0.668295,-0.646805,0.000000,0.740070,0.000000|eff|0.000000,-2916.503906,-821.777344,128.906250,28.198242,0.000000
cobot_dynamixel_driver/joint_states|name|J1,J2,J3,J4,J5,J6|pos|-0.000038,-0.607272,0.634887,0.000013,-0.935807,0.000041|vel|0.000000,0.669964,-0.717327,0.000000,0.698362,0.000000|eff|-145.019531,-708.984375,-338.378906,128.906250,72.509766,0.000000
cobot_dynamixel_driver/joint_states|name|J1,J2,J3,J4,J5,J6|pos|-0.000038,-0.587530,0.615346,0.000013,-0.916135,0.000041|vel|0.000000,0.711902,-0.713989,0.000000,0.720767,0.000000|eff|-96.679688,241.699219,-1998.046875,128.906250,40.283203,-8.056641
cobot_dynamixel_driver/joint_states|name|J1,J2,J3,J4,J5,J6|pos|-0.000050,-0.569229,0.597007,0.000013,-0.898118,0.000041|vel|0.000000,0.674137,-0.716284,0.000000,0.615634,0.000000|eff|-128.906250,-3061.523438,-902.343750,128.906250,96.679688,-8.056641
cobot_dynamixel_driver/joint_states|name|J1,J2,J3,J4,J5,J6|pos|-0.000050,-0.550890,0.578605,0.000013,-0.880060,0.000041|vel|0.000000,0.692290,-0.717953,0.000000,0.601846,0.000000|eff|0.000000,-660.644531,-402.832031,128.906250,8.056641,0.000000
cobot_dynamixel_driver/joint_states|name|J1,J2,J3,J4,J5,J6|pos|-0.000050,-0.532625,0.560328,0.000013,-0.861919,0.000041|vel|0.000000,0.701887,-0.709607,0.000000,0.672509,0.000000|eff|-145.019531,-2368.652344,-1111.816406,128.906250,-24.169922,0.000000
cobot_dynamixel_driver/joint_states|name|J1,J2,J3,J4,J5,J6|pos|-0.000050,-0.514299,0.542903,0.000013,-0.843736,0.000041|vel|0.000000,0.724213,-0.712946,0.000000,0.717320,0.000000|eff|-145.019531,128.906250,-1917.480469,128.906250,0.000000,0.000000
cobot_dynamixel_driver/joint_states|name|J1,J2,J3,J4,J5,J6|pos|-0.000050,-0.496085,0.524814,0.000013,-0.825554,0.000041|vel|-0.000835,0.686239,-0.677476,0.000000,0.736278,0.000000|eff|-128.906250,-2771.484375,-708.984375,128.906250,8.056641,0.000000
cobot_dynamixel_driver/joint_states|name|J1,J2,J3,J4,J5,J6|pos|-0.000050,-0.477783,0.506487,0.000013,-0.807330,0.000041|vel|0.000835,0.725673,-0.676641,0.000000,0.681816,0.000000|eff|0.000000,161.132812,-1450.195312,128.906250,12.084961,0.000000
cobot_dynamixel_driver/joint_states|name|J1,J2,J3,J4,J5,J6|pos|-0.000050,-0.459331,0.488186,0.000013,-0.789127,0.000041|vel|0.000626,0.652229,-0.721291,0.000000,0.669062,0.000000|eff|0.000000,-1305.175781,-515.625000,128.906250,36.254883,-8.056641
cobot_dynamixel_driver/joint_states|name|J1,J2,J3,J4,J5,J6|pos|-0.000050,-0.440967,0.469746,0.000025,-0.770758,0.000041|vel|-0.000626,0.747998,-0.721083,0.000000,0.686297,0.000000|eff|-32.226562,-1740.234375,-2094.726562,128.906250,-8.056641,-8.056641
cobot_dynamixel_driver/joint_states|name|J1,J2,J3,J4,J5,J6|pos|-0.000050,-0.422603,0.451445,0.000025,-0.752824,0.000041|vel|-0.000626,0.658072,-0.702722,0.000000,0.680782,0.000000|eff|-145.019531,-193.359375,-580.078125,128.906250,28.198242,0.000000
cobot_dynamixel_driver/joint_states|name|J1,J2,J3,J4,J5,J6|pos|-0.000050,-0.404414,0.433081,0.000025,-0.734641,0.000041|vel|-0.000626,0.667252,-0.692081,0.000000,0.698706,0.000000|eff|-145.019531,-725.097656,-708.984375,128.906250,12.084961,0.000000
cobot_dynamixel_driver/joint_states|name|J1,J2,J3,J4,J5,J6|pos|-0.000050,-0.386075,0.415054,0.000025,-0.716604,0.000041|vel|-0.000626,0.717327,-0.704808,0.000000,0.613221,0.000000|eff|-80.566406,-32.226562,-531.738281,128.906250,56.396484,-8.056641
cobot_dynamixel_driver/joint_states|name|J1,J2,J3,J4,J5,J6|pos|-0.000050,-0.367836,0.396652,0.000025,-0.698835,0.000041|vel|-0.000626,0.667043,-0.656611,0.000000,0.793499,0.000000|eff|-145.019531,-805.664062,-1981.933594,128.906250,92.651367,-8.056641
cobot_dynamixel_driver/joint_states|name|J1,J2,J3,J4,J5,J6|pos|-0.000050,-0.349546,0.378113,0.000025,-0.680466,0.000041|vel|0.000626,0.707312,-0.677476,0.000000,0.693191,0.000000|eff|-145.019531,-338.378906,-982.910156,128.906250,80.566406,-8.056641
cobot_dynamixel_driver/joint_states|name|J1,J2,J3,J4,J5,J6|pos|-0.000050,-0.331257,0.360037,0.000025,-0.662346,0.000041|vel|0.000000,0.707938,-0.713154,0.000000,0.712839,0.000000|eff|-64.453125,-1047.363281,-2384.765625,128.906250,52.368164,0.000000
cobot_dynamixel_driver/joint_states|name|J1,J2,J3,J4,J5,J6|pos|-0.000050,-0.313607,0.341710,0.000025,-0.643977,0.000041|vel|0.000000,0.731724,-0.698549,0.000000,0.683884,0.000000|eff|-80.566406,-354.492188,-580.078125,128.906250,12.084961,0.000000
cobot_dynamixel_driver/joint_states|name|J1,J2,J3,J4,J5,J6|pos|-0.000050,-0.295217,0.323208,0.000025,-0.625795,0.000041|vel|0.000000,0.713989,-0.736523,0.000000,0.680437,0.000000|eff|-112.792969,-2110.839844,-499.511719,128.906250,32.226562,-8.056641
cobot_dynamixel_driver/joint_states|name|J1,J2,J3,J4,J5,J6|pos|-0.000050,-0.276765,0.304831,0.000025,-0.607654,0.000041|vel|0.000000,0.697088,-0.683109,0.000000,0.696983,0.000000|eff|-112.792969,32.226562,-1708.007812,128.906250,52.368164,0.000000
cobot_dynamixel_driver/joint_states|name|J1,J2,J3,J4,J5,J6|pos|-0.000050,-0.258551,0.286505,0.000025,-0.590237,0.000041|vel|0.000000,0.686447,-0.722961,0.000000,0.695949,0.000000|eff|-64.453125,-1965.820312,-531.738281,128.906250,0.000000,8.056641
cobot_dynamixel_driver/joint_states|name|J1,J2,J3,J4,J5,J6|pos|-0.000050,-0.240300,0.268165,0.000025,-0.572220,0.000041|vel|0.000000,0.652855,-0.756761,0.000000,0.749722,0.000000|eff|-64.453125,402.832031,-1933.593750,128.906250,24.169922,-8.056641
cobot_dynamixel_driver/joint_states|name|J1,J2,J3,J4,J5,J6|pos|-0.000050,-0.221936,0.249864,0.000025,-0.553955,0.000041|vel|0.000000,0.702931,-0.622393,0.000000,0.662513,0.000000|eff|0.000000,-1981.933594,-725.097656,128.906250,52.368164,-8.056641
cobot_dynamixel_driver/joint_states|name|J1,J2,J3,J4,J5,J6|pos|-0.000050,-0.203584,0.231437,0.000025,-0.535772,0.000041|vel|0.000000,0.700218,-0.686239,0.000000,0.726972,0.000000|eff|-112.792969,-225.585938,-1949.707031,128.906250,-36.254883,0.000000
cobot_dynamixel_driver/joint_states|name|J1,J2,J3,J4,J5,J6|pos|-0.000050,-0.185370,0.213135,0.000025,-0.518003,0.000041|vel|0.000000,0.706060,-0.561051,0.000000,0.694915,0.000000|eff|-64.453125,-1047.363281,-999.023438,128.906250,104.736328,-8.056641
cobot_dynamixel_driver/joint_states|name|J1,J2,J3,J4,J5,J6|pos|-0.000050,-0.167043,0.194621,0.000025,-0.499593,0.000041|vel|0.000000,0.608205,-0.720248,0.000000,0.678714,0.000000|eff|-128.906250,-128.906250,-563.964844,128.906250,-8.056641,-8.056641
cobot_dynamixel_driver/joint_states|name|J1,J2,J3,J4,J5,J6|pos|-0.000050,-0.148616,0.176307,0.000038,-0.481721,0.000041|vel|0.000000,0.703974,-0.700844,0.000000,0.719043,0.000000|eff|-64.453125,-563.964844,-1466.308594,128.906250,96.679688,-8.056641
cobot_dynamixel_driver/joint_states|name|J1,J2,J3,J4,J5,J6|pos|-0.000050,-0.130327,0.158080,0.000038,-0.463291,0.000041|vel|0.000000,0.658697,-0.621767,0.000000,0.680437,0.000000|eff|0.000000,-209.472656,-1047.363281,128.906250,-12.084961,8.056641
cobot_dynamixel_driver/joint_states|name|J1,J2,J3,J4,J5,J6|pos|-0.000050,-0.112026,0.140467,0.000038,-0.445067,0.000041|vel|0.000000,0.693541,-0.703348,0.000000,0.682161,0.000000|eff|0.000000,-418.945312,-1385.742188,128.906250,28.198242,-8.056641
cobot_dynamixel_driver/joint_states|name|J1,J2,J3,J4,J5,J6|pos|-0.000050,-0.094024,0.122240,0.000038,-0.426822,0.000041|vel|0.000000,0.631365,-0.676015,0.000000,0.717320,0.000000|eff|-128.906250,1031.250000,-1144.042969,128.906250,104.736328,-8.056641
cobot_dynamixel_driver/joint_states|name|J1,J2,J3,J4,J5,J6|pos|-0.000050,-0.077651,0.104014,0.000038,-0.408971,0.000041|vel|0.000000,0.596103,-0.629070,0.000000,0.601846,0.000000|eff|-80.566406,-950.683594,-1144.042969,128.906250,72.509766,-8.056641
cobot_dynamixel_driver/joint_states|name|J1,J2,J3,J4,J5,J6|pos|-0.000038,-0.063881,0.086238,0.000038,-0.390664,0.000041|vel|0.000000,0.498457,-0.649726,0.000000,0.736968,0.000000|eff|-128.906250,1256.835938,-515.625000,128.906250,-8.056641,-8.056641
cobot_dynamixel_driver/joint_states|name|J1,J2,J3,J4,J5,J6|pos|-0.000038,-0.052652,0.071179,0.000038,-0.372502,0.000041|vel|0.000000,0.372852,-0.504508,0.000000,0.630456,0.000000|eff|-128.906250,-209.472656,-1095.703125,128.906250,80.566406,-8.056641
cobot_dynamixel_driver/joint_states|name|J1,J2,J3,J4,J5,J6|pos|-0.000038,-0.043701,0.059161,0.000038,-0.354258,0.000041|vel|0.000000,0.288558,-0.409156,0.000000,0.674922,0.000000|eff|0.000000,370.605469,-483.398438,128.906250,20.141602,-8.056641
cobot_dynamixel_driver/joint_states|name|J1,J2,J3,J4,J5,J6|pos|-0.000038,-0.036040,0.048821,0.000038,-0.335496,0.000041|vel|0.000000,0.251002,-0.320273,0.000000,0.608740,0.000000|eff|-96.679688,48.339844,-805.664062,80.566406,40.283203,-8.056641
cobot_dynamixel_driver/joint_states|name|J1,J2,J3,J4,J5,J6|pos|-0.000038,-0.029706,0.040559,0.000038,-0.316590,0.000041|vel|0.000000,0.209273,-0.288558,0.000000,0.729040,0.000000|eff|-64.453125,96.679688,-902.343750,80.566406,52.368164,-8.056641
cobot_dynamixel_driver/joint_states|name|J1,J2,J3,J4,J5,J6|pos|-0.000038,-0.024598,0.033924,0.000038,-0.297683,0.000041|vel|0.000000,0.161493,-0.228051,0.000000,0.785915,0.000000|eff|0.000000,273.925781,-773.437500,80.566406,-8.056641,8.056641
cobot_dynamixel_driver/joint_states|name|J1,J2,J3,J4,J5,J6|pos|-0.000038,-0.020630,0.028291,0.000038,-0.279480,0.000041|vel|0.000000,0.134160,-0.203848,0.000000,0.717320,0.000000|eff|-64.453125,225.585938,-773.437500,128.906250,28.198242,0.000000
cobot_dynamixel_driver/joint_states|name|J1,J2,J3,J4,J5,J6|pos|-0.000038,-0.017400,0.023584,0.000038,-0.261401,0.000041|vel|0.000000,0.117677,-0.162536,0.000000,0.663547,0.000000|eff|0.000000,257.812500,-741.210938,128.906250,64.453125,-8.056641
cobot_dynamixel_driver/joint_states|name|J1,J2,J3,J4,J5,J6|pos|-0.000038,-0.014546,0.019791,0.000038,-0.243177,0.000041|vel|0.000000,0.098064,-0.121432,0.000000,0.675267,0.000000|eff|-80.566406,306.152344,-918.457031,112.792969,48.339844,-8.056641
cobot_dynamixel_driver/joint_states|name|J1,J2,J3,J4,J5,J6|pos|-0.000038,-0.012130,0.016612,0.000038,-0.225636,0.000041|vel|0.000000,0.079494,-0.113712,0.000000,0.598399,0.000000|eff|-64.453125,225.585938,-870.117188,128.906250,8.056641,-8.056641
cobot_dynamixel_driver/joint_states|name|J1,J2,J3,J4,J5,J6|pos|-0.000038,-0.010202,0.013895,0.000038,-0.207578,0.000041|vel|0.000000,0.069271,-0.083041,0.000000,0.730074,0.000000|eff|0.000000,193.359375,-854.003906,128.906250,116.821289,-8.056641
cobot_dynamixel_driver/joint_states|name|J1,J2,J3,J4,J5,J6|pos|-0.000038,-0.008562,0.011680,0.000038,-0.188589,0.000041|vel|0.000000,0.053622,-0.082624,0.000000,0.675611,0.000000|eff|0.000000,241.699219,-870.117188,80.566406,40.283203,8.056641
cobot_dynamixel_driver/joint_states|name|J1,J2,J3,J4,J5,J6|pos|-0.000038,-0.007160,0.009689,0.000038,-0.171027,0.000041|vel|0.000000,0.048197,-0.070105,0.000000,0.584266,0.000000|eff|-48.339844,257.812500,-886.230469,96.679688,44.311523,-8.056641
cobot_dynamixel_driver/joint_states|name|J1,J2,J3,J4,J5,J6|pos|-0.000038,-0.005959,0.008112,0.000038,-0.152865,0.000041|vel|0.000000,0.042147,-0.055083,0.000000,0.735244,0.000000|eff|-128.906250,193.359375,-918.457031,128.906250,8.056641,-8.056641
cobot_dynamixel_driver/joint_states|name|J1,J2,J3,J4,J5,J6|pos|-0.000038,-0.004982,0.006847,0.000038,-0.134662,0.000041|vel|0.000000,0.032132,-0.034009,0.000000,0.690778,0.000000|eff|-64.453125,193.359375,-950.683594,64.453125,16.113281,-8.056641
cobot_dynamixel_driver/joint_states|name|J1,J2,J3,J4,J5,J6|pos|-0.000038,-0.004181,0.005859,0.000038,-0.116583,0.000041|vel|0.000000,0.029628,-0.029628,0.000000,0.672854,0.000000|eff|0.000000,193.359375,-966.796875,0.000000,116.821289,-8.056641
cobot_dynamixel_driver/joint_states|name|J1,J2,J3,J4,J5,J6|pos|-0.000038,-0.003518,0.004845,0.000038,-0.098380,0.000041|vel|0.000000,0.021699,-0.027124,0.000000,0.673198,0.000000|eff|-128.906250,209.472656,-918.457031,112.792969,16.113281,-8.056641
cobot_dynamixel_driver/joint_states|name|J1,J2,J3,J4,J5,J6|pos|-0.000038,-0.002942,0.003981,0.000038,-0.081252,0.000041|vel|0.000000,0.018570,-0.028585,0.000000,0.507743,0.000000|eff|0.000000,193.359375,-902.343750,128.906250,-80.566406,0.000000
cobot_dynamixel_driver/joint_states|name|J1,J2,J3,J4,J5,J6|pos|-0.000038,-0.002504,0.003380,0.000038,-0.067745,0.000041|vel|0.000000,0.015023,-0.021699,0.000000,0.501193,0.000000|eff|-64.453125,193.359375,-902.343750,112.792969,8.056641,0.000000
cobot_dynamixel_driver/joint_states|name|J1,J2,J3,J4,J5,J6|pos|-0.000038,-0.002028,0.002804,0.000038,-0.056761,0.000041|vel|0.000000,0.017109,-0.013771,0.000000,0.377101,0.000000|eff|0.000000,209.472656,-918.457031,64.453125,8.056641,-8.056641
cobot_dynamixel_driver/joint_states|name|J1,J2,J3,J4,J5,J6|pos|-0.000038,-0.001665,0.002391,0.000038,-0.047452,0.000041|vel|0.000000,0.012519,-0.017526,0.000000,0.317468,0.000000|eff|-96.679688,322.265625,-918.457031,128.906250,0.000000,-8.056641
cobot_dynamixel_driver/joint_states|name|J1,J2,J3,J4,J5,J6|pos|-0.000038,-0.001377,0.001890,0.000038,-0.039737,0.000041|vel|0.000000,0.010224,-0.013353,0.000000,0.261972,0.000000|eff|0.000000,161.132812,-950.683594,0.000000,20.141602,-8.056641
cobot_dynamixel_driver/joint_states|name|J1,J2,J3,J4,J5,J6|pos|-0.000038,-0.001152,0.001765,0.000038,-0.033200,0.000041|vel|0.000000,0.006051,-0.004173,0.000000,0.192687,0.000000|eff|0.000000,241.699219,-1015.136719,112.792969,28.198242,-8.056641
cobot_dynamixel_driver/joint_states|name|J1,J2,J3,J4,J5,J6|pos|-0.000038,-0.001014,0.001515,0.000038,-0.027677,0.000041|vel|0.000000,0.006677,-0.013145,0.000000,0.206130,0.000000|eff|-64.453125,128.906250,-966.796875,112.792969,28.198242,-8.056641
cobot_dynamixel_driver/joint_states|name|J1,J2,J3,J4,J5,J6|pos|-0.000038,-0.000901,0.001052,0.000038,-0.023209,0.000041|vel|0.000000,0.003547,-0.015857,0.000000,0.163043,0.000000|eff|-112.792969,177.246094,-837.890625,80.566406,56.396484,8.056641
cobot_dynamixel_driver/joint_states|name|J1,J2,J3,J4,J5,J6|pos|-0.000038,-0.000801,0.000876,0.000038,-0.019424,0.000041|vel|0.000000,0.003964,0.005425,0.000000,0.129607,0.000000|eff|-64.453125,128.906250,-982.910156,96.679688,48.339844,0.000000
cobot_dynamixel_driver/joint_states|name|J1,J2,J3,J4,J5,J6|pos|-0.000038,-0.000676,0.000864,0.000038,-0.016259,0.000041|vel|0.000000,0.004173,-0.005425,0.000000,0.115130,0.000000|eff|0.000000,209.472656,-918.457031,64.453125,60.424805,-8.056641
cobot_dynamixel_driver/joint_states|name|J1,J2,J3,J4,J5,J6|pos|-0.000038,-0.000551,0.000864,0.000038,-0.013570,0.000041|vel|0.000000,0.005216,-0.005425,0.000000,0.099963,0.000000|eff|-48.339844,145.019531,-902.343750,112.792969,52.368164,-8.056641
cobot_dynamixel_driver/joint_states|name|J1,J2,J3,J4,J5,J6|pos|-0.000038,-0.000413,0.000864,0.000038,-0.011336,0.000041|vel|0.000000,0.004799,-0.005425,0.000000,0.079281,0.000000|eff|0.000000,225.585938,-902.343750,96.679688,56.396484,-8.056641
cobot_dynamixel_driver/joint_states|name|J1,J2,J3,J4,J5,J6|pos|-0.000038,-0.000288,0.000864,0.000038,-0.009453,0.000041|vel|0.000000,0.005008,-0.005425,0.000000,0.063425,0.000000|eff|-96.679688,209.472656,-918.457031,96.679688,44.311523,0.000000
cobot_dynamixel_driver/joint_states|name|J1,J2,J3,J4,J5,J6|pos|-0.000038,-0.000175,0.000864,0.000038,-0.008005,0.000041|vel|0.000000,0.004173,0.000000,0.000000,0.061701,0.000000|eff|0.000000,257.812500,-982.910156,112.792969,60.424805,0.000000
cobot_dynamixel_driver/joint_states|name|J1,J2,J3,J4,J5,J6|pos|-0.000038,-0.000063,0.000789,0.000038,-0.006681,0.000041|vel|0.000000,0.005008,-0.004173,0.000000,0.041019,0.000000|eff|0.000000,241.699219,-1047.363281,96.679688,60.424805,-8.056641
cobot_dynamixel_driver/joint_states|name|J1,J2,J3,J4,J5,J6|pos|-0.000038,-0.000000,0.000626,0.000038,-0.005523,0.000041|vel|0.000000,-0.001669,-0.008555,0.000000,0.038606,0.000000|eff|0.000000,273.925781,-918.457031,112.792969,56.396484,-8.056641
cobot_dynamixel_driver/joint_states|name|J1,J2,J3,J4,J5,J6|pos|-0.000038,0.000013,0.000401,0.000038,-0.004654,0.000041|vel|0.000000,0.001669,-0.008555,0.000000,0.036193,0.000000|eff|-112.792969,257.812500,-918.457031,128.906250,64.453125,-8.056641
cobot_dynamixel_driver/joint_states|name|J1,J2,J3,J4,J5,J6|pos|-0.000038,0.000013,0.000175,0.000038,-0.003889,0.000041|vel|0.000000,0.001669,-0.007929,0.000000,0.026542,0.000000|eff|-96.679688,418.945312,-821.777344,64.453125,56.396484,8.056641
cobot_dynamixel_driver/joint_states|name|J1,J2,J3,J4,J5,J6|pos|-0.000025,0.000013,0.000088,0.000038,-0.003330,0.000041|vel|0.000000,0.001669,-0.003756,0.000000,0.023784,0.000000|eff|0.000000,451.171875,-837.890625,0.000000,76.538086,-8.056641
cobot_dynamixel_driver/joint_states|name|J1,J2,J3,J4,J5,J6|pos|-0.000025,0.000013,0.000075,0.000038,-0.002689,0.000041|vel|0.000000,0.001669,-0.003756,0.000000,0.020337,0.000000|eff|0.000000,451.171875,-805.664062,96.679688,68.481445,8.056641
cobot_dynamixel_driver/joint_states|name|J1,J2,J3,J4,J5,J6|pos|-0.000025,0.000013,0.000075,0.000038,-0.002296,0.000041|vel|0.000000,-0.000000,-0.003756,0.000000,0.015167,0.000000|eff|0.000000,273.925781,-805.664062,0.000000,64.453125,-8.056641
cobot_dynamixel_driver/joint_states|name|J1,J2,J3,J4,J5,J6|pos|-0.000025,0.000013,0.000075,0.000038,-0.001944,0.000041|vel|0.000000,-0.000000,-0.003756,0.000000,0.012064,0.000000|eff|0.000000,257.812500,-789.550781,96.679688,64.453125,-8.056641
cobot_dynamixel_driver/joint_states|name|J1,J2,J3,J4,J5,J6|pos|-0.000025,0.000013,0.000075,0.000038,-0.001676,0.000041|vel|0.000000,-0.000000,-0.003756,0.000000,0.009652,0.000000|eff|0.000000,241.699219,-789.550781,64.453125,76.538086,-8.056641
cobot_dynamixel_driver/joint_states|name|J1,J2,J3,J4,J5,J6|pos|-0.000025,0.000013,0.000075,0.000038,-0.001386,0.000041|vel|0.000000,-0.000000,0.000000,0.000000,0.010341,0.000000|eff|0.000000,257.812500,-773.437500,64.453125,72.509766,0.000000
cobot_dynamixel_driver/joint_states|name|J1,J2,J3,J4,J5,J6|pos|-0.000025,0.000013,0.000075,0.000038,-0.001138,0.000041|vel|0.000000,-0.000000,0.000000,0.000000,0.008962,0.000000|eff|0.000000,273.925781,-805.664062,64.453125,72.509766,-8.056641
cobot_dynamixel_driver/joint_states|name|J1,J2,J3,J4,J5,J6|pos|-0.000025,0.000013,0.000075,0.000038,-0.000931,0.000041|vel|0.000000,-0.000000,0.000000,0.000000,0.006205,0.000000|eff|0.000000,418.945312,-821.777344,64.453125,72.509766,-8.056641
cobot_dynamixel_driver/joint_states|name|J1,J2,J3,J4,J5,J6|pos|-0.000025,0.000013,0.000075,0.000038,-0.000807,0.000041|vel|0.000000,-0.000000,0.000000,0.000000,0.004826,0.000000|eff|0.000000,418.945312,-854.003906,112.792969,68.481445,-8.056641
cobot_dynamixel_driver/joint_states|name|J1,J2,J3,J4,J5,J6|pos|-0.000025,0.000013,0.000075,0.000038,-0.000683,0.000041|vel|0.000000,-0.000000,0.000000,0.000000,0.005860,0.000000|eff|-96.679688,257.812500,-821.777344,96.679688,68.481445,-8.056641
cobot_dynamixel_driver/joint_states|name|J1,J2,J3,J4,J5,J6|pos|-0.000025,0.000013,0.000075,0.000038,-0.000538,0.000041|vel|0.000000,-0.000000,0.000000,0.000000,0.004136,0.000000|eff|0.000000,370.605469,-805.664062,0.000000,64.453125,-8.056641
cobot_dynamixel_driver/joint_states|name|J1,J2,J3,J4,J5,J6|pos|-0.000025,0.000013,0.000075,0.000038,-0.000538,0.000041|vel|0.000000,-0.000000,0.000000,0.000000,0.004136,0.000000|eff|0.000000,370.605469,-821.777344,32.226562,60.424805,-8.056641
cobot_dynamixel_driver/joint_states|name|J1,J2,J3,J4,J5,J6|pos|-0.000025,0.000013,0.000075,0.000038,-0.000538,0.000041|vel|0.000000,-0.000000,0.000000,0.000000,0.004136,0.000000|eff|0.000000,418.945312,-821.777344,96.679688,68.481445,-8.056641
cobot_dynamixel_driver/joint_states|name|J1,J2,J3,J4,J5,J6|pos|-0.000025,0.000013,0.000075,0.000038,-0.000538,0.000041|vel|0.000000,-0.000000,0.000000,0.000000,0.004136,0.000000|eff|-64.453125,273.925781,-837.890625,32.226562,64.453125,-8.056641
cobot_dynamixel_driver/joint_states|name|J1,J2,J3,J4,J5,J6|pos|-0.000025,0.000013,0.000075,0.000038,-0.000538,0.000041|vel|0.000000,-0.000000,0.000000,0.000000,0.004136,0.000000|eff|0.000000,386.718750,-854.003906,0.000000,60.424805,8.056641
cobot_dynamixel_driver/joint_states|name|J1,J2,J3,J4,J5,J6|pos|-0.000025,0.000013,0.000075,0.000038,-0.000538,0.000041|vel|0.000000,-0.000000,0.000000,0.000000,0.000000,0.000000|eff|-32.226562,273.925781,-821.777344,96.679688,76.538086,-8.056641
cobot_dynamixel_driver/joint_states|name|J1,J2,J3,J4,J5,J6|pos|-0.000025,0.000013,0.000075,0.000038,-0.000455,0.000041|vel|0.000000,-0.000000,0.000000,0.000000,0.000000,0.000000|eff|0.000000,370.605469,-854.003906,64.453125,76.538086,0.000000
cobot_dynamixel_driver/joint_states|name|J1,J2,J3,J4,J5,J6|pos|-0.000025,0.000013,0.000075,0.000038,-0.000352,0.000041|vel|0.000000,-0.000000,0.000000,0.000000,0.004826,0.000000|eff|0.000000,418.945312,-821.777344,0.000000,72.509766,-8.056641
cobot_dynamixel_driver/joint_states|name|J1,J2,J3,J4,J5,J6|pos|-0.000025,0.000013,0.000075,0.000038,-0.000331,0.000041|vel|0.000000,-0.000000,0.000000,0.000000,0.004826,0.000000|eff|0.000000,273.925781,-870.117188,32.226562,60.424805,8.056641
cobot_dynamixel_driver/joint_states|name|J1,J2,J3,J4,J5,J6|pos|-0.000025,0.000013,0.000075,0.000038,-0.000331,0.000041|vel|0.000000,-0.000000,0.000000,0.000000,0.004826,0.000000|eff|0.000000,241.699219,-854.003906,96.679688,52.368164,0.000000
cobot_dynamixel_driver/joint_states|name|J1,J2,J3,J4,J5,J6|pos|-0.000025,0.000013,0.000075,0.000038,-0.000331,0.000041|vel|0.000000,-0.000000,0.000000,0.000000,0.004826,0.000000|eff|0.000000,435.058594,-821.777344,64.453125,52.368164,-8.056641
cobot_dynamixel_driver/joint_states|name|J1,J2,J3,J4,J5,J6|pos|-0.000025,0.000013,0.000075,0.000025,-0.000331,0.000041|vel|0.000000,-0.000000,0.000000,0.000000,0.004826,0.000000|eff|0.000000,257.812500,-821.777344,0.000000,24.169922,-8.056641
cobot_dynamixel_driver/joint_states|name|J1,J2,J3,J4,J5,J6|pos|-0.000025,0.000013,0.000075,0.000025,-0.000331,0.000041|vel|0.000000,-0.000000,0.000000,0.000000,0.000000,0.000000|eff|-96.679688,257.812500,-821.777344,0.000000,32.226562,-8.056641
cobot_dynamixel_driver/joint_states|name|J1,J2,J3,J4,J5,J6|pos|-0.000025,0.000013,0.000075,0.000025,-0.000331,0.000041|vel|0.000000,-0.000000,0.000000,0.000000,0.000000,0.000000|eff|0.000000,257.812500,-854.003906,0.000000,52.368164,-8.056641
cobot_dynamixel_driver/joint_states|name|J1,J2,J3,J4,J5,J6|pos|-0.000025,0.000013,0.000075,0.000025,-0.000331,0.000041|vel|0.000000,-0.000000,0.000000,0.000000,0.000000,0.000000|eff|0.000000,257.812500,-886.230469,0.000000,56.396484,8.056641
cobot_dynamixel_driver/joint_states|name|J1,J2,J3,J4,J5,J6|pos|-0.000025,0.000013,0.000063,0.000025,-0.000331,0.000041|vel|0.000000,-0.000000,0.000000,0.000000,0.000000,0.000000|eff|-32.226562,290.039062,-854.003906,0.000000,56.396484,-8.056641
cobot_dynamixel_driver/joint_states|name|J1,J2,J3,J4,J5,J6|pos|-0.000025,0.000013,0.000063,0.000025,-0.000331,0.000041|vel|0.000000,-0.000000,0.000000,0.000000,0.000000,0.000000|eff|-64.453125,241.699219,-837.890625,64.453125,72.509766,8.056641
cobot_dynamixel_driver/joint_states|name|J1,J2,J3,J4,J5,J6|pos|-0.000025,0.000013,0.000063,0.000025,-0.000310,0.000041|vel|0.000000,-0.000000,0.000000,0.000000,0.000000,0.000000|eff|0.000000,338.378906,-886.230469,0.000000,68.481445,0.000000
cobot_dynamixel_driver/joint_states|name|J1,J2,J3,J4,J5,J6|pos|-0.000025,0.000013,0.000063,0.000025,-0.000248,0.000041|vel|0.000000,-0.000000,0.000000,0.000000,0.003102,0.000000|eff|0.000000,370.605469,-870.117188,0.000000,76.538086,0.000000
cobot_dynamixel_driver/joint_states|name|J1,J2,J3,J4,J5,J6|pos|-0.000025,0.000013,0.000063,0.000025,-0.000207,0.000041|vel|0.000000,-0.000000,0.000000,0.000000,0.003102,0.000000|eff|0.000000,257.812500,-886.230469,0.000000,60.424805,-8.056641
cobot_dynamixel_driver/joint_states|name|J1,J2,J3,J4,J5,J6|pos|-0.000025,0.000013,0.000050,0.000025,-0.000207,0.000041|vel|0.000000,-0.000000,0.000000,0.000000,0.003102,0.000000|eff|0.000000,273.925781,-902.343750,0.000000,56.396484,0.000000
cobot_dynamixel_driver/joint_states|name|J1,J2,J3,J4,J5,J6|pos|-0.000025,0.000013,0.000050,0.000025,-0.000207,0.000041|vel|0.000000,-0.000000,0.000000,0.000000,0.003102,0.000000|eff|-80.566406,241.699219,-886.230469,0.000000,56.396484,-8.056641
cobot_dynamixel_driver/joint_states|name|J1,J2,J3,J4,J5,J6|pos|-0.000025,0.000013,0.000050,0.000025,-0.000207,0.000041|vel|0.000000,-0.000000,0.000000,0.000000,0.003102,0.000000|eff|0.000000,257.812500,-902.343750,0.000000,56.396484,-8.056641
cobot_dynamixel_driver/joint_states|name|J1,J2,J3,J4,J5,J6|pos|-0.000025,0.000013,0.000038,0.000025,-0.000207,0.000041|vel|0.000000,-0.000000,0.000000,0.000000,0.000000,0.000000|eff|-96.679688,386.718750,-886.230469,0.000000,40.283203,0.000000
cobot_dynamixel_driver/joint_states|name|J1,J2,J3,J4,J5,J6|pos|-0.000025,0.000013,0.000038,0.000025,-0.000207,0.000041|vel|0.000000,-0.000000,0.000000,0.000000,0.000000,0.000000|eff|0.000000,257.812500,-902.343750,64.453125,56.396484,8.056641
cobot_dynamixel_driver/joint_states|name|J1,J2,J3,J4,J5,J6|pos|-0.000025,0.000013,0.000038,0.000025,-0.000207,0.000041|vel|0.000000,-0.000000,0.000000,0.000000,0.000000,0.000000|eff|-64.453125,273.925781,-902.343750,0.000000,56.396484,-8.056641
cobot_dynamixel_driver/joint_states|name|J1,J2,J3,J4,J5,J6|pos|-0.000025,0.000013,0.000038,0.000025,-0.000207,0.000041|vel|0.000000,-0.000000,0.000000,0.000000,0.000000,0.000000|eff|0.000000,241.699219,-886.230469,0.000000,60.424805,-8.056641
cobot_dynamixel_driver/joint_states|name|J1,J2,J3,J4,J5,J6|pos|-0.000025,0.000013,0.000038,0.000025,-0.000207,0.000041|vel|0.000000,-0.000000,0.000000,0.000000,0.000000,0.000000|eff|0.000000,322.265625,-870.117188,0.000000,68.481445,-8.056641
cobot_dynamixel_driver/joint_states|name|J1,J2,J3,J4,J5,J6|pos|-0.000025,0.000013,0.000038,0.000025,-0.000207,0.000041|vel|0.000000,-0.000000,0.000000,0.000000,0.000000,0.000000|eff|0.000000,306.152344,-902.343750,80.566406,68.481445,-8.056641
cobot_dynamixel_driver/joint_states|name|J1,J2,J3,J4,J5,J6|pos|-0.000025,0.000013,0.000038,0.000025,-0.000186,0.000041|vel|0.000000,-0.000000,0.000000,0.000000,0.000000,0.000000|eff|0.000000,418.945312,-854.003906,0.000000,68.481445,-8.056641
cobot_dynamixel_driver/joint_states|name|J1,J2,J3,J4,J5,J6|pos|-0.000025,0.000013,0.000038,0.000025,-0.000186,0.000041|vel|0.000000,-0.000000,0.000000,0.000000,0.000000,0.000000|eff|0.000000,322.265625,-902.343750,0.000000,72.509766,-8.056641
cobot_dynamixel_driver/joint_states|name|J1,J2,J3,J4,J5,J6|pos|-0.000025,0.000013,0.000025,0.000025,-0.000124,0.000041|vel|0.000000,-0.000000,0.000000,0.000000,0.002413,0.000000|eff|-64.453125,273.925781,-902.343750,0.000000,72.509766,-8.056641
cobot_dynamixel_driver/joint_states|name|J1,J2,J3,J4,J5,J6|pos|-0.000025,0.000013,0.000025,0.000025,-0.000083,0.000041|vel|0.000000,-0.000000,0.000000,0.000000,0.002413,0.000000|eff|0.000000,257.812500,-902.343750,0.000000,64.453125,8.056641
cobot_dynamixel_driver/joint_states|name|J1,J2,J3,J4,J5,J6|pos|-0.000025,0.000013,0.000025,0.000025,-0.000083,0.000041|vel|0.000000,-0.000000,0.000000,0.000000,0.002413,0.000000|eff|-64.453125,290.039062,-918.457031,0.000000,60.424805,-8.056641
cobot_dynamixel_driver/joint_states|name|J1,J2,J3,J4,J5,J6|pos|-0.000025,0.000013,0.000025,0.000025,-0.000083,0.000041|vel|0.000000,-0.000000,0.000000,0.000000,0.002413,0.000000|eff|0.000000,370.605469,-918.457031,48.339844,56.396484,-8.056641
cobot_dynamixel_driver/joint_states|name|J1,J2,J3,J4,J5,J6|pos|-0.000025,0.000013,0.000013,0.000025,-0.000083,0.000041|vel|0.000000,-0.000000,0.000000,0.000000,0.002413,0.000000|eff|-64.453125,306.152344,-902.343750,64.453125,40.283203,8.056641
cobot_dynamixel_driver/joint_states|name|J1,J2,J3,J4,J5,J6|pos|-0.000025,0.000013,0.000013,0.000025,-0.000083,0.000041|vel|0.000000,-0.000000,0.000000,0.000000,0.002413,0.000000|eff|0.000000,354.492188,-918.457031,96.679688,24.169922,-8.056641
cobot_dynamixel_driver/joint_states|name|J1,J2,J3,J4,J5,J6|pos|-0.000025,0.000013,0.000013,0.000025,-0.000083,0.000041|vel|0.000000,-0.000000,0.000000,0.000000,0.000000,0.000000|eff|0.000000,273.925781,-902.343750,80.566406,56.396484,-8.056641
cobot_dynamixel_driver/joint_states|name|J1,J2,J3,J4,J5,J6|pos|-0.000025,0.000013,0.000013,0.000025,-0.000083,0.000041|vel|0.000000,-0.000000,0.000000,0.000000,0.000000,0.000000|eff|0.000000,257.812500,-902.343750,0.000000,56.396484,-8.056641
cobot_dynamixel_driver/joint_states|name|J1,J2,J3,J4,J5,J6|pos|-0.000025,0.000013,0.000013,0.000025,-0.000083,0.000041|vel|0.000000,-0.000000,0.000000,0.000000,0.000000,0.000000|eff|0.000000,290.039062,-902.343750,64.453125,52.368164,-8.056641
cobot_dynamixel_driver/joint_states|name|J1,J2,J3,J4,J5,J6|pos|-0.000025,0.000013,0.000013,0.000025,-0.000083,0.000041|vel|0.000000,-0.000000,0.000000,0.000000,0.000000,0.000000|eff|-80.566406,386.718750,-918.457031,0.000000,52.368164,-8.056641
cobot_dynamixel_driver/joint_states|name|J1,J2,J3,J4,J5,J6|pos|-0.000025,0.000013,0.000013,0.000025,-0.000083,0.000041|vel|0.000000,-0.000000,0.000000,0.000000,0.000000,0.000000|eff|-96.679688,306.152344,-902.343750,64.453125,44.311523,-8.056641
cobot_dynamixel_driver/joint_states|name|J1,J2,J3,J4,J5,J6|pos|-0.000025,0.000013,0.000013,0.000025,-0.000083,0.000041|vel|0.000000,-0.000000,0.000000,0.000000,0.000000,0.000000|eff|0.000000,273.925781,-902.343750,0.000000,52.368164,-8.056641
cobot_dynamixel_driver/joint_states|name|J1,J2,J3,J4,J5,J6|pos|-0.000025,0.000013,0.000013,0.000025,-0.000083,0.000041|vel|0.000000,-0.000000,0.000000,0.000000,0.000000,0.000000|eff|0.000000,257.812500,-918.457031,0.000000,48.339844,0.000000
cobot_dynamixel_driver/joint_states|name|J1,J2,J3,J4,J5,J6|pos|-0.000025,0.000013,0.000013,0.000025,-0.000083,0.000041|vel|0.000000,-0.000000,0.000000,0.000000,0.000000,0.000000|eff|0.000000,386.718750,-902.343750,32.226562,36.254883,-8.056641
cobot_dynamixel_driver/joint_states|name|J1,J2,J3,J4,J5,J6|pos|-0.000025,0.000013,0.000000,0.000025,-0.000083,0.000041|vel|0.000000,-0.000000,0.000000,0.000000,0.000000,0.000000|eff|0.000000,273.925781,-918.457031,64.453125,56.396484,8.056641
cobot_dynamixel_driver/joint_states|name|J1,J2,J3,J4,J5,J6|pos|-0.000025,0.000013,0.000000,0.000025,-0.000083,0.000041|vel|0.000000,-0.000000,0.000000,0.000000,0.000000,0.000000|eff|0.000000,338.378906,-902.343750,96.679688,56.396484,-8.056641
cobot_dynamixel_driver/joint_states|name|J1,J2,J3,J4,J5,J6|pos|-0.000025,0.000013,0.000000,0.000025,-0.000083,0.000041|vel|0.000000,-0.000000,0.000000,0.000000,0.000000,0.000000|eff|0.000000,338.378906,-902.343750,0.000000,56.396484,0.000000
cobot_dynamixel_driver/joint_states|name|J1,J2,J3,J4,J5,J6|pos|-0.000025,0.000013,0.000000,0.000025,-0.000083,0.000041|vel|0.000000,-0.000000,0.000000,0.000000,0.000000,0.000000|eff|0.000000,418.945312,-902.343750,0.000000,56.396484,-8.056641
cobot_dynamixel_driver/joint_states|name|J1,J2,J3,J4,J5,J6|pos|-0.000025,0.000013,0.000000,0.000025,-0.000083,0.000041|vel|0.000000,-0.000000,0.000000,0.000000,0.000000,0.000000|eff|0.000000,273.925781,-918.457031,96.679688,56.396484,8.056641
cobot_dynamixel_driver/joint_states|name|J1,J2,J3,J4,J5,J6|pos|-0.000025,0.000013,0.000000,0.000025,-0.000083,0.000041|vel|0.000000,-0.000000,0.000000,0.000000,0.000000,0.000000|eff|0.000000,257.812500,-870.117188,0.000000,60.424805,-8.056641
cobot_dynamixel_driver/joint_states|name|J1,J2,J3,J4,J5,J6|pos|-0.000025,0.000013,0.000000,0.000025,-0.000083,0.000041|vel|0.000000,-0.000000,0.000000,0.000000,0.000000,0.000000|eff|0.000000,273.925781,-918.457031,0.000000,60.424805,0.000000
cobot_dynamixel_driver/joint_states|name|J1,J2,J3,J4,J5,J6|pos|-0.000025,0.000013,0.000000,0.000025,-0.000083,0.000041|vel|0.000000,-0.000000,0.000000,0.000000,0.000000,0.000000|eff|0.000000,241.699219,-918.457031,0.000000,56.396484,8.056641
cobot_dynamixel_driver/joint_states|name|J1,J2,J3,J4,J5,J6|pos|-0.000025,0.000013,0.000000,0.000025,-0.000083,0.000041|vel|0.000000,-0.000000,0.000000,0.000000,0.000000,0.000000|eff|0.000000,322.265625,-902.343750,0.000000,60.424805,-8.056641
cobot_dynamixel_driver/joint_states|name|J1,J2,J3,J4,J5,J6|pos|-0.000025,0.000013,0.000000,0.000025,-0.000083,0.000041|vel|0.000000,-0.000000,0.000000,0.000000,0.000000,0.000000|eff|-96.679688,273.925781,-886.230469,0.000000,68.481445,-8.056641
cobot_dynamixel_driver/joint_states|name|J1,J2,J3,J4,J5,J6|pos|-0.000025,0.000013,0.000000,0.000025,-0.000083,0.000041|vel|0.000000,-0.000000,0.000000,0.000000,0.000000,0.000000|eff|0.000000,257.812500,-886.230469,96.679688,64.453125,-8.056641
cobot_dynamixel_driver/joint_states|name|J1,J2,J3,J4,J5,J6|pos|-0.000025,0.000013,0.000000,0.000025,-0.000062,0.000041|vel|0.000000,-0.000000,0.000000,0.000000,0.000000,0.000000|eff|0.000000,257.812500,-918.457031,0.000000,60.424805,0.000000
cobot_dynamixel_driver/joint_states|name|J1,J2,J3,J4,J5,J6|pos|-0.000025,0.000013,0.000000,0.000025,-0.000062,0.000041|vel|0.000000,-0.000000,0.000000,0.000000,0.000000,0.000000|eff|0.000000,241.699219,-902.343750,0.000000,60.424805,0.000000
cobot_dynamixel_driver/joint_states|name|J1,J2,J3,J4,J5,J6|pos|-0.000025,0.000013,0.000000,0.000025,-0.000062,0.000041|vel|0.000000,-0.000000,0.000000,0.000000,0.000000,0.000000|eff|0.000000,322.265625,-918.457031,64.453125,68.481445,-8.056641
cobot_dynamixel_driver/joint_states|name|J1,J2,J3,J4,J5,J6|pos|-0.000025,0.000013,0.000000,0.000025,-0.000062,0.000041|vel|0.000000,-0.000000,0.000000,0.000000,0.000000,0.000000|eff|-64.453125,257.812500,-918.457031,64.453125,68.481445,-8.056641
cobot_dynamixel_driver/joint_states|name|J1,J2,J3,J4,J5,J6|pos|-0.000025,0.000013,0.000000,0.000025,-0.000062,0.000041|vel|0.000000,-0.000000,0.000000,0.000000,0.000000,0.000000|eff|0.000000,257.812500,-886.230469,0.000000,68.481445,-8.056641
cobot_dynamixel_driver/joint_states|name|J1,J2,J3,J4,J5,J6|pos|-0.000025,0.000013,0.000000,0.000025,-0.000062,0.000041|vel|0.000000,-0.000000,0.000000,0.000000,0.000000,0.000000|eff|0.000000,322.265625,-837.890625,0.000000,68.481445,-8.056641
cobot_dynamixel_driver/joint_states|name|J1,J2,J3,J4,J5,J6|pos|-0.000025,0.000013,0.000000,0.000025,-0.000062,0.000041|vel|0.000000,-0.000000,0.000000,0.000000,0.000000,0.000000|eff|-32.226562,257.812500,-918.457031,0.000000,68.481445,-8.056641
cobot_dynamixel_driver/joint_states|name|J1,J2,J3,J4,J5,J6|pos|-0.000025,0.000013,0.000000,0.000025,-0.000041,0.000041|vel|0.000000,-0.000000,0.000000,0.000000,0.000000,0.000000|eff|0.000000,273.925781,-918.457031,0.000000,76.538086,-8.056641
cobot_dynamixel_driver/joint_states|name|J1,J2,J3,J4,J5,J6|pos|-0.000025,0.000013,0.000000,0.000025,0.000021,0.000041|vel|0.000000,-0.000000,0.000000,0.000000,0.002068,0.000000|eff|0.000000,273.925781,-886.230469,0.000000,64.453125,8.056641
cobot_dynamixel_driver/joint_states|name|J1,J2,J3,J4,J5,J6|pos|-0.000025,0.000013,0.000000,0.000025,0.000021,0.000041|vel|0.000000,-0.000000,0.000000,0.000000,0.002068,0.000000|eff|-32.226562,241.699219,-870.117188,0.000000,64.453125,0.000000
cobot_dynamixel_driver/joint_states|name|J1,J2,J3,J4,J5,J6|pos|-0.000025,0.000013,0.000000,0.000025,0.000021,0.000041|vel|0.000000,-0.000000,0.000000,0.000000,0.002068,0.000000|eff|-64.453125,370.605469,-902.343750,32.226562,56.396484,8.056641
cobot_dynamixel_driver/joint_states|name|J1,J2,J3,J4,J5,J6|pos|-0.000025,0.000013,0.000000,0.000025,0.000021,0.000041|vel|0.000000,-0.000000,0.000000,0.000000,0.002068,0.000000|eff|-32.226562,418.945312,-918.457031,64.453125,52.368164,-8.056641
cobot_dynamixel_driver/joint_states|name|J1,J2,J3,J4,J5,J6|pos|-0.000025,0.000013,0.000000,0.000025,0.000021,0.000041|vel|0.000000,-0.000000,0.000000,0.000000,0.002068,0.000000|eff|0.000000,257.812500,-918.457031,64.453125,52.368164,-8.056641
cobot_dynamixel_driver/joint_states|name|J1,J2,J3,J4,J5,J6|pos|-0.000025,0.000013,0.000000,0.000025,0.000021,0.000041|vel|0.000000,-0.000000,0.000000,0.000000,0.000000,0.000000|eff|0.000000,257.812500,-902.343750,0.000000,52.368164,-8.056641
cobot_dynamixel_driver/joint_states|name|J1,J2,J3,J4,J5,J6|pos|-0.000025,0.000013,0.000000,0.000025,0.000021,0.000041|vel|0.000000,-0.000000,0.000000,0.000000,0.000000,0.000000|eff|0.000000,273.925781,-902.343750,64.453125,48.339844,0.000000
cobot_dynamixel_driver/joint_states|name|J1,J2,J3,J4,J5,J6|pos|-0.000025,0.000013,0.000000,0.000025,0.000021,0.000041|vel|0.000000,-0.000000,0.000000,0.000000,0.000000,0.000000|eff|0.000000,418.945312,-918.457031,0.000000,56.396484,8.056641
cobot_dynamixel_driver/joint_states|name|J1,J2,J3,J4,J5,J6|pos|-0.000025,0.000013,0.000000,0.000025,0.000021,0.000041|vel|0.000000,-0.000000,0.000000,0.000000,0.000000,0.000000|eff|0.000000,306.152344,-902.343750,0.000000,28.198242,-8.056641
cobot_dynamixel_driver/joint_states|name|J1,J2,J3,J4,J5,J6|pos|-0.000025,0.000013,0.000000,0.000025,0.000021,0.000041|vel|0.000000,-0.000000,0.000000,0.000000,0.000000,0.000000|eff|0.000000,273.925781,-918.457031,112.792969,52.368164,0.000000
cobot_dynamixel_driver/joint_states|name|J1,J2,J3,J4,J5,J6|pos|-0.000025,0.000013,0.000000,0.000025,0.000021,0.000041|vel|0.000000,-0.000000,0.000000,0.000000,0.000000,0.000000|eff|0.000000,257.812500,-902.343750,96.679688,40.283203,-8.056641
cobot_dynamixel_driver/joint_states|name|J1,J2,J3,J4,J5,J6|pos|-0.000025,0.000013,0.000000,0.000025,0.000021,0.000041|vel|0.000000,-0.000000,0.000000,0.000000,0.000000,0.000000|eff|0.000000,241.699219,-854.003906,0.000000,52.368164,-8.056641
cobot_dynamixel_driver/joint_states|name|J1,J2,J3,J4,J5,J6|pos|-0.000025,0.000013,0.000000,0.000025,0.000021,0.000041|vel|0.000000,-0.000000,0.000000,0.000000,0.000000,0.000000|eff|0.000000,306.152344,-902.343750,64.453125,56.396484,-8.056641
cobot_dynamixel_driver/joint_states|name|J1,J2,J3,J4,J5,J6|pos|-0.000025,0.000013,0.000000,0.000025,0.000021,0.000041|vel|0.000000,-0.000000,0.000000,0.000000,0.000000,0.000000|eff|0.000000,322.265625,-902.343750,0.000000,56.396484,-8.056641
cobot_dynamixel_driver/joint_states|name|J1,J2,J3,J4,J5,J6|pos|-0.000025,0.000013,0.000000,0.000025,0.000021,0.000041|vel|0.000000,-0.000000,0.000000,0.000000,0.000000,0.000000|eff|0.000000,306.152344,-918.457031,64.453125,56.396484,-8.056641
cobot_dynamixel_driver/joint_states|name|J1,J2,J3,J4,J5,J6|pos|-0.000025,0.000013,0.000000,0.000025,0.000021,0.000041|vel|0.000000,-0.000000,0.000000,0.000000,0.000000,0.000000|eff|-80.566406,257.812500,-918.457031,0.000000,52.368164,-8.056641
cobot_dynamixel_driver/joint_states|name|J1,J2,J3,J4,J5,J6|pos|-0.000025,0.000013,0.000000,0.000025,0.000021,0.000041|vel|0.000000,-0.000000,0.000000,0.000000,0.000000,0.000000|eff|-80.566406,418.945312,-918.457031,0.000000,52.368164,-8.056641
cobot_dynamixel_driver/joint_states|name|J1,J2,J3,J4,J5,J6|pos|-0.000025,0.000013,0.000000,0.000025,0.000021,0.000041|vel|0.000000,-0.000000,0.000000,0.000000,0.000000,0.000000|eff|-32.226562,370.605469,-902.343750,0.000000,56.396484,-8.056641
cobot_dynamixel_driver/joint_states|name|J1,J2,J3,J4,J5,J6|pos|-0.000025,0.000013,0.000000,0.000025,0.000021,0.000041|vel|0.000000,-0.000000,0.000000,0.000000,0.000000,0.000000|eff|0.000000,290.039062,-902.343750,64.453125,56.396484,-8.056641
cobot_dynamixel_driver/joint_states|name|J1,J2,J3,J4,J5,J6|pos|-0.000025,0.000013,0.000000,0.000025,0.000021,0.000041|vel|0.000000,-0.000000,0.000000,0.000000,0.000000,0.000000|eff|0.000000,257.812500,-918.457031,96.679688,28.198242,-8.056641
cobot_dynamixel_driver/joint_states|name|J1,J2,J3,J4,J5,J6|pos|-0.000025,0.000013,0.000000,0.000025,0.000021,0.000041|vel|0.000000,-0.000000,0.000000,0.000000,0.000000,0.000000|eff|0.000000,370.605469,-902.343750,64.453125,52.368164,8.056641
cobot_dynamixel_driver/joint_states|name|J1,J2,J3,J4,J5,J6|pos|-0.000025,0.000013,0.000000,0.000025,0.000021,0.000041|vel|0.000000,-0.000000,0.000000,0.000000,0.000000,0.000000|eff|0.000000,322.265625,-902.343750,112.792969,56.396484,-8.056641
cobot_dynamixel_driver/joint_states|name|J1,J2,J3,J4,J5,J6|pos|-0.000025,0.000013,0.000000,0.000025,0.000021,0.000041|vel|0.000000,-0.000000,0.000000,0.000000,0.000000,0.000000|eff|0.000000,241.699219,-886.230469,96.679688,52.368164,8.056641
cobot_dynamixel_driver/joint_states|name|J1,J2,J3,J4,J5,J6|pos|-0.000025,0.000013,0.000000,0.000025,0.000021,0.000041|vel|0.000000,-0.000000,0.000000,0.000000,0.000000,0.000000|eff|0.000000,257.812500,-918.457031,0.000000,56.396484,-8.056641
cobot_dynamixel_driver/joint_states|name|J1,J2,J3,J4,J5,J6|pos|-0.000025,0.000013,0.000000,0.000025,0.000021,0.000041|vel|0.000000,-0.000000,0.000000,0.000000,0.000000,0.000000|eff|-32.226562,386.718750,-918.457031,0.000000,48.339844,8.056641
cobot_dynamixel_driver/joint_states|name|J1,J2,J3,J4,J5,J6|pos|-0.000025,0.000013,0.000000,0.000025,0.000021,0.000041|vel|0.000000,-0.000000,0.000000,0.000000,0.000000,0.000000|eff|-32.226562,290.039062,-870.117188,0.000000,40.283203,-8.056641
cobot_dynamixel_driver/joint_states|name|J1,J2,J3,J4,J5,J6|pos|-0.000025,0.000013,0.000000,0.000025,0.000021,0.000041|vel|0.000000,-0.000000,0.000000,0.000000,0.000000,0.000000|eff|0.000000,241.699219,-918.457031,0.000000,52.368164,-8.056641
cobot_dynamixel_driver/joint_states|name|J1,J2,J3,J4,J5,J6|pos|-0.000025,0.000013,0.000000,0.000025,0.000021,0.000041|vel|0.000000,-0.000000,0.000000,0.000000,0.000000,0.000000|eff|0.000000,273.925781,-870.117188,0.000000,56.396484,8.056641
cobot_dynamixel_driver/joint_states|name|J1,J2,J3,J4,J5,J6|pos|-0.000025,0.000013,0.000000,0.000025,0.000021,0.000041|vel|0.000000,-0.000000,0.000000,0.000000,0.000000,0.000000|eff|-80.566406,290.039062,-902.343750,64.453125,40.283203,0.000000
cobot_dynamixel_driver/joint_states|name|J1,J2,J3,J4,J5,J6|pos|-0.000025,0.000013,0.000000,0.000025,0.000021,0.000041|vel|0.000000,-0.000000,0.000000,0.000000,0.000000,0.000000|eff|0.000000,241.699219,-918.457031,64.453125,40.283203,-8.056641
cobot_dynamixel_driver/joint_states|name|J1,J2,J3,J4,J5,J6|pos|-0.000025,0.000013,0.000000,0.000025,0.000021,0.000041|vel|0.000000,-0.000000,0.000000,0.000000,0.000000,0.000000|eff|-96.679688,418.945312,-918.457031,0.000000,40.283203,-8.056641
cobot_dynamixel_driver/joint_states|name|J1,J2,J3,J4,J5,J6|pos|-0.000025,0.000013,0.000000,0.000025,0.000021,0.000041|vel|0.000000,-0.000000,0.000000,0.000000,0.000000,0.000000|eff|0.000000,370.605469,-902.343750,0.000000,56.396484,-8.056641
cobot_dynamixel_driver/joint_states|name|J1,J2,J3,J4,J5,J6|pos|-0.000025,0.000013,-0.000013,0.000025,0.000021,0.000041|vel|0.000000,-0.000000,0.000000,0.000000,0.000000,0.000000|eff|0.000000,241.699219,-918.457031,64.453125,40.283203,-8.056641
cobot_dynamixel_driver/joint_states|name|J1,J2,J3,J4,J5,J6|pos|-0.000025,0.000013,-0.000013,0.000025,0.000021,0.000041|vel|0.000000,-0.000000,0.000000,0.000000,0.000000,0.000000|eff|-64.453125,257.812500,-902.343750,0.000000,28.198242,-8.056641
cobot_dynamixel_driver/joint_states|name|J1,J2,J3,J4,J5,J6|pos|-0.000025,0.000013,-0.000013,0.000025,0.000021,0.000041|vel|0.000000,-0.000000,0.000000,0.000000,0.000000,0.000000|eff|0.000000,370.605469,-918.457031,0.000000,52.368164,0.000000
cobot_dynamixel_driver/joint_states|name|J1,J2,J3,J4,J5,J6|pos|-0.000025,0.000013,-0.000013,0.000025,0.000021,0.000041|vel|0.000000,-0.000000,0.000000,0.000000,0.000000,0.000000|eff|0.000000,241.699219,-886.230469,64.453125,40.283203,-8.056641
cobot_dynamixel_driver/joint_states|name|J1,J2,J3,J4,J5,J6|pos|-0.000025,0.000013,-0.000013,0.000025,0.000021,0.000041|vel|0.000000,-0.000000,0.000000,0.000000,0.000000,0.000000|eff|-64.453125,338.378906,-902.343750,0.000000,44.311523,-8.056641
cobot_dynamixel_driver/joint_states|name|J1,J2,J3,J4,J5,J6|pos|-0.000025,0.000013,-0.000013,0.000025,0.000021,0.000041|vel|0.000000,-0.000000,0.000000,0.000000,0.000000,0.000000|eff|-64.453125,370.605469,-918.457031,0.000000,56.396484,-8.056641
cobot_dynamixel_driver/joint_states|name|J1,J2,J3,J4,J5,J6|pos|-0.000025,0.000013,-0.000013,0.000025,0.000021,0.000041|vel|0.000000,-0.000000,0.000000,0.000000,0.000000,0.000000|eff|0.000000,241.699219,-902.343750,0.000000,44.311523,-8.056641
cobot_dynamixel_driver/joint_states|name|J1,J2,J3,J4,J5,J6|pos|-0.000025,0.000013,-0.000013,0.000025,0.000021,0.000041|vel|0.000000,-0.000000,0.000000,0.000000,0.000000,0.000000|eff|-64.453125,338.378906,-918.457031,96.679688,56.396484,8.056641
cobot_dynamixel_driver/joint_states|name|J1,J2,J3,J4,J5,J6|pos|-0.000025,0.000013,-0.000013,0.000025,0.000021,0.000041|vel|0.000000,-0.000000,0.000000,0.000000,0.000000,0.000000|eff|-96.679688,257.812500,-902.343750,80.566406,48.339844,-8.056641
cobot_dynamixel_driver/joint_states|name|J1,J2,J3,J4,J5,J6|pos|-0.000025,0.000013,-0.000013,0.000025,0.000021,0.000041|vel|0.000000,-0.000000,0.000000,0.000000,0.000000,0.000000|eff|0.000000,306.152344,-918.457031,0.000000,56.396484,-8.056641
cobot_dynamixel_driver/joint_states|name|J1,J2,J3,J4,J5,J6|pos|-0.000025,0.000013,-0.000013,0.000025,0.000021,0.000041|vel|0.000000,-0.000000,0.000000,0.000000,0.000000,0.000000|eff|0.000000,418.945312,-918.457031,64.453125,40.283203,-8.056641
cobot_dynamixel_driver/joint_states|name|J1,J2,J3,J4,J5,J6|pos|-0.000025,0.000013,-0.000013,0.000025,0.000021,0.000041|vel|0.000000,-0.000000,0.000000,0.000000,0.000000,0.000000|eff|0.000000,241.699219,-902.343750,0.000000,56.396484,-8.056641
cobot_dynamixel_driver/joint_states|name|J1,J2,J3,J4,J5,J6|pos|-0.000025,0.000013,-0.000013,0.000025,0.000021,0.000041|vel|0.000000,-0.000000,0.000000,0.000000,0.000000,0.000000|eff|0.000000,322.265625,-902.343750,32.226562,52.368164,-8.056641
cobot_dynamixel_driver/joint_states|name|J1,J2,J3,J4,J5,J6|pos|-0.000025,0.000013,-0.000013,0.000025,0.000021,0.000041|vel|0.000000,-0.000000,0.000000,0.000000,0.000000,0.000000|eff|0.000000,241.699219,-902.343750,0.000000,52.368164,-8.056641
cobot_dynamixel_driver/joint_states|name|J1,J2,J3,J4,J5,J6|pos|-0.000025,0.000013,-0.000013,0.000025,0.000021,0.000041|vel|0.000000,-0.000000,0.000000,0.000000,0.000000,0.000000|eff|-32.226562,322.265625,-918.457031,0.000000,56.396484,-8.056641
cobot_dynamixel_driver/joint_states|name|J1,J2,J3,J4,J5,J6|pos|-0.000025,0.000013,-0.000013,0.000025,0.000021,0.000041|vel|0.000000,-0.000000,0.000000,0.000000,0.000000,0.000000|eff|-64.453125,306.152344,-870.117188,32.226562,52.368164,-8.056641
cobot_dynamixel_driver/joint_states|name|J1,J2,J3,J4,J5,J6|pos|-0.000025,0.000013,-0.000013,0.000025,0.000021,0.000041|vel|0.000000,-0.000000,0.000000,0.000000,0.000000,0.000000|eff|0.000000,290.039062,-902.343750,0.000000,40.283203,-8.056641
cobot_dynamixel_driver/joint_states|name|J1,J2,J3,J4,J5,J6|pos|-0.000025,0.000013,-0.000013,0.000025,0.000021,0.000041|vel|0.000000,-0.000000,0.000000,0.000000,0.000000,0.000000|eff|0.000000,290.039062,-902.343750,0.000000,40.283203,-8.056641
cobot_dynamixel_driver/joint_states|name|J1,J2,J3,J4,J5,J6|pos|-0.000025,0.000013,-0.000013,0.000025,0.000021,0.000041|vel|0.000000,-0.000000,0.000000,0.000000,0.000000,0.000000|eff|0.000000,257.812500,-902.343750,0.000000,56.396484,-8.056641
cobot_dynamixel_driver/joint_states|name|J1,J2,J3,J4,J5,J6|pos|-0.000025,0.000013,-0.000013,0.000025,0.000021,0.000041|vel|0.000000,-0.000000,0.000000,0.000000,0.000000,0.000000|eff|0.000000,386.718750,-902.343750,48.339844,56.396484,8.056641
cobot_dynamixel_driver/joint_states|name|J1,J2,J3,J4,J5,J6|pos|-0.000025,0.000013,-0.000013,0.000025,0.000021,0.000041|vel|0.000000,-0.000000,0.000000,0.000000,0.000000,0.000000|eff|0.000000,418.945312,-902.343750,0.000000,56.396484,-8.056641
cobot_dynamixel_driver/joint_states|name|J1,J2,J3,J4,J5,J6|pos|-0.000025,0.000013,-0.000013,0.000025,0.000021,0.000041|vel|0.000000,-0.000000,0.000000,0.000000,0.000000,0.000000|eff|-32.226562,418.945312,-902.343750,0.000000,56.396484,-8.056641
cobot_dynamixel_driver/joint_states|name|J1,J2,J3,J4,J5,J6|pos|-0.000025,0.000013,-0.000013,0.000025,0.000021,0.000041|vel|0.000000,-0.000000,0.000000,0.000000,0.000000,0.000000|eff|0.000000,306.152344,-854.003906,64.453125,48.339844,-8.056641
cobot_dynamixel_driver/joint_states|name|J1,J2,J3,J4,J5,J6|pos|-0.000025,0.000013,-0.000013,0.000025,0.000021,0.000041|vel|0.000000,-0.000000,0.000000,0.000000,0.000000,0.000000|eff|-48.339844,354.492188,-902.343750,0.000000,40.283203,0.000000
cobot_dynamixel_driver/joint_states|name|J1,J2,J3,J4,J5,J6|pos|-0.000025,0.000013,-0.000013,0.000025,0.000021,0.000041|vel|0.000000,-0.000000,0.000000,0.000000,0.000000,0.000000|eff|0.000000,257.812500,-902.343750,0.000000,56.396484,-8.056641
cobot_dynamixel_driver/joint_states|name|J1,J2,J3,J4,J5,J6|pos|-0.000025,0.000013,-0.000013,0.000025,0.000021,0.000041|vel|0.000000,-0.000000,0.000000,0.000000,0.000000,0.000000|eff|0.000000,322.265625,-918.457031,0.000000,52.368164,8.056641
cobot_dynamixel_driver/joint_states|name|J1,J2,J3,J4,J5,J6|pos|-0.000025,0.000013,-0.000013,0.000025,0.000021,0.000041|vel|0.000000,-0.000000,0.000000,0.000000,0.000000,0.000000|eff|0.000000,241.699219,-902.343750,64.453125,28.198242,-8.056641
cobot_dynamixel_driver/joint_states|name|J1,J2,J3,J4,J5,J6|pos|-0.000025,0.000013,-0.000013,0.000025,0.000021,0.000041|vel|0.000000,-0.000000,0.000000,0.000000,0.000000,0.000000|eff|0.000000,418.945312,-902.343750,0.000000,56.396484,-8.056641
cobot_dynamixel_driver/joint_states|name|J1,J2,J3,J4,J5,J6|pos|-0.000025,0.000013,-0.000013,0.000025,0.000021,0.000041|vel|0.000000,-0.000000,0.000000,0.000000,0.000000,0.000000|eff|0.000000,257.812500,-918.457031,0.000000,52.368164,-8.056641
cobot_dynamixel_driver/joint_states|name|J1,J2,J3,J4,J5,J6|pos|-0.000025,0.000013,-0.000013,0.000025,0.000021,0.000041|vel|0.000000,-0.000000,0.000000,0.000000,0.000000,0.000000|eff|0.000000,418.945312,-886.230469,0.000000,40.283203,-8.056641
cobot_dynamixel_driver/joint_states|name|J1,J2,J3,J4,J5,J6|pos|-0.000025,0.000013,-0.000013,0.000025,0.000021,0.000041|vel|0.000000,-0.000000,0.000000,0.000000,0.000000,0.000000|eff|-96.679688,273.925781,-902.343750,96.679688,48.339844,-8.056641
cobot_dynamixel_driver/joint_states|name|J1,J2,J3,J4,J5,J6|pos|-0.000025,0.000013,-0.000013,0.000025,0.000021,0.000041|vel|0.000000,-0.000000,0.000000,0.000000,0.000000,0.000000|eff|0.000000,273.925781,-918.457031,0.000000,56.396484,-8.056641
cobot_dynamixel_driver/joint_states|name|J1,J2,J3,J4,J5,J6|pos|-0.000025,0.000013,-0.000013,0.000025,0.000021,0.000041|vel|0.000000,-0.000000,0.000000,0.000000,0.000000,0.000000|eff|0.000000,273.925781,-886.230469,32.226562,56.396484,-8.056641
cobot_dynamixel_driver/joint_states|name|J1,J2,J3,J4,J5,J6|pos|-0.000025,0.000013,-0.000013,0.000025,0.000021,0.000041|vel|0.000000,-0.000000,0.000000,0.000000,0.000000,0.000000|eff|0.000000,241.699219,-918.457031,0.000000,32.226562,-8.056641
cobot_dynamixel_driver/joint_states|name|J1,J2,J3,J4,J5,J6|pos|-0.000025,0.000013,-0.000013,0.000025,0.000021,0.000041|vel|0.000000,-0.000000,0.000000,0.000000,0.000000,0.000000|eff|-32.226562,370.605469,-902.343750,0.000000,52.368164,8.056641
cobot_dynamixel_driver/joint_states|name|J1,J2,J3,J4,J5,J6|pos|-0.000025,0.000013,-0.000013,0.000025,0.000021,0.000041|vel|0.000000,-0.000000,0.000000,0.000000,0.000000,0.000000|eff|0.000000,241.699219,-902.343750,32.226562,52.368164,-8.056641
cobot_dynamixel_driver/joint_states|name|J1,J2,J3,J4,J5,J6|pos|-0.000025,0.000013,-0.000013,0.000025,0.000021,0.000041|vel|0.000000,-0.000000,0.000000,0.000000,0.000000,0.000000|eff|0.000000,435.058594,-902.343750,64.453125,48.339844,-8.056641
cobot_dynamixel_driver/joint_states|name|J1,J2,J3,J4,J5,J6|pos|-0.000025,0.000013,-0.000013,0.000025,0.000021,0.000041|vel|0.000000,-0.000000,0.000000,0.000000,0.000000,0.000000|eff|0.000000,306.152344,-902.343750,64.453125,52.368164,-8.056641
cobot_dynamixel_driver/joint_states|name|J1,J2,J3,J4,J5,J6|pos|-0.000025,0.000013,-0.000013,0.000025,0.000021,0.000041|vel|0.000000,-0.000000,0.000000,0.000000,0.000000,0.000000|eff|-32.226562,322.265625,-918.457031,32.226562,36.254883,-8.056641
cobot_dynamixel_driver/joint_states|name|J1,J2,J3,J4,J5,J6|pos|-0.000025,0.000013,-0.000013,0.000025,0.000021,0.000041|vel|0.000000,-0.000000,0.000000,0.000000,0.000000,0.000000|eff|-32.226562,257.812500,-902.343750,64.453125,32.226562,-8.056641
cobot_dynamixel_driver/joint_states|name|J1,J2,J3,J4,J5,J6|pos|-0.000025,0.000013,-0.000013,0.000025,0.000021,0.000041|vel|0.000000,-0.000000,0.000000,0.000000,0.000000,0.000000|eff|-64.453125,322.265625,-902.343750,96.679688,56.396484,-8.056641
cobot_dynamixel_driver/joint_states|name|J1,J2,J3,J4,J5,J6|pos|-0.000025,0.000013,-0.000013,0.000025,0.000021,0.000041|vel|0.000000,-0.000000,0.000000,0.000000,0.000000,0.000000|eff|0.000000,418.945312,-870.117188,0.000000,56.396484,-8.056641
cobot_dynamixel_driver/joint_states|name|J1,J2,J3,J4,J5,J6|pos|-0.000025,0.000013,-0.000013,0.000025,0.000021,0.000041|vel|0.000000,-0.000000,0.000000,0.000000,0.000000,0.000000|eff|0.000000,257.812500,-854.003906,96.679688,52.368164,-8.056641
cobot_dynamixel_driver/joint_states|name|J1,J2,J3,J4,J5,J6|pos|-0.000025,0.000013,-0.000013,0.000025,0.000021,0.000041|vel|0.000000,-0.000000,0.000000,0.000000,0.000000,0.000000|eff|0.000000,322.265625,-902.343750,32.226562,40.283203,-8.056641
cobot_dynamixel_driver/joint_states|name|J1,J2,J3,J4,J5,J6|pos|-0.000025,0.000013,-0.000013,0.000025,0.000021,0.000041|vel|0.000000,-0.000000,0.000000,0.000000,0.000000,0.000000|eff|-64.453125,386.718750,-902.343750,0.000000,56.396484,-8.056641
cobot_dynamixel_driver/joint_states|name|J1,J2,J3,J4,J5,J6|pos|-0.000025,0.000013,-0.000013,0.000025,0.000021,0.000041|vel|0.000000,-0.000000,0.000000,0.000000,0.000000,0.000000|eff|0.000000,257.812500,-918.457031,0.000000,56.396484,8.056641
cobot_dynamixel_driver/joint_states|name|J1,J2,J3,J4,J5,J6|pos|-0.000025,0.000013,-0.000013,0.000025,0.000021,0.000041|vel|0.000000,-0.000000,0.000000,0.000000,0.000000,0.000000|eff|0.000000,257.812500,-902.343750,0.000000,56.396484,8.056641
cobot_dynamixel_driver/joint_states|name|J1,J2,J3,J4,J5,J6|pos|-0.000025,0.000013,-0.000013,0.000025,0.000021,0.000041|vel|0.000000,-0.000000,0.000000,0.000000,0.000000,0.000000|eff|0.000000,273.925781,-918.457031,0.000000,56.396484,8.056641
cobot_dynamixel_driver/joint_states|name|J1,J2,J3,J4,J5,J6|pos|-0.000025,0.000013,-0.000013,0.000025,0.000021,0.000041|vel|0.000000,-0.000000,0.000000,0.000000,0.000000,0.000000|eff|0.000000,338.378906,-918.457031,96.679688,56.396484,-8.056641
cobot_dynamixel_driver/joint_states|name|J1,J2,J3,J4,J5,J6|pos|-0.000025,0.000013,-0.000013,0.000025,0.000021,0.000041|vel|0.000000,-0.000000,0.000000,0.000000,0.000000,0.000000|eff|0.000000,241.699219,-837.890625,0.000000,56.396484,0.000000
cobot_dynamixel_driver/joint_states|name|J1,J2,J3,J4,J5,J6|pos|-0.000025,0.000013,-0.000013,0.000025,0.000021,0.000041|vel|0.000000,-0.000000,0.000000,0.000000,0.000000,0.000000|eff|-32.226562,386.718750,-902.343750,0.000000,28.198242,-8.056641
cobot_dynamixel_driver/joint_states|name|J1,J2,J3,J4,J5,J6|pos|-0.000025,0.000013,-0.000013,0.000025,0.000021,0.000041|vel|0.000000,-0.000000,0.000000,0.000000,0.000000,0.000000|eff|0.000000,257.812500,-902.343750,64.453125,32.226562,-8.056641
cobot_dynamixel_driver/joint_states|name|J1,J2,J3,J4,J5,J6|pos|-0.000025,0.000013,-0.000013,0.000025,0.000021,0.000041|vel|0.000000,-0.000000,0.000000,0.000000,0.000000,0.000000|eff|-64.453125,338.378906,-902.343750,0.000000,48.339844,-8.056641
cobot_dynamixel_driver/joint_states|name|J1,J2,J3,J4,J5,J6|pos|-0.000025,0.000013,-0.000013,0.000025,0.000021,0.000041|vel|0.000000,-0.000000,0.000000,0.000000,0.000000,0.000000|eff|0.000000,290.039062,-918.457031,0.000000,56.396484,-8.056641
cobot_dynamixel_driver/joint_states|name|J1,J2,J3,J4,J5,J6|pos|-0.000025,0.000013,-0.000013,0.000025,0.000021,0.000041|vel|0.000000,-0.000000,0.000000,0.000000,0.000000,0.000000|eff|0.000000,273.925781,-902.343750,32.226562,56.396484,8.056641
cobot_dynamixel_driver/joint_states|name|J1,J2,J3,J4,J5,J6|pos|-0.000013,0.000013,-0.000013,0.000025,0.000021,0.000041|vel|0.000000,-0.000000,0.000000,0.000000,0.000000,0.000000|eff|0.000000,257.812500,-902.343750,0.000000,56.396484,-8.056641
cobot_dynamixel_driver/joint_states|name|J1,J2,J3,J4,J5,J6|pos|-0.000013,0.000013,-0.000013,0.000025,0.000021,0.000041|vel|0.000000,-0.000000,0.000000,0.000000,0.000000,0.000000|eff|0.000000,257.812500,-854.003906,0.000000,56.396484,-8.056641
cobot_dynamixel_driver/joint_states|name|J1,J2,J3,J4,J5,J6|pos|-0.000013,0.000013,-0.000013,0.000025,0.000021,0.000041|vel|0.000000,-0.000000,0.000000,0.000000,0.000000,0.000000|eff|0.000000,257.812500,-902.343750,0.000000,28.198242,0.000000
cobot_dynamixel_driver/joint_states|name|J1,J2,J3,J4,J5,J6|pos|-0.000013,0.000013,-0.000013,0.000025,0.000021,0.000041|vel|0.000000,-0.000000,0.000000,0.000000,0.000000,0.000000|eff|0.000000,418.945312,-902.343750,64.453125,28.198242,0.000000
cobot_dynamixel_driver/joint_states|name|J1,J2,J3,J4,J5,J6|pos|-0.000013,0.000013,-0.000013,0.000025,0.000021,0.000041|vel|0.000000,-0.000000,0.000000,0.000000,0.000000,0.000000|eff|0.000000,273.925781,-902.343750,80.566406,28.198242,8.056641
cobot_dynamixel_driver/joint_states|name|J1,J2,J3,J4,J5,J6|pos|-0.000013,0.000013,-0.000013,0.000025,0.000021,0.000041|vel|0.000000,-0.000000,0.000000,0.000000,0.000000,0.000000|eff|-32.226562,338.378906,-902.343750,0.000000,56.396484,8.056641
cobot_dynamixel_driver/joint_states|name|J1,J2,J3,J4,J5,J6|pos|-0.000013,0.000013,-0.000013,0.000025,0.000021,0.000041|vel|0.000000,-0.000000,0.000000,0.000000,0.000000,0.000000|eff|0.000000,273.925781,-870.117188,0.000000,40.283203,-8.056641
cobot_dynamixel_driver/joint_states|name|J1,J2,J3,J4,J5,J6|pos|-0.000013,0.000013,-0.000013,0.000025,0.000021,0.000041|vel|0.000000,-0.000000,0.000000,0.000000,0.000000,0.000000|eff|0.000000,257.812500,-886.230469,64.453125,56.396484,0.000000
cobot_dynamixel_driver/joint_states|name|J1,J2,J3,J4,J5,J6|pos|-0.000013,0.000013,-0.000013,0.000025,0.000021,0.000041|vel|0.000000,-0.000000,0.000000,0.000000,0.000000,0.000000|eff|0.000000,241.699219,-902.343750,96.679688,56.396484,-8.056641
cobot_dynamixel_driver/joint_states|name|J1,J2,J3,J4,J5,J6|pos|-0.000013,0.000013,-0.000013,0.000025,0.000021,0.000041|vel|0.000000,-0.000000,0.000000,0.000000,0.000000,0.000000|eff|0.000000,370.605469,-918.457031,96.679688,52.368164,8.056641
cobot_dynamixel_driver/joint_states|name|J1,J2,J3,J4,J5,J6|pos|-0.000013,0.000013,-0.000013,0.000025,0.000021,0.000041|vel|0.000000,-0.000000,0.000000,0.000000,0.000000,0.000000|eff|-32.226562,257.812500,-902.343750,0.000000,52.368164,-8.056641
cobot_dynamixel_driver/joint_states|name|J1,J2,J3,J4,J5,J6|pos|-0.000013,0.000013,-0.000013,0.000025,0.000021,0.000041|vel|0.000000,-0.000000,0.000000,0.000000,0.000000,0.000000|eff|0.000000,435.058594,-902.343750,64.453125,56.396484,0.000000
cobot_dynamixel_driver/joint_states|name|J1,J2,J3,J4,J5,J6|pos|-0.000013,0.000013,-0.000013,0.000025,0.000021,0.000041|vel|0.000000,-0.000000,0.000000,0.000000,0.000000,0.000000|eff|0.000000,322.265625,-918.457031,96.679688,56.396484,0.000000
cobot_dynamixel_driver/joint_states|name|J1,J2,J3,J4,J5,J6|pos|-0.000013,0.000013,-0.000013,0.000025,0.000021,0.000041|vel|0.000000,-0.000000,0.000000,0.000000,0.000000,0.000000|eff|0.000000,273.925781,-918.457031,80.566406,56.396484,8.056641
cobot_dynamixel_driver/joint_states|name|J1,J2,J3,J4,J5,J6|pos|-0.000013,0.000013,-0.000013,0.000025,0.000021,0.000041|vel|0.000000,-0.000000,0.000000,0.000000,0.000000,0.000000|eff|-96.679688,370.605469,-870.117188,0.000000,32.226562,-8.056641
cobot_dynamixel_driver/joint_states|name|J1,J2,J3,J4,J5,J6|pos|-0.000013,0.000013,-0.000013,0.000025,0.000021,0.000041|vel|0.000000,-0.000000,0.000000,0.000000,0.000000,0.000000|eff|0.000000,386.718750,-918.457031,0.000000,40.283203,-8.056641
cobot_dynamixel_driver/joint_states|name|J1,J2,J3,J4,J5,J6|pos|-0.000013,0.000013,-0.000013,0.000025,0.000021,0.000041|vel|0.000000,-0.000000,0.000000,0.000000,0.000000,0.000000|eff|0.000000,273.925781,-902.343750,32.226562,56.396484,-8.056641
cobot_dynamixel_driver/joint_states|name|J1,J2,J3,J4,J5,J6|pos|-0.000013,0.000013,-0.000013,0.000025,0.000021,0.000041|vel|0.000000,-0.000000,0.000000,0.000000,0.000000,0.000000|eff|0.000000,257.812500,-918.457031,0.000000,56.396484,-8.056641
cobot_dynamixel_driver/joint_states|name|J1,J2,J3,J4,J5,J6|pos|-0.000013,0.000013,-0.000013,0.000025,0.000021,0.000041|vel|0.000000,-0.000000,0.000000,0.000000,0.000000,0.000000|eff|-96.679688,273.925781,-886.230469,0.000000,52.368164,0.000000
cobot_dynamixel_driver/joint_states|name|J1,J2,J3,J4,J5,J6|pos|-0.000013,0.000013,-0.000013,0.000025,0.000021,0.000041|vel|0.000000,-0.000000,0.000000,0.000000,0.000000,0.000000|eff|0.000000,257.812500,-902.343750,64.453125,32.226562,8.056641
cobot_dynamixel_driver/joint_states|name|J1,J2,J3,J4,J5,J6|pos|-0.000013,0.000013,-0.000013,0.000025,0.000021,0.000041|vel|0.000000,-0.000000,0.000000,0.000000,0.000000,0.000000|eff|0.000000,241.699219,-886.230469,0.000000,40.283203,-8.056641
cobot_dynamixel_driver/joint_states|name|J1,J2,J3,J4,J5,J6|pos|-0.000013,0.000013,-0.000013,0.000025,0.000021,0.000041|vel|0.000000,-0.000000,0.000000,0.000000,0.000000,0.000000|eff|0.000000,354.492188,-918.457031,96.679688,48.339844,0.000000
cobot_dynamixel_driver/joint_states|name|J1,J2,J3,J4,J5,J6|pos|-0.000013,0.000013,-0.000013,0.000025,0.000021,0.000041|vel|0.000000,-0.000000,0.000000,0.000000,0.000000,0.000000|eff|0.000000,322.265625,-902.343750,0.000000,52.368164,-8.056641
cobot_dynamixel_driver/joint_states|name|J1,J2,J3,J4,J5,J6|pos|-0.000013,0.000013,-0.000013,0.000025,0.000021,0.000041|vel|0.000000,-0.000000,0.000000,0.000000,0.000000,0.000000|eff|0.000000,370.605469,-918.457031,0.000000,28.198242,-8.056641
cobot_dynamixel_driver/joint_states|name|J1,J2,J3,J4,J5,J6|pos|-0.000013,0.000013,-0.000013,0.000025,0.000021,0.000041|vel|0.000000,-0.000000,0.000000,0.000000,0.000000,0.000000|eff|-64.453125,290.039062,-886.230469,0.000000,56.396484,-8.056641
cobot_dynamixel_driver/joint_states|name|J1,J2,J3,J4,J5,J6|pos|-0.000013,0.000013,-0.000013,0.000025,0.000021,0.000041|vel|0.000000,-0.000000,0.000000,0.000000,0.000000,0.000000|eff|0.000000,354.492188,-902.343750,0.000000,40.283203,-8.056641
cobot_dynamixel_driver/joint_states|name|J1,J2,J3,J4,J5,J6|pos|-0.000013,0.000013,-0.000013,0.000025,0.000021,0.000041|vel|0.000000,-0.000000,0.000000,0.000000,0.000000,0.000000|eff|0.000000,386.718750,-918.457031,64.453125,28.198242,-8.056641
cobot_dynamixel_driver/joint_states|name|J1,J2,J3,J4,J5,J6|pos|-0.000013,0.000013,-0.000013,0.000025,0.000021,0.000041|vel|0.000000,-0.000000,0.000000,0.000000,0.000000,0.000000|eff|0.000000,257.812500,-902.343750,64.453125,56.396484,-8.056641
cobot_dynamixel_driver/joint_states|name|J1,J2,J3,J4,J5,J6|pos|-0.000013,0.000013,-0.000013,0.000025,0.000021,0.000041|vel|0.000000,-0.000000,0.000000,0.000000,0.000000,0.000000|eff|0.000000,322.265625,-918.457031,32.226562,56.396484,-8.056641
cobot_dynamixel_driver/joint_states|name|J1,J2,J3,J4,J5,J6|pos|-0.000013,0.000013,-0.000013,0.000025,0.000021,0.000041|vel|0.000000,-0.000000,0.000000,0.000000,0.000000,0.000000|eff|0.000000,338.378906,-902.343750,64.453125,48.339844,-8.056641
cobot_dynamixel_driver/joint_states|name|J1,J2,J3,J4,J5,J6|pos|-0.000013,0.000013,-0.000013,0.000025,0.000021,0.000041|vel|0.000000,-0.000000,0.000000,0.000000,0.000000,0.000000|eff|-64.453125,273.925781,-902.343750,0.000000,40.283203,-8.056641
cobot_dynamixel_driver/joint_states|name|J1,J2,J3,J4,J5,J6|pos|-0.000013,0.000013,-0.000013,0.000025,0.000021,0.000041|vel|0.000000,-0.000000,0.000000,0.000000,0.000000,0.000000|eff|0.000000,418.945312,-870.117188,0.000000,40.283203,-8.056641
cobot_dynamixel_driver/joint_states|name|J1,J2,J3,J4,J5,J6|pos|-0.000013,0.000013,-0.000013,0.000025,0.000021,0.000041|vel|0.000000,-0.000000,0.000000,0.000000,0.000000,0.000000|eff|0.000000,322.265625,-918.457031,80.566406,56.396484,-8.056641
cobot_dynamixel_driver/joint_states|name|J1,J2,J3,J4,J5,J6|pos|-0.000013,0.000013,-0.000013,0.000025,0.000021,0.000041|vel|0.000000,-0.000000,0.000000,0.000000,0.000000,0.000000|eff|0.000000,322.265625,-902.343750,64.453125,52.368164,-8.056641
cobot_dynamixel_driver/joint_states|name|J1,J2,J3,J4,J5,J6|pos|-0.000013,0.000013,-0.000013,0.000025,0.000021,0.000041|vel|0.000000,-0.000000,0.000000,0.000000,0.000000,0.000000|eff|0.000000,257.812500,-918.457031,80.566406,56.396484,-8.056641
cobot_dynamixel_driver/joint_states|name|J1,J2,J3,J4,J5,J6|pos|-0.000013,0.000013,-0.000013,0.000025,0.000021,0.000041|vel|0.000000,-0.000000,0.000000,0.000000,0.000000,0.000000|eff|0.000000,241.699219,-918.457031,0.000000,52.368164,8.056641
cobot_dynamixel_driver/joint_states|name|J1,J2,J3,J4,J5,J6|pos|-0.000013,0.000013,-0.000013,0.000025,0.000021,0.000041|vel|0.000000,-0.000000,0.000000,0.000000,0.000000,0.000000|eff|0.000000,241.699219,-918.457031,64.453125,56.396484,-8.056641
cobot_dynamixel_driver/joint_states|name|J1,J2,J3,J4,J5,J6|pos|-0.000013,0.000013,-0.000013,0.000025,0.000021,0.000041|vel|0.000000,-0.000000,0.000000,0.000000,0.000000,0.000000|eff|0.000000,322.265625,-870.117188,64.453125,28.198242,-8.056641
cobot_dynamixel_driver/joint_states|name|J1,J2,J3,J4,J5,J6|pos|-0.000013,0.000013,-0.000013,0.000025,0.000021,0.000041|vel|0.000000,-0.000000,0.000000,0.000000,0.000000,0.000000|eff|0.000000,386.718750,-918.457031,0.000000,56.396484,-8.056641
cobot_dynamixel_driver/joint_states|name|J1,J2,J3,J4,J5,J6|pos|-0.000013,0.000013,-0.000013,0.000025,0.000021,0.000041|vel|0.000000,-0.000000,0.000000,0.000000,0.000000,0.000000|eff|0.000000,257.812500,-918.457031,0.000000,32.226562,-8.056641
cobot_dynamixel_driver/joint_states|name|J1,J2,J3,J4,J5,J6|pos|-0.000013,0.000013,-0.000013,0.000025,0.000021,0.000041|vel|0.000000,-0.000000,0.000000,0.000000,0.000000,0.000000|eff|0.000000,257.812500,-918.457031,96.679688,40.283203,-8.056641
cobot_dynamixel_driver/joint_states|name|J1,J2,J3,J4,J5,J6|pos|-0.000013,0.000013,-0.000013,0.000025,0.000021,0.000041|vel|0.000000,-0.000000,0.000000,0.000000,0.000000,0.000000|eff|0.000000,322.265625,-902.343750,0.000000,40.283203,-8.056641
cobot_dynamixel_driver/joint_states|name|J1,J2,J3,J4,J5,J6|pos|-0.000013,0.000013,-0.000013,0.000025,0.000021,0.000041|vel|0.000000,-0.000000,0.000000,0.000000,0.000000,0.000000|eff|0.000000,241.699219,-902.343750,64.453125,56.396484,-8.056641
cobot_dynamixel_driver/joint_states|name|J1,J2,J3,J4,J5,J6|pos|-0.000013,0.000013,-0.000013,0.000025,0.000021,0.000041|vel|0.000000,-0.000000,0.000000,0.000000,0.000000,0.000000|eff|-32.226562,418.945312,-902.343750,96.679688,40.283203,0.000000
cobot_dynamixel_driver/joint_states|name|J1,J2,J3,J4,J5,J6|pos|-0.000013,0.000013,-0.000013,0.000025,0.000021,0.000041|vel|0.000000,-0.000000,0.000000,0.000000,0.000000,0.000000|eff|0.000000,370.605469,-918.457031,0.000000,56.396484,0.000000
cobot_dynamixel_driver/joint_states|name|J1,J2,J3,J4,J5,J6|pos|-0.000013,0.000013,-0.000013,0.000025,0.000021,0.000041|vel|0.000000,-0.000000,0.000000,0.000000,0.000000,0.000000|eff|0.000000,273.925781,-918.457031,0.000000,52.368164,-8.056641
cobot_dynamixel_driver/joint_states|name|J1,J2,J3,J4,J5,J6|pos|-0.000013,0.000013,-0.000013,0.000025,0.000021,0.000041|vel|0.000000,-0.000000,0.000000,0.000000,0.000000,0.000000|eff|-96.679688,273.925781,-918.457031,32.226562,40.283203,-8.056641
cobot_dynamixel_driver/joint_states|name|J1,J2,J3,J4,J5,J6|pos|-0.000013,0.000013,-0.000013,0.000025,0.000021,0.000041|vel|0.000000,-0.000000,0.000000,0.000000,0.000000,0.000000|eff|0.000000,290.039062,-902.343750,64.453125,48.339844,-8.056641
cobot_dynamixel_driver/joint_states|name|J1,J2,J3,J4,J5,J6|pos|-0.000013,0.000013,-0.000013,0.000025,0.000021,0.000041|vel|0.000000,-0.000000,0.000000,0.000000,0.000000,0.000000|eff|0.000000,257.812500,-886.230469,0.000000,52.368164,-8.056641
cobot_dynamixel_driver/joint_states|name|J1,J2,J3,J4,J5,J6|pos|-0.000013,0.000013,-0.000013,0.000025,0.000021,0.000041|vel|0.000000,-0.000000,0.000000,0.000000,0.000000,0.000000|eff|0.000000,273.925781,-854.003906,0.000000,52.368164,-8.056641
cobot_dynamixel_driver/joint_states|name|J1,J2,J3,J4,J5,J6|pos|-0.000013,0.000013,-0.000013,0.000025,0.000021,0.000041|vel|0.000000,-0.000000,0.000000,0.000000,0.000000,0.000000|eff|0.000000,241.699219,-902.343750,0.000000,52.368164,-8.056641
cobot_dynamixel_driver/joint_states|name|J1,J2,J3,J4,J5,J6|pos|-0.000013,0.000013,-0.000013,0.000025,0.000021,0.000041|vel|0.000000,-0.000000,0.000000,0.000000,0.000000,0.000000|eff|-80.566406,322.265625,-918.457031,0.000000,52.368164,-8.056641
cobot_dynamixel_driver/joint_states|name|J1,J2,J3,J4,J5,J6|pos|-0.000013,0.000013,-0.000013,0.000025,0.000021,0.000041|vel|0.000000,-0.000000,0.000000,0.000000,0.000000,0.000000|eff|-80.566406,418.945312,-886.230469,0.000000,32.226562,-8.056641
cobot_dynamixel_driver/joint_states|name|J1,J2,J3,J4,J5,J6|pos|-0.000013,0.000013,-0.000013,0.000025,0.000021,0.000041|vel|0.000000,-0.000000,0.000000,0.000000,0.000000,0.000000|eff|-32.226562,257.812500,-918.457031,0.000000,28.198242,-8.056641
cobot_dynamixel_driver/joint_states|name|J1,J2,J3,J4,J5,J6|pos|-0.000013,0.000013,-0.000013,0.000025,0.000021,0.000041|vel|0.000000,-0.000000,0.000000,0.000000,0.000000,0.000000|eff|0.000000,241.699219,-918.457031,0.000000,52.368164,0.000000
cobot_dynamixel_driver/joint_states|name|J1,J2,J3,J4,J5,J6|pos|-0.000013,0.000013,-0.000013,0.000025,0.000021,0.000041|vel|0.000000,-0.000000,0.000000,0.000000,0.000000,0.000000|eff|-80.566406,322.265625,-918.457031,0.000000,52.368164,-8.056641
cobot_dynamixel_driver/joint_states|name|J1,J2,J3,J4,J5,J6|pos|-0.000013,0.000013,-0.000013,0.000025,0.000021,0.000041|vel|0.000000,-0.000000,0.000000,0.000000,0.000000,0.000000|eff|0.000000,257.812500,-902.343750,0.000000,48.339844,0.000000
cobot_dynamixel_driver/joint_states|name|J1,J2,J3,J4,J5,J6|pos|-0.000013,0.000013,-0.000013,0.000025,0.000021,0.000041|vel|0.000000,-0.000000,0.000000,0.000000,0.000000,0.000000|eff|0.000000,241.699219,-886.230469,96.679688,52.368164,8.056641
cobot_dynamixel_driver/joint_states|name|J1,J2,J3,J4,J5,J6|pos|-0.000013,0.000013,-0.000013,0.000025,0.000021,0.000041|vel|0.000000,-0.000000,0.000000,0.000000,0.000000,0.000000|eff|0.000000,290.039062,-918.457031,0.000000,52.368164,-8.056641
cobot_dynamixel_driver/joint_states|name|J1,J2,J3,J4,J5,J6|pos|-0.000013,0.000013,-0.000013,0.000025,0.000021,0.000041|vel|0.000000,-0.000000,0.000000,0.000000,0.000000,0.000000|eff|0.000000,386.718750,-918.457031,0.000000,56.396484,-8.056641
cobot_dynamixel_driver/joint_states|name|J1,J2,J3,J4,J5,J6|pos|-0.000013,0.000013,-0.000013,0.000025,0.000021,0.000041|vel|0.000000,-0.000000,0.000000,0.000000,0.000000,0.000000|eff|0.000000,257.812500,-886.230469,64.453125,56.396484,0.000000
cobot_dynamixel_driver/joint_states|name|J1,J2,J3,J4,J5,J6|pos|-0.000013,0.000013,-0.000013,0.000025,0.000021,0.000041|vel|0.000000,-0.000000,0.000000,0.000000,0.000000,0.000000|eff|-80.566406,306.152344,-902.343750,64.453125,40.283203,-8.056641
cobot_dynamixel_driver/joint_states|name|J1,J2,J3,J4,J5,J6|pos|-0.000013,0.000013,-0.000013,0.000025,0.000021,0.000041|vel|0.000000,-0.000000,0.000000,0.000000,0.000000,0.000000|eff|0.000000,290.039062,-902.343750,96.679688,56.396484,-8.056641
cobot_dynamixel_driver/joint_states|name|J1,J2,J3,J4,J5,J6|pos|-0.000013,0.000013,-0.000013,0.000025,0.000021,0.000041|vel|0.000000,-0.000000,0.000000,0.000000,0.000000,0.000000|eff|0.000000,418.945312,-902.343750,96.679688,52.368164,-8.056641
cobot_dynamixel_driver/joint_states|name|J1,J2,J3,J4,J5,J6|pos|-0.000013,0.000013,-0.000013,0.000025,0.000021,0.000041|vel|0.000000,-0.000000,0.000000,0.000000,0.000000,0.000000|eff|0.000000,322.265625,-886.230469,0.000000,52.368164,-8.056641
cobot_dynamixel_driver/joint_states|name|J1,J2,J3,J4,J5,J6|pos|-0.000013,0.000013,-0.000013,0.000025,0.000021,0.000041|vel|0.000000,-0.000000,0.000000,0.000000,0.000000,0.000000|eff|0.000000,241.699219,-902.343750,0.000000,48.339844,8.056641
cobot_dynamixel_driver/joint_states|name|J1,J2,J3,J4,J5,J6|pos|-0.000013,0.000013,-0.000013,0.000025,0.000021,0.000041|vel|0.000000,-0.000000,0.000000,0.000000,0.000000,0.000000|eff|-64.453125,241.699219,-918.457031,0.000000,56.396484,0.000000
cobot_dynamixel_driver/joint_states|name|J1,J2,J3,J4,J5,J6|pos|-0.000013,0.000013,-0.000013,0.000025,0.000021,0.000041|vel|0.000000,-0.000000,0.000000,0.000000,0.000000,0.000000|eff|0.000000,241.699219,-902.343750,0.000000,56.396484,-8.056641
