surachairobotic/cobot/cobot_dynamixel_driver/log/2018-12-07T07:18:01.904029_driver_log.txt
cobot_dynamixel_driver/joint_states|name|J1,J2,J3,J4,J5,J6|pos|0.000839,-1.268785,1.294497,0.002216,-1.164049,-0.000083|vel|0.000000,-0.000000,0.000000,0.000000,0.000000,0.000000|eff|0.000000,0.000000,0.000000,0.000000,0.000000,0.000000
cobot_dynamixel_driver/joint_states|name|J1,J2,J3,J4,J5,J6|pos|0.000839,-1.268785,1.294497,0.002216,-1.164049,-0.000083|vel|0.000000,-0.000000,0.000000,0.000000,0.000000,0.000000|eff|0.000000,0.000000,0.000000,0.000000,0.000000,0.000000
cobot_dynamixel_driver/joint_states|name|J1,J2,J3,J4,J5,J6|pos|0.000839,-1.268785,1.294497,0.002216,-1.164049,-0.000083|vel|0.000000,-0.000000,0.000000,0.000000,0.000000,0.000000|eff|0.000000,0.000000,0.000000,0.000000,0.000000,0.000000
cobot_dynamixel_driver/joint_states|name|J1,J2,J3,J4,J5,J6|pos|0.000839,-1.268785,1.294497,0.002216,-1.164049,-0.000083|vel|0.000000,-0.000000,0.000000,0.000000,0.000000,0.000000|eff|0.000000,0.000000,0.000000,0.000000,0.000000,0.000000
cobot_dynamixel_driver/joint_states|name|J1,J2,J3,J4,J5,J6|pos|0.000839,-1.268785,1.294497,0.002216,-1.164049,-0.000083|vel|0.000000,-0.000000,0.000000,0.000000,0.000000,0.000000|eff|0.000000,0.000000,0.000000,0.000000,0.000000,0.000000
cobot_dynamixel_driver/joint_states|name|J1,J2,J3,J4,J5,J6|pos|0.000839,-1.268785,1.294497,0.002216,-1.164049,-0.000083|vel|0.000000,-0.000000,0.000000,0.000000,0.000000,0.000000|eff|0.000000,0.000000,0.000000,0.000000,0.000000,0.000000
cobot_dynamixel_driver/joint_states|name|J1,J2,J3,J4,J5,J6|pos|0.000839,-1.268785,1.294497,0.002216,-1.164049,-0.000083|vel|0.000000,-0.000000,0.000000,0.000000,0.000000,0.000000|eff|0.000000,0.000000,0.000000,0.000000,0.000000,0.000000
cobot_dynamixel_driver/joint_states|name|J1,J2,J3,J4,J5,J6|pos|0.000839,-1.268785,1.294497,0.002216,-1.164049,-0.000083|vel|0.000000,-0.000000,0.000000,0.000000,0.000000,0.000000|eff|0.000000,0.000000,0.000000,0.000000,0.000000,0.000000
cobot_dynamixel_driver/joint_states|name|J1,J2,J3,J4,J5,J6|pos|0.000839,-1.268785,1.294497,0.002216,-1.164049,-0.000083|vel|0.000000,-0.000000,0.000000,0.000000,0.000000,0.000000|eff|0.000000,0.000000,0.000000,0.000000,0.000000,0.000000
cobot_dynamixel_driver/joint_states|name|J1,J2,J3,J4,J5,J6|pos|0.000839,-1.268785,1.294497,0.002216,-1.164049,-0.000083|vel|0.000000,-0.000000,0.000000,0.000000,0.000000,0.000000|eff|0.000000,0.000000,0.000000,0.000000,0.000000,0.000000
cobot_dynamixel_driver/joint_states|name|J1,J2,J3,J4,J5,J6|pos|0.000839,-1.268785,1.294497,0.002216,-1.164049,-0.000083|vel|0.000000,-0.000000,0.000000,0.000000,0.000000,0.000000|eff|0.000000,0.000000,0.000000,0.000000,0.000000,0.000000
cobot_dynamixel_driver/joint_states|name|J1,J2,J3,J4,J5,J6|pos|0.000839,-1.268785,1.294497,0.002216,-1.164049,-0.000083|vel|0.000000,-0.000000,0.000000,0.000000,0.000000,0.000000|eff|0.000000,0.000000,0.000000,0.000000,0.000000,0.000000
cobot_dynamixel_driver/joint_states|name|J1,J2,J3,J4,J5,J6|pos|0.000839,-1.268785,1.294497,0.002216,-1.164049,-0.000083|vel|0.000000,-0.000000,0.000000,0.000000,0.000000,0.000000|eff|0.000000,0.000000,0.000000,0.000000,0.000000,0.000000
cobot_dynamixel_driver/joint_states|name|J1,J2,J3,J4,J5,J6|pos|0.000839,-1.268785,1.294497,0.002216,-1.164049,-0.000083|vel|0.000000,-0.000000,0.000000,0.000000,0.000000,0.000000|eff|0.000000,0.000000,0.000000,0.000000,0.000000,0.000000
cobot_dynamixel_driver/joint_states|name|J1,J2,J3,J4,J5,J6|pos|0.000839,-1.268785,1.294497,0.002216,-1.164049,-0.000083|vel|0.000000,-0.000000,0.000000,0.000000,0.000000,0.000000|eff|0.000000,0.000000,0.000000,0.000000,0.000000,0.000000
cobot_dynamixel_driver/joint_states|name|J1,J2,J3,J4,J5,J6|pos|0.000839,-1.268785,1.294497,0.002216,-1.164049,-0.000083|vel|0.000000,-0.000000,0.000000,0.000000,0.000000,0.000000|eff|0.000000,0.000000,0.000000,0.000000,0.000000,0.000000
cobot_dynamixel_driver/joint_states|name|J1,J2,J3,J4,J5,J6|pos|0.000839,-1.268785,1.294497,0.002216,-1.164049,-0.000083|vel|0.000000,-0.000000,0.000000,0.000000,0.000000,0.000000|eff|0.000000,0.000000,0.000000,0.000000,0.000000,0.000000
cobot_dynamixel_driver/joint_states|name|J1,J2,J3,J4,J5,J6|pos|0.000839,-1.268785,1.294497,0.002216,-1.164049,-0.000083|vel|0.000000,-0.000000,0.000000,0.000000,0.000000,0.000000|eff|0.000000,0.000000,0.000000,0.000000,0.000000,0.000000
cobot_dynamixel_driver/joint_states|name|J1,J2,J3,J4,J5,J6|pos|0.000839,-1.268785,1.294497,0.002216,-1.164049,-0.000083|vel|0.000000,-0.000000,0.000000,0.000000,0.000000,0.000000|eff|0.000000,0.000000,0.000000,0.000000,0.000000,0.000000
cobot_dynamixel_driver/joint_states|name|J1,J2,J3,J4,J5,J6|pos|0.000839,-1.268785,1.294497,0.002216,-1.164049,-0.000083|vel|0.000000,-0.000000,0.000000,0.000000,0.000000,0.000000|eff|0.000000,0.000000,0.000000,0.000000,0.000000,0.000000
cobot_dynamixel_driver/joint_states|name|J1,J2,J3,J4,J5,J6|pos|0.000839,-1.268785,1.294497,0.002216,-1.164049,-0.000083|vel|0.000000,-0.000000,0.000000,0.000000,0.000000,0.000000|eff|0.000000,0.000000,0.000000,0.000000,0.000000,0.000000
cobot_dynamixel_driver/joint_states|name|J1,J2,J3,J4,J5,J6|pos|0.000839,-1.268785,1.294497,0.002216,-1.164049,-0.000083|vel|0.000000,-0.000000,0.000000,0.000000,0.000000,0.000000|eff|0.000000,0.000000,0.000000,0.000000,0.000000,0.000000
cobot_dynamixel_driver/joint_states|name|J1,J2,J3,J4,J5,J6|pos|0.000839,-1.268785,1.294497,0.002216,-1.164049,-0.000083|vel|0.000000,-0.000000,0.000000,0.000000,0.000000,0.000000|eff|0.000000,0.000000,0.000000,0.000000,0.000000,0.000000
cobot_dynamixel_driver/joint_states|name|J1,J2,J3,J4,J5,J6|pos|0.000839,-1.268785,1.294497,0.002216,-1.164049,-0.000083|vel|0.000000,-0.000000,0.000000,0.000000,0.000000,0.000000|eff|0.000000,0.000000,0.000000,0.000000,0.000000,0.000000
cobot_dynamixel_driver/joint_states|name|J1,J2,J3,J4,J5,J6|pos|0.000839,-1.268785,1.294497,0.002216,-1.164049,-0.000083|vel|0.000000,-0.000000,0.000000,0.000000,0.000000,0.000000|eff|0.000000,0.000000,0.000000,0.000000,0.000000,0.000000
cobot_dynamixel_driver/joint_states|name|J1,J2,J3,J4,J5,J6|pos|0.000839,-1.268785,1.294497,0.002216,-1.164049,-0.000083|vel|0.000000,-0.000000,0.000000,0.000000,0.000000,0.000000|eff|0.000000,0.000000,0.000000,0.000000,0.000000,0.000000
cobot_dynamixel_driver/joint_states|name|J1,J2,J3,J4,J5,J6|pos|0.000839,-1.268785,1.294497,0.002216,-1.164049,-0.000083|vel|0.000000,-0.000000,0.000000,0.000000,0.000000,0.000000|eff|0.000000,0.000000,0.000000,0.000000,0.000000,0.000000
cobot_dynamixel_driver/joint_states|name|J1,J2,J3,J4,J5,J6|pos|0.000839,-1.268785,1.294497,0.002216,-1.164049,-0.000083|vel|0.000000,-0.000000,0.000000,0.000000,0.000000,0.000000|eff|0.000000,0.000000,0.000000,0.000000,0.000000,0.000000
cobot_dynamixel_driver/joint_states|name|J1,J2,J3,J4,J5,J6|pos|0.000839,-1.268785,1.294497,0.002216,-1.164049,-0.000083|vel|0.000000,-0.000000,0.000000,0.000000,0.000000,0.000000|eff|0.000000,0.000000,0.000000,0.000000,0.000000,0.000000
cobot_dynamixel_driver/joint_states|name|J1,J2,J3,J4,J5,J6|pos|0.000839,-1.268785,1.294497,0.002216,-1.164049,-0.000083|vel|0.000000,-0.000000,0.000000,0.000000,0.000000,0.000000|eff|0.000000,0.000000,0.000000,0.000000,0.000000,0.000000
cobot_dynamixel_driver/joint_states|name|J1,J2,J3,J4,J5,J6|pos|0.000839,-1.268785,1.294497,0.002216,-1.164049,-0.000083|vel|0.000000,-0.000000,0.000000,0.000000,0.000000,0.000000|eff|0.000000,0.000000,0.000000,0.000000,0.000000,0.000000
cobot_dynamixel_driver/joint_states|name|J1,J2,J3,J4,J5,J6|pos|0.000839,-1.268785,1.294497,0.002216,-1.164049,-0.000083|vel|0.000000,-0.000000,0.000000,0.000000,0.000000,0.000000|eff|0.000000,0.000000,0.000000,0.000000,0.000000,0.000000
cobot_dynamixel_driver/joint_states|name|J1,J2,J3,J4,J5,J6|pos|0.000839,-1.268785,1.294497,0.002216,-1.164049,-0.000083|vel|0.000000,-0.000000,0.000000,0.000000,0.000000,0.000000|eff|0.000000,0.000000,0.000000,0.000000,0.000000,0.000000
cobot_dynamixel_driver/joint_states|name|J1,J2,J3,J4,J5,J6|pos|0.000839,-1.268785,1.294497,0.002216,-1.164049,-0.000083|vel|0.000000,-0.000000,0.000000,0.000000,0.000000,0.000000|eff|0.000000,0.000000,0.000000,0.000000,0.000000,0.000000
cobot_dynamixel_driver/joint_states|name|J1,J2,J3,J4,J5,J6|pos|0.000839,-1.268785,1.294497,0.002216,-1.164049,-0.000083|vel|0.000000,-0.000000,0.000000,0.000000,0.000000,0.000000|eff|0.000000,0.000000,0.000000,0.000000,0.000000,0.000000
cobot_dynamixel_driver/joint_states|name|J1,J2,J3,J4,J5,J6|pos|0.000839,-1.268785,1.294497,0.002216,-1.164049,-0.000083|vel|0.000000,-0.000000,0.000000,0.000000,0.000000,0.000000|eff|0.000000,0.000000,0.000000,0.000000,0.000000,0.000000
cobot_dynamixel_driver/joint_states|name|J1,J2,J3,J4,J5,J6|pos|0.000839,-1.268785,1.294497,0.002216,-1.164049,-0.000083|vel|0.000000,-0.000000,0.000000,0.000000,0.000000,0.000000|eff|0.000000,0.000000,0.000000,0.000000,0.000000,0.000000
cobot_dynamixel_driver/joint_states|name|J1,J2,J3,J4,J5,J6|pos|0.000839,-1.268785,1.294497,0.002216,-1.164049,-0.000083|vel|0.000000,-0.000000,0.000000,0.000000,0.000000,0.000000|eff|0.000000,0.000000,0.000000,0.000000,0.000000,0.000000
cobot_dynamixel_driver/joint_states|name|J1,J2,J3,J4,J5,J6|pos|0.000839,-1.268785,1.294497,0.002216,-1.164049,-0.000083|vel|0.000000,-0.000000,0.000000,0.000000,0.000000,0.000000|eff|0.000000,0.000000,0.000000,0.000000,0.000000,0.000000
cobot_dynamixel_driver/joint_states|name|J1,J2,J3,J4,J5,J6|pos|0.000839,-1.268785,1.294497,0.002216,-1.164049,-0.000083|vel|0.000000,-0.000000,0.000000,0.000000,0.000000,0.000000|eff|0.000000,0.000000,0.000000,0.000000,0.000000,0.000000
cobot_dynamixel_driver/joint_states|name|J1,J2,J3,J4,J5,J6|pos|0.000839,-1.268785,1.294497,0.002216,-1.164049,-0.000083|vel|0.000000,-0.000000,0.000000,0.000000,0.000000,0.000000|eff|0.000000,0.000000,0.000000,0.000000,0.000000,0.000000
cobot_dynamixel_driver/joint_states|name|J1,J2,J3,J4,J5,J6|pos|0.000839,-1.268785,1.294497,0.002216,-1.164049,-0.000083|vel|0.000000,-0.000000,0.000000,0.000000,0.000000,0.000000|eff|0.000000,0.000000,0.000000,0.000000,0.000000,0.000000
cobot_dynamixel_driver/joint_states|name|J1,J2,J3,J4,J5,J6|pos|0.000839,-1.268785,1.294497,0.002216,-1.164049,-0.000083|vel|0.000000,-0.000000,0.000000,0.000000,0.000000,0.000000|eff|0.000000,0.000000,0.000000,0.000000,0.000000,0.000000
cobot_dynamixel_driver/joint_states|name|J1,J2,J3,J4,J5,J6|pos|0.000839,-1.268785,1.294497,0.002216,-1.164049,-0.000083|vel|0.000000,-0.000000,0.000000,0.000000,0.000000,0.000000|eff|0.000000,0.000000,0.000000,0.000000,0.000000,0.000000
cobot_dynamixel_driver/joint_states|name|J1,J2,J3,J4,J5,J6|pos|0.000839,-1.268785,1.294497,0.002216,-1.164049,-0.000083|vel|0.000000,-0.000000,0.000000,0.000000,0.000000,0.000000|eff|0.000000,0.000000,0.000000,0.000000,0.000000,0.000000
cobot_dynamixel_driver/joint_states|name|J1,J2,J3,J4,J5,J6|pos|0.000839,-1.268785,1.294497,0.002216,-1.164049,-0.000083|vel|0.000000,-0.000000,0.000000,0.000000,0.000000,0.000000|eff|0.000000,0.000000,0.000000,0.000000,0.000000,0.000000
cobot_dynamixel_driver/joint_states|name|J1,J2,J3,J4,J5,J6|pos|0.000839,-1.268785,1.294497,0.002216,-1.164049,-0.000083|vel|0.000000,-0.000000,0.000000,0.000000,0.000000,0.000000|eff|0.000000,0.000000,0.000000,0.000000,0.000000,0.000000
cobot_dynamixel_driver/joint_states|name|J1,J2,J3,J4,J5,J6|pos|0.000839,-1.268785,1.294497,0.002216,-1.164049,-0.000083|vel|0.000000,-0.000000,0.000000,0.000000,0.000000,0.000000|eff|0.000000,0.000000,0.000000,0.000000,0.000000,0.000000
cobot_dynamixel_driver/joint_states|name|J1,J2,J3,J4,J5,J6|pos|0.000839,-1.268785,1.294497,0.002216,-1.164049,-0.000083|vel|0.000000,-0.000000,0.000000,0.000000,0.000000,0.000000|eff|0.000000,0.000000,0.000000,0.000000,0.000000,0.000000
cobot_dynamixel_driver/joint_states|name|J1,J2,J3,J4,J5,J6|pos|0.000839,-1.268785,1.294497,0.002216,-1.164049,-0.000083|vel|0.000000,-0.000000,0.000000,0.000000,0.000000,0.000000|eff|0.000000,-32.226562,0.000000,0.000000,0.000000,0.000000
cobot_dynamixel_driver/joint_states|name|J1,J2,J3,J4,J5,J6|pos|0.000839,-1.268785,1.294497,0.002216,-1.164049,-0.000083|vel|0.000000,-0.000000,0.000000,0.000000,0.000000,0.000000|eff|0.000000,0.000000,0.000000,0.000000,0.000000,0.000000
cobot_dynamixel_driver/joint_states|name|J1,J2,J3,J4,J5,J6|pos|0.000839,-1.268785,1.294497,0.002216,-1.164049,-0.000083|vel|0.000000,-0.000000,0.000000,0.000000,0.000000,0.000000|eff|0.000000,0.000000,0.000000,0.000000,0.000000,0.000000
cobot_dynamixel_driver/joint_states|name|J1,J2,J3,J4,J5,J6|pos|0.000839,-1.268785,1.294497,0.002216,-1.164049,-0.000083|vel|0.000000,-0.000000,0.000000,0.000000,0.000000,0.000000|eff|0.000000,0.000000,0.000000,0.000000,0.000000,0.000000
cobot_dynamixel_driver/joint_states|name|J1,J2,J3,J4,J5,J6|pos|0.000839,-1.268785,1.294497,0.002216,-1.164049,-0.000083|vel|0.000000,-0.000000,0.000000,0.000000,0.000000,0.000000|eff|0.000000,0.000000,0.000000,0.000000,0.000000,0.000000
cobot_dynamixel_driver/joint_states|name|J1,J2,J3,J4,J5,J6|pos|0.000839,-1.268785,1.294497,0.002216,-1.164049,-0.000083|vel|0.000000,-0.000000,0.000000,0.000000,0.000000,0.000000|eff|0.000000,0.000000,0.000000,0.000000,0.000000,0.000000
cobot_dynamixel_driver/joint_states|name|J1,J2,J3,J4,J5,J6|pos|0.000839,-1.268785,1.294497,0.002216,-1.164049,-0.000083|vel|0.000000,-0.000000,0.000000,0.000000,0.000000,0.000000|eff|0.000000,0.000000,0.000000,0.000000,0.000000,0.000000
cobot_dynamixel_driver/joint_states|name|J1,J2,J3,J4,J5,J6|pos|0.000839,-1.268785,1.294497,0.002216,-1.164049,-0.000083|vel|0.000000,-0.000000,0.000000,0.000000,0.000000,0.000000|eff|0.000000,0.000000,0.000000,0.000000,0.000000,0.000000
cobot_dynamixel_driver/joint_states|name|J1,J2,J3,J4,J5,J6|pos|0.000839,-1.268785,1.294497,0.002216,-1.164049,-0.000083|vel|0.000000,-0.000000,0.000000,0.000000,0.000000,0.000000|eff|0.000000,0.000000,0.000000,0.000000,0.000000,0.000000
cobot_dynamixel_driver/joint_states|name|J1,J2,J3,J4,J5,J6|pos|0.000839,-1.268785,1.294497,0.002216,-1.164049,-0.000083|vel|0.000000,-0.000000,0.000000,0.000000,0.000000,0.000000|eff|0.000000,0.000000,0.000000,0.000000,0.000000,0.000000
cobot_dynamixel_driver/joint_states|name|J1,J2,J3,J4,J5,J6|pos|0.000839,-1.268785,1.294497,0.002216,-1.164049,-0.000083|vel|0.000000,-0.000000,0.000000,0.000000,0.000000,0.000000|eff|0.000000,0.000000,0.000000,0.000000,0.000000,0.000000
cobot_dynamixel_driver/joint_states|name|J1,J2,J3,J4,J5,J6|pos|0.000839,-1.268785,1.294497,0.002216,-1.164049,-0.000083|vel|0.000000,-0.000000,0.000000,0.000000,0.000000,0.000000|eff|0.000000,0.000000,0.000000,0.000000,0.000000,0.000000
cobot_dynamixel_driver/joint_states|name|J1,J2,J3,J4,J5,J6|pos|0.000839,-1.268785,1.294497,0.002216,-1.164049,-0.000083|vel|0.000000,-0.000000,0.000000,0.000000,0.000000,0.000000|eff|0.000000,0.000000,0.000000,0.000000,0.000000,0.000000
cobot_dynamixel_driver/joint_states|name|J1,J2,J3,J4,J5,J6|pos|0.000839,-1.268785,1.294497,0.002216,-1.164049,-0.000083|vel|0.000000,-0.000000,0.000000,0.000000,0.000000,0.000000|eff|0.000000,0.000000,0.000000,0.000000,0.000000,0.000000
cobot_dynamixel_driver/joint_states|name|J1,J2,J3,J4,J5,J6|pos|0.000839,-1.268785,1.294497,0.002216,-1.164049,-0.000083|vel|0.000000,-0.000000,0.000000,0.000000,0.000000,0.000000|eff|0.000000,0.000000,0.000000,0.000000,0.000000,0.000000
cobot_dynamixel_driver/joint_states|name|J1,J2,J3,J4,J5,J6|pos|0.000839,-1.268785,1.294497,0.002216,-1.164049,-0.000083|vel|0.000000,-0.000000,0.000000,0.000000,0.000000,0.000000|eff|0.000000,0.000000,0.000000,0.000000,0.000000,0.000000
cobot_dynamixel_driver/joint_states|name|J1,J2,J3,J4,J5,J6|pos|0.000839,-1.268785,1.294497,0.002216,-1.164049,-0.000083|vel|0.000000,-0.000000,0.000000,0.000000,0.000000,0.000000|eff|0.000000,0.000000,0.000000,0.000000,0.000000,0.000000
cobot_dynamixel_driver/joint_states|name|J1,J2,J3,J4,J5,J6|pos|0.000839,-1.268785,1.294497,0.002216,-1.164049,-0.000083|vel|0.000000,-0.000000,0.000000,0.000000,0.000000,0.000000|eff|0.000000,0.000000,0.000000,0.000000,0.000000,0.000000
cobot_dynamixel_driver/joint_states|name|J1,J2,J3,J4,J5,J6|pos|0.000839,-1.268785,1.294497,0.002216,-1.164049,-0.000083|vel|0.000000,-0.000000,0.000000,0.000000,0.000000,0.000000|eff|0.000000,0.000000,0.000000,0.000000,0.000000,0.000000
cobot_dynamixel_driver/joint_states|name|J1,J2,J3,J4,J5,J6|pos|0.000839,-1.268785,1.294497,0.002216,-1.164049,-0.000083|vel|0.000000,-0.000000,0.000000,0.000000,0.000000,0.000000|eff|0.000000,0.000000,0.000000,0.000000,0.000000,0.000000
cobot_dynamixel_driver/joint_states|name|J1,J2,J3,J4,J5,J6|pos|0.000839,-1.268785,1.294497,0.002216,-1.164049,-0.000083|vel|0.000000,-0.000000,0.000000,0.000000,0.000000,0.000000|eff|0.000000,0.000000,0.000000,0.000000,0.000000,0.000000
cobot_dynamixel_driver/joint_states|name|J1,J2,J3,J4,J5,J6|pos|0.000839,-1.268785,1.294497,0.002216,-1.164049,-0.000083|vel|0.000000,-0.000000,0.000000,0.000000,0.000000,0.000000|eff|0.000000,0.000000,0.000000,0.000000,0.000000,0.000000
cobot_dynamixel_driver/joint_states|name|J1,J2,J3,J4,J5,J6|pos|0.000839,-1.268785,1.294497,0.002216,-1.164049,-0.000083|vel|0.000000,-0.000000,0.000000,0.000000,0.000000,0.000000|eff|0.000000,0.000000,0.000000,0.000000,0.000000,0.000000
cobot_dynamixel_driver/joint_states|name|J1,J2,J3,J4,J5,J6|pos|0.000839,-1.268785,1.294497,0.002216,-1.164049,-0.000083|vel|0.000000,-0.000000,0.000000,0.000000,0.000000,0.000000|eff|0.000000,0.000000,0.000000,0.000000,0.000000,0.000000
cobot_dynamixel_driver/joint_states|name|J1,J2,J3,J4,J5,J6|pos|0.000839,-1.268785,1.294497,0.002216,-1.164049,-0.000083|vel|0.000000,-0.000000,0.000000,0.000000,0.000000,0.000000|eff|0.000000,0.000000,0.000000,0.000000,0.000000,0.000000
cobot_dynamixel_driver/joint_states|name|J1,J2,J3,J4,J5,J6|pos|0.000839,-1.268785,1.294497,0.002216,-1.164049,-0.000083|vel|0.000000,-0.000000,0.000000,0.000000,0.000000,0.000000|eff|0.000000,0.000000,0.000000,0.000000,0.000000,0.000000
cobot_dynamixel_driver/joint_states|name|J1,J2,J3,J4,J5,J6|pos|0.000839,-1.268785,1.294497,0.002216,-1.164049,-0.000083|vel|0.000000,-0.000000,0.000000,0.000000,0.000000,0.000000|eff|0.000000,0.000000,0.000000,0.000000,0.000000,0.000000
cobot_dynamixel_driver/joint_states|name|J1,J2,J3,J4,J5,J6|pos|0.000839,-1.268785,1.294497,0.002216,-1.164049,-0.000083|vel|0.000000,-0.000000,0.000000,0.000000,0.000000,0.000000|eff|0.000000,0.000000,0.000000,0.000000,0.000000,0.000000
cobot_dynamixel_driver/joint_states|name|J1,J2,J3,J4,J5,J6|pos|0.000839,-1.268785,1.294497,0.002216,-1.164049,-0.000083|vel|0.000000,-0.000000,0.000000,0.000000,0.000000,0.000000|eff|0.000000,0.000000,0.000000,0.000000,0.000000,0.000000
cobot_dynamixel_driver/joint_states|name|J1,J2,J3,J4,J5,J6|pos|0.000839,-1.268785,1.294497,0.002216,-1.164049,-0.000083|vel|0.000000,-0.000000,0.000000,0.000000,0.000000,0.000000|eff|0.000000,0.000000,0.000000,0.000000,0.000000,0.000000
cobot_dynamixel_driver/joint_states|name|J1,J2,J3,J4,J5,J6|pos|0.000839,-1.268785,1.294497,0.002216,-1.164049,-0.000083|vel|0.000000,-0.000000,0.000000,0.000000,0.000000,0.000000|eff|0.000000,0.000000,0.000000,0.000000,0.000000,0.000000
cobot_dynamixel_driver/joint_states|name|J1,J2,J3,J4,J5,J6|pos|0.000839,-1.268785,1.294497,0.002216,-1.164049,-0.000083|vel|0.000000,-0.000000,0.000000,0.000000,0.000000,0.000000|eff|0.000000,0.000000,0.000000,0.000000,0.000000,0.000000
cobot_dynamixel_driver/joint_states|name|J1,J2,J3,J4,J5,J6|pos|0.000839,-1.268785,1.294497,0.002216,-1.164049,-0.000083|vel|0.000000,-0.000000,0.000000,0.000000,0.000000,0.000000|eff|0.000000,0.000000,0.000000,0.000000,0.000000,0.000000
cobot_dynamixel_driver/joint_states|name|J1,J2,J3,J4,J5,J6|pos|0.000839,-1.268785,1.294497,0.002216,-1.164049,-0.000083|vel|0.000000,-0.000000,0.000000,0.000000,0.000000,0.000000|eff|0.000000,0.000000,0.000000,0.000000,0.000000,0.000000
cobot_dynamixel_driver/joint_states|name|J1,J2,J3,J4,J5,J6|pos|0.000839,-1.268785,1.294497,0.002216,-1.164049,-0.000083|vel|0.000000,-0.000000,0.000000,0.000000,0.000000,0.000000|eff|0.000000,0.000000,0.000000,0.000000,0.000000,0.000000
cobot_dynamixel_driver/joint_states|name|J1,J2,J3,J4,J5,J6|pos|0.000839,-1.268785,1.294497,0.002216,-1.164049,-0.000083|vel|0.000000,-0.000000,0.000000,0.000000,0.000000,0.000000|eff|0.000000,0.000000,0.000000,0.000000,0.000000,0.000000
cobot_dynamixel_driver/joint_states|name|J1,J2,J3,J4,J5,J6|pos|0.000839,-1.268785,1.294497,0.002216,-1.164049,-0.000083|vel|0.000000,-0.000000,0.000000,0.000000,0.000000,0.000000|eff|0.000000,0.000000,0.000000,0.000000,0.000000,0.000000
cobot_dynamixel_driver/joint_states|name|J1,J2,J3,J4,J5,J6|pos|0.000839,-1.268785,1.294497,0.002216,-1.164049,-0.000083|vel|0.000000,-0.000000,0.000000,0.000000,0.000000,0.000000|eff|0.000000,0.000000,0.000000,0.000000,0.000000,0.000000
cobot_dynamixel_driver/joint_states|name|J1,J2,J3,J4,J5,J6|pos|0.000839,-1.268785,1.294497,0.002216,-1.164049,-0.000083|vel|0.000000,-0.000000,0.000000,0.000000,0.000000,0.000000|eff|0.000000,0.000000,0.000000,0.000000,0.000000,0.000000
cobot_dynamixel_driver/joint_states|name|J1,J2,J3,J4,J5,J6|pos|0.000839,-1.268785,1.294497,0.002216,-1.164049,-0.000083|vel|0.000000,-0.000000,0.000000,0.000000,0.000000,0.000000|eff|0.000000,0.000000,0.000000,0.000000,0.000000,0.000000
cobot_dynamixel_driver/joint_states|name|J1,J2,J3,J4,J5,J6|pos|0.000839,-1.268785,1.294497,0.002216,-1.164049,-0.000083|vel|0.000000,-0.000000,0.000000,0.000000,0.000000,0.000000|eff|0.000000,0.000000,0.000000,0.000000,0.000000,0.000000
cobot_dynamixel_driver/joint_states|name|J1,J2,J3,J4,J5,J6|pos|0.000839,-1.268785,1.294497,0.002216,-1.164049,-0.000083|vel|0.000000,-0.000000,0.000000,0.000000,0.000000,0.000000|eff|0.000000,0.000000,0.000000,0.000000,0.000000,0.000000
cobot_dynamixel_driver/joint_states|name|J1,J2,J3,J4,J5,J6|pos|0.000839,-1.268785,1.294497,0.002216,-1.164049,-0.000083|vel|0.000000,-0.000000,0.000000,0.000000,0.000000,0.000000|eff|0.000000,0.000000,0.000000,0.000000,0.000000,0.000000
cobot_dynamixel_driver/joint_states|name|J1,J2,J3,J4,J5,J6|pos|0.000839,-1.268785,1.294497,0.002216,-1.164049,-0.000083|vel|0.000000,-0.000000,0.000000,0.000000,0.000000,0.000000|eff|0.000000,0.000000,0.000000,0.000000,0.000000,0.000000
cobot_dynamixel_driver/joint_states|name|J1,J2,J3,J4,J5,J6|pos|0.000839,-1.268785,1.294497,0.002216,-1.164049,-0.000083|vel|0.000000,-0.000000,0.000000,0.000000,0.000000,0.000000|eff|0.000000,0.000000,0.000000,0.000000,0.000000,0.000000
cobot_dynamixel_driver/joint_states|name|J1,J2,J3,J4,J5,J6|pos|0.000839,-1.268785,1.294497,0.002216,-1.164049,-0.000083|vel|0.000000,-0.000000,0.000000,0.000000,0.000000,0.000000|eff|0.000000,0.000000,0.000000,0.000000,0.000000,0.000000
cobot_dynamixel_driver/joint_states|name|J1,J2,J3,J4,J5,J6|pos|0.000839,-1.268785,1.294497,0.002216,-1.164049,-0.000083|vel|0.000000,-0.000000,0.000000,0.000000,0.000000,0.000000|eff|0.000000,0.000000,0.000000,0.000000,0.000000,0.000000
cobot_dynamixel_driver/joint_states|name|J1,J2,J3,J4,J5,J6|pos|0.000839,-1.268785,1.294497,0.002216,-1.164049,-0.000083|vel|0.000000,-0.000000,0.000000,0.000000,0.000000,0.000000|eff|0.000000,0.000000,0.000000,0.000000,0.000000,0.000000
cobot_dynamixel_driver/joint_states|name|J1,J2,J3,J4,J5,J6|pos|0.000839,-1.268785,1.294497,0.002216,-1.164049,-0.000083|vel|0.000000,-0.000000,0.000000,0.000000,0.000000,0.000000|eff|0.000000,0.000000,0.000000,0.000000,0.000000,0.000000
cobot_dynamixel_driver/joint_states|name|J1,J2,J3,J4,J5,J6|pos|0.000839,-1.268785,1.294497,0.002216,-1.164049,-0.000083|vel|0.000000,-0.000000,0.000000,0.000000,0.000000,0.000000|eff|0.000000,0.000000,0.000000,0.000000,0.000000,0.000000
cobot_dynamixel_driver/joint_states|name|J1,J2,J3,J4,J5,J6|pos|0.000839,-1.268785,1.294497,0.002216,-1.164049,-0.000083|vel|0.000000,-0.000000,0.000000,0.000000,0.000000,0.000000|eff|0.000000,0.000000,0.000000,0.000000,0.000000,0.000000
cobot_dynamixel_driver/joint_states|name|J1,J2,J3,J4,J5,J6|pos|0.000839,-1.268785,1.294497,0.002216,-1.164049,-0.000083|vel|0.000000,-0.000000,0.000000,0.000000,0.000000,0.000000|eff|0.000000,0.000000,0.000000,0.000000,0.000000,0.000000
cobot_dynamixel_driver/joint_states|name|J1,J2,J3,J4,J5,J6|pos|0.000839,-1.268785,1.294497,0.002216,-1.164049,-0.000083|vel|0.000000,-0.000000,0.000000,0.000000,0.000000,0.000000|eff|0.000000,0.000000,0.000000,0.000000,0.000000,0.000000
cobot_dynamixel_driver/joint_states|name|J1,J2,J3,J4,J5,J6|pos|0.000839,-1.268785,1.294497,0.002216,-1.164049,-0.000083|vel|0.000000,-0.000000,0.000000,0.000000,0.000000,0.000000|eff|0.000000,0.000000,0.000000,0.000000,0.000000,0.000000
cobot_dynamixel_driver/joint_states|name|J1,J2,J3,J4,J5,J6|pos|0.000839,-1.268785,1.294497,0.002216,-1.164049,-0.000083|vel|0.000000,-0.000000,0.000000,0.000000,0.000000,0.000000|eff|0.000000,0.000000,0.000000,0.000000,0.000000,0.000000
cobot_dynamixel_driver/joint_states|name|J1,J2,J3,J4,J5,J6|pos|0.000839,-1.268785,1.294497,0.002216,-1.164049,-0.000083|vel|0.000000,-0.000000,0.000000,0.000000,0.000000,0.000000|eff|0.000000,0.000000,0.000000,0.000000,0.000000,0.000000
cobot_dynamixel_driver/joint_states|name|J1,J2,J3,J4,J5,J6|pos|0.000839,-1.268785,1.294497,0.002216,-1.164049,-0.000083|vel|0.000000,-0.000000,0.000000,0.000000,0.000000,0.000000|eff|0.000000,0.000000,0.000000,0.000000,0.000000,0.000000
cobot_dynamixel_driver/joint_states|name|J1,J2,J3,J4,J5,J6|pos|0.000839,-1.268785,1.294497,0.002216,-1.164049,-0.000083|vel|0.000000,-0.000000,0.000000,0.000000,0.000000,0.000000|eff|0.000000,0.000000,0.000000,0.000000,0.000000,0.000000
cobot_dynamixel_driver/joint_states|name|J1,J2,J3,J4,J5,J6|pos|0.000839,-1.268785,1.294497,0.002216,-1.164049,-0.000083|vel|0.000000,-0.000000,0.000000,0.000000,0.000000,0.000000|eff|0.000000,0.000000,0.000000,0.000000,0.000000,0.000000
cobot_dynamixel_driver/joint_states|name|J1,J2,J3,J4,J5,J6|pos|0.000839,-1.268785,1.294497,0.002216,-1.164049,-0.000083|vel|0.000000,-0.000000,0.000000,0.000000,0.000000,0.000000|eff|0.000000,0.000000,0.000000,0.000000,0.000000,0.000000
cobot_dynamixel_driver/joint_states|name|J1,J2,J3,J4,J5,J6|pos|0.000839,-1.268785,1.294497,0.002216,-1.164049,-0.000083|vel|0.000000,-0.000000,0.000000,0.000000,0.000000,0.000000|eff|0.000000,0.000000,0.000000,0.000000,0.000000,0.000000
cobot_dynamixel_driver/joint_states|name|J1,J2,J3,J4,J5,J6|pos|0.000839,-1.268785,1.294497,0.002216,-1.164049,-0.000083|vel|0.000000,-0.000000,0.000000,0.000000,0.000000,0.000000|eff|0.000000,0.000000,0.000000,0.000000,0.000000,0.000000
cobot_dynamixel_driver/joint_states|name|J1,J2,J3,J4,J5,J6|pos|0.000839,-1.268785,1.294497,0.002216,-1.164049,-0.000083|vel|0.000000,-0.000000,0.000000,0.000000,0.000000,0.000000|eff|0.000000,0.000000,0.000000,0.000000,0.000000,0.000000
cobot_dynamixel_driver/joint_states|name|J1,J2,J3,J4,J5,J6|pos|0.000839,-1.268785,1.294497,0.002216,-1.164049,-0.000083|vel|0.000000,-0.000000,0.000000,0.000000,0.000000,0.000000|eff|0.000000,0.000000,0.000000,0.000000,0.000000,0.000000
cobot_dynamixel_driver/joint_states|name|J1,J2,J3,J4,J5,J6|pos|0.000839,-1.268785,1.294497,0.002216,-1.164049,-0.000083|vel|0.000000,-0.000000,0.000000,0.000000,0.000000,0.000000|eff|0.000000,0.000000,0.000000,0.000000,0.000000,0.000000
cobot_dynamixel_driver/joint_states|name|J1,J2,J3,J4,J5,J6|pos|0.000839,-1.268785,1.294497,0.002216,-1.164049,-0.000083|vel|0.000000,-0.000000,0.000000,0.000000,0.000000,0.000000|eff|0.000000,0.000000,0.000000,0.000000,0.000000,0.000000
cobot_dynamixel_driver/joint_states|name|J1,J2,J3,J4,J5,J6|pos|0.000839,-1.268785,1.294497,0.002216,-1.164049,-0.000083|vel|0.000000,-0.000000,0.000000,0.000000,0.000000,0.000000|eff|0.000000,0.000000,0.000000,0.000000,0.000000,0.000000
cobot_dynamixel_driver/joint_states|name|J1,J2,J3,J4,J5,J6|pos|0.000839,-1.268785,1.294497,0.002216,-1.164049,-0.000083|vel|0.000000,-0.000000,0.000000,0.000000,0.000000,0.000000|eff|0.000000,0.000000,0.000000,0.000000,0.000000,0.000000
cobot_dynamixel_driver/joint_states|name|J1,J2,J3,J4,J5,J6|pos|0.000839,-1.268785,1.294497,0.002216,-1.164049,-0.000083|vel|0.000000,-0.000000,0.000000,0.000000,0.000000,0.000000|eff|0.000000,0.000000,0.000000,0.000000,0.000000,0.000000
cobot_dynamixel_driver/joint_states|name|J1,J2,J3,J4,J5,J6|pos|0.000839,-1.268785,1.294497,0.002216,-1.164049,-0.000083|vel|0.000000,-0.000000,0.000000,0.000000,0.000000,0.000000|eff|0.000000,0.000000,0.000000,0.000000,0.000000,0.000000
cobot_dynamixel_driver/joint_states|name|J1,J2,J3,J4,J5,J6|pos|0.000839,-1.268785,1.294497,0.002216,-1.164049,-0.000083|vel|0.000000,-0.000000,0.000000,0.000000,0.000000,0.000000|eff|0.000000,0.000000,0.000000,0.000000,0.000000,0.000000
cobot_dynamixel_driver/joint_states|name|J1,J2,J3,J4,J5,J6|pos|0.000839,-1.268785,1.294497,0.002216,-1.164049,-0.000083|vel|0.000000,-0.000000,0.000000,0.000000,0.000000,0.000000|eff|0.000000,0.000000,0.000000,0.000000,0.000000,0.000000
cobot_dynamixel_driver/joint_states|name|J1,J2,J3,J4,J5,J6|pos|0.000839,-1.268785,1.294497,0.002216,-1.164049,-0.000083|vel|0.000000,-0.000000,0.000000,0.000000,0.000000,0.000000|eff|0.000000,0.000000,0.000000,0.000000,0.000000,0.000000
cobot_dynamixel_driver/joint_states|name|J1,J2,J3,J4,J5,J6|pos|0.000839,-1.268785,1.294497,0.002216,-1.164049,-0.000083|vel|0.000000,-0.000000,0.000000,0.000000,0.000000,0.000000|eff|0.000000,0.000000,0.000000,0.000000,0.000000,0.000000
cobot_dynamixel_driver/joint_states|name|J1,J2,J3,J4,J5,J6|pos|0.000839,-1.268785,1.294497,0.002216,-1.164049,-0.000083|vel|0.000000,-0.000000,0.000000,0.000000,0.000000,0.000000|eff|0.000000,0.000000,0.000000,0.000000,0.000000,0.000000
cobot_dynamixel_driver/joint_states|name|J1,J2,J3,J4,J5,J6|pos|0.000839,-1.268785,1.294497,0.002216,-1.164049,-0.000083|vel|0.000000,-0.000000,0.000000,0.000000,0.000000,0.000000|eff|0.000000,0.000000,0.000000,0.000000,0.000000,0.000000
cobot_dynamixel_driver/joint_states|name|J1,J2,J3,J4,J5,J6|pos|0.000839,-1.268785,1.294497,0.002216,-1.164049,-0.000083|vel|0.000000,-0.000000,0.000000,0.000000,0.000000,0.000000|eff|0.000000,0.000000,0.000000,0.000000,0.000000,0.000000
cobot_dynamixel_driver/joint_states|name|J1,J2,J3,J4,J5,J6|pos|0.000839,-1.268785,1.294497,0.002216,-1.164049,-0.000083|vel|0.000000,-0.000000,0.000000,0.000000,0.000000,0.000000|eff|0.000000,0.000000,0.000000,0.000000,0.000000,0.000000
cobot_dynamixel_driver/joint_states|name|J1,J2,J3,J4,J5,J6|pos|0.000839,-1.268785,1.294497,0.002216,-1.164049,-0.000083|vel|0.000000,-0.000000,0.000000,0.000000,0.000000,0.000000|eff|0.000000,0.000000,0.000000,0.000000,0.000000,0.000000
cobot_dynamixel_driver/joint_states|name|J1,J2,J3,J4,J5,J6|pos|0.000839,-1.268785,1.294497,0.002216,-1.164049,-0.000083|vel|0.000000,-0.000000,0.000000,0.000000,0.000000,0.000000|eff|0.000000,0.000000,0.000000,0.000000,0.000000,0.000000
cobot_dynamixel_driver/joint_states|name|J1,J2,J3,J4,J5,J6|pos|0.000839,-1.268785,1.294497,0.002216,-1.164049,-0.000083|vel|0.000000,-0.000000,0.000000,0.000000,0.000000,0.000000|eff|0.000000,0.000000,0.000000,0.000000,0.000000,0.000000
cobot_dynamixel_driver/joint_states|name|J1,J2,J3,J4,J5,J6|pos|0.000839,-1.268785,1.294497,0.002216,-1.164049,-0.000083|vel|0.000000,-0.000000,0.000000,0.000000,0.000000,0.000000|eff|0.000000,0.000000,0.000000,0.000000,0.000000,0.000000
cobot_dynamixel_driver/joint_states|name|J1,J2,J3,J4,J5,J6|pos|0.000839,-1.268785,1.294497,0.002216,-1.164049,-0.000083|vel|0.000000,-0.000000,0.000000,0.000000,0.000000,0.000000|eff|0.000000,0.000000,0.000000,0.000000,0.000000,0.000000
cobot_dynamixel_driver/joint_states|name|J1,J2,J3,J4,J5,J6|pos|0.000839,-1.268785,1.294497,0.002216,-1.164049,-0.000083|vel|0.000000,-0.000000,0.000000,0.000000,0.000000,0.000000|eff|0.000000,0.000000,0.000000,0.000000,0.000000,0.000000
cobot_dynamixel_driver/joint_states|name|J1,J2,J3,J4,J5,J6|pos|0.000839,-1.268785,1.294497,0.002216,-1.164049,-0.000083|vel|0.000000,-0.000000,0.000000,0.000000,0.000000,0.000000|eff|0.000000,0.000000,0.000000,0.000000,0.000000,0.000000
cobot_dynamixel_driver/joint_states|name|J1,J2,J3,J4,J5,J6|pos|0.000839,-1.268785,1.294497,0.002216,-1.164049,-0.000083|vel|0.000000,-0.000000,0.000000,0.000000,0.000000,0.000000|eff|0.000000,0.000000,0.000000,0.000000,0.000000,0.000000
cobot_dynamixel_driver/joint_states|name|J1,J2,J3,J4,J5,J6|pos|0.000839,-1.268785,1.294497,0.002216,-1.164049,-0.000083|vel|0.000000,-0.000000,0.000000,0.000000,0.000000,0.000000|eff|0.000000,0.000000,0.000000,0.000000,0.000000,0.000000
cobot_dynamixel_driver/joint_states|name|J1,J2,J3,J4,J5,J6|pos|0.000839,-1.268785,1.294497,0.002216,-1.164049,-0.000083|vel|0.000000,-0.000000,0.000000,0.000000,0.000000,0.000000|eff|0.000000,0.000000,0.000000,0.000000,0.000000,0.000000
cobot_dynamixel_driver/joint_states|name|J1,J2,J3,J4,J5,J6|pos|0.000839,-1.268785,1.294497,0.002216,-1.164049,-0.000083|vel|0.000000,-0.000000,0.000000,0.000000,0.000000,0.000000|eff|0.000000,0.000000,0.000000,0.000000,0.000000,0.000000
cobot_dynamixel_driver/joint_states|name|J1,J2,J3,J4,J5,J6|pos|0.000839,-1.268785,1.294497,0.002216,-1.164049,-0.000083|vel|0.000000,-0.000000,0.000000,0.000000,0.000000,0.000000|eff|0.000000,0.000000,0.000000,0.000000,0.000000,0.000000
cobot_dynamixel_driver/joint_states|name|J1,J2,J3,J4,J5,J6|pos|0.000839,-1.268785,1.294497,0.002216,-1.164049,-0.000083|vel|0.000000,-0.000000,0.000000,0.000000,0.000000,0.000000|eff|0.000000,0.000000,0.000000,0.000000,0.000000,0.000000
cobot_dynamixel_driver/joint_states|name|J1,J2,J3,J4,J5,J6|pos|0.000839,-1.268785,1.294497,0.002216,-1.164049,-0.000083|vel|0.000000,-0.000000,0.000000,0.000000,0.000000,0.000000|eff|0.000000,0.000000,0.000000,0.000000,0.000000,0.000000
cobot_dynamixel_driver/joint_states|name|J1,J2,J3,J4,J5,J6|pos|0.000839,-1.268785,1.294497,0.002216,-1.164049,-0.000083|vel|0.000000,-0.000000,0.000000,0.000000,0.000000,0.000000|eff|0.000000,0.000000,0.000000,0.000000,0.000000,0.000000
cobot_dynamixel_driver/joint_states|name|J1,J2,J3,J4,J5,J6|pos|0.000839,-1.268785,1.294497,0.002216,-1.164049,-0.000083|vel|0.000000,-0.000000,0.000000,0.000000,0.000000,0.000000|eff|0.000000,0.000000,0.000000,0.000000,0.000000,0.000000
cobot_dynamixel_driver/joint_states|name|J1,J2,J3,J4,J5,J6|pos|0.000839,-1.268785,1.294497,0.002216,-1.164049,-0.000083|vel|0.000000,-0.000000,0.000000,0.000000,0.000000,0.000000|eff|0.000000,0.000000,0.000000,0.000000,0.000000,0.000000
cobot_dynamixel_driver/joint_states|name|J1,J2,J3,J4,J5,J6|pos|0.000839,-1.268785,1.294497,0.002216,-1.164049,-0.000083|vel|0.000000,-0.000000,0.000000,0.000000,0.000000,0.000000|eff|0.000000,0.000000,0.000000,0.000000,0.000000,0.000000
cobot_dynamixel_driver/joint_states|name|J1,J2,J3,J4,J5,J6|pos|0.000839,-1.268785,1.294497,0.002216,-1.164049,-0.000083|vel|0.000000,-0.000000,0.000000,0.000000,0.000000,0.000000|eff|0.000000,0.000000,0.000000,0.000000,0.000000,0.000000
cobot_dynamixel_driver/joint_states|name|J1,J2,J3,J4,J5,J6|pos|0.000839,-1.268785,1.294497,0.002216,-1.164049,-0.000083|vel|0.000000,-0.000000,0.000000,0.000000,0.000000,0.000000|eff|0.000000,0.000000,0.000000,0.000000,0.000000,0.000000
cobot_dynamixel_driver/joint_states|name|J1,J2,J3,J4,J5,J6|pos|0.000839,-1.268785,1.294497,0.002216,-1.164049,-0.000083|vel|0.000000,-0.000000,0.000000,0.000000,0.000000,0.000000|eff|0.000000,0.000000,0.000000,0.000000,0.000000,0.000000
cobot_dynamixel_driver/joint_states|name|J1,J2,J3,J4,J5,J6|pos|0.000839,-1.268785,1.294497,0.002216,-1.164049,-0.000083|vel|0.000000,-0.000000,0.000000,0.000000,0.000000,0.000000|eff|0.000000,0.000000,0.000000,0.000000,0.000000,0.000000
cobot_dynamixel_driver/joint_states|name|J1,J2,J3,J4,J5,J6|pos|0.000839,-1.268785,1.294497,0.002216,-1.164049,-0.000083|vel|0.000000,-0.000000,0.000000,0.000000,0.000000,0.000000|eff|0.000000,0.000000,0.000000,0.000000,0.000000,0.000000
cobot_dynamixel_driver/joint_states|name|J1,J2,J3,J4,J5,J6|pos|0.000839,-1.268785,1.294497,0.002216,-1.164049,-0.000083|vel|0.000000,-0.000000,0.000000,0.000000,0.000000,0.000000|eff|0.000000,0.000000,0.000000,0.000000,0.000000,0.000000
cobot_dynamixel_driver/joint_states|name|J1,J2,J3,J4,J5,J6|pos|0.000839,-1.268785,1.294497,0.002216,-1.164049,-0.000083|vel|0.000000,-0.000000,0.000000,0.000000,0.000000,0.000000|eff|0.000000,0.000000,0.000000,0.000000,0.000000,0.000000
cobot_dynamixel_driver/joint_states|name|J1,J2,J3,J4,J5,J6|pos|0.000839,-1.268785,1.294497,0.002216,-1.164049,-0.000083|vel|0.000000,-0.000000,0.000000,0.000000,0.000000,0.000000|eff|0.000000,0.000000,0.000000,0.000000,0.000000,0.000000
cobot_dynamixel_driver/joint_states|name|J1,J2,J3,J4,J5,J6|pos|0.000839,-1.268785,1.294497,0.002216,-1.164049,-0.000083|vel|0.000000,-0.000000,0.000000,0.000000,0.000000,0.000000|eff|0.000000,0.000000,0.000000,0.000000,0.000000,0.000000
cobot_dynamixel_driver/joint_states|name|J1,J2,J3,J4,J5,J6|pos|0.000839,-1.268785,1.294497,0.002216,-1.164049,-0.000083|vel|0.000000,-0.000000,0.000000,0.000000,0.000000,0.000000|eff|0.000000,0.000000,0.000000,0.000000,0.000000,0.000000
cobot_dynamixel_driver/joint_states|name|J1,J2,J3,J4,J5,J6|pos|0.000839,-1.268785,1.294497,0.002216,-1.164049,-0.000083|vel|0.000000,-0.000000,0.000000,0.000000,0.000000,0.000000|eff|0.000000,0.000000,0.000000,0.000000,0.000000,0.000000
cobot_dynamixel_driver/joint_states|name|J1,J2,J3,J4,J5,J6|pos|0.000839,-1.268785,1.294497,0.002216,-1.164049,-0.000083|vel|0.000000,-0.000000,0.000000,0.000000,0.000000,0.000000|eff|0.000000,0.000000,0.000000,0.000000,0.000000,0.000000
cobot_dynamixel_driver/joint_states|name|J1,J2,J3,J4,J5,J6|pos|0.000839,-1.268785,1.294497,0.002216,-1.164049,-0.000083|vel|0.000000,-0.000000,0.000000,0.000000,0.000000,0.000000|eff|0.000000,0.000000,0.000000,0.000000,0.000000,0.000000
cobot_dynamixel_driver/joint_states|name|J1,J2,J3,J4,J5,J6|pos|0.000839,-1.268785,1.294497,0.002216,-1.164049,-0.000083|vel|0.000000,-0.000000,0.000000,0.000000,0.000000,0.000000|eff|0.000000,0.000000,0.000000,0.000000,0.000000,0.000000
cobot_dynamixel_driver/goal|-:J1,J2,J3,J4,J5,J6:0.000000,0.000000,0.000000,0.000000,0.000000,0.000000:0.700000,0.700000,0.700000,0.700000,0.700000,0.700000:pos_vel_
cobot_dynamixel_driver/joint_states|name|J1,J2,J3,J4,J5,J6|pos|0.000839,-1.268785,1.296275,0.002216,-1.164049,0.001510|vel|0.000000,-0.000000,0.000000,0.000000,0.000000,0.000000|eff|0.000000,0.000000,0.000000,0.000000,0.000000,0.000000
cobot_dynamixel_driver/joint_states|name|J1,J2,J3,J4,J5,J6|pos|0.000839,-1.268785,1.296262,0.002216,-1.164008,0.001489|vel|0.000000,-0.000000,0.000000,0.000000,0.008617,0.000000|eff|0.000000,-273.925781,-193.359375,-112.792969,104.736328,-36.254883
cobot_dynamixel_driver/joint_states|name|J1,J2,J3,J4,J5,J6|pos|0.000789,-1.268322,1.295899,0.002028,-1.162787,0.001345|vel|0.000000,0.045485,-0.035887,-0.006885,0.103755,-0.011030|eff|-161.132812,-563.964844,-628.417969,-96.679688,112.792969,-28.198242
cobot_dynamixel_driver/joint_states|name|J1,J2,J3,J4,J5,J6|pos|0.000751,-1.266857,1.294597,0.001890,-1.160036,0.001200|vel|-0.002086,0.110165,-0.098064,-0.008555,0.185104,-0.005515|eff|-112.792969,-999.023438,-1144.042969,-161.132812,108.764648,-24.169922
cobot_dynamixel_driver/joint_states|name|J1,J2,J3,J4,J5,J6|pos|0.000739,-1.264228,1.292069,0.001728,-1.155382,0.001138|vel|-0.000835,0.169212,-0.165665,-0.007929,0.260248,-0.002758|eff|-128.906250,-1820.800781,-1659.667969,-145.019531,92.651367,-44.311523
cobot_dynamixel_driver/joint_states|name|J1,J2,J3,J4,J5,J6|pos|0.000701,-1.260385,1.287800,0.001565,-1.149714,0.000972|vel|-0.001461,0.216367,-0.276457,-0.007303,0.356075,-0.009307|eff|-96.679688,-1949.707031,-1853.027344,-161.132812,84.594727,-28.198242
cobot_dynamixel_driver/joint_states|name|J1,J2,J3,J4,J5,J6|pos|0.000651,-1.255065,1.281603,0.001415,-1.143426,0.000807|vel|-0.002295,0.305041,-0.357203,-0.007720,0.361935,-0.006205|eff|-241.699219,-2143.066406,-1530.761719,-177.246094,76.538086,-20.141602
cobot_dynamixel_driver/joint_states|name|J1,J2,J3,J4,J5,J6|pos|0.000613,-1.248418,1.274268,0.001264,-1.136000,0.000786|vel|-0.002086,0.392256,-0.416459,-0.006677,0.405022,-0.002413|eff|-96.679688,-1917.480469,-1595.214844,-193.359375,76.538086,-28.198242
cobot_dynamixel_driver/joint_states|name|J1,J2,J3,J4,J5,J6|pos|0.000563,-1.240569,1.266081,0.001139,-1.127415,0.000765|vel|-0.002295,0.446087,-0.425013,-0.007094,0.448110,-0.002413|eff|-80.566406,-2159.179688,-1562.988281,-193.359375,64.453125,-36.254883
cobot_dynamixel_driver/joint_states|name|J1,J2,J3,J4,J5,J6|pos|0.000526,-1.231818,1.257193,0.001026,-1.119059,0.000662|vel|-0.002086,0.476758,-0.473211,-0.006468,0.457416,-0.007239|eff|-48.339844,-1853.027344,-950.683594,-161.132812,72.509766,-36.254883
cobot_dynamixel_driver/joint_states|name|J1,J2,J3,J4,J5,J6|pos|0.000476,-1.222417,1.247779,0.000926,-1.109192,0.000517|vel|-0.002712,0.490737,-0.515566,-0.004799,0.512224,-0.006205|eff|-64.453125,-2014.160156,-950.683594,-225.585938,44.311523,-32.226562
cobot_dynamixel_driver/joint_states|name|J1,J2,J3,J4,J5,J6|pos|0.000426,-1.212390,1.237915,0.000801,-1.099697,0.000517|vel|-0.002295,0.523703,-0.458397,-0.006259,0.531872,-0.006205|eff|-128.906250,-2497.558594,-1772.460938,-193.359375,68.481445,-24.169922
cobot_dynamixel_driver/joint_states|name|J1,J2,J3,J4,J5,J6|pos|0.000376,-1.201775,1.227349,0.000663,-1.088837,0.000517|vel|-0.002504,0.558756,-0.515983,-0.006885,0.479477,-0.006205|eff|-80.566406,-3061.523438,-1853.027344,-177.246094,52.368164,-16.113281
cobot_dynamixel_driver/joint_states|name|J1,J2,J3,J4,J5,J6|pos|0.000313,-1.190909,1.216446,0.000576,-1.078639,0.000517|vel|-0.002921,0.520156,-0.558964,-0.003964,0.595641,-0.006205|eff|-128.906250,-1063.476562,-757.324219,-128.906250,32.226562,-12.084961
cobot_dynamixel_driver/joint_states|name|J1,J2,J3,J4,J5,J6|pos|0.000250,-1.179567,1.205217,0.000488,-1.067056,0.000517|vel|-0.003130,0.604449,-0.548532,-0.004173,0.575304,-0.006205|eff|-241.699219,-1015.136719,-1305.175781,-225.585938,24.169922,-16.113281
cobot_dynamixel_driver/joint_states|name|J1,J2,J3,J4,J5,J6|pos|0.000200,-1.168013,1.193801,0.000413,-1.056278,0.000517|vel|-0.002712,0.551244,-0.538308,-0.003756,0.578751,-0.006205|eff|-128.906250,-805.664062,-1740.234375,-145.019531,56.396484,0.000000
cobot_dynamixel_driver/joint_states|name|J1,J2,J3,J4,J5,J6|pos|0.000150,-1.156233,1.182084,0.000363,-1.044053,0.000517|vel|-0.002295,0.661827,-0.607162,-0.002712,0.586334,0.000000|eff|-96.679688,-1853.027344,-708.984375,-177.246094,16.113281,-16.113281
cobot_dynamixel_driver/joint_states|name|J1,J2,J3,J4,J5,J6|pos|0.000125,-1.144191,1.170216,0.000351,-1.032842,0.000517|vel|-0.001252,0.629487,-0.618011,-0.001461,0.560137,0.000000|eff|-145.019531,-950.683594,-1450.195312,-177.246094,56.396484,-16.113281
cobot_dynamixel_driver/joint_states|name|J1,J2,J3,J4,J5,J6|pos|0.000088,-1.131835,1.158074,0.000338,-1.020120,0.000517|vel|-0.001461,0.651395,-0.661410,-0.000626,0.570823,0.000000|eff|-80.566406,-2642.578125,-708.984375,-193.359375,40.283203,-20.141602
cobot_dynamixel_driver/joint_states|name|J1,J2,J3,J4,J5,J6|pos|0.000063,-1.119442,1.145668,0.000313,-1.008475,0.000517|vel|-0.001669,0.619263,-0.607579,-0.001252,0.626319,0.000000|eff|-161.132812,-2497.558594,-934.570312,-177.246094,48.339844,-32.226562
cobot_dynamixel_driver/joint_states|name|J1,J2,J3,J4,J5,J6|pos|0.000038,-1.106786,1.133262,0.000275,-0.995422,0.000496|vel|-0.001669,0.658072,-0.579620,-0.001669,0.559103,0.000000|eff|0.000000,-1933.593750,-1514.648438,-177.246094,36.254883,-36.254883
cobot_dynamixel_driver/joint_states|name|J1,J2,J3,J4,J5,J6|pos|0.000038,-1.094130,1.120632,0.000200,-0.983549,0.000434|vel|-0.000417,0.653481,-0.651603,-0.003338,0.681816,-0.002758|eff|-112.792969,-1063.476562,-1208.496094,-161.132812,20.141602,-44.311523
cobot_dynamixel_driver/joint_states|name|J1,J2,J3,J4,J5,J6|pos|0.000025,-1.081212,1.108063,0.000188,-0.970910,0.000393|vel|-0.000417,0.668921,-0.672260,-0.003338,0.680092,-0.003792|eff|-32.226562,-1224.609375,-918.457031,-209.472656,48.339844,-36.254883
cobot_dynamixel_driver/joint_states|name|J1,J2,J3,J4,J5,J6|pos|0.000000,-1.068380,1.095094,0.000175,-0.957713,0.000352|vel|-0.000626,0.691246,-0.665791,-0.001043,0.770059,-0.002413|eff|-112.792969,-1272.949219,-1321.289062,-193.359375,72.509766,-32.226562
cobot_dynamixel_driver/joint_states|name|J1,J2,J3,J4,J5,J6|pos|-0.000013,-1.055437,1.082176,0.000150,-0.944888,0.000352|vel|-0.000626,0.620098,-0.595060,-0.000835,0.557035,-0.002413|eff|-112.792969,-547.851562,-1804.687500,-112.792969,32.226562,-40.283203
cobot_dynamixel_driver/joint_states|name|J1,J2,J3,J4,J5,J6|pos|-0.000025,-1.042330,1.069081,0.000125,-0.931918,0.000352|vel|-0.000626,0.689369,-0.679979,-0.001043,0.658032,-0.002413|eff|0.000000,-2787.597656,-1111.816406,-145.019531,-36.254883,-36.254883
cobot_dynamixel_driver/joint_states|name|J1,J2,J3,J4,J5,J6|pos|-0.000025,-1.029311,1.056012,0.000113,-0.919031,0.000331|vel|-0.000626,0.654316,-0.630113,-0.000835,0.696983,-0.002413|eff|-145.019531,-547.851562,-1047.363281,-193.359375,12.084961,-44.311523
cobot_dynamixel_driver/joint_states|name|J1,J2,J3,J4,J5,J6|pos|-0.000025,-1.016205,1.042994,0.000088,-0.906040,0.000310|vel|-0.000626,0.674972,-0.648891,-0.000835,0.575304,-0.000345|eff|0.000000,-3673.828125,-1305.175781,-177.246094,76.538086,-44.311523
cobot_dynamixel_driver/joint_states|name|J1,J2,J3,J4,J5,J6|pos|-0.000025,-1.002772,1.029812,0.000075,-0.893009,0.000248|vel|-0.000626,0.706060,-0.711485,-0.000626,0.814525,-0.002413|eff|-128.906250,-2545.898438,-547.851562,-128.906250,-16.113281,-40.283203
cobot_dynamixel_driver/joint_states|name|J1,J2,J3,J4,J5,J6|pos|-0.000025,-0.989491,1.016630,0.000075,-0.880701,0.000228|vel|-0.000626,0.725047,-0.696671,-0.000626,0.668028,-0.002413|eff|0.000000,-999.023438,-1611.328125,-209.472656,84.594727,-40.283203
cobot_dynamixel_driver/joint_states|name|J1,J2,J3,J4,J5,J6|pos|-0.000025,-0.976071,1.003373,0.000063,-0.866676,0.000228|vel|-0.000626,0.672885,-0.728803,-0.000626,0.749377,-0.002413|eff|-128.906250,-580.078125,-1305.175781,-145.019531,28.198242,-40.283203
cobot_dynamixel_driver/joint_states|name|J1,J2,J3,J4,J5,J6|pos|-0.000038,-0.962902,0.990054,0.000063,-0.854224,0.000207|vel|0.000000,0.688534,-0.597147,-0.000417,0.678024,-0.002413|eff|-64.453125,-2320.312500,-789.550781,-209.472656,100.708008,-36.254883
cobot_dynamixel_driver/joint_states|name|J1,J2,J3,J4,J5,J6|pos|-0.000038,-0.949532,0.976785,0.000050,-0.840095,0.000207|vel|0.000000,0.673094,-0.677476,-0.000417,0.691468,-0.002413|eff|-128.906250,-2997.070312,-1466.308594,-209.472656,48.339844,-36.254883
cobot_dynamixel_driver/joint_states|name|J1,J2,J3,J4,J5,J6|pos|-0.000038,-0.936201,0.963553,0.000050,-0.826629,0.000207|vel|0.000000,0.670590,-0.701679,-0.000417,0.685263,-0.002413|eff|0.000000,-1401.855469,-1643.554688,-209.472656,-32.226562,-36.254883
cobot_dynamixel_driver/joint_states|name|J1,J2,J3,J4,J5,J6|pos|-0.000038,-0.922768,0.950246,0.000038,-0.813949,0.000207|vel|0.000000,0.703557,-0.707312,-0.000209,0.735934,-0.002413|eff|-112.792969,-773.437500,-837.890625,-161.132812,12.084961,-24.169922
cobot_dynamixel_driver/joint_states|name|J1,J2,J3,J4,J5,J6|pos|-0.000038,-0.909299,0.936814,0.000025,-0.800152,0.000207|vel|0.000000,0.659323,-0.700635,-0.000209,0.591505,0.000000|eff|-64.453125,-499.511719,-644.531250,-161.132812,88.623047,-36.254883
cobot_dynamixel_driver/joint_states|name|J1,J2,J3,J4,J5,J6|pos|-0.000038,-0.895904,0.923219,0.000025,-0.787037,0.000207|vel|0.000000,0.674346,-0.728803,-0.000209,0.658721,0.000000|eff|-128.906250,-354.492188,-757.324219,-128.906250,104.736328,-36.254883
cobot_dynamixel_driver/joint_states|name|J1,J2,J3,J4,J5,J6|pos|-0.000038,-0.882335,0.909737,0.000025,-0.774316,0.000207|vel|0.000000,0.737357,-0.718788,-0.000209,0.680782,0.000000|eff|-64.453125,-467.285156,-644.531250,-209.472656,56.396484,-44.311523
cobot_dynamixel_driver/joint_states|name|J1,J2,J3,J4,J5,J6|pos|-0.000038,-0.868802,0.896192,0.000013,-0.760829,0.000207|vel|0.000000,0.737775,-0.724630,-0.000209,0.649069,0.000000|eff|-112.792969,-1031.250000,-789.550781,-145.019531,12.084961,-44.311523
cobot_dynamixel_driver/joint_states|name|J1,J2,J3,J4,J5,J6|pos|-0.000038,-0.855295,0.882710,0.000013,-0.747363,0.000165|vel|0.000000,0.664748,-0.712737,-0.000209,0.652516,0.000000|eff|-64.453125,-1321.289062,-757.324219,-209.472656,-52.368164,-44.311523
cobot_dynamixel_driver/joint_states|name|J1,J2,J3,J4,J5,J6|pos|-0.000038,-0.841751,0.869190,0.000000,-0.733628,0.000103|vel|0.000000,0.709816,-0.704182,-0.000209,0.691123,-0.002758|eff|-128.906250,-1353.515625,-870.117188,-209.472656,36.254883,-40.283203
cobot_dynamixel_driver/joint_states|name|J1,J2,J3,J4,J5,J6|pos|-0.000038,-0.828093,0.855508,0.000000,-0.720803,0.000083|vel|0.000000,0.732558,-0.733810,-0.000209,0.790396,-0.002758|eff|-128.906250,-402.832031,-499.511719,-112.792969,68.481445,-36.254883
cobot_dynamixel_driver/joint_states|name|J1,J2,J3,J4,J5,J6|pos|-0.000038,-0.814586,0.841838,0.000000,-0.707316,0.000083|vel|0.000000,0.705643,-0.740278,-0.000209,0.855200,-0.002758|eff|-145.019531,-1047.363281,-708.984375,-161.132812,0.000000,-28.198242
cobot_dynamixel_driver/joint_states|name|J1,J2,J3,J4,J5,J6|pos|-0.000038,-0.801066,0.828344,-0.000013,-0.693850,0.000083|vel|0.000000,0.602154,-0.742365,-0.000209,0.618046,-0.002758|eff|0.000000,-1095.703125,-386.718750,-209.472656,40.283203,-32.226562
cobot_dynamixel_driver/joint_states|name|J1,J2,J3,J4,J5,J6|pos|-0.000038,-0.787597,0.814811,-0.000013,-0.679660,0.000083|vel|0.000000,0.747998,-0.734436,-0.000209,0.720078,-0.002758|eff|-128.906250,-2207.519531,-515.625000,-193.359375,12.084961,-20.141602
cobot_dynamixel_driver/joint_states|name|J1,J2,J3,J4,J5,J6|pos|-0.000038,-0.774290,0.801317,-0.000013,-0.666876,0.000083|vel|0.000000,0.669964,-0.705643,0.000000,0.694570,-0.002758|eff|-112.792969,-2658.691406,-515.625000,-209.472656,96.679688,-20.141602
cobot_dynamixel_driver/joint_states|name|J1,J2,J3,J4,J5,J6|pos|-0.000038,-0.760695,0.787960,-0.000013,-0.653369,0.000083|vel|0.000000,0.690412,-0.743408,0.000000,0.609084,0.000000|eff|0.000000,-2384.765625,-1788.574219,-209.472656,0.000000,-20.141602
cobot_dynamixel_driver/joint_states|name|J1,J2,J3,J4,J5,J6|pos|-0.000038,-0.747225,0.774277,-0.000013,-0.639302,0.000083|vel|0.000000,0.716493,-0.714823,0.000000,0.710771,0.000000|eff|-128.906250,-2336.425781,-676.757812,-209.472656,12.084961,-20.141602
cobot_dynamixel_driver/joint_states|name|J1,J2,J3,J4,J5,J6|pos|-0.000038,-0.733606,0.760682,-0.000013,-0.625981,0.000083|vel|0.000000,0.689994,-0.618429,0.000000,0.683884,0.000000|eff|-128.906250,-2368.652344,-692.871094,-112.792969,60.424805,-20.141602
cobot_dynamixel_driver/joint_states|name|J1,J2,J3,J4,J5,J6|pos|-0.000038,-0.720111,0.747225,-0.000025,-0.613591,0.000083|vel|0.000000,0.676224,-0.726299,0.000000,0.571167,0.000000|eff|0.000000,-2014.160156,-1385.742188,-209.472656,128.906250,-20.141602
cobot_dynamixel_driver/joint_states|name|J1,J2,J3,J4,J5,J6|pos|-0.000050,-0.706454,0.733931,-0.000025,-0.599380,0.000083|vel|0.000000,0.722543,-0.722543,0.000000,0.722835,0.000000|eff|-112.792969,-2336.425781,-2078.613281,-128.906250,52.368164,-20.141602
cobot_dynamixel_driver/joint_states|name|J1,J2,J3,J4,J5,J6|pos|-0.000050,-0.692884,0.720512,-0.000025,-0.585851,0.000083|vel|0.000000,0.667669,-0.730055,0.000000,0.672509,0.000000|eff|-112.792969,-3142.089844,-1788.574219,-209.472656,-12.084961,-28.198242
cobot_dynamixel_driver/joint_states|name|J1,J2,J3,J4,J5,J6|pos|-0.000038,-0.679251,0.706804,-0.000025,-0.573068,0.000083|vel|0.000000,0.709190,-0.695002,0.000000,0.593228,0.000000|eff|0.000000,-2723.144531,-1933.593750,-112.792969,48.339844,-20.141602
cobot_dynamixel_driver/joint_states|name|J1,J2,J3,J4,J5,J6|pos|-0.000038,-0.665707,0.693072,-0.000025,-0.558816,0.000083|vel|0.000000,0.695211,-0.631573,0.000000,0.678024,0.000000|eff|-112.792969,-3045.410156,-1595.214844,-225.585938,44.311523,-28.198242
cobot_dynamixel_driver/joint_states|name|J1,J2,J3,J4,J5,J6|pos|-0.000038,-0.652225,0.679464,-0.000025,-0.545287,0.000083|vel|0.000000,0.661201,-0.654525,0.000000,0.615289,0.000000|eff|-112.792969,-2288.085938,-1417.968750,-209.472656,0.000000,-20.141602
cobot_dynamixel_driver/joint_states|name|J1,J2,J3,J4,J5,J6|pos|-0.000038,-0.638655,0.665920,-0.000025,-0.531842,0.000083|vel|0.000000,0.702931,-0.717953,0.000000,0.647346,0.000000|eff|0.000000,-2916.503906,-1498.535156,-225.585938,104.736328,-20.141602
cobot_dynamixel_driver/joint_states|name|J1,J2,J3,J4,J5,J6|pos|-0.000038,-0.625060,0.652250,-0.000025,-0.518355,0.000083|vel|0.000000,0.715658,-0.691455,0.000000,0.792465,0.000000|eff|0.000000,-2497.558594,-580.078125,-209.472656,56.396484,-32.226562
cobot_dynamixel_driver/joint_states|name|J1,J2,J3,J4,J5,J6|pos|-0.000038,-0.611615,0.638692,-0.000025,-0.504785,0.000083|vel|0.000000,0.674972,-0.716493,0.000000,0.670786,0.000000|eff|0.000000,-2336.425781,-1192.382812,-209.472656,40.283203,-28.198242
cobot_dynamixel_driver/joint_states|name|J1,J2,J3,J4,J5,J6|pos|-0.000038,-0.598058,0.625185,-0.000025,-0.492291,0.000083|vel|0.000000,0.700010,-0.678936,0.000000,0.649414,0.000000|eff|0.000000,-1853.027344,-1240.722656,-128.906250,92.651367,-28.198242
cobot_dynamixel_driver/joint_states|name|J1,J2,J3,J4,J5,J6|pos|-0.000038,-0.584426,0.611903,-0.000038,-0.478329,0.000083|vel|0.000000,0.709607,-0.693750,0.000000,0.686297,0.000000|eff|-64.453125,-2449.218750,-2159.179688,-161.132812,108.764648,-28.198242
cobot_dynamixel_driver/joint_states|name|J1,J2,J3,J4,J5,J6|pos|-0.000038,-0.570806,0.598409,-0.000038,-0.464676,0.000083|vel|0.000000,0.709607,-0.714615,0.000000,0.702153,0.000000|eff|-96.679688,-3931.640625,-1820.800781,-177.246094,20.141602,-28.198242
cobot_dynamixel_driver/joint_states|name|J1,J2,J3,J4,J5,J6|pos|-0.000038,-0.557186,0.584701,-0.000038,-0.451458,0.000083|vel|0.000000,0.677267,-0.703348,0.000000,0.661823,0.000000|eff|0.000000,-3367.675781,-1595.214844,-145.019531,124.877930,-24.169922
cobot_dynamixel_driver/joint_states|name|J1,J2,J3,J4,J5,J6|pos|-0.000038,-0.543604,0.571069,-0.000038,-0.438344,0.000083|vel|0.000000,0.731098,-0.718162,0.000000,0.594952,0.000000|eff|0.000000,-3303.222656,-1981.933594,-112.792969,140.991211,-32.226562
cobot_dynamixel_driver/joint_states|name|J1,J2,J3,J4,J5,J6|pos|-0.000038,-0.530172,0.557487,-0.000038,-0.424650,0.000083|vel|0.000000,0.630530,-0.683318,0.000000,0.736278,0.000000|eff|0.000000,-2884.277344,-1498.535156,-112.792969,20.141602,-32.226562
cobot_dynamixel_driver/joint_states|name|J1,J2,J3,J4,J5,J6|pos|-0.000038,-0.516515,0.544180,-0.000038,-0.411246,0.000083|vel|0.000000,0.712946,-0.716284,0.000000,0.596330,0.000000|eff|0.000000,-2690.917969,-1724.121094,-209.472656,60.424805,-32.226562
cobot_dynamixel_driver/joint_states|name|J1,J2,J3,J4,J5,J6|pos|-0.000038,-0.502970,0.530773,-0.000038,-0.397801,0.000083|vel|0.000000,0.695002,-0.688534,0.000000,0.625285,0.000000|eff|0.000000,-2916.503906,-1192.382812,-112.792969,16.113281,-32.226562
cobot_dynamixel_driver/joint_states|name|J1,J2,J3,J4,J5,J6|pos|-0.000038,-0.489463,0.517391,-0.000038,-0.384934,0.000083|vel|0.000000,0.673094,-0.745494,0.000000,0.688365,0.000000|eff|-112.792969,-2191.406250,-692.871094,-209.472656,36.254883,-32.226562
cobot_dynamixel_driver/joint_states|name|J1,J2,J3,J4,J5,J6|pos|-0.000038,-0.475905,0.503809,-0.000038,-0.370744,0.000083|vel|0.000000,0.704182,-0.561259,0.000000,0.694915,0.000000|eff|-96.679688,-2755.371094,-1095.703125,-209.472656,32.226562,-32.226562
cobot_dynamixel_driver/joint_states|name|J1,J2,J3,J4,J5,J6|pos|-0.000038,-0.462248,0.490226,-0.000038,-0.357278,0.000083|vel|0.000000,0.740904,-0.713780,0.000000,0.668373,0.000000|eff|0.000000,-773.437500,-950.683594,-145.019531,88.623047,-36.254883
cobot_dynamixel_driver/joint_states|name|J1,J2,J3,J4,J5,J6|pos|-0.000038,-0.448541,0.476519,-0.000038,-0.343688,0.000083|vel|0.000000,0.655359,-0.755718,0.000000,0.690089,0.000000|eff|-48.339844,-1240.722656,-1305.175781,-145.019531,0.000000,-36.254883
cobot_dynamixel_driver/joint_states|name|J1,J2,J3,J4,J5,J6|pos|-0.000038,-0.434908,0.462861,-0.000038,-0.330325,0.000083|vel|0.000000,0.722752,-0.707312,0.000000,0.760063,0.000000|eff|0.000000,-547.851562,-1611.328125,-193.359375,64.453125,-36.254883
cobot_dynamixel_driver/joint_states|name|J1,J2,J3,J4,J5,J6|pos|-0.000038,-0.421401,0.449229,-0.000038,-0.317521,0.000083|vel|0.000000,0.690203,-0.628652,0.000000,0.598399,0.000000|eff|-96.679688,-854.003906,-1949.707031,-209.472656,84.594727,-36.254883
cobot_dynamixel_driver/joint_states|name|J1,J2,J3,J4,J5,J6|pos|-0.000038,-0.407869,0.435572,-0.000038,-0.303268,0.000083|vel|0.000000,0.663496,-0.700010,0.000000,0.797980,0.000000|eff|0.000000,-1514.648438,-2094.726562,-193.359375,68.481445,-36.254883
cobot_dynamixel_driver/joint_states|name|J1,J2,J3,J4,J5,J6|pos|-0.000038,-0.394262,0.421977,-0.000038,-0.290464,0.000083|vel|0.000000,0.712946,-0.696880,0.000000,0.721456,0.000000|eff|-48.339844,-547.851562,-1627.441406,-128.906250,20.141602,-36.254883
cobot_dynamixel_driver/joint_states|name|J1,J2,J3,J4,J5,J6|pos|-0.000038,-0.380642,0.408307,-0.000038,-0.276667,0.000083|vel|0.000000,0.737566,-0.691872,0.000000,0.674922,0.000000|eff|0.000000,-483.398438,-1820.800781,-209.472656,153.076172,-40.283203
cobot_dynamixel_driver/joint_states|name|J1,J2,J3,J4,J5,J6|pos|-0.000038,-0.367122,0.394637,-0.000038,-0.263077,0.000062|vel|0.000000,0.712946,-0.649517,0.000000,0.591505,0.000000|eff|-112.792969,-451.171875,-1289.062500,-112.792969,80.566406,-40.283203
cobot_dynamixel_driver/joint_states|name|J1,J2,J3,J4,J5,J6|pos|-0.000038,-0.353590,0.381067,-0.000038,-0.249755,0.000062|vel|0.000000,0.732141,-0.693750,0.000000,0.663202,0.000000|eff|0.000000,-644.531250,-999.023438,-161.132812,124.877930,-44.311523
cobot_dynamixel_driver/joint_states|name|J1,J2,J3,J4,J5,J6|pos|-0.000038,-0.339957,0.367811,-0.000038,-0.236331,0.000041|vel|0.000000,0.707729,-0.718370,0.000000,0.693191,0.000000|eff|-64.453125,-225.585938,-2078.613281,-145.019531,68.481445,-40.283203
cobot_dynamixel_driver/joint_states|name|J1,J2,J3,J4,J5,J6|pos|-0.000038,-0.326300,0.354203,-0.000038,-0.222699,0.000041|vel|0.000000,0.729011,-0.725047,0.000000,0.686986,-0.000345|eff|0.000000,257.812500,-1708.007812,-96.679688,96.679688,-40.283203
cobot_dynamixel_driver/joint_states|name|J1,J2,J3,J4,J5,J6|pos|-0.000038,-0.312730,0.340571,-0.000038,-0.209502,0.000021|vel|0.000000,0.629904,-0.601946,0.000000,0.710426,-0.000345|eff|-64.453125,435.058594,-2030.273438,-177.246094,153.076172,-40.283203
cobot_dynamixel_driver/joint_states|name|J1,J2,J3,J4,J5,J6|pos|-0.000038,-0.299198,0.326938,-0.000038,-0.195932,0.000021|vel|0.000000,0.682275,-0.732767,0.000000,0.674577,-0.000345|eff|0.000000,370.605469,-1337.402344,-112.792969,44.311523,-40.283203
cobot_dynamixel_driver/joint_states|name|J1,J2,J3,J4,J5,J6|pos|-0.000038,-0.285653,0.313294,-0.000038,-0.182383,0.000021|vel|0.000000,0.680605,-0.741322,0.000000,0.733866,-0.000345|eff|-64.453125,273.925781,-1176.269531,-112.792969,48.339844,-36.254883
cobot_dynamixel_driver/joint_states|name|J1,J2,J3,J4,J5,J6|pos|-0.000038,-0.272134,0.299699,-0.000038,-0.168834,0.000000|vel|0.000000,0.700010,-0.721083,0.000000,0.693536,-0.000345|eff|0.000000,386.718750,-805.664062,-161.132812,76.538086,-40.283203
cobot_dynamixel_driver/joint_states|name|J1,J2,J3,J4,J5,J6|pos|-0.000038,-0.258602,0.286066,-0.000038,-0.155389,0.000000|vel|0.000000,0.702513,-0.723587,0.000000,0.674577,-0.000345|eff|-96.679688,306.152344,-451.171875,-193.359375,56.396484,-40.283203
cobot_dynamixel_driver/joint_states|name|J1,J2,J3,J4,J5,J6|pos|-0.000038,-0.245057,0.272509,-0.000038,-0.141943,0.000000|vel|0.000000,0.710233,-0.633034,0.000000,0.718699,-0.000345|eff|0.000000,-225.585938,-708.984375,-96.679688,136.962891,-44.311523
cobot_dynamixel_driver/joint_states|name|J1,J2,J3,J4,J5,J6|pos|-0.000038,-0.231462,0.259015,-0.000038,-0.128394,0.000000|vel|0.000000,0.795570,-0.730472,0.000000,0.670096,-0.000345|eff|-64.453125,32.226562,-1079.589844,-96.679688,52.368164,-40.283203
cobot_dynamixel_driver/joint_states|name|J1,J2,J3,J4,J5,J6|pos|-0.000038,-0.217867,0.245745,-0.000038,-0.114907,-0.000021|vel|0.000000,0.742365,-0.717327,0.000000,0.732831,-0.000345|eff|-32.226562,-64.453125,-2046.386719,-193.359375,48.339844,-36.254883
cobot_dynamixel_driver/joint_states|name|J1,J2,J3,J4,J5,J6|pos|-0.000038,-0.204260,0.232201,-0.000038,-0.101545,-0.000021|vel|0.000000,0.699175,-0.701679,0.000000,0.683195,-0.000345|eff|0.000000,966.796875,-2110.839844,-112.792969,112.792969,-40.283203
cobot_dynamixel_driver/joint_states|name|J1,J2,J3,J4,J5,J6|pos|-0.000038,-0.190790,0.218493,-0.000038,-0.088265,-0.000021|vel|0.000000,0.681857,-0.715449,0.000000,0.673888,-0.000345|eff|0.000000,-225.585938,-1998.046875,-128.906250,8.056641,-40.283203
cobot_dynamixel_driver/joint_states|name|J1,J2,J3,J4,J5,J6|pos|-0.000038,-0.177333,0.204761,-0.000038,-0.076619,-0.000021|vel|0.000000,0.703139,-0.707312,0.000000,0.532906,0.000000|eff|0.000000,-1176.269531,-821.777344,-96.679688,-32.226562,-40.283203
cobot_dynamixel_driver/joint_states|name|J1,J2,J3,J4,J5,J6|pos|-0.000038,-0.163788,0.191016,-0.000038,-0.067021,-0.000021|vel|0.000000,0.717953,-0.725673,-0.002921,0.406056,0.000000|eff|0.000000,-1579.101562,-483.398438,-112.792969,-8.056641,-40.283203
cobot_dynamixel_driver/joint_states|name|J1,J2,J3,J4,J5,J6|pos|-0.000038,-0.150156,0.177458,-0.000038,-0.058705,-0.000041|vel|0.000000,0.724630,-0.711485,-0.002921,0.360211,0.000000|eff|0.000000,-64.453125,-435.058594,-193.359375,0.000000,-40.283203
cobot_dynamixel_driver/joint_states|name|J1,J2,J3,J4,J5,J6|pos|-0.000038,-0.136574,0.163876,-0.000038,-0.051382,-0.000041|vel|0.000000,0.676641,-0.741947,0.002086,0.367450,0.000000|eff|0.000000,-612.304688,-418.945312,-177.246094,16.113281,-40.283203
cobot_dynamixel_driver/joint_states|name|J1,J2,J3,J4,J5,J6|pos|-0.000038,-0.122929,0.150331,-0.000038,-0.045363,-0.000041|vel|0.000000,0.684570,-0.659532,0.002504,0.317124,0.000000|eff|-32.226562,515.625000,-515.625000,-96.679688,48.339844,-40.283203
cobot_dynamixel_driver/joint_states|name|J1,J2,J3,J4,J5,J6|pos|-0.000025,-0.109384,0.136699,-0.000038,-0.039757,-0.000041|vel|0.000000,0.700844,-0.702931,0.002504,0.265763,0.000000|eff|-96.679688,306.152344,-547.851562,-145.019531,36.254883,-40.283203
cobot_dynamixel_driver/joint_states|name|J1,J2,J3,J4,J5,J6|pos|-0.000025,-0.096002,0.123317,-0.000038,-0.034565,-0.000041|vel|0.000000,0.714406,-0.735062,-0.002921,0.212335,0.000000|eff|0.000000,-1192.382812,-644.531250,-96.679688,44.311523,-40.283203
cobot_dynamixel_driver/joint_states|name|J1,J2,J3,J4,J5,J6|pos|-0.000025,-0.083409,0.109810,-0.000038,-0.030325,-0.000041|vel|0.000000,0.625105,-0.705017,-0.002712,0.209577,0.000000|eff|0.000000,-177.246094,-837.890625,-161.132812,48.339844,-40.283203
cobot_dynamixel_driver/joint_states|name|J1,J2,J3,J4,J5,J6|pos|-0.000025,-0.072193,0.096616,-0.000038,-0.026581,-0.000041|vel|0.000000,0.538308,-0.645970,-0.002295,0.187517,0.000000|eff|0.000000,-241.699219,-1804.687500,-177.246094,48.339844,-40.283203
cobot_dynamixel_driver/joint_states|name|J1,J2,J3,J4,J5,J6|pos|-0.000025,-0.062428,0.084072,-0.000038,-0.023312,-0.000041|vel|0.000000,0.461944,-0.631782,-0.002921,0.149944,0.000000|eff|0.000000,547.851562,-1466.308594,-96.679688,56.396484,-44.311523
cobot_dynamixel_driver/joint_states|name|J1,J2,J3,J4,J5,J6|pos|-0.000025,-0.054129,0.072944,-0.000038,-0.020499,-0.000041|vel|0.000000,0.367218,-0.580038,-0.002295,0.119266,0.000000|eff|0.000000,-580.078125,-563.964844,-145.019531,80.566406,-40.283203
cobot_dynamixel_driver/joint_states|name|J1,J2,J3,J4,J5,J6|pos|-0.000025,-0.047106,0.063517,-0.000038,-0.017914,-0.000062|vel|0.000000,0.345519,-0.458188,0.001878,0.127884,0.000000|eff|0.000000,0.000000,-692.871094,-145.019531,60.424805,-40.283203
cobot_dynamixel_driver/joint_states|name|J1,J2,J3,J4,J5,J6|pos|-0.000025,-0.041010,0.055431,-0.000038,-0.015597,-0.000062|vel|0.000000,0.284803,-0.381823,0.001878,0.113406,0.000000|eff|0.000000,209.472656,-515.625000,-128.906250,72.509766,-44.311523
cobot_dynamixel_driver/joint_states|name|J1,J2,J3,J4,J5,J6|pos|-0.000025,-0.035752,0.048521,-0.000038,-0.013632,-0.000062|vel|0.000000,0.246620,-0.333626,-0.001252,0.106512,0.000000|eff|0.000000,273.925781,-999.023438,-145.019531,60.424805,-40.283203
cobot_dynamixel_driver/joint_states|name|J1,J2,J3,J4,J5,J6|pos|-0.000025,-0.031170,0.042399,-0.000038,-0.011935,-0.000062|vel|0.000000,0.220748,-0.332165,-0.001043,0.083762,0.000000|eff|0.000000,0.000000,-886.230469,-145.019531,56.396484,-36.254883
cobot_dynamixel_driver/joint_states|name|J1,J2,J3,J4,J5,J6|pos|-0.000025,-0.027165,0.037117,-0.000038,-0.010487,-0.000062|vel|0.000000,0.181940,-0.234102,0.001043,0.072042,0.000000|eff|-32.226562,209.472656,-902.343750,-177.246094,68.481445,-36.254883
cobot_dynamixel_driver/joint_states|name|J1,J2,J3,J4,J5,J6|pos|-0.000025,-0.023710,0.032472,-0.000038,-0.009205,-0.000062|vel|0.000000,0.172968,-0.230763,0.001043,0.065493,0.000000|eff|0.000000,128.906250,-741.210938,-177.246094,52.368164,-36.254883
cobot_dynamixel_driver/joint_states|name|J1,J2,J3,J4,J5,J6|pos|-0.000025,-0.020768,0.028341,-0.000038,-0.008047,-0.000062|vel|0.000000,0.135412,-0.206977,-0.000835,0.056531,0.000000|eff|0.000000,96.679688,-692.871094,-161.132812,64.453125,-36.254883
cobot_dynamixel_driver/joint_states|name|J1,J2,J3,J4,J5,J6|pos|-0.000025,-0.018239,0.024761,-0.000038,-0.007033,-0.000062|vel|0.000000,0.136038,-0.166917,0.000835,0.051016,0.000000|eff|0.000000,257.812500,-773.437500,-112.792969,84.594727,-36.254883
cobot_dynamixel_driver/joint_states|name|J1,J2,J3,J4,J5,J6|pos|-0.000025,-0.015998,0.021719,-0.000038,-0.006164,-0.000062|vel|0.000000,0.100776,-0.141045,-0.000626,0.046190,0.000000|eff|0.000000,193.359375,-821.777344,-96.679688,80.566406,-36.254883
cobot_dynamixel_driver/joint_states|name|J1,J2,J3,J4,J5,J6|pos|-0.000025,-0.013970,0.019078,-0.000038,-0.005482,-0.000062|vel|0.000000,0.089092,-0.132491,0.000626,0.034470,0.000000|eff|0.000000,225.585938,-773.437500,-145.019531,92.651367,-32.226562
cobot_dynamixel_driver/joint_states|name|J1,J2,J3,J4,J5,J6|pos|-0.000025,-0.012218,0.016737,-0.000038,-0.004820,-0.000062|vel|0.000000,0.095977,-0.112043,-0.000417,0.031023,0.000000|eff|-32.226562,193.359375,-837.890625,-96.679688,92.651367,-32.226562
cobot_dynamixel_driver/joint_states|name|J1,J2,J3,J4,J5,J6|pos|-0.000025,-0.010728,0.014696,-0.000038,-0.004199,-0.000062|vel|0.000000,0.068853,-0.097021,-0.000417,0.028955,0.000000|eff|0.000000,161.132812,-805.664062,-128.906250,80.566406,-32.226562
cobot_dynamixel_driver/joint_states|name|J1,J2,J3,J4,J5,J6|pos|-0.000025,-0.009439,0.012844,-0.000038,-0.003641,-0.000062|vel|0.000000,0.059047,-0.096812,0.000417,0.030678,0.000000|eff|-64.453125,177.246094,-821.777344,-112.792969,52.368164,-32.226562
cobot_dynamixel_driver/joint_states|name|J1,J2,J3,J4,J5,J6|pos|-0.000025,-0.008287,0.011229,-0.000038,-0.003206,-0.000062|vel|0.000000,0.052788,-0.077825,-0.000209,0.021371,0.000000|eff|0.000000,161.132812,-854.003906,-145.019531,88.623047,-32.226562
cobot_dynamixel_driver/joint_states|name|J1,J2,J3,J4,J5,J6|pos|-0.000025,-0.007261,0.009864,-0.000038,-0.002834,-0.000062|vel|0.000000,0.047363,-0.065724,-0.000209,0.018614,0.000000|eff|0.000000,193.359375,-870.117188,-96.679688,76.538086,-32.226562
cobot_dynamixel_driver/joint_states|name|J1,J2,J3,J4,J5,J6|pos|-0.000025,-0.006322,0.008738,-0.000038,-0.002524,-0.000062|vel|0.000000,0.042773,-0.053622,0.000209,0.013099,0.000000|eff|0.000000,257.812500,-934.570312,-96.679688,88.623047,-32.226562
cobot_dynamixel_driver/joint_states|name|J1,J2,J3,J4,J5,J6|pos|-0.000025,-0.005508,0.007674,-0.000038,-0.002213,-0.000062|vel|0.000000,0.036096,-0.055083,0.000209,0.017924,0.000000|eff|0.000000,225.585938,-886.230469,-177.246094,92.651367,-32.226562
cobot_dynamixel_driver/joint_states|name|J1,J2,J3,J4,J5,J6|pos|-0.000025,-0.004845,0.006672,-0.000038,-0.001882,-0.000062|vel|0.000000,0.032758,-0.049241,0.000209,0.013788,0.000000|eff|0.000000,193.359375,-837.890625,-96.679688,80.566406,-28.198242
cobot_dynamixel_driver/joint_states|name|J1,J2,J3,J4,J5,J6|pos|-0.000025,-0.004281,0.005833,-0.000038,-0.001676,-0.000062|vel|0.000000,0.025664,-0.043607,0.000209,0.008273,0.000000|eff|0.000000,48.339844,-854.003906,-96.679688,68.481445,-28.198242
cobot_dynamixel_driver/joint_states|name|J1,J2,J3,J4,J5,J6|pos|-0.000025,-0.003781,0.005120,-0.000038,-0.001510,-0.000062|vel|0.000000,0.025246,-0.033383,0.000000,0.008962,0.000000|eff|-64.453125,145.019531,-886.230469,-145.019531,96.679688,-32.226562
cobot_dynamixel_driver/joint_states|name|J1,J2,J3,J4,J5,J6|pos|-0.000025,-0.003267,0.004469,-0.000038,-0.001345,-0.000062|vel|0.000000,0.024203,-0.027333,0.000000,0.010341,0.000000|eff|0.000000,225.585938,-918.457031,-128.906250,92.651367,-24.169922
cobot_dynamixel_driver/joint_states|name|J1,J2,J3,J4,J5,J6|pos|-0.000025,-0.002829,0.003918,-0.000038,-0.001158,-0.000062|vel|0.000000,0.022117,-0.030462,0.000000,0.008273,0.000000|eff|0.000000,225.585938,-870.117188,-96.679688,92.651367,-20.141602
cobot_dynamixel_driver/joint_states|name|J1,J2,J3,J4,J5,J6|pos|-0.000025,-0.002441,0.003392,-0.000038,-0.001014,-0.000062|vel|0.000000,0.017318,-0.022951,0.000000,0.005860,0.000000|eff|0.000000,193.359375,-918.457031,-145.019531,84.594727,-24.169922
cobot_dynamixel_driver/joint_states|name|J1,J2,J3,J4,J5,J6|pos|-0.000025,-0.002166,0.003004,-0.000038,-0.000910,-0.000062|vel|0.000000,0.012310,-0.021491,0.000000,0.005170,0.000000|eff|0.000000,177.246094,-886.230469,-96.679688,84.594727,-20.141602
cobot_dynamixel_driver/joint_states|name|J1,J2,J3,J4,J5,J6|pos|-0.000025,-0.001928,0.002591,-0.000038,-0.000786,-0.000062|vel|0.000000,0.012310,-0.013771,0.000000,0.007583,0.000000|eff|0.000000,161.132812,-966.796875,-177.246094,92.651367,-20.141602
cobot_dynamixel_driver/joint_states|name|J1,J2,J3,J4,J5,J6|pos|-0.000025,-0.001677,0.002353,-0.000038,-0.000662,-0.000062|vel|0.000000,0.013353,-0.011058,0.000000,0.006205,0.000000|eff|0.000000,193.359375,-966.796875,-96.679688,100.708008,-20.141602
cobot_dynamixel_driver/joint_states|name|J1,J2,J3,J4,J5,J6|pos|-0.000025,-0.001440,0.002078,-0.000038,-0.000579,-0.000062|vel|0.000000,0.011058,-0.015857,0.000000,0.004481,0.000000|eff|0.000000,161.132812,-934.570312,-177.246094,100.708008,-20.141602
cobot_dynamixel_driver/joint_states|name|J1,J2,J3,J4,J5,J6|pos|-0.000025,-0.001264,0.001677,-0.000038,-0.000455,-0.000062|vel|0.000000,0.006468,-0.018778,0.000000,0.006549,0.000000|eff|0.000000,96.679688,-805.664062,-96.679688,80.566406,-20.141602
cobot_dynamixel_driver/joint_states|name|J1,J2,J3,J4,J5,J6|pos|-0.000025,-0.001152,0.001427,-0.000038,-0.000414,-0.000062|vel|0.000000,0.006051,-0.008763,0.000000,0.005860,0.000000|eff|0.000000,96.679688,-870.117188,-96.679688,72.509766,-20.141602
cobot_dynamixel_driver/joint_states|name|J1,J2,J3,J4,J5,J6|pos|-0.000025,-0.001052,0.001277,-0.000038,-0.000414,-0.000062|vel|0.000000,0.004799,-0.007094,0.000000,0.005860,0.000000|eff|0.000000,96.679688,-902.343750,-145.019531,68.481445,-20.141602
cobot_dynamixel_driver/joint_states|name|J1,J2,J3,J4,J5,J6|pos|-0.000025,-0.000926,0.001102,-0.000038,-0.000414,-0.000062|vel|0.000000,0.006885,-0.010224,0.000000,0.005860,0.000000|eff|0.000000,225.585938,-821.777344,-96.679688,64.453125,-20.141602
cobot_dynamixel_driver/joint_states|name|J1,J2,J3,J4,J5,J6|pos|-0.000025,-0.000776,0.000851,-0.000038,-0.000414,-0.000062|vel|0.000000,0.007929,-0.012519,0.000000,0.005860,0.000000|eff|0.000000,322.265625,-789.550781,-128.906250,52.368164,-20.141602
cobot_dynamixel_driver/joint_states|name|J1,J2,J3,J4,J5,J6|pos|-0.000025,-0.000626,0.000689,-0.000038,-0.000414,-0.000062|vel|0.000000,0.006051,-0.005842,0.000000,0.005860,0.000000|eff|0.000000,209.472656,-773.437500,-96.679688,48.339844,-20.141602
cobot_dynamixel_driver/joint_states|name|J1,J2,J3,J4,J5,J6|pos|-0.000025,-0.000551,0.000626,-0.000038,-0.000414,-0.000062|vel|0.000000,0.004173,-0.003964,0.000000,0.005860,0.000000|eff|-96.679688,225.585938,-805.664062,-96.679688,48.339844,-20.141602
cobot_dynamixel_driver/joint_states|name|J1,J2,J3,J4,J5,J6|pos|-0.000025,-0.000463,0.000626,-0.000038,-0.000414,-0.000062|vel|0.000000,0.003756,-0.003964,0.000000,0.000000,0.000000|eff|0.000000,193.359375,-805.664062,-96.679688,52.368164,-16.113281
cobot_dynamixel_driver/joint_states|name|J1,J2,J3,J4,J5,J6|pos|-0.000025,-0.000388,0.000613,-0.000038,-0.000414,-0.000062|vel|0.000000,0.003756,-0.000626,0.000000,0.000000,0.000000|eff|0.000000,177.246094,-870.117188,-96.679688,60.424805,-16.113281
cobot_dynamixel_driver/joint_states|name|J1,J2,J3,J4,J5,J6|pos|-0.000025,-0.000313,0.000576,-0.000038,-0.000414,-0.000062|vel|0.000000,0.003756,-0.001669,0.000000,0.000000,0.000000|eff|0.000000,225.585938,-854.003906,-96.679688,72.509766,-20.141602
cobot_dynamixel_driver/joint_states|name|J1,J2,J3,J4,J5,J6|pos|-0.000025,-0.000250,0.000563,-0.000038,-0.000414,-0.000062|vel|0.000000,0.003338,-0.001669,0.000000,0.000000,0.000000|eff|0.000000,161.132812,-902.343750,-96.679688,64.453125,0.000000
cobot_dynamixel_driver/joint_states|name|J1,J2,J3,J4,J5,J6|pos|-0.000025,-0.000188,0.000551,-0.000038,-0.000414,-0.000062|vel|0.000000,0.002921,-0.000626,0.000000,0.000000,0.000000|eff|-64.453125,241.699219,-934.570312,-96.679688,76.538086,-12.084961
cobot_dynamixel_driver/joint_states|name|J1,J2,J3,J4,J5,J6|pos|-0.000025,-0.000188,0.000538,-0.000038,-0.000414,-0.000062|vel|0.000000,0.002921,-0.000626,0.000000,0.000000,0.000000|eff|0.000000,306.152344,-918.457031,-96.679688,80.566406,-8.056641
cobot_dynamixel_driver/joint_states|name|J1,J2,J3,J4,J5,J6|pos|-0.000025,-0.000188,0.000513,-0.000038,-0.000372,-0.000062|vel|0.000000,0.002921,-0.000835,0.000000,0.002068,0.000000|eff|0.000000,225.585938,-902.343750,-96.679688,68.481445,0.000000
cobot_dynamixel_driver/joint_states|name|J1,J2,J3,J4,J5,J6|pos|-0.000025,-0.000188,0.000488,-0.000038,-0.000290,-0.000062|vel|0.000000,0.002921,-0.000835,0.000000,0.004136,0.000000|eff|0.000000,257.812500,-934.570312,-96.679688,80.566406,-20.141602
cobot_dynamixel_driver/joint_states|name|J1,J2,J3,J4,J5,J6|pos|-0.000025,-0.000188,0.000476,-0.000038,-0.000248,-0.000062|vel|0.000000,0.002921,-0.000835,0.000000,0.004136,0.000000|eff|0.000000,225.585938,-934.570312,-96.679688,76.538086,-20.141602
cobot_dynamixel_driver/joint_states|name|J1,J2,J3,J4,J5,J6|pos|-0.000025,-0.000188,0.000463,-0.000038,-0.000248,-0.000062|vel|0.000000,0.002921,-0.000626,0.000000,0.004136,0.000000|eff|0.000000,225.585938,-934.570312,-96.679688,68.481445,-20.141602
cobot_dynamixel_driver/joint_states|name|J1,J2,J3,J4,J5,J6|pos|-0.000025,-0.000188,0.000463,-0.000038,-0.000248,-0.000062|vel|0.000000,-0.000000,-0.000626,0.000000,0.004136,0.000000|eff|-32.226562,225.585938,-982.910156,-96.679688,64.453125,0.000000
cobot_dynamixel_driver/joint_states|name|J1,J2,J3,J4,J5,J6|pos|-0.000025,-0.000188,0.000463,-0.000038,-0.000248,-0.000062|vel|0.000000,-0.000000,-0.000626,0.000000,0.004136,0.000000|eff|-32.226562,241.699219,-966.796875,-96.679688,60.424805,-20.141602
cobot_dynamixel_driver/joint_states|name|J1,J2,J3,J4,J5,J6|pos|-0.000025,-0.000188,0.000451,-0.000038,-0.000248,-0.000062|vel|0.000000,-0.000000,-0.000209,0.000000,0.004136,0.000000|eff|0.000000,225.585938,-999.023438,-96.679688,56.396484,-12.084961
cobot_dynamixel_driver/joint_states|name|J1,J2,J3,J4,J5,J6|pos|-0.000025,-0.000188,0.000426,-0.000038,-0.000248,-0.000062|vel|0.000000,-0.000000,-0.000209,0.000000,0.004136,0.000000|eff|0.000000,225.585938,-1031.250000,-96.679688,48.339844,-12.084961
cobot_dynamixel_driver/joint_states|name|J1,J2,J3,J4,J5,J6|pos|-0.000025,-0.000188,0.000388,-0.000038,-0.000248,-0.000062|vel|0.000000,-0.000000,-0.001878,0.000000,0.000000,0.000000|eff|0.000000,241.699219,-1015.136719,-48.339844,60.424805,0.000000
cobot_dynamixel_driver/joint_states|name|J1,J2,J3,J4,J5,J6|pos|-0.000025,-0.000175,0.000313,-0.000038,-0.000248,-0.000062|vel|0.000000,-0.000000,-0.003756,0.000000,0.000000,0.000000|eff|0.000000,225.585938,-1015.136719,-96.679688,64.453125,0.000000
cobot_dynamixel_driver/joint_states|name|J1,J2,J3,J4,J5,J6|pos|-0.000025,-0.000175,0.000225,-0.000038,-0.000248,-0.000062|vel|0.000000,-0.000000,-0.003964,0.000000,0.000000,0.000000|eff|0.000000,225.585938,-982.910156,-96.679688,64.453125,-16.113281
cobot_dynamixel_driver/joint_states|name|J1,J2,J3,J4,J5,J6|pos|-0.000025,-0.000175,0.000125,-0.000038,-0.000248,-0.000062|vel|0.000000,-0.000000,-0.005633,0.000000,0.000000,0.000000|eff|0.000000,225.585938,-950.683594,-96.679688,72.509766,0.000000
cobot_dynamixel_driver/joint_states|name|J1,J2,J3,J4,J5,J6|pos|-0.000025,-0.000175,-0.000013,-0.000038,-0.000248,-0.000062|vel|0.000000,-0.000000,-0.007094,0.000000,0.000000,0.000000|eff|0.000000,145.019531,-886.230469,-96.679688,72.509766,0.000000
cobot_dynamixel_driver/joint_states|name|J1,J2,J3,J4,J5,J6|pos|-0.000025,-0.000163,-0.000150,-0.000038,-0.000248,-0.000062|vel|0.000000,-0.000000,-0.005842,0.000000,0.000000,0.000000|eff|-64.453125,241.699219,-837.890625,-96.679688,80.566406,0.000000
cobot_dynamixel_driver/joint_states|name|J1,J2,J3,J4,J5,J6|pos|-0.000025,-0.000163,-0.000225,-0.000038,-0.000248,-0.000062|vel|0.000000,-0.000000,-0.003756,0.000000,0.000000,0.000000|eff|0.000000,225.585938,-837.890625,-96.679688,76.538086,0.000000
cobot_dynamixel_driver/joint_states|name|J1,J2,J3,J4,J5,J6|pos|-0.000025,-0.000163,-0.000238,-0.000038,-0.000228,-0.000062|vel|0.000000,-0.000000,-0.002504,0.000000,0.000000,0.000000|eff|0.000000,241.699219,-789.550781,0.000000,76.538086,0.000000
cobot_dynamixel_driver/joint_states|name|J1,J2,J3,J4,J5,J6|pos|-0.000025,-0.000138,-0.000238,-0.000038,-0.000228,-0.000062|vel|0.000000,-0.000000,-0.002504,0.000000,0.000000,0.000000|eff|0.000000,64.453125,-789.550781,-96.679688,84.594727,0.000000
cobot_dynamixel_driver/joint_states|name|J1,J2,J3,J4,J5,J6|pos|-0.000025,-0.000125,-0.000238,-0.000038,-0.000207,-0.000062|vel|0.000000,0.000626,-0.002504,0.000000,0.000689,0.000000|eff|0.000000,161.132812,-741.210938,-96.679688,84.594727,0.000000
cobot_dynamixel_driver/joint_states|name|J1,J2,J3,J4,J5,J6|pos|-0.000025,-0.000113,-0.000238,-0.000038,-0.000165,-0.000062|vel|0.000000,0.000626,-0.002504,0.000000,0.000689,0.000000|eff|0.000000,257.812500,-725.097656,-48.339844,84.594727,0.000000
cobot_dynamixel_driver/joint_states|name|J1,J2,J3,J4,J5,J6|pos|-0.000025,-0.000113,-0.000238,-0.000038,-0.000124,-0.000062|vel|0.000000,0.000626,-0.002504,0.000000,0.002068,0.000000|eff|-96.679688,241.699219,-741.210938,-48.339844,88.623047,0.000000
cobot_dynamixel_driver/joint_states|name|J1,J2,J3,J4,J5,J6|pos|-0.000025,-0.000100,-0.000238,-0.000038,-0.000083,-0.000062|vel|0.000000,0.000626,-0.002504,0.000000,0.002068,0.000000|eff|0.000000,145.019531,-741.210938,-96.679688,76.538086,0.000000
cobot_dynamixel_driver/joint_states|name|J1,J2,J3,J4,J5,J6|pos|-0.000025,-0.000088,-0.000238,-0.000038,-0.000083,-0.000062|vel|0.000000,0.000626,0.000000,0.000000,0.002068,0.000000|eff|0.000000,241.699219,-692.871094,-96.679688,76.538086,0.000000
cobot_dynamixel_driver/joint_states|name|J1,J2,J3,J4,J5,J6|pos|-0.000025,-0.000075,-0.000238,-0.000038,-0.000083,-0.000062|vel|0.000000,0.000209,0.000000,0.000000,0.002068,0.000000|eff|-96.679688,257.812500,-676.757812,-96.679688,72.509766,0.000000
cobot_dynamixel_driver/joint_states|name|J1,J2,J3,J4,J5,J6|pos|-0.000025,-0.000050,-0.000238,-0.000038,-0.000083,-0.000062|vel|0.000000,0.001043,0.000000,0.000000,0.002068,0.000000|eff|0.000000,306.152344,-692.871094,-48.339844,68.481445,0.000000
cobot_dynamixel_driver/joint_states|name|J1,J2,J3,J4,J5,J6|pos|-0.000025,-0.000025,-0.000238,-0.000038,-0.000083,-0.000062|vel|0.000000,0.001669,0.000000,0.000000,0.002068,0.000000|eff|0.000000,241.699219,-676.757812,-80.566406,68.481445,0.000000
cobot_dynamixel_driver/joint_states|name|J1,J2,J3,J4,J5,J6|pos|-0.000025,-0.000025,-0.000225,-0.000038,-0.000083,-0.000062|vel|0.000000,0.001669,0.000000,0.000000,0.002068,0.000000|eff|0.000000,225.585938,-692.871094,-96.679688,60.424805,0.000000
cobot_dynamixel_driver/joint_states|name|J1,J2,J3,J4,J5,J6|pos|-0.000025,-0.000025,-0.000225,-0.000038,-0.000083,-0.000062|vel|0.000000,0.001669,0.000000,0.000000,0.000000,0.000000|eff|-64.453125,225.585938,-676.757812,-48.339844,60.424805,0.000000
cobot_dynamixel_driver/joint_states|name|J1,J2,J3,J4,J5,J6|pos|-0.000025,-0.000025,-0.000225,-0.000038,-0.000083,-0.000062|vel|0.000000,0.001669,0.000000,0.000000,0.000000,0.000000|eff|-64.453125,290.039062,-692.871094,-64.453125,68.481445,0.000000
cobot_dynamixel_driver/joint_states|name|J1,J2,J3,J4,J5,J6|pos|-0.000025,-0.000025,-0.000225,-0.000038,-0.000083,-0.000062|vel|0.000000,0.001669,0.000000,0.000000,0.000000,0.000000|eff|0.000000,225.585938,-660.644531,-48.339844,64.453125,12.084961
cobot_dynamixel_driver/joint_states|name|J1,J2,J3,J4,J5,J6|pos|-0.000025,-0.000025,-0.000225,-0.000038,-0.000083,-0.000062|vel|0.000000,0.001669,0.000000,0.000000,0.000000,0.000000|eff|0.000000,290.039062,-628.417969,-64.453125,68.481445,8.056641
cobot_dynamixel_driver/joint_states|name|J1,J2,J3,J4,J5,J6|pos|-0.000025,-0.000025,-0.000225,-0.000038,-0.000083,-0.000062|vel|0.000000,-0.000000,0.000000,0.000000,0.000000,0.000000|eff|-32.226562,225.585938,-628.417969,-80.566406,64.453125,12.084961
cobot_dynamixel_driver/joint_states|name|J1,J2,J3,J4,J5,J6|pos|-0.000025,-0.000025,-0.000225,-0.000038,-0.000083,-0.000062|vel|0.000000,-0.000000,0.000000,0.000000,0.000000,0.000000|eff|0.000000,225.585938,-676.757812,-96.679688,64.453125,8.056641
cobot_dynamixel_driver/joint_states|name|J1,J2,J3,J4,J5,J6|pos|-0.000025,-0.000025,-0.000225,-0.000038,-0.000083,-0.000062|vel|0.000000,-0.000000,0.000000,0.000000,0.000000,0.000000|eff|0.000000,225.585938,-644.531250,-96.679688,68.481445,12.084961
cobot_dynamixel_driver/joint_states|name|J1,J2,J3,J4,J5,J6|pos|-0.000025,-0.000025,-0.000225,-0.000038,-0.000083,-0.000062|vel|0.000000,-0.000000,0.000000,0.000000,0.000000,0.000000|eff|0.000000,225.585938,-596.191406,-48.339844,72.509766,12.084961
cobot_dynamixel_driver/joint_states|name|J1,J2,J3,J4,J5,J6|pos|-0.000025,-0.000025,-0.000213,-0.000038,-0.000083,-0.000062|vel|0.000000,-0.000000,0.000000,0.000000,0.000000,0.000000|eff|0.000000,225.585938,-660.644531,0.000000,64.453125,8.056641
cobot_dynamixel_driver/joint_states|name|J1,J2,J3,J4,J5,J6|pos|-0.000025,-0.000025,-0.000213,-0.000038,-0.000083,-0.000062|vel|0.000000,-0.000000,0.000000,0.000000,0.000000,0.000000|eff|-64.453125,225.585938,-596.191406,-48.339844,72.509766,12.084961
cobot_dynamixel_driver/joint_states|name|J1,J2,J3,J4,J5,J6|pos|-0.000025,-0.000025,-0.000200,-0.000038,-0.000083,-0.000062|vel|0.000000,-0.000000,0.000000,0.000000,0.000000,0.000000|eff|0.000000,225.585938,-580.078125,-48.339844,72.509766,0.000000
cobot_dynamixel_driver/joint_states|name|J1,J2,J3,J4,J5,J6|pos|-0.000025,-0.000025,-0.000200,-0.000038,-0.000083,-0.000062|vel|0.000000,-0.000000,0.000000,0.000000,0.000000,0.000000|eff|0.000000,225.585938,-660.644531,-80.566406,72.509766,8.056641
cobot_dynamixel_driver/joint_states|name|J1,J2,J3,J4,J5,J6|pos|-0.000025,-0.000025,-0.000200,-0.000038,-0.000083,-0.000062|vel|0.000000,-0.000000,0.000000,0.000000,0.000000,0.000000|eff|-96.679688,225.585938,-580.078125,-64.453125,72.509766,12.084961
cobot_dynamixel_driver/joint_states|name|J1,J2,J3,J4,J5,J6|pos|-0.000025,-0.000025,-0.000200,-0.000038,-0.000083,-0.000062|vel|0.000000,-0.000000,0.000000,0.000000,0.000000,0.000000|eff|0.000000,322.265625,-596.191406,-96.679688,72.509766,16.113281
cobot_dynamixel_driver/joint_states|name|J1,J2,J3,J4,J5,J6|pos|-0.000025,-0.000025,-0.000188,-0.000038,-0.000083,-0.000062|vel|0.000000,-0.000000,0.000000,0.000000,0.000000,0.000000|eff|0.000000,241.699219,-563.964844,0.000000,72.509766,12.084961
cobot_dynamixel_driver/joint_states|name|J1,J2,J3,J4,J5,J6|pos|-0.000025,-0.000025,-0.000188,-0.000038,-0.000083,-0.000021|vel|0.000000,-0.000000,0.000209,0.000000,0.000000,0.000000|eff|0.000000,241.699219,-580.078125,-80.566406,72.509766,12.084961
cobot_dynamixel_driver/joint_states|name|J1,J2,J3,J4,J5,J6|pos|-0.000025,-0.000025,-0.000188,-0.000038,-0.000083,0.000021|vel|0.000000,-0.000000,0.000209,0.000000,0.000000,0.003102|eff|0.000000,225.585938,-580.078125,-48.339844,76.538086,8.056641
cobot_dynamixel_driver/joint_states|name|J1,J2,J3,J4,J5,J6|pos|-0.000025,-0.000025,-0.000175,-0.000038,-0.000083,0.000062|vel|0.000000,-0.000000,0.000209,0.000000,0.000000,0.003102|eff|0.000000,225.585938,-531.738281,-48.339844,76.538086,-8.056641
cobot_dynamixel_driver/joint_states|name|J1,J2,J3,J4,J5,J6|pos|-0.000025,-0.000025,-0.000175,-0.000038,-0.000083,0.000062|vel|0.000000,-0.000000,0.000209,0.000000,0.000000,0.003102|eff|0.000000,225.585938,-547.851562,-48.339844,76.538086,-8.056641
cobot_dynamixel_driver/joint_states|name|J1,J2,J3,J4,J5,J6|pos|-0.000025,-0.000025,-0.000175,-0.000038,-0.000083,0.000062|vel|0.000000,-0.000000,0.000209,0.000000,0.000000,0.003102|eff|-64.453125,225.585938,-580.078125,-80.566406,76.538086,-8.056641
cobot_dynamixel_driver/joint_states|name|J1,J2,J3,J4,J5,J6|pos|-0.000025,-0.000025,-0.000175,-0.000038,-0.000083,0.000062|vel|0.000000,-0.000000,0.000209,0.000000,0.000000,0.003102|eff|0.000000,225.585938,-531.738281,-96.679688,80.566406,-16.113281
cobot_dynamixel_driver/joint_states|name|J1,J2,J3,J4,J5,J6|pos|-0.000025,-0.000025,-0.000175,-0.000038,-0.000083,0.000062|vel|0.000000,-0.000000,0.000000,0.000000,0.000000,0.003102|eff|0.000000,225.585938,-547.851562,-48.339844,80.566406,-28.198242
cobot_dynamixel_driver/joint_states|name|J1,J2,J3,J4,J5,J6|pos|-0.000025,-0.000025,-0.000163,-0.000038,-0.000083,0.000062|vel|0.000000,-0.000000,0.000000,0.000000,0.000000,0.003102|eff|-64.453125,225.585938,-580.078125,-80.566406,76.538086,-36.254883
cobot_dynamixel_driver/joint_states|name|J1,J2,J3,J4,J5,J6|pos|-0.000025,-0.000025,-0.000163,-0.000038,-0.000083,0.000062|vel|0.000000,-0.000000,0.000000,0.000000,0.000000,0.000000|eff|0.000000,225.585938,-499.511719,-64.453125,76.538086,-32.226562
cobot_dynamixel_driver/joint_states|name|J1,J2,J3,J4,J5,J6|pos|-0.000025,-0.000025,-0.000163,-0.000038,-0.000083,0.000062|vel|0.000000,-0.000000,0.000000,0.000000,0.000000,0.000000|eff|0.000000,322.265625,-499.511719,-80.566406,80.566406,-40.283203
cobot_dynamixel_driver/joint_states|name|J1,J2,J3,J4,J5,J6|pos|-0.000025,-0.000025,-0.000163,-0.000038,-0.000083,0.000062|vel|0.000000,-0.000000,0.000000,0.000000,0.000000,0.000000|eff|0.000000,322.265625,-515.625000,-64.453125,80.566406,-28.198242
cobot_dynamixel_driver/joint_states|name|J1,J2,J3,J4,J5,J6|pos|-0.000025,-0.000025,-0.000163,-0.000025,-0.000083,0.000062|vel|0.000000,-0.000000,0.000000,0.000000,0.000000,0.000000|eff|-96.679688,241.699219,-547.851562,0.000000,84.594727,-36.254883
cobot_dynamixel_driver/joint_states|name|J1,J2,J3,J4,J5,J6|pos|-0.000025,-0.000025,-0.000150,-0.000025,-0.000062,0.000062|vel|0.000000,-0.000000,0.000000,0.000000,0.000000,0.000000|eff|-64.453125,241.699219,-483.398438,-80.566406,92.651367,-40.283203
cobot_dynamixel_driver/joint_states|name|J1,J2,J3,J4,J5,J6|pos|-0.000025,-0.000025,-0.000150,-0.000025,-0.000041,0.000062|vel|0.000000,-0.000000,0.000000,0.000000,0.000000,0.000000|eff|0.000000,225.585938,-515.625000,-64.453125,84.594727,-32.226562
cobot_dynamixel_driver/joint_states|name|J1,J2,J3,J4,J5,J6|pos|-0.000025,-0.000025,-0.000138,-0.000025,-0.000041,0.000062|vel|0.000000,-0.000000,0.000000,0.000000,0.001034,0.000000|eff|-80.566406,225.585938,-483.398438,-80.566406,88.623047,-36.254883
cobot_dynamixel_driver/joint_states|name|J1,J2,J3,J4,J5,J6|pos|-0.000025,-0.000025,-0.000138,-0.000025,-0.000041,0.000062|vel|0.000000,-0.000000,0.000209,0.000000,0.001034,0.000000|eff|0.000000,225.585938,-499.511719,0.000000,80.566406,-40.283203
cobot_dynamixel_driver/joint_states|name|J1,J2,J3,J4,J5,J6|pos|-0.000025,-0.000025,-0.000138,-0.000025,-0.000041,0.000062|vel|0.000000,-0.000000,0.000209,0.000000,0.001034,0.000000|eff|0.000000,225.585938,-499.511719,-64.453125,80.566406,-36.254883
cobot_dynamixel_driver/joint_states|name|J1,J2,J3,J4,J5,J6|pos|-0.000025,-0.000025,-0.000138,-0.000025,-0.000041,0.000062|vel|0.000000,-0.000000,0.000209,0.000000,0.001034,0.000000|eff|-64.453125,273.925781,-499.511719,-32.226562,76.538086,-36.254883
cobot_dynamixel_driver/joint_states|name|J1,J2,J3,J4,J5,J6|pos|-0.000025,-0.000025,-0.000138,-0.000025,-0.000041,0.000041|vel|0.000000,-0.000000,0.000209,0.000000,0.001034,0.000000|eff|-80.566406,225.585938,-531.738281,0.000000,76.538086,-36.254883
cobot_dynamixel_driver/joint_states|name|J1,J2,J3,J4,J5,J6|pos|-0.000025,-0.000025,-0.000125,-0.000025,-0.000041,0.000041|vel|0.000000,-0.000000,0.000209,0.000000,0.001034,0.000000|eff|0.000000,225.585938,-499.511719,0.000000,68.481445,-36.254883
cobot_dynamixel_driver/joint_states|name|J1,J2,J3,J4,J5,J6|pos|-0.000025,-0.000025,-0.000125,-0.000025,-0.000041,0.000041|vel|0.000000,-0.000000,0.000209,0.000000,0.000000,0.000000|eff|0.000000,225.585938,-467.285156,-32.226562,76.538086,-36.254883
cobot_dynamixel_driver/joint_states|name|J1,J2,J3,J4,J5,J6|pos|-0.000025,-0.000025,-0.000125,-0.000025,-0.000041,0.000041|vel|0.000000,-0.000000,0.000000,0.000000,0.000000,0.000000|eff|-64.453125,225.585938,-467.285156,0.000000,68.481445,-36.254883
cobot_dynamixel_driver/joint_states|name|J1,J2,J3,J4,J5,J6|pos|-0.000025,-0.000025,-0.000113,-0.000025,-0.000041,0.000041|vel|0.000000,-0.000000,0.000000,0.000000,0.000000,0.000000|eff|-80.566406,225.585938,-499.511719,0.000000,76.538086,-32.226562
cobot_dynamixel_driver/joint_states|name|J1,J2,J3,J4,J5,J6|pos|-0.000025,-0.000025,-0.000113,-0.000025,-0.000041,0.000041|vel|0.000000,-0.000000,0.000000,0.000000,0.000000,0.000000|eff|0.000000,241.699219,-483.398438,0.000000,72.509766,-36.254883
cobot_dynamixel_driver/joint_states|name|J1,J2,J3,J4,J5,J6|pos|-0.000025,-0.000025,-0.000113,-0.000025,-0.000041,0.000041|vel|0.000000,-0.000000,0.000000,0.000000,0.000000,0.000000|eff|-64.453125,225.585938,-467.285156,0.000000,76.538086,-36.254883
cobot_dynamixel_driver/joint_states|name|J1,J2,J3,J4,J5,J6|pos|-0.000025,-0.000025,-0.000113,-0.000025,-0.000041,0.000041|vel|0.000000,-0.000000,0.000000,0.000000,0.000000,0.000000|eff|0.000000,225.585938,-467.285156,-32.226562,72.509766,-36.254883
cobot_dynamixel_driver/joint_states|name|J1,J2,J3,J4,J5,J6|pos|-0.000025,-0.000025,-0.000113,-0.000025,-0.000041,0.000041|vel|0.000000,-0.000000,0.000000,0.000000,0.000000,0.000000|eff|-96.679688,225.585938,-467.285156,-48.339844,72.509766,-36.254883
cobot_dynamixel_driver/joint_states|name|J1,J2,J3,J4,J5,J6|pos|-0.000025,-0.000025,-0.000100,-0.000025,-0.000041,0.000041|vel|0.000000,-0.000000,0.000000,0.000000,0.000000,0.000000|eff|0.000000,225.585938,-467.285156,-32.226562,72.509766,-36.254883
cobot_dynamixel_driver/joint_states|name|J1,J2,J3,J4,J5,J6|pos|-0.000025,-0.000025,-0.000100,-0.000025,-0.000041,0.000041|vel|0.000000,-0.000000,0.000000,0.000000,0.000000,0.000000|eff|0.000000,386.718750,-467.285156,-48.339844,76.538086,-36.254883
cobot_dynamixel_driver/joint_states|name|J1,J2,J3,J4,J5,J6|pos|-0.000025,-0.000025,-0.000100,-0.000025,-0.000041,0.000041|vel|0.000000,-0.000000,0.000000,0.000000,0.000000,0.000000|eff|-80.566406,225.585938,-386.718750,-48.339844,68.481445,-36.254883
cobot_dynamixel_driver/joint_states|name|J1,J2,J3,J4,J5,J6|pos|-0.000025,-0.000025,-0.000100,-0.000025,-0.000041,0.000041|vel|0.000000,-0.000000,0.000000,0.000000,0.000000,0.000000|eff|0.000000,225.585938,-467.285156,0.000000,68.481445,-36.254883
cobot_dynamixel_driver/joint_states|name|J1,J2,J3,J4,J5,J6|pos|-0.000025,-0.000025,-0.000088,-0.000025,-0.000041,0.000041|vel|0.000000,-0.000000,0.000000,0.000000,0.000000,0.000000|eff|-96.679688,225.585938,-467.285156,-64.453125,72.509766,-36.254883
cobot_dynamixel_driver/joint_states|name|J1,J2,J3,J4,J5,J6|pos|-0.000025,-0.000025,-0.000088,-0.000025,-0.000041,0.000041|vel|0.000000,-0.000000,0.000000,0.000000,0.000000,0.000000|eff|0.000000,225.585938,-418.945312,0.000000,76.538086,-36.254883
cobot_dynamixel_driver/joint_states|name|J1,J2,J3,J4,J5,J6|pos|-0.000025,-0.000025,-0.000088,-0.000025,-0.000041,0.000041|vel|0.000000,-0.000000,0.000000,0.000000,0.000000,0.000000|eff|0.000000,225.585938,-467.285156,0.000000,72.509766,-36.254883
cobot_dynamixel_driver/joint_states|name|J1,J2,J3,J4,J5,J6|pos|-0.000025,-0.000025,-0.000088,-0.000025,-0.000041,0.000041|vel|0.000000,-0.000000,0.000000,0.000000,0.000000,0.000000|eff|0.000000,225.585938,-467.285156,0.000000,76.538086,-36.254883
cobot_dynamixel_driver/joint_states|name|J1,J2,J3,J4,J5,J6|pos|-0.000025,-0.000025,-0.000088,-0.000025,-0.000041,0.000041|vel|0.000000,-0.000000,0.000000,0.000000,0.000000,0.000000|eff|0.000000,241.699219,-386.718750,0.000000,76.538086,-36.254883
cobot_dynamixel_driver/joint_states|name|J1,J2,J3,J4,J5,J6|pos|-0.000025,-0.000025,-0.000088,-0.000025,-0.000041,0.000041|vel|0.000000,-0.000000,0.000000,0.000000,0.000000,0.000000|eff|-96.679688,225.585938,-386.718750,-48.339844,72.509766,-36.254883
cobot_dynamixel_driver/joint_states|name|J1,J2,J3,J4,J5,J6|pos|-0.000025,-0.000025,-0.000075,-0.000025,-0.000041,0.000041|vel|0.000000,-0.000000,0.000000,0.000000,0.000000,0.000000|eff|-32.226562,225.585938,-451.171875,-64.453125,72.509766,-36.254883
cobot_dynamixel_driver/joint_states|name|J1,J2,J3,J4,J5,J6|pos|-0.000025,-0.000025,-0.000075,-0.000025,-0.000041,0.000041|vel|0.000000,-0.000000,0.000000,0.000000,0.000000,0.000000|eff|0.000000,225.585938,-451.171875,-64.453125,72.509766,-36.254883
cobot_dynamixel_driver/joint_states|name|J1,J2,J3,J4,J5,J6|pos|-0.000025,-0.000025,-0.000075,-0.000025,-0.000041,0.000041|vel|0.000000,-0.000000,0.000000,0.000000,0.000000,0.000000|eff|0.000000,386.718750,-402.832031,-64.453125,72.509766,-36.254883
cobot_dynamixel_driver/joint_states|name|J1,J2,J3,J4,J5,J6|pos|-0.000025,-0.000025,-0.000075,-0.000025,-0.000041,0.000041|vel|0.000000,-0.000000,0.000000,0.000000,0.000000,0.000000|eff|0.000000,257.812500,-467.285156,0.000000,76.538086,-36.254883
cobot_dynamixel_driver/joint_states|name|J1,J2,J3,J4,J5,J6|pos|-0.000025,-0.000025,-0.000075,-0.000025,-0.000041,0.000041|vel|0.000000,-0.000000,0.000000,0.000000,0.000000,0.000000|eff|0.000000,225.585938,-451.171875,-48.339844,68.481445,-36.254883
cobot_dynamixel_driver/joint_states|name|J1,J2,J3,J4,J5,J6|pos|-0.000025,-0.000025,-0.000075,-0.000025,-0.000041,0.000041|vel|0.000000,-0.000000,0.000000,0.000000,0.000000,0.000000|eff|0.000000,225.585938,-451.171875,-48.339844,76.538086,-36.254883
cobot_dynamixel_driver/joint_states|name|J1,J2,J3,J4,J5,J6|pos|-0.000025,-0.000025,-0.000075,-0.000025,-0.000041,0.000041|vel|0.000000,-0.000000,0.000000,0.000000,0.000000,0.000000|eff|0.000000,225.585938,-418.945312,-80.566406,68.481445,-36.254883
cobot_dynamixel_driver/joint_states|name|J1,J2,J3,J4,J5,J6|pos|-0.000025,-0.000025,-0.000075,-0.000025,-0.000041,0.000041|vel|0.000000,-0.000000,0.000000,0.000000,0.000000,0.000000|eff|-48.339844,225.585938,-451.171875,-48.339844,68.481445,-36.254883
cobot_dynamixel_driver/joint_states|name|J1,J2,J3,J4,J5,J6|pos|-0.000025,-0.000025,-0.000063,-0.000025,-0.000041,0.000041|vel|0.000000,-0.000000,0.000000,0.000000,0.000000,0.000000|eff|0.000000,322.265625,-435.058594,-32.226562,68.481445,-36.254883
cobot_dynamixel_driver/joint_states|name|J1,J2,J3,J4,J5,J6|pos|-0.000025,-0.000025,-0.000063,-0.000025,-0.000041,0.000041|vel|0.000000,-0.000000,0.000000,0.000000,0.000000,0.000000|eff|0.000000,225.585938,-370.605469,0.000000,68.481445,-36.254883
cobot_dynamixel_driver/joint_states|name|J1,J2,J3,J4,J5,J6|pos|-0.000025,-0.000025,-0.000063,-0.000025,-0.000041,0.000041|vel|0.000000,-0.000000,0.000000,0.000000,0.000000,0.000000|eff|0.000000,225.585938,-467.285156,-80.566406,68.481445,-36.254883
cobot_dynamixel_driver/joint_states|name|J1,J2,J3,J4,J5,J6|pos|-0.000025,-0.000025,-0.000063,-0.000025,-0.000041,0.000041|vel|0.000000,-0.000000,0.000000,0.000000,0.000000,0.000000|eff|0.000000,225.585938,-435.058594,-64.453125,68.481445,-36.254883
cobot_dynamixel_driver/joint_states|name|J1,J2,J3,J4,J5,J6|pos|-0.000025,-0.000025,-0.000063,-0.000025,-0.000041,0.000041|vel|0.000000,-0.000000,0.000000,0.000000,0.000000,0.000000|eff|0.000000,225.585938,-354.492188,-80.566406,68.481445,-36.254883
cobot_dynamixel_driver/joint_states|name|J1,J2,J3,J4,J5,J6|pos|-0.000025,-0.000025,-0.000063,-0.000025,-0.000041,0.000041|vel|0.000000,-0.000000,0.000000,0.000000,0.000000,0.000000|eff|0.000000,306.152344,-451.171875,0.000000,72.509766,-36.254883
cobot_dynamixel_driver/joint_states|name|J1,J2,J3,J4,J5,J6|pos|-0.000025,-0.000025,-0.000050,-0.000025,-0.000041,0.000041|vel|0.000000,-0.000000,0.000000,0.000000,0.000000,0.000000|eff|0.000000,322.265625,-402.832031,0.000000,76.538086,-36.254883
cobot_dynamixel_driver/joint_states|name|J1,J2,J3,J4,J5,J6|pos|-0.000025,-0.000025,-0.000050,-0.000025,-0.000041,0.000041|vel|0.000000,-0.000000,0.000000,0.000000,0.000000,0.000000|eff|0.000000,225.585938,-402.832031,-64.453125,72.509766,-36.254883
cobot_dynamixel_driver/joint_states|name|J1,J2,J3,J4,J5,J6|pos|-0.000025,-0.000025,-0.000050,-0.000025,-0.000041,0.000041|vel|0.000000,-0.000000,0.000000,0.000000,0.000000,0.000000|eff|0.000000,225.585938,-386.718750,-48.339844,72.509766,-36.254883
cobot_dynamixel_driver/joint_states|name|J1,J2,J3,J4,J5,J6|pos|-0.000025,-0.000025,-0.000050,-0.000025,-0.000041,0.000041|vel|0.000000,-0.000000,0.000000,0.000000,0.000000,0.000000|eff|0.000000,225.585938,-451.171875,0.000000,76.538086,-36.254883
cobot_dynamixel_driver/joint_states|name|J1,J2,J3,J4,J5,J6|pos|-0.000025,-0.000025,-0.000050,-0.000025,-0.000041,0.000041|vel|0.000000,-0.000000,0.000000,0.000000,0.000000,0.000000|eff|-96.679688,273.925781,-418.945312,-64.453125,72.509766,-36.254883
cobot_dynamixel_driver/joint_states|name|J1,J2,J3,J4,J5,J6|pos|-0.000025,-0.000025,-0.000050,-0.000025,-0.000041,0.000041|vel|0.000000,-0.000000,0.000000,0.000000,0.000000,0.000000|eff|0.000000,225.585938,-370.605469,-80.566406,76.538086,-36.254883
cobot_dynamixel_driver/joint_states|name|J1,J2,J3,J4,J5,J6|pos|-0.000025,-0.000025,-0.000050,-0.000025,-0.000041,0.000041|vel|0.000000,-0.000000,0.000000,0.000000,0.000000,0.000000|eff|-96.679688,225.585938,-354.492188,-32.226562,76.538086,-36.254883
cobot_dynamixel_driver/joint_states|name|J1,J2,J3,J4,J5,J6|pos|-0.000025,-0.000025,-0.000050,-0.000025,-0.000041,0.000041|vel|0.000000,-0.000000,0.000000,0.000000,0.000000,0.000000|eff|0.000000,225.585938,-370.605469,-32.226562,72.509766,-36.254883
cobot_dynamixel_driver/joint_states|name|J1,J2,J3,J4,J5,J6|pos|-0.000025,-0.000025,-0.000050,-0.000025,-0.000041,0.000041|vel|0.000000,-0.000000,0.000000,0.000000,0.000000,0.000000|eff|0.000000,225.585938,-370.605469,-32.226562,68.481445,-36.254883
cobot_dynamixel_driver/joint_states|name|J1,J2,J3,J4,J5,J6|pos|-0.000025,-0.000025,-0.000050,-0.000025,-0.000041,0.000041|vel|0.000000,-0.000000,0.000000,0.000000,0.000000,0.000000|eff|-64.453125,225.585938,-435.058594,-80.566406,68.481445,-36.254883
cobot_dynamixel_driver/joint_states|name|J1,J2,J3,J4,J5,J6|pos|-0.000025,-0.000025,-0.000050,-0.000025,-0.000041,0.000041|vel|0.000000,-0.000000,0.000000,0.000000,0.000000,0.000000|eff|0.000000,225.585938,-354.492188,0.000000,72.509766,-36.254883
cobot_dynamixel_driver/joint_states|name|J1,J2,J3,J4,J5,J6|pos|-0.000025,-0.000025,-0.000038,-0.000025,-0.000041,0.000041|vel|0.000000,-0.000000,0.000000,0.000000,0.000000,0.000000|eff|-64.453125,225.585938,-435.058594,0.000000,72.509766,-36.254883
cobot_dynamixel_driver/joint_states|name|J1,J2,J3,J4,J5,J6|pos|-0.000025,-0.000025,-0.000038,-0.000025,-0.000041,0.000041|vel|0.000000,-0.000000,0.000000,0.000000,0.000000,0.000000|eff|0.000000,225.585938,-354.492188,-64.453125,72.509766,-36.254883
cobot_dynamixel_driver/joint_states|name|J1,J2,J3,J4,J5,J6|pos|-0.000025,-0.000025,-0.000038,-0.000025,-0.000041,0.000041|vel|0.000000,-0.000000,0.000000,0.000000,0.000000,0.000000|eff|0.000000,225.585938,-370.605469,0.000000,72.509766,-36.254883
cobot_dynamixel_driver/joint_states|name|J1,J2,J3,J4,J5,J6|pos|-0.000025,-0.000025,-0.000038,-0.000025,-0.000041,0.000041|vel|0.000000,-0.000000,0.000000,0.000000,0.000000,0.000000|eff|0.000000,225.585938,-354.492188,-32.226562,72.509766,-36.254883
