surachairobotic/cobot/cobot_dynamixel_driver/log/2018-12-20T02:52:37.538365_driver_log.txt
cobot_dynamixel_driver/joint_states|name|J1,J2,J3,J4,J5,J6|pos|0.000839,-1.269974,1.296275,0.001014,-1.434283,-0.000083|vel|0.000000,-0.000000,0.000000,0.000000,0.000000,0.000000|eff|0.000000,0.000000,0.000000,0.000000,0.000000,0.000000
cobot_dynamixel_driver/joint_states|name|J1,J2,J3,J4,J5,J6|pos|0.000839,-1.269974,1.296275,0.001014,-1.434283,-0.000083|vel|0.000000,-0.000000,0.000000,0.000000,0.000000,0.000000|eff|0.000000,0.000000,0.000000,0.000000,0.000000,0.000000
cobot_dynamixel_driver/joint_states|name|J1,J2,J3,J4,J5,J6|pos|0.000839,-1.269974,1.296275,0.001014,-1.434283,-0.000083|vel|0.000000,-0.000000,0.000000,0.000000,0.000000,0.000000|eff|0.000000,0.000000,0.000000,0.000000,0.000000,0.000000
cobot_dynamixel_driver/joint_states|name|J1,J2,J3,J4,J5,J6|pos|0.000839,-1.269974,1.296275,0.001014,-1.434283,-0.000083|vel|0.000000,-0.000000,0.000000,0.000000,0.000000,0.000000|eff|0.000000,0.000000,0.000000,0.000000,0.000000,0.000000
cobot_dynamixel_driver/joint_states|name|J1,J2,J3,J4,J5,J6|pos|0.000839,-1.269974,1.296275,0.001014,-1.434283,-0.000083|vel|0.000000,-0.000000,0.000000,0.000000,0.000000,0.000000|eff|0.000000,0.000000,0.000000,0.000000,0.000000,0.000000
cobot_dynamixel_driver/joint_states|name|J1,J2,J3,J4,J5,J6|pos|0.000839,-1.269974,1.296275,0.001014,-1.434283,-0.000083|vel|0.000000,-0.000000,0.000000,0.000000,0.000000,0.000000|eff|0.000000,0.000000,0.000000,0.000000,0.000000,0.000000
cobot_dynamixel_driver/joint_states|name|J1,J2,J3,J4,J5,J6|pos|0.000839,-1.269974,1.296275,0.001014,-1.434283,-0.000083|vel|0.000000,-0.000000,0.000000,0.000000,0.000000,0.000000|eff|0.000000,0.000000,0.000000,0.000000,0.000000,0.000000
cobot_dynamixel_driver/joint_states|name|J1,J2,J3,J4,J5,J6|pos|0.000839,-1.269974,1.296275,0.001014,-1.434283,-0.000083|vel|0.000000,-0.000000,0.000000,0.000000,0.000000,0.000000|eff|0.000000,0.000000,0.000000,0.000000,0.000000,0.000000
cobot_dynamixel_driver/joint_states|name|J1,J2,J3,J4,J5,J6|pos|0.000839,-1.269974,1.296275,0.001014,-1.434283,-0.000083|vel|0.000000,-0.000000,0.000000,0.000000,0.000000,0.000000|eff|0.000000,0.000000,0.000000,0.000000,0.000000,0.000000
cobot_dynamixel_driver/joint_states|name|J1,J2,J3,J4,J5,J6|pos|0.000839,-1.269974,1.296275,0.001014,-1.434283,-0.000083|vel|0.000000,-0.000000,0.000000,0.000000,0.000000,0.000000|eff|0.000000,0.000000,0.000000,0.000000,0.000000,0.000000
cobot_dynamixel_driver/joint_states|name|J1,J2,J3,J4,J5,J6|pos|0.000839,-1.269974,1.296275,0.001014,-1.434283,-0.000083|vel|0.000000,-0.000000,0.000000,0.000000,0.000000,0.000000|eff|0.000000,0.000000,0.000000,0.000000,0.000000,0.000000
cobot_dynamixel_driver/joint_states|name|J1,J2,J3,J4,J5,J6|pos|0.000839,-1.269974,1.296275,0.001014,-1.434283,-0.000083|vel|0.000000,-0.000000,0.000000,0.000000,0.000000,0.000000|eff|0.000000,0.000000,0.000000,0.000000,0.000000,0.000000
cobot_dynamixel_driver/joint_states|name|J1,J2,J3,J4,J5,J6|pos|0.000839,-1.269974,1.296275,0.001014,-1.434283,-0.000083|vel|0.000000,-0.000000,0.000000,0.000000,0.000000,0.000000|eff|0.000000,0.000000,0.000000,0.000000,0.000000,0.000000
cobot_dynamixel_driver/joint_states|name|J1,J2,J3,J4,J5,J6|pos|0.000839,-1.269974,1.296275,0.001014,-1.434283,-0.000083|vel|0.000000,-0.000000,0.000000,0.000000,0.000000,0.000000|eff|0.000000,0.000000,0.000000,0.000000,0.000000,0.000000
cobot_dynamixel_driver/joint_states|name|J1,J2,J3,J4,J5,J6|pos|0.000839,-1.269974,1.296275,0.001014,-1.434283,-0.000083|vel|0.000000,-0.000000,0.000000,0.000000,0.000000,0.000000|eff|0.000000,0.000000,0.000000,0.000000,0.000000,0.000000
cobot_dynamixel_driver/joint_states|name|J1,J2,J3,J4,J5,J6|pos|0.000839,-1.269974,1.296275,0.001014,-1.434283,-0.000083|vel|0.000000,-0.000000,0.000000,0.000000,0.000000,0.000000|eff|0.000000,0.000000,0.000000,0.000000,0.000000,0.000000
cobot_dynamixel_driver/joint_states|name|J1,J2,J3,J4,J5,J6|pos|0.000839,-1.269974,1.296275,0.001014,-1.434283,-0.000083|vel|0.000000,-0.000000,0.000000,0.000000,0.000000,0.000000|eff|0.000000,0.000000,0.000000,0.000000,0.000000,0.000000
cobot_dynamixel_driver/joint_states|name|J1,J2,J3,J4,J5,J6|pos|0.000839,-1.269974,1.296275,0.001014,-1.434283,-0.000083|vel|0.000000,-0.000000,0.000000,0.000000,0.000000,0.000000|eff|0.000000,0.000000,0.000000,0.000000,0.000000,0.000000
cobot_dynamixel_driver/joint_states|name|J1,J2,J3,J4,J5,J6|pos|0.000839,-1.269974,1.296275,0.001014,-1.434283,-0.000083|vel|0.000000,-0.000000,0.000000,0.000000,0.000000,0.000000|eff|0.000000,0.000000,0.000000,0.000000,0.000000,0.000000
cobot_dynamixel_driver/joint_states|name|J1,J2,J3,J4,J5,J6|pos|0.000839,-1.269974,1.296275,0.001014,-1.434283,-0.000083|vel|0.000000,-0.000000,0.000000,0.000000,0.000000,0.000000|eff|0.000000,0.000000,0.000000,0.000000,0.000000,0.000000
cobot_dynamixel_driver/joint_states|name|J1,J2,J3,J4,J5,J6|pos|0.000839,-1.269974,1.296275,0.001014,-1.434283,-0.000083|vel|0.000000,-0.000000,0.000000,0.000000,0.000000,0.000000|eff|0.000000,0.000000,0.000000,0.000000,0.000000,0.000000
cobot_dynamixel_driver/joint_states|name|J1,J2,J3,J4,J5,J6|pos|0.000839,-1.269974,1.296275,0.001014,-1.434283,-0.000083|vel|0.000000,-0.000000,0.000000,0.000000,0.000000,0.000000|eff|0.000000,0.000000,0.000000,0.000000,0.000000,0.000000
cobot_dynamixel_driver/joint_states|name|J1,J2,J3,J4,J5,J6|pos|0.000839,-1.269974,1.296275,0.001014,-1.434283,-0.000083|vel|0.000000,-0.000000,0.000000,0.000000,0.000000,0.000000|eff|0.000000,0.000000,0.000000,0.000000,0.000000,0.000000
cobot_dynamixel_driver/joint_states|name|J1,J2,J3,J4,J5,J6|pos|0.000839,-1.269974,1.296275,0.001014,-1.434283,-0.000083|vel|0.000000,-0.000000,0.000000,0.000000,0.000000,0.000000|eff|0.000000,0.000000,0.000000,0.000000,0.000000,0.000000
cobot_dynamixel_driver/joint_states|name|J1,J2,J3,J4,J5,J6|pos|0.000839,-1.269974,1.296275,0.001014,-1.434283,-0.000083|vel|0.000000,-0.000000,0.000000,0.000000,0.000000,0.000000|eff|0.000000,0.000000,0.000000,0.000000,0.000000,0.000000
cobot_dynamixel_driver/joint_states|name|J1,J2,J3,J4,J5,J6|pos|0.000839,-1.269974,1.296275,0.001014,-1.434283,-0.000083|vel|0.000000,-0.000000,0.000000,0.000000,0.000000,0.000000|eff|0.000000,0.000000,0.000000,0.000000,0.000000,0.000000
cobot_dynamixel_driver/joint_states|name|J1,J2,J3,J4,J5,J6|pos|0.000839,-1.269974,1.296275,0.001014,-1.434283,-0.000083|vel|0.000000,-0.000000,0.000000,0.000000,0.000000,0.000000|eff|0.000000,0.000000,0.000000,0.000000,0.000000,0.000000
cobot_dynamixel_driver/joint_states|name|J1,J2,J3,J4,J5,J6|pos|0.000839,-1.269974,1.296275,0.001014,-1.434283,-0.000083|vel|0.000000,-0.000000,0.000000,0.000000,0.000000,0.000000|eff|0.000000,0.000000,0.000000,0.000000,0.000000,0.000000
cobot_dynamixel_driver/joint_states|name|J1,J2,J3,J4,J5,J6|pos|0.000839,-1.269974,1.296275,0.001014,-1.434283,-0.000083|vel|0.000000,-0.000000,0.000000,0.000000,0.000000,0.000000|eff|0.000000,0.000000,0.000000,0.000000,0.000000,0.000000
cobot_dynamixel_driver/joint_states|name|J1,J2,J3,J4,J5,J6|pos|0.000839,-1.269974,1.296275,0.001014,-1.434283,-0.000083|vel|0.000000,-0.000000,0.000000,0.000000,0.000000,0.000000|eff|0.000000,0.000000,0.000000,0.000000,0.000000,0.000000
cobot_dynamixel_driver/joint_states|name|J1,J2,J3,J4,J5,J6|pos|0.000839,-1.269974,1.296275,0.001014,-1.434283,-0.000083|vel|0.000000,-0.000000,0.000000,0.000000,0.000000,0.000000|eff|0.000000,0.000000,0.000000,0.000000,0.000000,0.000000
cobot_dynamixel_driver/joint_states|name|J1,J2,J3,J4,J5,J6|pos|0.000839,-1.269974,1.296275,0.001014,-1.434283,-0.000083|vel|0.000000,-0.000000,0.000000,0.000000,0.000000,0.000000|eff|0.000000,0.000000,0.000000,0.000000,0.000000,0.000000
cobot_dynamixel_driver/joint_states|name|J1,J2,J3,J4,J5,J6|pos|0.000839,-1.269974,1.296275,0.001014,-1.434283,-0.000083|vel|0.000000,-0.000000,0.000000,0.000000,0.000000,0.000000|eff|0.000000,0.000000,0.000000,0.000000,0.000000,0.000000
cobot_dynamixel_driver/joint_states|name|J1,J2,J3,J4,J5,J6|pos|0.000839,-1.269974,1.296275,0.001014,-1.434283,-0.000083|vel|0.000000,-0.000000,0.000000,0.000000,0.000000,0.000000|eff|0.000000,0.000000,0.000000,0.000000,0.000000,0.000000
cobot_dynamixel_driver/joint_states|name|J1,J2,J3,J4,J5,J6|pos|0.000839,-1.269974,1.296275,0.001014,-1.434283,-0.000083|vel|0.000000,-0.000000,0.000000,0.000000,0.000000,0.000000|eff|0.000000,0.000000,0.000000,0.000000,0.000000,0.000000
cobot_dynamixel_driver/joint_states|name|J1,J2,J3,J4,J5,J6|pos|0.000839,-1.269974,1.296275,0.001014,-1.434283,-0.000083|vel|0.000000,-0.000000,0.000000,0.000000,0.000000,0.000000|eff|0.000000,0.000000,0.000000,0.000000,0.000000,0.000000
cobot_dynamixel_driver/joint_states|name|J1,J2,J3,J4,J5,J6|pos|0.000839,-1.269974,1.296275,0.001014,-1.434283,-0.000083|vel|0.000000,-0.000000,0.000000,0.000000,0.000000,0.000000|eff|0.000000,0.000000,0.000000,0.000000,0.000000,0.000000
cobot_dynamixel_driver/joint_states|name|J1,J2,J3,J4,J5,J6|pos|0.000839,-1.269974,1.296275,0.001014,-1.434283,-0.000083|vel|0.000000,-0.000000,0.000000,0.000000,0.000000,0.000000|eff|0.000000,0.000000,0.000000,0.000000,0.000000,0.000000
cobot_dynamixel_driver/joint_states|name|J1,J2,J3,J4,J5,J6|pos|0.000839,-1.269974,1.296275,0.001014,-1.434283,-0.000083|vel|0.000000,-0.000000,0.000000,0.000000,0.000000,0.000000|eff|0.000000,0.000000,0.000000,0.000000,0.000000,0.000000
cobot_dynamixel_driver/joint_states|name|J1,J2,J3,J4,J5,J6|pos|0.000839,-1.269974,1.296275,0.001014,-1.434283,-0.000083|vel|0.000000,-0.000000,0.000000,0.000000,0.000000,0.000000|eff|0.000000,0.000000,0.000000,0.000000,0.000000,0.000000
cobot_dynamixel_driver/goal|-:J1,J2,J3,J4,J5,J6:0.000000,0.000000,0.000000,0.000000,0.000000,0.000000:0.700000,0.700000,0.700000,0.700000,0.700000,0.700000:pos_vel_
cobot_dynamixel_driver/joint_states|name|J1,J2,J3,J4,J5,J6|pos|0.000839,-1.268785,1.296275,0.001014,-1.432566,-0.000083|vel|0.000000,-0.000000,0.000000,0.000000,0.000000,0.000000|eff|0.000000,0.000000,0.000000,0.000000,0.000000,0.000000
cobot_dynamixel_driver/joint_states|name|J1,J2,J3,J4,J5,J6|pos|0.000839,-1.268785,1.296262,0.001014,-1.432504,-0.000083|vel|0.000000,-0.000000,0.000000,0.000000,0.008273,0.000000|eff|0.000000,-225.585938,-193.359375,-80.566406,92.651367,0.000000
cobot_dynamixel_driver/joint_states|name|J1,J2,J3,J4,J5,J6|pos|0.000814,-1.268359,1.295762,0.001014,-1.431346,-0.000083|vel|-0.001669,0.042773,-0.046528,0.000000,0.107202,0.000000|eff|-128.906250,-580.078125,-451.171875,-112.792969,145.019531,0.000000
cobot_dynamixel_driver/joint_states|name|J1,J2,J3,J4,J5,J6|pos|0.000801,-1.266920,1.294447,0.001001,-1.428388,-0.000083|vel|-0.001669,0.105784,-0.101194,0.000000,0.167869,0.000000|eff|0.000000,-1160.156250,-982.910156,-225.585938,112.792969,0.000000
cobot_dynamixel_driver/joint_states|name|J1,J2,J3,J4,J5,J6|pos|0.000789,-1.264316,1.292031,0.001001,-1.423878,-0.000083|vel|-0.000626,0.153981,-0.156485,0.000000,0.298510,0.000000|eff|-145.019531,-1611.328125,-1595.214844,-145.019531,88.623047,0.000000
cobot_dynamixel_driver/joint_states|name|J1,J2,J3,J4,J5,J6|pos|0.000739,-1.260410,1.287975,0.000989,-1.418169,-0.000083|vel|-0.001461,0.229094,-0.286472,0.000000,0.329878,0.000000|eff|-96.679688,-1998.046875,-1595.214844,-225.585938,76.538086,0.000000
cobot_dynamixel_driver/joint_states|name|J1,J2,J3,J4,J5,J6|pos|0.000701,-1.254990,1.281616,0.000964,-1.411571,-0.000083|vel|-0.002086,0.306919,-0.363880,-0.000626,0.398128,0.000000|eff|-112.792969,-1788.574219,-1305.175781,-241.699219,80.566406,0.000000
cobot_dynamixel_driver/joint_states|name|J1,J2,J3,J4,J5,J6|pos|0.000663,-1.248280,1.274631,0.000889,-1.404145,-0.000083|vel|-0.002086,0.392673,-0.415833,-0.005633,0.440181,0.000000|eff|-112.792969,-2126.953125,-1240.722656,-225.585938,84.594727,8.056641
cobot_dynamixel_driver/joint_states|name|J1,J2,J3,J4,J5,J6|pos|0.000601,-1.240356,1.266006,0.000776,-1.395953,-0.000083|vel|-0.003130,0.392256,-0.394551,-0.005633,0.441560,0.000000|eff|-193.359375,-1208.496094,-1015.136719,-241.699219,56.396484,8.056641
cobot_dynamixel_driver/joint_states|name|J1,J2,J3,J4,J5,J6|pos|0.000551,-1.231643,1.257130,0.000689,-1.387058,-0.000083|vel|-0.002295,0.471959,-0.473628,-0.004173,0.430875,0.000000|eff|-177.246094,-1917.480469,-1595.214844,-257.812500,64.453125,0.000000
cobot_dynamixel_driver/joint_states|name|J1,J2,J3,J4,J5,J6|pos|0.000501,-1.222280,1.247767,0.000613,-1.377543,-0.000083|vel|-0.003130,0.509724,-0.500543,-0.003547,0.500504,0.000000|eff|-225.585938,-2030.273438,-1804.687500,-225.585938,52.368164,0.000000
cobot_dynamixel_driver/joint_states|name|J1,J2,J3,J4,J5,J6|pos|0.000426,-1.212340,1.238328,0.000551,-1.367593,-0.000083|vel|-0.003130,0.505134,-0.479679,-0.003756,0.575993,0.000000|eff|-145.019531,-1272.949219,-1111.816406,-257.812500,56.396484,0.000000
cobot_dynamixel_driver/joint_states|name|J1,J2,J3,J4,J5,J6|pos|0.000363,-1.201775,1.227287,0.000451,-1.357271,-0.000083|vel|-0.003338,0.539769,-0.575865,-0.004382,0.563929,0.000000|eff|-64.453125,-934.570312,-966.796875,-193.359375,64.453125,16.113281
cobot_dynamixel_driver/joint_states|name|J1,J2,J3,J4,J5,J6|pos|0.000300,-1.190871,1.216446,0.000376,-1.346556,-0.000083|vel|-0.003547,0.577534,-0.504716,-0.003338,0.592883,0.000000|eff|-48.339844,-2578.125000,-1836.914062,-290.039062,48.339844,0.000000
cobot_dynamixel_driver/joint_states|name|J1,J2,J3,J4,J5,J6|pos|0.000238,-1.179442,1.205230,0.000325,-1.335510,-0.000083|vel|-0.002712,0.583376,-0.604449,-0.002921,0.652516,0.000000|eff|-161.132812,-2223.632812,-1256.835938,-257.812500,52.368164,0.000000
cobot_dynamixel_driver/joint_states|name|J1,J2,J3,J4,J5,J6|pos|0.000200,-1.167838,1.193776,0.000238,-1.324071,-0.000083|vel|-0.002295,0.595686,-0.628026,-0.005008,0.600467,0.000000|eff|-193.359375,-3287.109375,-1256.835938,-193.359375,68.481445,12.084961
cobot_dynamixel_driver/joint_states|name|J1,J2,J3,J4,J5,J6|pos|0.000150,-1.156083,1.182096,0.000150,-1.312467,-0.000083|vel|-0.002086,0.618011,-0.596938,-0.003964,0.602190,0.000000|eff|-112.792969,-1482.421875,-1708.007812,-145.019531,28.198242,16.113281
cobot_dynamixel_driver/joint_states|name|J1,J2,J3,J4,J5,J6|pos|0.000125,-1.144053,1.170279,0.000100,-1.300635,-0.000083|vel|-0.001669,0.625940,-0.612795,-0.002504,0.611842,0.000000|eff|-128.906250,-2014.160156,-1095.703125,-161.132812,16.113281,16.113281
cobot_dynamixel_driver/joint_states|name|J1,J2,J3,J4,J5,J6|pos|0.000100,-1.131748,1.158236,0.000075,-1.288575,-0.000083|vel|-0.001252,0.569397,-0.627818,-0.002504,0.551519,0.000000|eff|-112.792969,-918.457031,-1450.195312,-193.359375,32.226562,16.113281
cobot_dynamixel_driver/joint_states|name|J1,J2,J3,J4,J5,J6|pos|0.000075,-1.119367,1.145781,0.000075,-1.276371,-0.000083|vel|-0.001043,0.646387,-0.636372,-0.002504,0.559103,0.000000|eff|-80.566406,-660.644531,-1160.156250,-145.019531,80.566406,0.000000
cobot_dynamixel_driver/joint_states|name|J1,J2,J3,J4,J5,J6|pos|0.000050,-1.106811,1.133338,0.000075,-1.263939,-0.000083|vel|-0.000835,0.612795,-0.686030,-0.002504,0.622872,0.000000|eff|-96.679688,-837.890625,-1240.722656,-193.359375,40.283203,16.113281
cobot_dynamixel_driver/joint_states|name|J1,J2,J3,J4,J5,J6|pos|0.000038,-1.094181,1.120744,0.000075,-1.251466,-0.000083|vel|-0.000835,0.567936,-0.648682,-0.002504,0.601156,0.000000|eff|-64.453125,-1272.949219,-1256.835938,-161.132812,12.084961,0.000000
cobot_dynamixel_driver/joint_states|name|J1,J2,J3,J4,J5,J6|pos|0.000025,-1.081324,1.108138,0.000075,-1.238848,-0.000083|vel|-0.000835,0.655359,-0.692081,-0.002504,0.655963,0.000000|eff|-145.019531,-2739.257812,-1627.441406,-96.679688,32.226562,12.084961
cobot_dynamixel_driver/joint_states|name|J1,J2,J3,J4,J5,J6|pos|0.000013,-1.068343,1.095107,0.000075,-1.226230,-0.000083|vel|-0.000835,0.687491,-0.680188,-0.002504,0.648035,0.000000|eff|0.000000,-692.871094,-708.984375,-145.019531,52.368164,12.084961
cobot_dynamixel_driver/joint_states|name|J1,J2,J3,J4,J5,J6|pos|0.000013,-1.055324,1.082176,0.000075,-1.213322,-0.000083|vel|-0.000417,0.673929,-0.676224,0.000000,0.646312,0.000000|eff|-80.566406,-2481.445312,-1079.589844,-128.906250,48.339844,16.113281
cobot_dynamixel_driver/joint_states|name|J1,J2,J3,J4,J5,J6|pos|0.000000,-1.042167,1.069157,0.000075,-1.200456,-0.000083|vel|-0.000417,0.689994,-0.681023,0.000000,0.720767,0.000000|eff|0.000000,-531.738281,-1724.121094,-96.679688,52.368164,16.113281
cobot_dynamixel_driver/joint_states|name|J1,J2,J3,J4,J5,J6|pos|0.000000,-1.029111,1.056063,0.000075,-1.187507,-0.000083|vel|-0.000417,0.620932,-0.705017,0.000000,0.662513,0.000000|eff|-128.906250,-3287.109375,-1305.175781,-96.679688,44.311523,16.113281
cobot_dynamixel_driver/joint_states|name|J1,J2,J3,J4,J5,J6|pos|0.000000,-1.016042,1.043006,0.000075,-1.174557,-0.000083|vel|-0.000417,0.663496,-0.698966,0.000000,0.589092,0.000000|eff|-112.792969,-741.210938,-1127.929688,-96.679688,12.084961,16.113281
cobot_dynamixel_driver/joint_states|name|J1,J2,J3,J4,J5,J6|pos|0.000000,-1.002685,1.029599,0.000075,-1.161567,-0.000083|vel|-0.000417,0.686239,-0.715241,0.000000,0.674922,0.000000|eff|-80.566406,-837.890625,-1965.820312,-96.679688,96.679688,16.113281
cobot_dynamixel_driver/joint_states|name|J1,J2,J3,J4,J5,J6|pos|-0.000013,-0.989365,1.016405,0.000075,-1.148142,-0.000083|vel|-0.000417,0.658489,-0.681857,0.000000,0.619081,0.000000|eff|-161.132812,-2980.957031,-1192.382812,-177.246094,8.056641,16.113281
cobot_dynamixel_driver/joint_states|name|J1,J2,J3,J4,J5,J6|pos|-0.000013,-0.975946,1.003173,0.000075,-1.134924,-0.000083|vel|0.000000,0.699592,-0.721083,0.000000,0.596330,0.000000|eff|0.000000,-2948.730469,-499.511719,-96.679688,0.000000,20.141602
cobot_dynamixel_driver/joint_states|name|J1,J2,J3,J4,J5,J6|pos|-0.000013,-0.962827,0.990004,0.000075,-1.121644,-0.000083|vel|0.000000,0.721500,-0.656820,0.000000,0.622183,0.000000|eff|0.000000,-1063.476562,-1482.421875,-145.019531,36.254883,20.141602
cobot_dynamixel_driver/joint_states|name|J1,J2,J3,J4,J5,J6|pos|-0.000013,-0.949395,0.976634,0.000075,-1.108447,-0.000083|vel|0.000000,0.713989,-0.721709,0.000000,0.563929,0.000000|eff|-161.132812,-402.832031,-1643.554688,-96.679688,68.481445,20.141602
cobot_dynamixel_driver/joint_states|name|J1,J2,J3,J4,J5,J6|pos|-0.000013,-0.936063,0.963140,0.000075,-1.095229,-0.000083|vel|0.000000,0.708564,-0.698549,0.000000,0.747998,0.000000|eff|0.000000,-644.531250,-1385.742188,-145.019531,0.000000,20.141602
cobot_dynamixel_driver/joint_states|name|J1,J2,J3,J4,J5,J6|pos|-0.000025,-0.922731,0.949783,0.000075,-1.081784,-0.000083|vel|0.000000,0.690412,-0.749041,0.000000,0.666304,0.000000|eff|-161.132812,-2852.050781,-821.777344,-177.246094,28.198242,20.141602
cobot_dynamixel_driver/joint_states|name|J1,J2,J3,J4,J5,J6|pos|-0.000025,-0.909361,0.936438,0.000063,-1.068379,-0.000083|vel|0.000000,0.714615,-0.687908,0.000000,0.685608,0.000000|eff|0.000000,-2046.386719,-402.832031,-209.472656,40.283203,8.056641
cobot_dynamixel_driver/joint_states|name|J1,J2,J3,J4,J5,J6|pos|-0.000025,-0.896005,0.923207,0.000063,-1.054955,-0.000083|vel|0.000000,0.665374,-0.729220,0.000000,0.680092,0.000000|eff|0.000000,-1192.382812,-1869.140625,-193.359375,40.283203,32.226562
cobot_dynamixel_driver/joint_states|name|J1,J2,J3,J4,J5,J6|pos|-0.000025,-0.882535,0.909825,0.000063,-1.041488,-0.000062|vel|0.000000,0.681857,-0.718370,0.000000,0.674233,0.000000|eff|-145.019531,-547.851562,-2143.066406,-193.359375,8.056641,40.283203
cobot_dynamixel_driver/joint_states|name|J1,J2,J3,J4,J5,J6|pos|-0.000025,-0.869128,0.896217,0.000063,-1.028415,-0.000062|vel|0.000000,0.697506,-0.742573,0.000000,0.752135,0.000000|eff|-96.679688,-402.832031,-1820.800781,-209.472656,0.000000,16.113281
cobot_dynamixel_driver/joint_states|name|J1,J2,J3,J4,J5,J6|pos|-0.000025,-0.853718,0.880870,0.000050,-1.013336,-0.000062|vel|0.000000,0.702931,-0.692498,0.000000,0.656998,0.000000|eff|-80.566406,-2433.105469,-966.796875,-128.906250,-32.226562,24.169922
cobot_dynamixel_driver/joint_states|name|J1,J2,J3,J4,J5,J6|pos|-0.000038,-0.842289,0.869616,0.000050,-1.001338,-0.000062|vel|0.000000,0.706478,-0.724838,0.000000,0.595296,0.000000|eff|-128.906250,-741.210938,-1224.609375,-161.132812,48.339844,28.198242
cobot_dynamixel_driver/joint_states|name|J1,J2,J3,J4,J5,J6|pos|-0.000038,-0.825877,0.853280,0.000038,-0.985700,-0.000062|vel|0.000000,0.817060,-0.696671,0.000000,0.765233,0.000000|eff|0.000000,-3158.203125,-451.171875,-209.472656,0.000000,40.283203
cobot_dynamixel_driver/joint_states|name|J1,J2,J3,J4,J5,J6|pos|-0.000038,-0.814311,0.841663,0.000025,-0.974592,-0.000041|vel|0.000000,0.676432,-0.749876,0.000000,0.595641,0.000000|eff|-80.566406,-2948.730469,-789.550781,-145.019531,88.623047,24.169922
cobot_dynamixel_driver/joint_states|name|J1,J2,J3,J4,J5,J6|pos|-0.000038,-0.801342,0.828707,0.000025,-0.962015,-0.000021|vel|0.000000,0.732350,-0.715867,-0.000417,0.668028,0.001034|eff|-145.019531,-48.339844,-1176.269531,-193.359375,0.000000,40.283203
cobot_dynamixel_driver/joint_states|name|J1,J2,J3,J4,J5,J6|pos|-0.000038,-0.787784,0.814987,0.000013,-0.948839,0.000000|vel|0.000000,0.712111,-0.686030,-0.000417,0.629766,0.001034|eff|-145.019531,-241.699219,-1562.988281,-193.359375,92.651367,0.000000
cobot_dynamixel_driver/joint_states|name|J1,J2,J3,J4,J5,J6|pos|-0.000038,-0.774377,0.801367,0.000013,-0.935145,0.000000|vel|0.000000,0.715032,-0.732976,-0.000417,0.710081,0.001034|eff|-32.226562,-2078.613281,-1530.761719,-112.792969,44.311523,28.198242
cobot_dynamixel_driver/joint_states|name|J1,J2,J3,J4,J5,J6|pos|-0.000038,-0.760708,0.788085,0.000000,-0.921720,0.000000|vel|0.000000,0.676432,-0.660784,-0.000417,0.739725,0.001034|eff|-161.132812,-145.019531,-999.023438,-193.359375,80.566406,20.141602
cobot_dynamixel_driver/joint_states|name|J1,J2,J3,J4,J5,J6|pos|-0.000038,-0.747213,0.774715,0.000000,-0.907530,0.000000|vel|0.000000,0.693333,-0.731515,-0.000417,0.690433,0.001034|eff|0.000000,-322.265625,-999.023438,-209.472656,0.000000,16.113281
cobot_dynamixel_driver/joint_states|name|J1,J2,J3,J4,J5,J6|pos|-0.000038,-0.733681,0.761308,0.000000,-0.894726,0.000000|vel|0.000000,0.689160,-0.743408,-0.000209,0.771093,0.001034|eff|0.000000,-628.417969,-596.191406,-145.019531,56.396484,20.141602
cobot_dynamixel_driver/joint_states|name|J1,J2,J3,J4,J5,J6|pos|-0.000038,-0.720148,0.747601,-0.000013,-0.881239,0.000000|vel|0.000000,0.648265,-0.724213,-0.000209,0.715252,0.001034|eff|-145.019531,-1691.894531,-676.757812,-112.792969,32.226562,28.198242
cobot_dynamixel_driver/joint_states|name|J1,J2,J3,J4,J5,J6|pos|-0.000038,-0.706516,0.733956,-0.000013,-0.867752,0.000000|vel|0.000000,0.732767,-0.695837,-0.000209,0.613221,0.000000|eff|-161.132812,-209.472656,-580.078125,-112.792969,52.368164,0.000000
cobot_dynamixel_driver/joint_states|name|J1,J2,J3,J4,J5,J6|pos|-0.000050,-0.692859,0.720311,-0.000013,-0.854265,0.000000|vel|0.000000,0.668295,-0.701470,-0.000209,0.702843,0.000000|eff|0.000000,-96.679688,-1047.363281,-209.472656,0.000000,12.084961
cobot_dynamixel_driver/joint_states|name|J1,J2,J3,J4,J5,J6|pos|-0.000050,-0.679289,0.706729,-0.000025,-0.840923,0.000000|vel|0.000000,0.713154,-0.743825,-0.000209,0.735934,0.000000|eff|0.000000,273.925781,-870.117188,-112.792969,36.254883,0.000000
cobot_dynamixel_driver/joint_states|name|J1,J2,J3,J4,J5,J6|pos|-0.000050,-0.665744,0.693122,-0.000025,-0.827684,0.000000|vel|0.000000,0.673511,-0.707104,-0.000209,0.800737,0.000000|eff|-80.566406,48.339844,-1240.722656,-112.792969,116.821289,28.198242
cobot_dynamixel_driver/joint_states|name|J1,J2,J3,J4,J5,J6|pos|-0.000050,-0.652200,0.679577,-0.000038,-0.814156,0.000000|vel|0.000000,0.667252,-0.698758,-0.000209,0.731797,0.000000|eff|-145.019531,-322.265625,-1047.363281,-128.906250,64.453125,0.000000
cobot_dynamixel_driver/joint_states|name|J1,J2,J3,J4,J5,J6|pos|-0.000050,-0.638555,0.666145,-0.000038,-0.800566,0.000000|vel|0.000000,0.687491,-0.609248,-0.000209,0.616668,0.000000|eff|0.000000,193.359375,-886.230469,-193.359375,104.736328,0.000000
cobot_dynamixel_driver/joint_states|name|J1,J2,J3,J4,J5,J6|pos|-0.000050,-0.625022,0.652487,-0.000038,-0.787079,0.000000|vel|0.000000,0.657654,-0.677893,-0.000209,0.745241,0.000000|eff|0.000000,-145.019531,-902.343750,-177.246094,24.169922,28.198242
cobot_dynamixel_driver/joint_states|name|J1,J2,J3,J4,J5,J6|pos|-0.000050,-0.611503,0.639030,-0.000038,-0.773571,0.000000|vel|0.000000,0.671008,-0.718996,-0.000209,0.797635,0.000000|eff|-112.792969,-241.699219,-789.550781,-112.792969,20.141602,36.254883
cobot_dynamixel_driver/joint_states|name|J1,J2,J3,J4,J5,J6|pos|-0.000050,-0.597946,0.625348,-0.000038,-0.760436,0.000000|vel|0.000000,0.703348,-0.676432,-0.000209,0.677335,0.000000|eff|-80.566406,0.000000,-1111.816406,-145.019531,120.849609,28.198242
cobot_dynamixel_driver/joint_states|name|J1,J2,J3,J4,J5,J6|pos|-0.000050,-0.584301,0.611791,-0.000038,-0.746742,0.000000|vel|0.000000,0.713572,-0.762604,0.000000,0.731453,0.000000|eff|-161.132812,32.226562,-934.570312,-161.132812,0.000000,36.254883
cobot_dynamixel_driver/joint_states|name|J1,J2,J3,J4,J5,J6|pos|-0.000050,-0.570693,0.598046,-0.000038,-0.733566,0.000000|vel|0.000000,0.681023,-0.637624,0.000000,0.656653,0.000000|eff|-80.566406,-48.339844,-1466.308594,-193.359375,96.679688,32.226562
cobot_dynamixel_driver/joint_states|name|J1,J2,J3,J4,J5,J6|pos|-0.000050,-0.557049,0.584426,-0.000038,-0.720100,0.000000|vel|0.000000,0.684361,-0.704808,0.000000,0.794877,0.000000|eff|-80.566406,-306.152344,-1772.460938,-128.906250,0.000000,20.141602
cobot_dynamixel_driver/joint_states|name|J1,J2,J3,J4,J5,J6|pos|-0.000050,-0.543566,0.570819,-0.000038,-0.706551,0.000000|vel|0.000000,0.731098,-0.722961,0.000000,0.678024,0.000000|eff|0.000000,-145.019531,-1901.367188,-128.906250,48.339844,12.084961
cobot_dynamixel_driver/joint_states|name|J1,J2,J3,J4,J5,J6|pos|-0.000050,-0.530047,0.557174,-0.000038,-0.693084,0.000000|vel|0.000000,0.611126,-0.686447,0.000000,0.672509,0.000000|eff|-128.906250,-112.792969,-2110.839844,-96.679688,32.226562,0.000000
cobot_dynamixel_driver/joint_states|name|J1,J2,J3,J4,J5,J6|pos|-0.000050,-0.516464,0.543629,-0.000038,-0.679515,0.000000|vel|0.000000,0.678310,-0.637833,0.000000,0.732487,0.000000|eff|-161.132812,-80.566406,-1869.140625,-128.906250,12.084961,32.226562
cobot_dynamixel_driver/joint_states|name|J1,J2,J3,J4,J5,J6|pos|-0.000050,-0.502920,0.530022,-0.000038,-0.665987,0.000000|vel|0.000000,0.720040,-0.700635,0.000000,0.742483,0.000000|eff|-80.566406,0.000000,-2078.613281,-193.359375,24.169922,0.000000
cobot_dynamixel_driver/joint_states|name|J1,J2,J3,J4,J5,J6|pos|-0.000050,-0.489450,0.516577,-0.000038,-0.652582,0.000000|vel|0.000000,0.667461,-0.711276,0.000000,0.707324,0.000000|eff|0.000000,-225.585938,-1885.253906,-161.132812,20.141602,12.084961
cobot_dynamixel_driver/joint_states|name|J1,J2,J3,J4,J5,J6|pos|-0.000050,-0.475830,0.502957,-0.000038,-0.639406,0.000000|vel|0.000000,0.672051,-0.708564,0.000000,0.632524,0.000000|eff|0.000000,225.585938,-145.019531,-128.906250,108.764648,32.226562
cobot_dynamixel_driver/joint_states|name|J1,J2,J3,J4,J5,J6|pos|-0.000050,-0.462173,0.489625,-0.000038,-0.625671,0.000000|vel|0.000000,0.813305,-0.724630,0.000000,0.691812,0.000000|eff|0.000000,209.472656,-1385.742188,-193.359375,52.368164,0.000000
cobot_dynamixel_driver/joint_states|name|J1,J2,J3,J4,J5,J6|pos|-0.000050,-0.448616,0.476006,-0.000038,-0.612494,0.000000|vel|0.000000,0.716701,-0.689369,0.000000,0.703187,0.000000|eff|-112.792969,-96.679688,-1788.574219,-96.679688,112.792969,12.084961
cobot_dynamixel_driver/joint_states|name|J1,J2,J3,J4,J5,J6|pos|-0.000050,-0.434921,0.462348,-0.000038,-0.599069,0.000000|vel|0.000000,0.647639,-0.652021,0.000000,0.676645,0.000000|eff|-80.566406,-467.285156,-1820.800781,-112.792969,48.339844,20.141602
cobot_dynamixel_driver/joint_states|name|J1,J2,J3,J4,J5,J6|pos|-0.000050,-0.421426,0.448728,-0.000038,-0.585500,0.000000|vel|0.000000,0.703974,-0.650352,0.000000,0.674922,0.000000|eff|-112.792969,-435.058594,-2062.500000,-96.679688,16.113281,0.000000
cobot_dynamixel_driver/joint_states|name|J1,J2,J3,J4,J5,J6|pos|-0.000050,-0.407919,0.435021,-0.000038,-0.572013,0.000000|vel|0.000000,0.699175,-0.744869,0.000000,0.684918,0.000000|eff|0.000000,96.679688,-1272.949219,-145.019531,108.764648,20.141602
cobot_dynamixel_driver/joint_states|name|J1,J2,J3,J4,J5,J6|pos|-0.000050,-0.394374,0.421539,-0.000038,-0.558443,0.000000|vel|0.000000,0.662453,-0.685822,0.000000,0.682505,0.000000|eff|0.000000,-128.906250,-2223.632812,-112.792969,28.198242,0.000000
cobot_dynamixel_driver/joint_states|name|J1,J2,J3,J4,J5,J6|pos|-0.000050,-0.380779,0.407969,-0.000038,-0.545060,0.000000|vel|0.000000,0.728803,-0.741530,0.000000,0.632524,0.000000|eff|0.000000,-290.039062,-1740.234375,-112.792969,104.736328,32.226562
cobot_dynamixel_driver/joint_states|name|J1,J2,J3,J4,J5,J6|pos|-0.000050,-0.367285,0.394349,-0.000038,-0.531428,0.000000|vel|0.000000,0.589218,-0.695837,0.000000,0.719733,0.000000|eff|0.000000,-32.226562,-1546.875000,-193.359375,-8.056641,0.000000
cobot_dynamixel_driver/joint_states|name|J1,J2,J3,J4,J5,J6|pos|-0.000050,-0.353702,0.380667,-0.000038,-0.517962,0.000000|vel|0.000000,0.719622,-0.645761,0.000000,0.734555,0.000000|eff|-112.792969,193.359375,-1144.042969,-112.792969,72.509766,32.226562
cobot_dynamixel_driver/joint_states|name|J1,J2,J3,J4,J5,J6|pos|-0.000050,-0.340158,0.367347,-0.000038,-0.504392,0.000000|vel|0.000000,0.681649,-0.704391,0.000000,0.585645,0.000000|eff|-128.906250,402.832031,-2336.425781,-128.906250,72.509766,28.198242
cobot_dynamixel_driver/joint_states|name|J1,J2,J3,J4,J5,J6|pos|-0.000050,-0.326575,0.353778,-0.000038,-0.491009,0.000000|vel|0.000000,0.674763,-0.694585,0.000000,0.688021,0.000000|eff|0.000000,241.699219,-1869.140625,-112.792969,96.679688,0.000000
cobot_dynamixel_driver/joint_states|name|J1,J2,J3,J4,J5,J6|pos|-0.000050,-0.312981,0.340183,-0.000038,-0.477501,0.000000|vel|0.000000,0.681857,-0.630739,0.000000,0.705945,0.000000|eff|-64.453125,96.679688,-2159.179688,-112.792969,-24.169922,0.000000
cobot_dynamixel_driver/joint_states|name|J1,J2,J3,J4,J5,J6|pos|-0.000050,-0.299373,0.326601,-0.000038,-0.464221,0.000000|vel|0.000000,0.692916,-0.727551,0.000000,0.738002,0.000000|eff|-145.019531,-322.265625,-1530.761719,-96.679688,96.679688,0.000000
cobot_dynamixel_driver/joint_states|name|J1,J2,J3,J4,J5,J6|pos|-0.000050,-0.285754,0.312956,-0.000038,-0.450631,0.000000|vel|0.000000,0.702722,-0.714406,0.000000,0.673543,0.000000|eff|-64.453125,-273.925781,-1530.761719,-112.792969,44.311523,0.000000
cobot_dynamixel_driver/joint_states|name|J1,J2,J3,J4,J5,J6|pos|-0.000050,-0.272159,0.299448,-0.000038,-0.437124,0.000000|vel|0.000000,0.665791,-0.710025,0.000000,0.807287,0.000000|eff|-112.792969,-563.964844,-2159.179688,-161.132812,8.056641,32.226562
cobot_dynamixel_driver/joint_states|name|J1,J2,J3,J4,J5,J6|pos|-0.000050,-0.258677,0.285804,-0.000038,-0.423844,0.000000|vel|0.000000,0.701679,-0.706895,0.000000,0.677680,0.000000|eff|-112.792969,-273.925781,-1417.968750,-112.792969,80.566406,32.226562
cobot_dynamixel_driver/joint_states|name|J1,J2,J3,J4,J5,J6|pos|-0.000050,-0.245207,0.272221,-0.000038,-0.410233,0.000000|vel|0.000000,0.664331,-0.718162,0.000000,0.587713,0.000000|eff|0.000000,96.679688,-1546.875000,-161.132812,68.481445,20.141602
cobot_dynamixel_driver/joint_states|name|J1,J2,J3,J4,J5,J6|pos|-0.000050,-0.231575,0.258714,-0.000038,-0.396746,0.000000|vel|0.000000,0.683526,-0.709399,0.000000,0.717665,0.000000|eff|0.000000,0.000000,-2014.160156,-96.679688,44.311523,0.000000
cobot_dynamixel_driver/joint_states|name|J1,J2,J3,J4,J5,J6|pos|-0.000050,-0.218030,0.245282,-0.000038,-0.383238,0.000000|vel|0.000000,0.732350,-0.739861,0.000000,0.689744,0.000000|eff|0.000000,80.566406,-1466.308594,-96.679688,68.481445,20.141602
cobot_dynamixel_driver/joint_states|name|J1,J2,J3,J4,J5,J6|pos|-0.000050,-0.204448,0.232013,-0.000038,-0.370082,0.000000|vel|0.000000,0.649100,-0.633660,0.000000,0.697327,0.000000|eff|0.000000,209.472656,-1514.648438,-145.019531,80.566406,20.141602
cobot_dynamixel_driver/joint_states|name|J1,J2,J3,J4,J5,J6|pos|-0.000050,-0.190890,0.218481,-0.000038,-0.356947,0.000000|vel|0.000000,0.688325,-0.715241,0.000000,0.708013,0.000000|eff|-64.453125,-80.566406,-1224.609375,-128.906250,140.991211,32.226562
cobot_dynamixel_driver/joint_states|name|J1,J2,J3,J4,J5,J6|pos|-0.000050,-0.177308,0.204823,-0.000038,-0.343336,0.000000|vel|0.000000,0.681231,-0.732558,0.000000,0.741449,0.000000|eff|-80.566406,-112.792969,-1450.195312,-112.792969,68.481445,0.000000
cobot_dynamixel_driver/joint_states|name|J1,J2,J3,J4,J5,J6|pos|-0.000050,-0.163688,0.191153,-0.000038,-0.329787,0.000000|vel|0.000000,0.729637,-0.681023,0.000000,0.598743,0.000000|eff|0.000000,-354.492188,-1740.234375,-145.019531,80.566406,36.254883
cobot_dynamixel_driver/joint_states|name|J1,J2,J3,J4,J5,J6|pos|-0.000050,-0.150106,0.177508,-0.000038,-0.316217,0.000000|vel|0.000000,0.696671,-0.698132,0.000000,0.692157,0.000000|eff|0.000000,-515.625000,-1111.816406,-96.679688,108.764648,32.226562
cobot_dynamixel_driver/joint_states|name|J1,J2,J3,J4,J5,J6|pos|-0.000050,-0.136549,0.163826,-0.000038,-0.302669,0.000000|vel|0.000000,0.678102,-0.715658,0.000000,0.599088,0.000000|eff|-128.906250,-290.039062,-1659.667969,-96.679688,36.254883,12.084961
cobot_dynamixel_driver/joint_states|name|J1,J2,J3,J4,J5,J6|pos|-0.000038,-0.122941,0.150281,-0.000038,-0.289223,0.000000|vel|0.000000,0.660575,-0.671425,0.000000,0.675267,0.000000|eff|0.000000,-854.003906,-1611.328125,-96.679688,104.736328,0.000000
cobot_dynamixel_driver/joint_states|name|J1,J2,J3,J4,J5,J6|pos|-0.000038,-0.109247,0.136737,-0.000038,-0.275881,0.000000|vel|0.000000,0.701470,-0.701679,0.000000,0.690433,0.000000|eff|0.000000,-1369.628906,-2110.839844,-96.679688,100.708008,32.226562
cobot_dynamixel_driver/joint_states|name|J1,J2,J3,J4,J5,J6|pos|-0.000038,-0.095952,0.123480,-0.000038,-0.262291,0.000000|vel|0.000000,0.665583,-0.682066,0.000000,0.726282,0.000000|eff|-64.453125,273.925781,-1514.648438,-96.679688,64.453125,36.254883
cobot_dynamixel_driver/joint_states|name|J1,J2,J3,J4,J5,J6|pos|-0.000038,-0.083484,0.109872,-0.000038,-0.249052,0.000000|vel|0.000000,0.595269,-0.646596,0.000000,0.660100,0.000000|eff|-80.566406,854.003906,-1579.101562,-96.679688,84.594727,28.198242
cobot_dynamixel_driver/joint_states|name|J1,J2,J3,J4,J5,J6|pos|-0.000038,-0.072305,0.096440,-0.000038,-0.235648,0.000000|vel|0.000000,0.499291,-0.676224,0.000000,0.590126,0.000000|eff|0.000000,596.191406,-966.796875,-96.679688,136.962891,20.141602
cobot_dynamixel_driver/joint_states|name|J1,J2,J3,J4,J5,J6|pos|-0.000038,-0.062516,0.083784,-0.000038,-0.222037,0.000000|vel|0.000000,0.451303,-0.536639,0.000000,0.787983,0.000000|eff|0.000000,837.890625,-1144.042969,-96.679688,116.821289,0.000000
cobot_dynamixel_driver/joint_states|name|J1,J2,J3,J4,J5,J6|pos|-0.000038,-0.054179,0.072693,-0.000038,-0.208529,0.000000|vel|0.000000,0.327993,-0.519947,0.000000,0.676645,0.000000|eff|0.000000,821.777344,-209.472656,-96.679688,56.396484,0.000000
cobot_dynamixel_driver/joint_states|name|J1,J2,J3,J4,J5,J6|pos|-0.000038,-0.047144,0.063417,-0.000038,-0.195001,0.000000|vel|0.000000,0.317769,-0.455058,0.000000,0.736278,0.000000|eff|-80.566406,789.550781,-418.945312,-96.679688,68.481445,0.000000
cobot_dynamixel_driver/joint_states|name|J1,J2,J3,J4,J5,J6|pos|-0.000038,-0.041072,0.055406,-0.000038,-0.181556,0.000000|vel|0.000000,0.301912,-0.396637,0.000000,0.679403,0.000000|eff|-80.566406,-273.925781,-1192.382812,-96.679688,76.538086,12.084961
cobot_dynamixel_driver/joint_states|name|J1,J2,J3,J4,J5,J6|pos|-0.000038,-0.035777,0.048420,-0.000038,-0.168193,0.000000|vel|0.000000,0.269154,-0.331957,0.000000,0.742828,0.000000|eff|0.000000,580.078125,-821.777344,-96.679688,44.311523,20.141602
cobot_dynamixel_driver/joint_states|name|J1,J2,J3,J4,J5,J6|pos|-0.000038,-0.031170,0.042299,-0.000038,-0.154644,0.000000|vel|0.000000,0.211568,-0.300243,0.000000,0.597020,0.000000|eff|0.000000,435.058594,-725.097656,-96.679688,52.368164,28.198242
cobot_dynamixel_driver/joint_states|name|J1,J2,J3,J4,J5,J6|pos|-0.000038,-0.027202,0.037016,-0.000038,-0.141136,0.000000|vel|0.000000,0.184026,-0.253088,0.000000,0.614944,0.000000|eff|0.000000,483.398438,-757.324219,-96.679688,128.906250,20.141602
cobot_dynamixel_driver/joint_states|name|J1,J2,J3,J4,J5,J6|pos|-0.000038,-0.023785,0.032447,-0.000038,-0.127629,0.000000|vel|0.000000,0.186113,-0.222000,0.000000,0.720078,0.000000|eff|0.000000,354.492188,-902.343750,-96.679688,56.396484,20.141602
cobot_dynamixel_driver/joint_states|name|J1,J2,J3,J4,J5,J6|pos|-0.000038,-0.020868,0.028329,-0.000038,-0.114101,0.000000|vel|0.000000,0.137498,-0.207603,0.000000,0.636660,0.000000|eff|0.000000,257.812500,-789.550781,-96.679688,40.283203,0.000000
cobot_dynamixel_driver/joint_states|name|J1,J2,J3,J4,J5,J6|pos|-0.000038,-0.018302,0.024723,-0.000038,-0.100634,0.000000|vel|0.000000,0.124353,-0.158154,0.000000,0.665270,0.000000|eff|0.000000,209.472656,-708.984375,-96.679688,60.424805,12.084961
cobot_dynamixel_driver/joint_states|name|J1,J2,J3,J4,J5,J6|pos|-0.000038,-0.016023,0.021657,-0.000038,-0.087437,0.000000|vel|0.000000,0.100776,-0.145427,0.000000,0.689399,0.000000|eff|0.000000,241.699219,-773.437500,-96.679688,-60.424805,20.141602
cobot_dynamixel_driver/joint_states|name|J1,J2,J3,J4,J5,J6|pos|-0.000038,-0.013995,0.019040,-0.000038,-0.075998,0.000000|vel|0.000000,0.094100,-0.135620,0.000000,0.546349,0.000000|eff|0.000000,257.812500,-854.003906,-96.679688,-28.198242,0.000000
cobot_dynamixel_driver/joint_states|name|J1,J2,J3,J4,J5,J6|pos|-0.000038,-0.012255,0.016674,-0.000038,-0.066524,0.000000|vel|0.000000,0.079703,-0.117677,0.000000,0.436045,0.000000|eff|0.000000,241.699219,-757.324219,-96.679688,8.056641,0.000000
cobot_dynamixel_driver/joint_states|name|J1,J2,J3,J4,J5,J6|pos|-0.000038,-0.010791,0.014621,-0.000038,-0.058312,0.000000|vel|0.000000,0.070523,-0.100150,0.000000,0.351594,0.000000|eff|0.000000,177.246094,-821.777344,-96.679688,16.113281,20.141602
cobot_dynamixel_driver/joint_states|name|J1,J2,J3,J4,J5,J6|pos|-0.000038,-0.009489,0.012819,-0.000038,-0.051052,0.000000|vel|0.000000,0.060090,-0.090761,0.000000,0.335737,0.000000|eff|-80.566406,209.472656,-821.777344,0.000000,12.084961,12.084961
cobot_dynamixel_driver/joint_states|name|J1,J2,J3,J4,J5,J6|pos|-0.000038,-0.008300,0.011191,-0.000038,-0.044722,0.000000|vel|0.000000,0.058630,-0.068019,0.000000,0.350560,0.000000|eff|0.000000,225.585938,-854.003906,-96.679688,32.226562,36.254883
cobot_dynamixel_driver/joint_states|name|J1,J2,J3,J4,J5,J6|pos|-0.000038,-0.007236,0.009802,-0.000038,-0.039157,0.000000|vel|0.000000,0.049241,-0.066350,0.000000,0.277828,0.000000|eff|-48.339844,209.472656,-821.777344,-96.679688,32.226562,28.198242
cobot_dynamixel_driver/joint_states|name|J1,J2,J3,J4,J5,J6|pos|-0.000038,-0.006322,0.008700,-0.000038,-0.034317,0.000000|vel|0.000000,0.043190,-0.048823,0.000000,0.212335,0.000000|eff|0.000000,241.699219,-918.457031,-96.679688,36.254883,0.000000
cobot_dynamixel_driver/joint_states|name|J1,J2,J3,J4,J5,J6|pos|-0.000038,-0.005533,0.007711,-0.000038,-0.029994,0.000000|vel|0.000000,0.037348,-0.047571,0.000000,0.215093,0.000000|eff|0.000000,225.585938,-918.457031,-96.679688,40.283203,0.000000
cobot_dynamixel_driver/joint_states|name|J1,J2,J3,J4,J5,J6|pos|-0.000038,-0.004857,0.006735,-0.000038,-0.026291,0.000000|vel|0.000000,0.029211,-0.049449,0.000000,0.173384,0.000000|eff|0.000000,241.699219,-886.230469,-96.679688,60.424805,0.000000
cobot_dynamixel_driver/joint_states|name|J1,J2,J3,J4,J5,J6|pos|-0.000038,-0.004269,0.005871,-0.000038,-0.023044,0.000000|vel|0.000000,0.029419,-0.039643,0.000000,0.179933,0.000000|eff|0.000000,257.812500,-902.343750,-96.679688,48.339844,0.000000
cobot_dynamixel_driver/joint_states|name|J1,J2,J3,J4,J5,J6|pos|-0.000038,-0.003768,0.005070,-0.000038,-0.020168,0.000000|vel|0.000000,0.023577,-0.032132,0.000000,0.122024,0.000000|eff|0.000000,209.472656,-870.117188,-80.566406,48.339844,20.141602
cobot_dynamixel_driver/joint_states|name|J1,J2,J3,J4,J5,J6|pos|-0.000038,-0.003317,0.004381,-0.000038,-0.017665,0.000000|vel|0.000000,0.022325,-0.033801,0.000000,0.105823,0.000000|eff|0.000000,209.472656,-773.437500,-80.566406,60.424805,0.000000
cobot_dynamixel_driver/joint_states|name|J1,J2,J3,J4,J5,J6|pos|-0.000038,-0.002879,0.003868,-0.000038,-0.015473,0.000000|vel|0.000000,0.021073,-0.023160,0.000000,0.100997,0.000000|eff|-48.339844,241.699219,-886.230469,-96.679688,64.453125,20.141602
cobot_dynamixel_driver/joint_states|name|J1,J2,J3,J4,J5,J6|pos|-0.000038,-0.002516,0.003380,-0.000038,-0.013549,0.000000|vel|0.000000,0.017944,-0.026289,0.000000,0.091345,0.000000|eff|0.000000,225.585938,-837.890625,-48.339844,60.424805,0.000000
cobot_dynamixel_driver/joint_states|name|J1,J2,J3,J4,J5,J6|pos|-0.000038,-0.002153,0.002979,-0.000038,-0.011873,0.000000|vel|0.000000,0.018778,-0.014605,0.000000,0.079281,0.000000|eff|0.000000,241.699219,-918.457031,-48.339844,72.509766,12.084961
cobot_dynamixel_driver/joint_states|name|J1,J2,J3,J4,J5,J6|pos|-0.000038,-0.001865,0.002679,-0.000038,-0.010405,0.000000|vel|0.000000,0.012102,-0.014397,0.000000,0.079626,0.000000|eff|0.000000,209.472656,-918.457031,-96.679688,64.453125,20.141602
cobot_dynamixel_driver/joint_states|name|J1,J2,J3,J4,J5,J6|pos|-0.000038,-0.001677,0.002278,-0.000038,-0.009019,0.000000|vel|0.000000,0.009389,-0.019613,0.000000,0.063769,0.000000|eff|0.000000,322.265625,-854.003906,-96.679688,68.481445,36.254883
cobot_dynamixel_driver/joint_states|name|J1,J2,J3,J4,J5,J6|pos|-0.000038,-0.001490,0.002066,-0.000038,-0.007964,0.000000|vel|0.000000,0.009806,-0.007094,0.000000,0.051016,0.000000|eff|0.000000,161.132812,-918.457031,-96.679688,72.509766,12.084961
cobot_dynamixel_driver/joint_states|name|J1,J2,J3,J4,J5,J6|pos|-0.000038,-0.001327,0.001890,-0.000038,-0.006971,0.000000|vel|0.000000,0.007929,-0.010224,0.000000,0.047913,0.000000|eff|0.000000,322.265625,-950.683594,-48.339844,68.481445,20.141602
cobot_dynamixel_driver/joint_states|name|J1,J2,J3,J4,J5,J6|pos|-0.000025,-0.001152,0.001602,-0.000038,-0.006123,0.000000|vel|0.000000,0.009180,-0.018778,0.000000,0.042743,0.000000|eff|0.000000,145.019531,-870.117188,-96.679688,64.453125,0.000000
cobot_dynamixel_driver/joint_states|name|J1,J2,J3,J4,J5,J6|pos|-0.000025,-0.000976,0.001252,-0.000038,-0.005337,0.000000|vel|0.000000,0.008555,-0.015857,0.000000,0.037572,0.000000|eff|0.000000,338.378906,-805.664062,-80.566406,56.396484,0.000000
cobot_dynamixel_driver/joint_states|name|J1,J2,J3,J4,J5,J6|pos|-0.000025,-0.000851,0.001064,-0.000038,-0.004634,0.000000|vel|0.000000,0.006468,-0.006885,0.000000,0.030678,0.000000|eff|0.000000,225.585938,-854.003906,-48.339844,72.509766,12.084961
cobot_dynamixel_driver/joint_states|name|J1,J2,J3,J4,J5,J6|pos|-0.000025,-0.000776,0.001001,-0.000038,-0.004137,0.000000|vel|0.000000,0.003547,-0.002921,0.000000,0.026197,0.000000|eff|0.000000,209.472656,-870.117188,-64.453125,84.594727,0.000000
cobot_dynamixel_driver/joint_states|name|J1,J2,J3,J4,J5,J6|pos|-0.000025,-0.000689,0.000901,-0.000038,-0.003599,0.000000|vel|0.000000,0.003964,-0.005633,0.000000,0.025163,0.000000|eff|0.000000,225.585938,-870.117188,-96.679688,68.481445,20.141602
cobot_dynamixel_driver/joint_states|name|J1,J2,J3,J4,J5,J6|pos|-0.000025,-0.000613,0.000789,-0.000038,-0.003186,0.000000|vel|0.000000,0.004173,-0.006259,0.000000,0.021027,0.000000|eff|0.000000,209.472656,-870.117188,-96.679688,76.538086,12.084961
cobot_dynamixel_driver/joint_states|name|J1,J2,J3,J4,J5,J6|pos|-0.000025,-0.000538,0.000601,-0.000038,-0.002793,0.000000|vel|0.000000,0.003756,-0.012102,0.000000,0.017580,0.000000|eff|0.000000,257.812500,-789.550781,-96.679688,68.481445,28.198242
cobot_dynamixel_driver/joint_states|name|J1,J2,J3,J4,J5,J6|pos|-0.000025,-0.000463,0.000388,-0.000038,-0.002503,0.000000|vel|0.000000,0.003756,-0.008137,0.000000,0.016546,0.000000|eff|0.000000,225.585938,-757.324219,-96.679688,88.623047,20.141602
cobot_dynamixel_driver/joint_states|name|J1,J2,J3,J4,J5,J6|pos|-0.000025,-0.000376,0.000300,-0.000038,-0.002110,0.000000|vel|0.000000,0.004590,-0.003338,0.000000,0.016201,0.000000|eff|0.000000,225.585938,-741.210938,-96.679688,76.538086,28.198242
cobot_dynamixel_driver/joint_states|name|J1,J2,J3,J4,J5,J6|pos|-0.000025,-0.000288,0.000275,-0.000038,-0.001862,0.000000|vel|0.000000,0.004590,-0.001252,0.000000,0.010686,0.000000|eff|0.000000,257.812500,-757.324219,0.000000,72.509766,20.141602
cobot_dynamixel_driver/joint_states|name|J1,J2,J3,J4,J5,J6|pos|-0.000025,-0.000175,0.000263,-0.000038,-0.001655,0.000000|vel|0.000000,0.006677,-0.001252,0.000000,0.009307,0.000000|eff|0.000000,273.925781,-789.550781,-80.566406,72.509766,20.141602
cobot_dynamixel_driver/joint_states|name|J1,J2,J3,J4,J5,J6|pos|-0.000025,-0.000125,0.000250,-0.000038,-0.001448,0.000000|vel|0.000000,0.002712,-0.001252,0.000000,0.010341,0.000000|eff|0.000000,241.699219,-773.437500,0.000000,84.594727,0.000000
cobot_dynamixel_driver/joint_states|name|J1,J2,J3,J4,J5,J6|pos|-0.000025,-0.000125,0.000250,-0.000038,-0.001282,0.000000|vel|0.000000,0.002712,-0.001252,0.000000,0.008617,0.000000|eff|0.000000,241.699219,-789.550781,-48.339844,76.538086,36.254883
cobot_dynamixel_driver/joint_states|name|J1,J2,J3,J4,J5,J6|pos|-0.000025,-0.000125,0.000250,-0.000038,-0.001138,0.000000|vel|0.000000,0.002712,-0.000209,0.000000,0.006549,0.000000|eff|0.000000,241.699219,-789.550781,-80.566406,84.594727,32.226562
cobot_dynamixel_driver/joint_states|name|J1,J2,J3,J4,J5,J6|pos|-0.000025,-0.000125,0.000238,-0.000038,-0.001055,0.000000|vel|0.000000,0.002712,-0.000209,0.000000,0.003792,0.000000|eff|0.000000,257.812500,-821.777344,-64.453125,80.566406,12.084961
cobot_dynamixel_driver/joint_states|name|J1,J2,J3,J4,J5,J6|pos|-0.000025,-0.000125,0.000225,-0.000038,-0.000910,0.000000|vel|0.000000,0.002712,-0.000209,0.000000,0.009652,0.000000|eff|0.000000,273.925781,-789.550781,-48.339844,96.679688,32.226562
cobot_dynamixel_driver/joint_states|name|J1,J2,J3,J4,J5,J6|pos|-0.000025,-0.000125,0.000213,-0.000038,-0.000765,0.000000|vel|0.000000,0.002712,-0.000417,0.000000,0.007239,0.000000|eff|0.000000,290.039062,-789.550781,-96.679688,80.566406,32.226562
cobot_dynamixel_driver/joint_states|name|J1,J2,J3,J4,J5,J6|pos|-0.000025,-0.000125,0.000200,-0.000038,-0.000703,0.000000|vel|0.000000,-0.000000,-0.000417,0.000000,0.003447,0.000000|eff|0.000000,273.925781,-821.777344,-64.453125,88.623047,32.226562
cobot_dynamixel_driver/joint_states|name|J1,J2,J3,J4,J5,J6|pos|-0.000025,-0.000125,0.000200,-0.000038,-0.000641,0.000000|vel|0.000000,-0.000000,-0.000417,0.000000,0.002758,0.000000|eff|0.000000,322.265625,-837.890625,-80.566406,88.623047,20.141602
cobot_dynamixel_driver/joint_states|name|J1,J2,J3,J4,J5,J6|pos|-0.000025,-0.000125,0.000188,-0.000038,-0.000538,0.000000|vel|0.000000,-0.000000,-0.000417,0.000000,0.005515,0.000000|eff|0.000000,241.699219,-837.890625,0.000000,88.623047,0.000000
cobot_dynamixel_driver/joint_states|name|J1,J2,J3,J4,J5,J6|pos|-0.000025,-0.000125,0.000175,-0.000038,-0.000414,0.000000|vel|0.000000,-0.000000,-0.000626,0.000000,0.006549,0.000000|eff|0.000000,257.812500,-821.777344,0.000000,76.538086,0.000000
cobot_dynamixel_driver/joint_states|name|J1,J2,J3,J4,J5,J6|pos|-0.000025,-0.000125,0.000175,-0.000038,-0.000393,0.000000|vel|0.000000,-0.000000,-0.000626,0.000000,0.003102,0.000000|eff|0.000000,322.265625,-837.890625,-64.453125,72.509766,32.226562
cobot_dynamixel_driver/joint_states|name|J1,J2,J3,J4,J5,J6|pos|-0.000025,-0.000113,0.000163,-0.000038,-0.000393,0.000000|vel|0.000000,-0.000000,-0.000626,0.000000,0.003102,0.000000|eff|0.000000,418.945312,-854.003906,-48.339844,72.509766,36.254883
cobot_dynamixel_driver/joint_states|name|J1,J2,J3,J4,J5,J6|pos|-0.000025,-0.000113,0.000163,-0.000038,-0.000393,0.000000|vel|0.000000,-0.000000,-0.000626,0.000000,0.003102,0.000000|eff|0.000000,386.718750,-854.003906,-96.679688,72.509766,36.254883
cobot_dynamixel_driver/joint_states|name|J1,J2,J3,J4,J5,J6|pos|-0.000025,-0.000113,0.000150,-0.000038,-0.000393,0.000000|vel|0.000000,-0.000000,-0.000626,0.000000,0.003102,0.000000|eff|0.000000,241.699219,-854.003906,-48.339844,68.481445,28.198242
cobot_dynamixel_driver/joint_states|name|J1,J2,J3,J4,J5,J6|pos|-0.000025,-0.000113,0.000150,-0.000038,-0.000393,0.000000|vel|0.000000,-0.000000,-0.000209,0.000000,0.003102,0.000000|eff|0.000000,322.265625,-854.003906,-96.679688,76.538086,36.254883
cobot_dynamixel_driver/joint_states|name|J1,J2,J3,J4,J5,J6|pos|-0.000025,-0.000113,0.000150,-0.000038,-0.000393,0.000000|vel|0.000000,-0.000000,-0.000209,0.000000,0.003102,0.000000|eff|0.000000,241.699219,-886.230469,-80.566406,76.538086,28.198242
cobot_dynamixel_driver/joint_states|name|J1,J2,J3,J4,J5,J6|pos|-0.000025,-0.000113,0.000138,-0.000038,-0.000393,0.000000|vel|0.000000,-0.000000,-0.000209,0.000000,0.000000,0.000000|eff|0.000000,257.812500,-886.230469,-80.566406,76.538086,20.141602
cobot_dynamixel_driver/joint_states|name|J1,J2,J3,J4,J5,J6|pos|-0.000025,-0.000100,0.000138,-0.000038,-0.000352,0.000000|vel|0.000000,-0.000000,-0.000209,0.000000,0.000000,0.000000|eff|0.000000,322.265625,-870.117188,-48.339844,88.623047,0.000000
cobot_dynamixel_driver/joint_states|name|J1,J2,J3,J4,J5,J6|pos|-0.000013,-0.000100,0.000125,-0.000038,-0.000248,0.000000|vel|0.000000,-0.000000,-0.000209,0.000000,0.005515,0.000000|eff|0.000000,241.699219,-854.003906,-48.339844,72.509766,28.198242
cobot_dynamixel_driver/joint_states|name|J1,J2,J3,J4,J5,J6|pos|-0.000013,-0.000100,0.000125,-0.000025,-0.000228,0.000000|vel|0.000000,-0.000000,-0.000209,0.000000,0.003102,0.000000|eff|0.000000,354.492188,-854.003906,0.000000,72.509766,24.169922
cobot_dynamixel_driver/joint_states|name|J1,J2,J3,J4,J5,J6|pos|-0.000013,-0.000100,0.000113,-0.000025,-0.000228,0.000000|vel|0.000000,-0.000000,-0.000209,0.000000,0.003102,0.000000|eff|0.000000,241.699219,-870.117188,-48.339844,68.481445,0.000000
cobot_dynamixel_driver/joint_states|name|J1,J2,J3,J4,J5,J6|pos|-0.000013,-0.000100,0.000113,-0.000025,-0.000228,0.000000|vel|0.000000,-0.000000,-0.000209,0.000000,0.003102,0.000000|eff|0.000000,322.265625,-870.117188,-32.226562,64.453125,20.141602
cobot_dynamixel_driver/joint_states|name|J1,J2,J3,J4,J5,J6|pos|-0.000013,-0.000088,0.000113,-0.000025,-0.000228,0.000000|vel|0.000000,-0.000000,-0.000209,0.000000,0.003102,0.000000|eff|0.000000,257.812500,-902.343750,0.000000,60.424805,0.000000
cobot_dynamixel_driver/joint_states|name|J1,J2,J3,J4,J5,J6|pos|-0.000013,-0.000088,0.000100,-0.000025,-0.000228,0.000000|vel|0.000000,-0.000000,-0.000209,0.000000,0.003102,0.000000|eff|0.000000,241.699219,-934.570312,-48.339844,52.368164,36.254883
cobot_dynamixel_driver/joint_states|name|J1,J2,J3,J4,J5,J6|pos|-0.000013,-0.000075,0.000100,-0.000025,-0.000228,0.000000|vel|0.000000,-0.000000,-0.000209,0.000000,0.003102,0.000000|eff|0.000000,241.699219,-950.683594,-48.339844,56.396484,8.056641
cobot_dynamixel_driver/joint_states|name|J1,J2,J3,J4,J5,J6|pos|-0.000013,-0.000075,0.000100,-0.000025,-0.000228,0.000000|vel|0.000000,-0.000000,-0.000209,0.000000,0.000000,0.000000|eff|0.000000,241.699219,-934.570312,-48.339844,52.368164,36.254883
cobot_dynamixel_driver/joint_states|name|J1,J2,J3,J4,J5,J6|pos|-0.000013,-0.000063,0.000100,-0.000025,-0.000228,0.000000|vel|0.000000,0.000209,-0.000209,0.000000,0.000000,0.000000|eff|0.000000,241.699219,-934.570312,-80.566406,60.424805,0.000000
cobot_dynamixel_driver/joint_states|name|J1,J2,J3,J4,J5,J6|pos|-0.000013,-0.000063,0.000088,-0.000025,-0.000228,0.000000|vel|0.000000,0.000209,-0.000209,0.000000,0.000000,0.000000|eff|0.000000,241.699219,-870.117188,-48.339844,60.424805,36.254883
cobot_dynamixel_driver/joint_states|name|J1,J2,J3,J4,J5,J6|pos|-0.000013,-0.000050,0.000088,-0.000025,-0.000228,0.000000|vel|0.000000,0.000209,-0.000209,0.000000,0.000000,0.000000|eff|0.000000,241.699219,-870.117188,-80.566406,64.453125,20.141602
cobot_dynamixel_driver/joint_states|name|J1,J2,J3,J4,J5,J6|pos|-0.000013,-0.000050,0.000088,-0.000025,-0.000228,0.000000|vel|0.000000,0.000209,-0.000209,0.000000,0.000000,0.000000|eff|0.000000,241.699219,-950.683594,0.000000,64.453125,20.141602
cobot_dynamixel_driver/joint_states|name|J1,J2,J3,J4,J5,J6|pos|-0.000013,-0.000038,0.000088,-0.000025,-0.000228,0.000000|vel|0.000000,0.000209,0.000000,0.000000,0.000000,0.000000|eff|0.000000,241.699219,-902.343750,-64.453125,64.453125,36.254883
cobot_dynamixel_driver/joint_states|name|J1,J2,J3,J4,J5,J6|pos|-0.000013,-0.000038,0.000075,-0.000025,-0.000228,0.000000|vel|0.000000,0.000209,0.000000,0.000000,0.000000,0.000000|eff|0.000000,225.585938,-950.683594,0.000000,68.481445,36.254883
cobot_dynamixel_driver/joint_states|name|J1,J2,J3,J4,J5,J6|pos|-0.000013,-0.000025,0.000075,-0.000025,-0.000228,0.000000|vel|0.000000,0.000209,0.000000,0.000000,0.000000,0.000000|eff|0.000000,241.699219,-918.457031,-80.566406,76.538086,0.000000
cobot_dynamixel_driver/joint_states|name|J1,J2,J3,J4,J5,J6|pos|-0.000013,-0.000025,0.000075,-0.000025,-0.000207,0.000000|vel|0.000000,0.000209,0.000000,0.000000,0.000000,0.000000|eff|0.000000,241.699219,-902.343750,-80.566406,76.538086,20.141602
cobot_dynamixel_driver/joint_states|name|J1,J2,J3,J4,J5,J6|pos|-0.000013,-0.000013,0.000075,-0.000025,-0.000186,0.000000|vel|0.000000,0.000209,0.000000,0.000000,0.000000,0.000000|eff|0.000000,241.699219,-934.570312,0.000000,76.538086,0.000000
cobot_dynamixel_driver/joint_states|name|J1,J2,J3,J4,J5,J6|pos|-0.000013,-0.000000,0.000075,-0.000025,-0.000145,0.000000|vel|0.000000,0.000209,0.000000,0.000000,0.002068,0.000000|eff|0.000000,241.699219,-950.683594,-96.679688,84.594727,24.169922
cobot_dynamixel_driver/joint_states|name|J1,J2,J3,J4,J5,J6|pos|-0.000013,-0.000000,0.000063,-0.000025,-0.000062,0.000000|vel|0.000000,0.000209,0.000000,0.000000,0.004136,0.000000|eff|0.000000,241.699219,-950.683594,0.000000,72.509766,12.084961
cobot_dynamixel_driver/joint_states|name|J1,J2,J3,J4,J5,J6|pos|-0.000013,0.000013,0.000063,-0.000025,-0.000062,0.000000|vel|0.000000,0.000209,0.000000,0.000000,0.004136,0.000000|eff|0.000000,241.699219,-950.683594,0.000000,68.481445,28.198242
cobot_dynamixel_driver/joint_states|name|J1,J2,J3,J4,J5,J6|pos|-0.000013,0.000013,0.000063,-0.000025,-0.000062,0.000000|vel|0.000000,0.000209,0.000000,0.000000,0.004136,0.000000|eff|0.000000,241.699219,-950.683594,0.000000,60.424805,12.084961
cobot_dynamixel_driver/joint_states|name|J1,J2,J3,J4,J5,J6|pos|-0.000013,0.000025,0.000063,-0.000025,-0.000062,0.000000|vel|0.000000,0.000209,0.000000,0.000000,0.004136,0.000000|eff|0.000000,241.699219,-950.683594,-80.566406,48.339844,12.084961
cobot_dynamixel_driver/joint_states|name|J1,J2,J3,J4,J5,J6|pos|-0.000013,0.000025,0.000063,-0.000025,-0.000062,0.000000|vel|0.000000,0.000209,0.000000,0.000000,0.004136,0.000000|eff|0.000000,241.699219,-918.457031,-96.679688,44.311523,0.000000
cobot_dynamixel_driver/joint_states|name|J1,J2,J3,J4,J5,J6|pos|-0.000013,0.000038,0.000063,-0.000025,-0.000062,0.000000|vel|0.000000,0.000209,0.000000,0.000000,0.004136,0.000000|eff|0.000000,241.699219,-950.683594,0.000000,20.141602,20.141602
cobot_dynamixel_driver/joint_states|name|J1,J2,J3,J4,J5,J6|pos|-0.000013,0.000038,0.000063,-0.000025,-0.000062,0.000000|vel|0.000000,0.000209,0.000000,0.000000,0.000000,0.000000|eff|0.000000,225.585938,-950.683594,0.000000,44.311523,8.056641
cobot_dynamixel_driver/joint_states|name|J1,J2,J3,J4,J5,J6|pos|-0.000013,0.000038,0.000050,-0.000025,-0.000062,0.000000|vel|0.000000,0.000209,0.000000,0.000000,0.000000,0.000000|eff|0.000000,241.699219,-950.683594,-64.453125,24.169922,20.141602
cobot_dynamixel_driver/joint_states|name|J1,J2,J3,J4,J5,J6|pos|-0.000013,0.000038,0.000050,-0.000025,-0.000062,0.000000|vel|0.000000,-0.000000,0.000000,0.000000,0.000000,0.000000|eff|0.000000,225.585938,-966.796875,0.000000,48.339844,28.198242
cobot_dynamixel_driver/joint_states|name|J1,J2,J3,J4,J5,J6|pos|-0.000013,0.000038,0.000050,-0.000025,-0.000062,0.000000|vel|0.000000,-0.000000,0.000000,0.000000,0.000000,0.000000|eff|0.000000,225.585938,-950.683594,-80.566406,48.339844,20.141602
cobot_dynamixel_driver/joint_states|name|J1,J2,J3,J4,J5,J6|pos|-0.000013,0.000038,0.000050,-0.000025,-0.000062,0.000000|vel|0.000000,-0.000000,0.000000,0.000000,0.000000,0.000000|eff|0.000000,225.585938,-934.570312,-64.453125,48.339844,28.198242
cobot_dynamixel_driver/joint_states|name|J1,J2,J3,J4,J5,J6|pos|-0.000013,0.000038,0.000050,-0.000025,-0.000062,0.000000|vel|0.000000,-0.000000,0.000000,0.000000,0.000000,0.000000|eff|0.000000,241.699219,-950.683594,0.000000,28.198242,32.226562
cobot_dynamixel_driver/joint_states|name|J1,J2,J3,J4,J5,J6|pos|-0.000013,0.000038,0.000050,-0.000025,-0.000062,0.000000|vel|0.000000,-0.000000,0.000000,0.000000,0.000000,0.000000|eff|0.000000,241.699219,-950.683594,-96.679688,44.311523,20.141602
cobot_dynamixel_driver/joint_states|name|J1,J2,J3,J4,J5,J6|pos|-0.000013,0.000038,0.000050,-0.000025,-0.000062,0.000000|vel|0.000000,-0.000000,0.000000,0.000000,0.000000,0.000000|eff|0.000000,273.925781,-918.457031,-64.453125,48.339844,0.000000
cobot_dynamixel_driver/joint_states|name|J1,J2,J3,J4,J5,J6|pos|-0.000013,0.000038,0.000050,-0.000025,-0.000062,0.000000|vel|0.000000,-0.000000,0.000000,0.000000,0.000000,0.000000|eff|0.000000,225.585938,-902.343750,0.000000,36.254883,20.141602
cobot_dynamixel_driver/joint_states|name|J1,J2,J3,J4,J5,J6|pos|-0.000013,0.000038,0.000038,-0.000025,-0.000062,0.000000|vel|0.000000,-0.000000,0.000000,0.000000,0.000000,0.000000|eff|0.000000,241.699219,-950.683594,0.000000,48.339844,0.000000
cobot_dynamixel_driver/joint_states|name|J1,J2,J3,J4,J5,J6|pos|-0.000013,0.000038,0.000038,-0.000025,-0.000062,0.000000|vel|0.000000,-0.000000,0.000000,0.000000,0.000000,0.000000|eff|0.000000,225.585938,-950.683594,-64.453125,36.254883,12.084961
cobot_dynamixel_driver/joint_states|name|J1,J2,J3,J4,J5,J6|pos|-0.000013,0.000038,0.000038,-0.000025,-0.000062,0.000000|vel|0.000000,-0.000000,0.000000,0.000000,0.000000,0.000000|eff|0.000000,225.585938,-966.796875,-48.339844,48.339844,0.000000
cobot_dynamixel_driver/joint_states|name|J1,J2,J3,J4,J5,J6|pos|-0.000013,0.000038,0.000038,-0.000025,-0.000062,0.000000|vel|0.000000,-0.000000,0.000000,0.000000,0.000000,0.000000|eff|0.000000,225.585938,-966.796875,-48.339844,48.339844,20.141602
cobot_dynamixel_driver/joint_states|name|J1,J2,J3,J4,J5,J6|pos|-0.000013,0.000038,0.000038,-0.000025,-0.000062,0.000000|vel|0.000000,-0.000000,0.000000,0.000000,0.000000,0.000000|eff|0.000000,225.585938,-950.683594,0.000000,52.368164,20.141602
cobot_dynamixel_driver/joint_states|name|J1,J2,J3,J4,J5,J6|pos|-0.000013,0.000038,0.000038,-0.000025,-0.000062,0.000000|vel|0.000000,-0.000000,0.000000,0.000000,0.000000,0.000000|eff|0.000000,273.925781,-950.683594,0.000000,36.254883,12.084961
cobot_dynamixel_driver/joint_states|name|J1,J2,J3,J4,J5,J6|pos|-0.000013,0.000038,0.000038,-0.000025,-0.000062,0.000000|vel|0.000000,-0.000000,0.000000,0.000000,0.000000,0.000000|eff|0.000000,257.812500,-950.683594,0.000000,36.254883,8.056641
cobot_dynamixel_driver/joint_states|name|J1,J2,J3,J4,J5,J6|pos|-0.000013,0.000038,0.000038,-0.000025,-0.000062,0.000000|vel|0.000000,-0.000000,0.000000,0.000000,0.000000,0.000000|eff|0.000000,225.585938,-982.910156,0.000000,44.311523,0.000000
cobot_dynamixel_driver/joint_states|name|J1,J2,J3,J4,J5,J6|pos|-0.000013,0.000038,0.000038,-0.000025,-0.000062,0.000000|vel|0.000000,-0.000000,0.000000,0.000000,0.000000,0.000000|eff|0.000000,225.585938,-950.683594,-48.339844,44.311523,8.056641
cobot_dynamixel_driver/joint_states|name|J1,J2,J3,J4,J5,J6|pos|-0.000013,0.000038,0.000038,-0.000025,-0.000062,0.000000|vel|0.000000,-0.000000,0.000000,0.000000,0.000000,0.000000|eff|0.000000,241.699219,-982.910156,0.000000,52.368164,28.198242
cobot_dynamixel_driver/joint_states|name|J1,J2,J3,J4,J5,J6|pos|-0.000013,0.000038,0.000038,-0.000025,-0.000062,0.000000|vel|0.000000,-0.000000,0.000000,0.000000,0.000000,0.000000|eff|0.000000,241.699219,-950.683594,-64.453125,32.226562,0.000000
cobot_dynamixel_driver/joint_states|name|J1,J2,J3,J4,J5,J6|pos|-0.000013,0.000038,0.000038,-0.000025,-0.000062,0.000000|vel|0.000000,-0.000000,0.000000,0.000000,0.000000,0.000000|eff|0.000000,225.585938,-950.683594,0.000000,36.254883,36.254883
cobot_dynamixel_driver/joint_states|name|J1,J2,J3,J4,J5,J6|pos|-0.000013,0.000038,0.000038,-0.000025,-0.000062,0.000000|vel|0.000000,-0.000000,0.000000,0.000000,0.000000,0.000000|eff|0.000000,241.699219,-950.683594,0.000000,52.368164,12.084961
cobot_dynamixel_driver/joint_states|name|J1,J2,J3,J4,J5,J6|pos|-0.000013,0.000038,0.000038,-0.000025,-0.000062,0.000000|vel|0.000000,-0.000000,0.000000,0.000000,0.000000,0.000000|eff|0.000000,241.699219,-999.023438,0.000000,52.368164,0.000000
cobot_dynamixel_driver/joint_states|name|J1,J2,J3,J4,J5,J6|pos|-0.000013,0.000038,0.000038,-0.000025,-0.000062,0.000000|vel|0.000000,-0.000000,0.000000,0.000000,0.000000,0.000000|eff|0.000000,257.812500,-950.683594,0.000000,52.368164,32.226562
cobot_dynamixel_driver/joint_states|name|J1,J2,J3,J4,J5,J6|pos|-0.000013,0.000038,0.000038,-0.000025,-0.000062,0.000000|vel|0.000000,-0.000000,0.000000,0.000000,0.000000,0.000000|eff|0.000000,354.492188,-950.683594,0.000000,52.368164,20.141602
cobot_dynamixel_driver/joint_states|name|J1,J2,J3,J4,J5,J6|pos|-0.000013,0.000038,0.000038,-0.000025,-0.000062,0.000000|vel|0.000000,-0.000000,0.000000,0.000000,0.000000,0.000000|eff|0.000000,354.492188,-950.683594,-64.453125,52.368164,20.141602
cobot_dynamixel_driver/joint_states|name|J1,J2,J3,J4,J5,J6|pos|-0.000013,0.000038,0.000038,-0.000025,-0.000062,0.000000|vel|0.000000,-0.000000,0.000000,0.000000,0.000000,0.000000|eff|0.000000,354.492188,-999.023438,-32.226562,52.368164,36.254883
cobot_dynamixel_driver/joint_states|name|J1,J2,J3,J4,J5,J6|pos|-0.000013,0.000038,0.000038,-0.000025,-0.000062,0.000000|vel|0.000000,-0.000000,0.000000,0.000000,0.000000,0.000000|eff|0.000000,225.585938,-950.683594,0.000000,52.368164,20.141602
cobot_dynamixel_driver/joint_states|name|J1,J2,J3,J4,J5,J6|pos|-0.000013,0.000038,0.000038,-0.000025,-0.000062,0.000000|vel|0.000000,-0.000000,0.000000,0.000000,0.000000,0.000000|eff|0.000000,257.812500,-950.683594,-64.453125,60.424805,12.084961
cobot_dynamixel_driver/joint_states|name|J1,J2,J3,J4,J5,J6|pos|-0.000013,0.000038,0.000038,-0.000025,-0.000062,0.000000|vel|0.000000,-0.000000,0.000000,0.000000,0.000000,0.000000|eff|0.000000,354.492188,-1031.250000,0.000000,60.424805,12.084961
cobot_dynamixel_driver/joint_states|name|J1,J2,J3,J4,J5,J6|pos|-0.000013,0.000038,0.000025,-0.000025,-0.000062,0.000000|vel|0.000000,-0.000000,0.000000,0.000000,0.000000,0.000000|eff|0.000000,225.585938,-966.796875,-80.566406,56.396484,0.000000
cobot_dynamixel_driver/joint_states|name|J1,J2,J3,J4,J5,J6|pos|-0.000013,0.000038,0.000025,-0.000025,-0.000062,0.000000|vel|0.000000,-0.000000,0.000000,0.000000,0.000000,0.000000|eff|0.000000,225.585938,-982.910156,0.000000,52.368164,0.000000
cobot_dynamixel_driver/joint_states|name|J1,J2,J3,J4,J5,J6|pos|-0.000013,0.000038,0.000025,-0.000025,-0.000062,0.000000|vel|0.000000,-0.000000,0.000000,0.000000,0.000000,0.000000|eff|0.000000,225.585938,-966.796875,-48.339844,60.424805,28.198242
cobot_dynamixel_driver/joint_states|name|J1,J2,J3,J4,J5,J6|pos|-0.000013,0.000038,0.000025,-0.000025,-0.000062,0.000000|vel|0.000000,-0.000000,0.000000,0.000000,0.000000,0.000000|eff|0.000000,241.699219,-982.910156,0.000000,60.424805,20.141602
cobot_dynamixel_driver/joint_states|name|J1,J2,J3,J4,J5,J6|pos|-0.000013,0.000038,0.000025,-0.000025,-0.000062,0.000000|vel|0.000000,-0.000000,0.000000,0.000000,0.000000,0.000000|eff|0.000000,225.585938,-950.683594,0.000000,56.396484,0.000000
cobot_dynamixel_driver/joint_states|name|J1,J2,J3,J4,J5,J6|pos|-0.000013,0.000038,0.000013,-0.000025,-0.000062,0.000000|vel|0.000000,-0.000000,0.000000,0.000000,0.000000,0.000000|eff|0.000000,241.699219,-982.910156,-64.453125,60.424805,0.000000
cobot_dynamixel_driver/joint_states|name|J1,J2,J3,J4,J5,J6|pos|-0.000013,0.000038,0.000013,-0.000025,-0.000062,0.000000|vel|0.000000,-0.000000,0.000000,0.000000,0.000000,0.000000|eff|0.000000,225.585938,-999.023438,-32.226562,56.396484,36.254883
cobot_dynamixel_driver/joint_states|name|J1,J2,J3,J4,J5,J6|pos|-0.000013,0.000038,0.000013,-0.000025,-0.000062,0.000000|vel|0.000000,-0.000000,0.000000,0.000000,0.000000,0.000000|eff|0.000000,225.585938,-982.910156,-64.453125,56.396484,32.226562
cobot_dynamixel_driver/joint_states|name|J1,J2,J3,J4,J5,J6|pos|-0.000013,0.000038,0.000013,-0.000025,-0.000062,0.000000|vel|0.000000,-0.000000,0.000000,0.000000,0.000000,0.000000|eff|0.000000,241.699219,-1015.136719,-64.453125,56.396484,20.141602
cobot_dynamixel_driver/joint_states|name|J1,J2,J3,J4,J5,J6|pos|-0.000013,0.000038,0.000013,-0.000025,-0.000062,0.000000|vel|0.000000,-0.000000,0.000000,0.000000,0.000000,0.000000|eff|0.000000,241.699219,-950.683594,0.000000,64.453125,0.000000
cobot_dynamixel_driver/joint_states|name|J1,J2,J3,J4,J5,J6|pos|-0.000013,0.000038,0.000013,-0.000025,-0.000062,0.000000|vel|0.000000,-0.000000,0.000000,0.000000,0.000000,0.000000|eff|0.000000,241.699219,-966.796875,-48.339844,64.453125,0.000000
cobot_dynamixel_driver/joint_states|name|J1,J2,J3,J4,J5,J6|pos|-0.000013,0.000038,0.000013,-0.000025,-0.000062,0.000000|vel|0.000000,-0.000000,0.000000,0.000000,0.000000,0.000000|eff|0.000000,322.265625,-1015.136719,0.000000,64.453125,20.141602
cobot_dynamixel_driver/joint_states|name|J1,J2,J3,J4,J5,J6|pos|-0.000013,0.000038,0.000000,-0.000025,-0.000062,0.000000|vel|0.000000,-0.000000,0.000000,0.000000,0.000000,0.000000|eff|0.000000,273.925781,-966.796875,0.000000,64.453125,20.141602
cobot_dynamixel_driver/joint_states|name|J1,J2,J3,J4,J5,J6|pos|-0.000013,0.000038,0.000000,-0.000025,-0.000062,0.000000|vel|0.000000,-0.000000,0.000000,0.000000,0.000000,0.000000|eff|0.000000,241.699219,-982.910156,0.000000,64.453125,12.084961
cobot_dynamixel_driver/joint_states|name|J1,J2,J3,J4,J5,J6|pos|-0.000013,0.000038,0.000000,-0.000025,-0.000062,0.000000|vel|0.000000,-0.000000,0.000000,0.000000,0.000000,0.000000|eff|0.000000,370.605469,-999.023438,-64.453125,64.453125,0.000000
cobot_dynamixel_driver/joint_states|name|J1,J2,J3,J4,J5,J6|pos|-0.000013,0.000038,0.000000,-0.000025,-0.000062,0.000000|vel|0.000000,-0.000000,0.000000,0.000000,0.000000,0.000000|eff|0.000000,241.699219,-982.910156,0.000000,72.509766,0.000000
cobot_dynamixel_driver/joint_states|name|J1,J2,J3,J4,J5,J6|pos|-0.000013,0.000038,0.000000,-0.000025,-0.000062,0.000000|vel|0.000000,-0.000000,0.000000,0.000000,0.000000,0.000000|eff|0.000000,257.812500,-999.023438,-64.453125,68.481445,20.141602
cobot_dynamixel_driver/joint_states|name|J1,J2,J3,J4,J5,J6|pos|-0.000013,0.000038,0.000000,-0.000025,-0.000062,0.000000|vel|0.000000,-0.000000,0.000000,0.000000,0.000000,0.000000|eff|0.000000,370.605469,-966.796875,-80.566406,72.509766,0.000000
cobot_dynamixel_driver/joint_states|name|J1,J2,J3,J4,J5,J6|pos|-0.000013,0.000038,0.000000,-0.000025,-0.000062,0.000000|vel|0.000000,-0.000000,0.000000,0.000000,0.000000,0.000000|eff|0.000000,241.699219,-1015.136719,0.000000,72.509766,20.141602
cobot_dynamixel_driver/joint_states|name|J1,J2,J3,J4,J5,J6|pos|-0.000013,0.000038,0.000000,-0.000025,-0.000062,0.000000|vel|0.000000,-0.000000,0.000000,0.000000,0.000000,0.000000|eff|0.000000,354.492188,-950.683594,0.000000,68.481445,36.254883
cobot_dynamixel_driver/joint_states|name|J1,J2,J3,J4,J5,J6|pos|-0.000013,0.000038,0.000000,-0.000025,-0.000062,0.000000|vel|0.000000,-0.000000,0.000000,0.000000,0.000000,0.000000|eff|0.000000,273.925781,-1031.250000,-48.339844,72.509766,20.141602
cobot_dynamixel_driver/joint_states|name|J1,J2,J3,J4,J5,J6|pos|-0.000013,0.000038,-0.000013,-0.000025,-0.000062,0.000000|vel|0.000000,-0.000000,0.000000,0.000000,0.000000,0.000000|eff|0.000000,322.265625,-966.796875,-48.339844,72.509766,8.056641
cobot_dynamixel_driver/joint_states|name|J1,J2,J3,J4,J5,J6|pos|-0.000013,0.000038,-0.000013,-0.000025,-0.000062,0.000000|vel|0.000000,-0.000000,0.000000,0.000000,0.000000,0.000000|eff|0.000000,241.699219,-999.023438,0.000000,72.509766,0.000000
cobot_dynamixel_driver/joint_states|name|J1,J2,J3,J4,J5,J6|pos|-0.000013,0.000038,-0.000013,-0.000025,-0.000062,0.000000|vel|0.000000,-0.000000,0.000000,0.000000,0.000000,0.000000|eff|0.000000,257.812500,-999.023438,0.000000,72.509766,0.000000
cobot_dynamixel_driver/joint_states|name|J1,J2,J3,J4,J5,J6|pos|-0.000013,0.000038,-0.000013,-0.000025,-0.000062,0.000000|vel|0.000000,-0.000000,0.000000,0.000000,0.000000,0.000000|eff|0.000000,386.718750,-950.683594,0.000000,72.509766,28.198242
cobot_dynamixel_driver/joint_states|name|J1,J2,J3,J4,J5,J6|pos|-0.000013,0.000038,-0.000013,-0.000025,-0.000062,0.000000|vel|0.000000,-0.000000,0.000000,0.000000,0.000000,0.000000|eff|0.000000,257.812500,-950.683594,-80.566406,72.509766,32.226562
cobot_dynamixel_driver/joint_states|name|J1,J2,J3,J4,J5,J6|pos|-0.000013,0.000038,-0.000013,-0.000025,-0.000062,0.000000|vel|0.000000,-0.000000,0.000000,0.000000,0.000000,0.000000|eff|0.000000,257.812500,-950.683594,-80.566406,76.538086,20.141602
cobot_dynamixel_driver/joint_states|name|J1,J2,J3,J4,J5,J6|pos|-0.000013,0.000038,-0.000013,-0.000025,-0.000041,0.000000|vel|0.000000,-0.000000,0.000000,0.000000,0.000000,0.000000|eff|0.000000,322.265625,-950.683594,0.000000,76.538086,0.000000
cobot_dynamixel_driver/joint_states|name|J1,J2,J3,J4,J5,J6|pos|-0.000013,0.000038,-0.000013,-0.000025,-0.000041,0.000000|vel|0.000000,-0.000000,0.000000,0.000000,0.000000,0.000000|eff|0.000000,418.945312,-982.910156,-80.566406,72.509766,0.000000
cobot_dynamixel_driver/joint_states|name|J1,J2,J3,J4,J5,J6|pos|-0.000013,0.000038,-0.000013,-0.000025,-0.000041,0.000000|vel|0.000000,-0.000000,0.000000,0.000000,0.000000,0.000000|eff|0.000000,241.699219,-999.023438,-64.453125,80.566406,0.000000
cobot_dynamixel_driver/joint_states|name|J1,J2,J3,J4,J5,J6|pos|-0.000013,0.000038,-0.000013,-0.000025,-0.000041,0.000000|vel|0.000000,-0.000000,0.000000,0.000000,0.000000,0.000000|eff|0.000000,370.605469,-966.796875,0.000000,76.538086,20.141602
cobot_dynamixel_driver/joint_states|name|J1,J2,J3,J4,J5,J6|pos|-0.000013,0.000038,-0.000013,-0.000025,-0.000041,0.000000|vel|0.000000,-0.000000,0.000000,0.000000,0.000000,0.000000|eff|0.000000,273.925781,-966.796875,-48.339844,76.538086,36.254883
cobot_dynamixel_driver/joint_states|name|J1,J2,J3,J4,J5,J6|pos|-0.000013,0.000038,-0.000013,-0.000025,-0.000041,0.000000|vel|0.000000,-0.000000,0.000000,0.000000,0.000000,0.000000|eff|0.000000,290.039062,-999.023438,-48.339844,76.538086,0.000000
cobot_dynamixel_driver/joint_states|name|J1,J2,J3,J4,J5,J6|pos|-0.000013,0.000038,-0.000013,-0.000025,-0.000041,0.000000|vel|0.000000,-0.000000,0.000000,0.000000,0.000000,0.000000|eff|0.000000,370.605469,-1031.250000,-64.453125,76.538086,28.198242
cobot_dynamixel_driver/joint_states|name|J1,J2,J3,J4,J5,J6|pos|-0.000013,0.000038,-0.000013,-0.000025,-0.000041,0.000000|vel|0.000000,-0.000000,0.000000,0.000000,0.000000,0.000000|eff|0.000000,322.265625,-1015.136719,0.000000,76.538086,0.000000
cobot_dynamixel_driver/joint_states|name|J1,J2,J3,J4,J5,J6|pos|-0.000013,0.000038,-0.000025,-0.000025,-0.000041,0.000000|vel|0.000000,-0.000000,0.000000,0.000000,0.000000,0.000000|eff|0.000000,241.699219,-982.910156,-64.453125,76.538086,0.000000
cobot_dynamixel_driver/joint_states|name|J1,J2,J3,J4,J5,J6|pos|-0.000013,0.000038,-0.000025,-0.000025,-0.000041,0.000000|vel|0.000000,-0.000000,0.000000,0.000000,0.000000,0.000000|eff|0.000000,241.699219,-950.683594,0.000000,76.538086,20.141602
cobot_dynamixel_driver/joint_states|name|J1,J2,J3,J4,J5,J6|pos|-0.000013,0.000038,-0.000025,-0.000025,-0.000041,0.000000|vel|0.000000,-0.000000,0.000000,0.000000,0.000000,0.000000|eff|0.000000,241.699219,-1015.136719,-64.453125,76.538086,20.141602
cobot_dynamixel_driver/joint_states|name|J1,J2,J3,J4,J5,J6|pos|-0.000013,0.000038,-0.000025,-0.000025,-0.000041,0.000000|vel|0.000000,-0.000000,0.000000,0.000000,0.000000,0.000000|eff|0.000000,451.171875,-982.910156,0.000000,76.538086,0.000000
cobot_dynamixel_driver/joint_states|name|J1,J2,J3,J4,J5,J6|pos|-0.000013,0.000038,-0.000025,-0.000025,-0.000041,0.000000|vel|0.000000,-0.000000,0.000000,0.000000,0.000000,0.000000|eff|0.000000,370.605469,-982.910156,0.000000,76.538086,8.056641
cobot_dynamixel_driver/joint_states|name|J1,J2,J3,J4,J5,J6|pos|-0.000013,0.000038,-0.000025,-0.000025,-0.000041,0.000000|vel|0.000000,-0.000000,0.000000,0.000000,0.000000,0.000000|eff|0.000000,273.925781,-950.683594,0.000000,76.538086,28.198242
cobot_dynamixel_driver/joint_states|name|J1,J2,J3,J4,J5,J6|pos|-0.000013,0.000038,-0.000025,-0.000025,-0.000041,0.000000|vel|0.000000,-0.000000,0.000000,0.000000,0.000000,0.000000|eff|0.000000,241.699219,-982.910156,0.000000,76.538086,36.254883
cobot_dynamixel_driver/joint_states|name|J1,J2,J3,J4,J5,J6|pos|-0.000013,0.000038,-0.000025,-0.000025,-0.000041,0.000000|vel|0.000000,-0.000000,0.000000,0.000000,0.000000,0.000000|eff|0.000000,467.285156,-1015.136719,-48.339844,76.538086,0.000000
cobot_dynamixel_driver/joint_states|name|J1,J2,J3,J4,J5,J6|pos|-0.000013,0.000038,-0.000025,-0.000025,-0.000041,0.000000|vel|0.000000,-0.000000,0.000000,0.000000,0.000000,0.000000|eff|0.000000,273.925781,-966.796875,0.000000,76.538086,0.000000
cobot_dynamixel_driver/joint_states|name|J1,J2,J3,J4,J5,J6|pos|-0.000013,0.000038,-0.000025,-0.000025,-0.000041,0.000000|vel|0.000000,-0.000000,0.000000,0.000000,0.000000,0.000000|eff|0.000000,273.925781,-982.910156,-48.339844,76.538086,0.000000
cobot_dynamixel_driver/joint_states|name|J1,J2,J3,J4,J5,J6|pos|-0.000013,0.000038,-0.000025,-0.000025,-0.000041,0.000000|vel|0.000000,-0.000000,0.000000,0.000000,0.000000,0.000000|eff|0.000000,435.058594,-950.683594,0.000000,76.538086,20.141602
cobot_dynamixel_driver/joint_states|name|J1,J2,J3,J4,J5,J6|pos|-0.000013,0.000038,-0.000025,-0.000025,-0.000041,0.000000|vel|0.000000,-0.000000,0.000000,0.000000,0.000000,0.000000|eff|0.000000,435.058594,-950.683594,-64.453125,76.538086,36.254883
cobot_dynamixel_driver/joint_states|name|J1,J2,J3,J4,J5,J6|pos|-0.000013,0.000038,-0.000025,-0.000025,-0.000041,0.000000|vel|0.000000,-0.000000,0.000000,0.000000,0.000000,0.000000|eff|0.000000,322.265625,-999.023438,0.000000,76.538086,32.226562
cobot_dynamixel_driver/joint_states|name|J1,J2,J3,J4,J5,J6|pos|-0.000013,0.000038,-0.000025,-0.000025,-0.000041,0.000000|vel|0.000000,-0.000000,0.000000,0.000000,0.000000,0.000000|eff|0.000000,241.699219,-966.796875,-64.453125,76.538086,20.141602
cobot_dynamixel_driver/joint_states|name|J1,J2,J3,J4,J5,J6|pos|-0.000013,0.000038,-0.000025,-0.000025,-0.000041,0.000000|vel|0.000000,-0.000000,0.000000,0.000000,0.000000,0.000000|eff|0.000000,241.699219,-966.796875,-48.339844,76.538086,28.198242
cobot_dynamixel_driver/joint_states|name|J1,J2,J3,J4,J5,J6|pos|-0.000013,0.000038,-0.000025,-0.000025,-0.000041,0.000000|vel|0.000000,-0.000000,0.000000,0.000000,0.000000,0.000000|eff|0.000000,273.925781,-1015.136719,0.000000,76.538086,0.000000
cobot_dynamixel_driver/joint_states|name|J1,J2,J3,J4,J5,J6|pos|-0.000013,0.000038,-0.000025,-0.000025,-0.000041,0.000000|vel|0.000000,-0.000000,0.000000,0.000000,0.000000,0.000000|eff|0.000000,386.718750,-982.910156,-64.453125,76.538086,12.084961
cobot_dynamixel_driver/joint_states|name|J1,J2,J3,J4,J5,J6|pos|-0.000013,0.000038,-0.000025,-0.000025,-0.000041,0.000000|vel|0.000000,-0.000000,0.000000,0.000000,0.000000,0.000000|eff|0.000000,290.039062,-950.683594,0.000000,76.538086,32.226562
cobot_dynamixel_driver/joint_states|name|J1,J2,J3,J4,J5,J6|pos|-0.000013,0.000038,-0.000025,-0.000025,-0.000041,0.000000|vel|0.000000,-0.000000,0.000000,0.000000,0.000000,0.000000|eff|0.000000,257.812500,-966.796875,-80.566406,76.538086,36.254883
cobot_dynamixel_driver/joint_states|name|J1,J2,J3,J4,J5,J6|pos|-0.000013,0.000038,-0.000025,-0.000025,-0.000041,0.000000|vel|0.000000,-0.000000,0.000000,0.000000,0.000000,0.000000|eff|0.000000,435.058594,-1031.250000,0.000000,76.538086,20.141602
cobot_dynamixel_driver/joint_states|name|J1,J2,J3,J4,J5,J6|pos|-0.000013,0.000038,-0.000025,-0.000025,-0.000041,0.000000|vel|0.000000,-0.000000,0.000000,0.000000,0.000000,0.000000|eff|0.000000,273.925781,-999.023438,-80.566406,76.538086,12.084961
cobot_dynamixel_driver/joint_states|name|J1,J2,J3,J4,J5,J6|pos|-0.000013,0.000038,-0.000025,-0.000025,-0.000041,0.000000|vel|0.000000,-0.000000,0.000000,0.000000,0.000000,0.000000|eff|0.000000,257.812500,-982.910156,0.000000,76.538086,28.198242
cobot_dynamixel_driver/joint_states|name|J1,J2,J3,J4,J5,J6|pos|-0.000013,0.000038,-0.000025,-0.000025,-0.000041,0.000000|vel|0.000000,-0.000000,0.000000,0.000000,0.000000,0.000000|eff|0.000000,257.812500,-1031.250000,0.000000,76.538086,20.141602
cobot_dynamixel_driver/joint_states|name|J1,J2,J3,J4,J5,J6|pos|-0.000013,0.000038,-0.000025,-0.000025,-0.000041,0.000000|vel|0.000000,-0.000000,0.000000,0.000000,0.000000,0.000000|eff|0.000000,273.925781,-966.796875,-64.453125,76.538086,12.084961
cobot_dynamixel_driver/joint_states|name|J1,J2,J3,J4,J5,J6|pos|-0.000013,0.000038,-0.000025,-0.000025,-0.000041,0.000000|vel|0.000000,-0.000000,0.000000,0.000000,0.000000,0.000000|eff|0.000000,418.945312,-1015.136719,0.000000,72.509766,0.000000
cobot_dynamixel_driver/joint_states|name|J1,J2,J3,J4,J5,J6|pos|-0.000013,0.000038,-0.000025,-0.000025,-0.000041,0.000000|vel|0.000000,-0.000000,0.000000,0.000000,0.000000,0.000000|eff|0.000000,290.039062,-950.683594,-32.226562,76.538086,32.226562
cobot_dynamixel_driver/joint_states|name|J1,J2,J3,J4,J5,J6|pos|-0.000013,0.000038,-0.000025,-0.000025,-0.000041,0.000000|vel|0.000000,-0.000000,0.000000,0.000000,0.000000,0.000000|eff|0.000000,241.699219,-999.023438,0.000000,80.566406,12.084961
cobot_dynamixel_driver/joint_states|name|J1,J2,J3,J4,J5,J6|pos|-0.000013,0.000038,-0.000025,-0.000025,-0.000041,0.000000|vel|0.000000,-0.000000,0.000000,0.000000,0.000000,0.000000|eff|0.000000,273.925781,-966.796875,0.000000,76.538086,28.198242
cobot_dynamixel_driver/joint_states|name|J1,J2,J3,J4,J5,J6|pos|-0.000013,0.000038,-0.000025,-0.000025,-0.000041,0.000000|vel|0.000000,-0.000000,0.000000,0.000000,0.000000,0.000000|eff|0.000000,273.925781,-950.683594,0.000000,72.509766,32.226562
cobot_dynamixel_driver/joint_states|name|J1,J2,J3,J4,J5,J6|pos|-0.000013,0.000038,-0.000025,-0.000025,-0.000041,0.000000|vel|0.000000,-0.000000,0.000000,0.000000,0.000000,0.000000|eff|0.000000,257.812500,-966.796875,0.000000,76.538086,0.000000
cobot_dynamixel_driver/joint_states|name|J1,J2,J3,J4,J5,J6|pos|-0.000013,0.000038,-0.000025,-0.000025,-0.000041,0.000000|vel|0.000000,-0.000000,0.000000,0.000000,0.000000,0.000000|eff|0.000000,273.925781,-1031.250000,-80.566406,76.538086,28.198242
cobot_dynamixel_driver/joint_states|name|J1,J2,J3,J4,J5,J6|pos|-0.000013,0.000038,-0.000025,-0.000025,-0.000041,0.000000|vel|0.000000,-0.000000,0.000000,0.000000,0.000000,0.000000|eff|0.000000,257.812500,-1015.136719,0.000000,76.538086,20.141602
cobot_dynamixel_driver/joint_states|name|J1,J2,J3,J4,J5,J6|pos|-0.000013,0.000038,-0.000025,-0.000025,-0.000041,0.000000|vel|0.000000,-0.000000,0.000000,0.000000,0.000000,0.000000|eff|0.000000,273.925781,-966.796875,-80.566406,76.538086,12.084961
cobot_dynamixel_driver/joint_states|name|J1,J2,J3,J4,J5,J6|pos|-0.000013,0.000038,-0.000025,-0.000025,-0.000041,0.000000|vel|0.000000,-0.000000,0.000000,0.000000,0.000000,0.000000|eff|0.000000,418.945312,-966.796875,0.000000,76.538086,0.000000
cobot_dynamixel_driver/joint_states|name|J1,J2,J3,J4,J5,J6|pos|-0.000013,0.000038,-0.000025,-0.000025,-0.000041,0.000000|vel|0.000000,-0.000000,0.000000,0.000000,0.000000,0.000000|eff|0.000000,290.039062,-982.910156,-48.339844,76.538086,20.141602
cobot_dynamixel_driver/joint_states|name|J1,J2,J3,J4,J5,J6|pos|-0.000013,0.000038,-0.000025,-0.000025,-0.000041,0.000000|vel|0.000000,-0.000000,0.000000,0.000000,0.000000,0.000000|eff|0.000000,418.945312,-950.683594,-64.453125,76.538086,32.226562
cobot_dynamixel_driver/joint_states|name|J1,J2,J3,J4,J5,J6|pos|-0.000013,0.000038,-0.000038,-0.000025,-0.000041,0.000000|vel|0.000000,-0.000000,0.000000,0.000000,0.000000,0.000000|eff|0.000000,451.171875,-982.910156,-80.566406,76.538086,20.141602
cobot_dynamixel_driver/joint_states|name|J1,J2,J3,J4,J5,J6|pos|-0.000013,0.000038,-0.000025,-0.000025,-0.000041,0.000000|vel|0.000000,-0.000000,0.000000,0.000000,0.000000,0.000000|eff|0.000000,273.925781,-982.910156,-48.339844,76.538086,0.000000
cobot_dynamixel_driver/joint_states|name|J1,J2,J3,J4,J5,J6|pos|-0.000013,0.000038,-0.000025,-0.000025,-0.000041,0.000000|vel|0.000000,-0.000000,0.000000,0.000000,0.000000,0.000000|eff|0.000000,467.285156,-950.683594,0.000000,76.538086,20.141602
cobot_dynamixel_driver/joint_states|name|J1,J2,J3,J4,J5,J6|pos|-0.000013,0.000038,-0.000025,-0.000025,-0.000041,0.000000|vel|0.000000,-0.000000,0.000000,0.000000,0.000000,0.000000|eff|0.000000,386.718750,-950.683594,0.000000,76.538086,20.141602
cobot_dynamixel_driver/joint_states|name|J1,J2,J3,J4,J5,J6|pos|-0.000013,0.000038,-0.000025,-0.000025,-0.000041,0.000000|vel|0.000000,-0.000000,0.000000,0.000000,0.000000,0.000000|eff|0.000000,402.832031,-966.796875,-80.566406,76.538086,0.000000
cobot_dynamixel_driver/joint_states|name|J1,J2,J3,J4,J5,J6|pos|-0.000013,0.000038,-0.000025,-0.000025,-0.000041,0.000000|vel|0.000000,-0.000000,0.000000,0.000000,0.000000,0.000000|eff|0.000000,273.925781,-950.683594,-80.566406,76.538086,20.141602
cobot_dynamixel_driver/joint_states|name|J1,J2,J3,J4,J5,J6|pos|-0.000013,0.000038,-0.000025,-0.000025,-0.000041,0.000000|vel|0.000000,-0.000000,0.000000,0.000000,0.000000,0.000000|eff|0.000000,273.925781,-999.023438,-80.566406,76.538086,0.000000
cobot_dynamixel_driver/joint_states|name|J1,J2,J3,J4,J5,J6|pos|-0.000013,0.000038,-0.000038,-0.000025,-0.000021,0.000000|vel|0.000000,-0.000000,0.000000,0.000000,0.000000,0.000000|eff|0.000000,386.718750,-950.683594,-80.566406,76.538086,36.254883
cobot_dynamixel_driver/joint_states|name|J1,J2,J3,J4,J5,J6|pos|-0.000013,0.000038,-0.000038,-0.000025,-0.000021,0.000000|vel|0.000000,-0.000000,0.000000,0.000000,0.000000,0.000000|eff|0.000000,241.699219,-966.796875,0.000000,76.538086,0.000000
cobot_dynamixel_driver/joint_states|name|J1,J2,J3,J4,J5,J6|pos|-0.000013,0.000038,-0.000038,-0.000025,-0.000021,0.000000|vel|0.000000,-0.000000,0.000000,0.000000,0.000000,0.000000|eff|0.000000,386.718750,-950.683594,-80.566406,76.538086,20.141602
cobot_dynamixel_driver/joint_states|name|J1,J2,J3,J4,J5,J6|pos|-0.000013,0.000038,-0.000038,-0.000025,-0.000021,0.000000|vel|0.000000,-0.000000,0.000000,0.000000,0.000000,0.000000|eff|0.000000,241.699219,-999.023438,0.000000,76.538086,36.254883
cobot_dynamixel_driver/joint_states|name|J1,J2,J3,J4,J5,J6|pos|-0.000013,0.000038,-0.000038,-0.000025,-0.000021,0.000000|vel|0.000000,-0.000000,0.000000,0.000000,0.000000,0.000000|eff|0.000000,435.058594,-950.683594,0.000000,76.538086,20.141602
cobot_dynamixel_driver/joint_states|name|J1,J2,J3,J4,J5,J6|pos|-0.000013,0.000038,-0.000038,-0.000025,-0.000021,0.000000|vel|0.000000,-0.000000,0.000000,0.000000,0.000000,0.000000|eff|0.000000,386.718750,-950.683594,0.000000,76.538086,0.000000
cobot_dynamixel_driver/joint_states|name|J1,J2,J3,J4,J5,J6|pos|-0.000013,0.000038,-0.000038,-0.000025,-0.000021,0.000000|vel|0.000000,-0.000000,0.000000,0.000000,0.000000,0.000000|eff|0.000000,257.812500,-950.683594,0.000000,76.538086,32.226562
cobot_dynamixel_driver/joint_states|name|J1,J2,J3,J4,J5,J6|pos|-0.000013,0.000038,-0.000038,-0.000025,-0.000021,0.000000|vel|0.000000,-0.000000,0.000000,0.000000,0.000000,0.000000|eff|0.000000,273.925781,-966.796875,0.000000,76.538086,0.000000
cobot_dynamixel_driver/joint_states|name|J1,J2,J3,J4,J5,J6|pos|-0.000013,0.000038,-0.000038,-0.000025,-0.000021,0.000000|vel|0.000000,-0.000000,0.000000,0.000000,0.000000,0.000000|eff|0.000000,386.718750,-966.796875,0.000000,76.538086,20.141602
cobot_dynamixel_driver/joint_states|name|J1,J2,J3,J4,J5,J6|pos|-0.000013,0.000038,-0.000038,-0.000025,-0.000021,0.000000|vel|0.000000,-0.000000,0.000000,0.000000,0.000000,0.000000|eff|0.000000,338.378906,-999.023438,0.000000,76.538086,0.000000
cobot_dynamixel_driver/joint_states|name|J1,J2,J3,J4,J5,J6|pos|-0.000013,0.000038,-0.000038,-0.000025,-0.000021,0.000000|vel|0.000000,-0.000000,0.000000,0.000000,0.000000,0.000000|eff|0.000000,467.285156,-950.683594,0.000000,76.538086,28.198242
cobot_dynamixel_driver/joint_states|name|J1,J2,J3,J4,J5,J6|pos|-0.000013,0.000038,-0.000038,-0.000025,-0.000021,0.000000|vel|0.000000,-0.000000,0.000000,0.000000,0.000000,0.000000|eff|0.000000,257.812500,-999.023438,0.000000,76.538086,20.141602
cobot_dynamixel_driver/joint_states|name|J1,J2,J3,J4,J5,J6|pos|-0.000013,0.000038,-0.000038,-0.000025,-0.000021,0.000000|vel|0.000000,-0.000000,0.000000,0.000000,0.000000,0.000000|eff|0.000000,338.378906,-950.683594,0.000000,76.538086,0.000000
cobot_dynamixel_driver/joint_states|name|J1,J2,J3,J4,J5,J6|pos|-0.000013,0.000038,-0.000038,-0.000025,-0.000021,0.000000|vel|0.000000,-0.000000,0.000000,0.000000,0.000000,0.000000|eff|0.000000,257.812500,-950.683594,-64.453125,76.538086,0.000000
cobot_dynamixel_driver/joint_states|name|J1,J2,J3,J4,J5,J6|pos|-0.000013,0.000038,-0.000025,-0.000025,-0.000021,0.000000|vel|0.000000,-0.000000,0.000000,0.000000,0.000000,0.000000|eff|0.000000,306.152344,-950.683594,0.000000,76.538086,20.141602
cobot_dynamixel_driver/joint_states|name|J1,J2,J3,J4,J5,J6|pos|-0.000013,0.000038,-0.000025,-0.000025,-0.000021,0.000000|vel|0.000000,-0.000000,0.000000,0.000000,0.000000,0.000000|eff|0.000000,273.925781,-950.683594,0.000000,76.538086,20.141602
cobot_dynamixel_driver/joint_states|name|J1,J2,J3,J4,J5,J6|pos|-0.000013,0.000038,-0.000025,-0.000025,-0.000021,0.000000|vel|0.000000,-0.000000,0.000000,0.000000,0.000000,0.000000|eff|0.000000,322.265625,-950.683594,-64.453125,76.538086,28.198242
cobot_dynamixel_driver/joint_states|name|J1,J2,J3,J4,J5,J6|pos|-0.000013,0.000038,-0.000025,-0.000025,-0.000021,0.000000|vel|0.000000,-0.000000,0.000000,0.000000,0.000000,0.000000|eff|0.000000,386.718750,-950.683594,-64.453125,76.538086,0.000000
cobot_dynamixel_driver/joint_states|name|J1,J2,J3,J4,J5,J6|pos|-0.000013,0.000038,-0.000025,-0.000025,-0.000021,0.000000|vel|0.000000,-0.000000,0.000000,0.000000,0.000000,0.000000|eff|0.000000,257.812500,-950.683594,0.000000,76.538086,0.000000
cobot_dynamixel_driver/joint_states|name|J1,J2,J3,J4,J5,J6|pos|-0.000013,0.000038,-0.000025,-0.000025,-0.000021,0.000000|vel|0.000000,-0.000000,0.000000,0.000000,0.000000,0.000000|eff|0.000000,451.171875,-950.683594,0.000000,76.538086,0.000000
cobot_dynamixel_driver/joint_states|name|J1,J2,J3,J4,J5,J6|pos|-0.000013,0.000038,-0.000025,-0.000025,-0.000021,0.000000|vel|0.000000,-0.000000,0.000000,0.000000,0.000000,0.000000|eff|0.000000,418.945312,-950.683594,-96.679688,76.538086,32.226562
cobot_dynamixel_driver/joint_states|name|J1,J2,J3,J4,J5,J6|pos|-0.000013,0.000038,-0.000025,-0.000025,-0.000021,0.000000|vel|0.000000,-0.000000,0.000000,0.000000,0.000000,0.000000|eff|0.000000,467.285156,-950.683594,0.000000,76.538086,32.226562
cobot_dynamixel_driver/joint_states|name|J1,J2,J3,J4,J5,J6|pos|-0.000013,0.000038,-0.000025,-0.000025,-0.000021,0.000000|vel|0.000000,-0.000000,0.000000,0.000000,0.000000,0.000000|eff|0.000000,418.945312,-950.683594,-80.566406,76.538086,32.226562
cobot_dynamixel_driver/joint_states|name|J1,J2,J3,J4,J5,J6|pos|-0.000013,0.000038,-0.000025,-0.000025,-0.000021,0.000000|vel|0.000000,-0.000000,0.000000,0.000000,0.000000,0.000000|eff|0.000000,257.812500,-950.683594,-80.566406,76.538086,20.141602
cobot_dynamixel_driver/joint_states|name|J1,J2,J3,J4,J5,J6|pos|-0.000013,0.000038,-0.000025,-0.000025,-0.000021,0.000000|vel|0.000000,-0.000000,0.000000,0.000000,0.000000,0.000000|eff|0.000000,273.925781,-950.683594,0.000000,76.538086,36.254883
cobot_dynamixel_driver/joint_states|name|J1,J2,J3,J4,J5,J6|pos|-0.000013,0.000038,-0.000025,-0.000025,-0.000021,0.000000|vel|0.000000,-0.000000,0.000000,0.000000,0.000000,0.000000|eff|0.000000,402.832031,-950.683594,-80.566406,76.538086,20.141602
cobot_dynamixel_driver/joint_states|name|J1,J2,J3,J4,J5,J6|pos|-0.000013,0.000025,-0.000025,-0.000025,-0.000021,0.000000|vel|0.000000,-0.000000,0.000000,0.000000,0.000000,0.000000|eff|0.000000,467.285156,-950.683594,0.000000,76.538086,0.000000
cobot_dynamixel_driver/joint_states|name|J1,J2,J3,J4,J5,J6|pos|-0.000013,0.000025,-0.000025,-0.000025,-0.000021,0.000000|vel|0.000000,-0.000000,0.000000,0.000000,0.000000,0.000000|eff|0.000000,273.925781,-950.683594,0.000000,76.538086,12.084961
cobot_dynamixel_driver/joint_states|name|J1,J2,J3,J4,J5,J6|pos|-0.000013,0.000025,-0.000025,-0.000025,-0.000021,0.000000|vel|0.000000,-0.000000,0.000000,0.000000,0.000000,0.000000|eff|0.000000,483.398438,-950.683594,-80.566406,76.538086,16.113281
cobot_dynamixel_driver/joint_states|name|J1,J2,J3,J4,J5,J6|pos|-0.000013,0.000025,-0.000025,-0.000025,-0.000021,0.000000|vel|0.000000,-0.000000,0.000000,0.000000,0.000000,0.000000|eff|0.000000,451.171875,-950.683594,-48.339844,76.538086,20.141602
cobot_dynamixel_driver/joint_states|name|J1,J2,J3,J4,J5,J6|pos|-0.000013,0.000025,-0.000025,-0.000025,-0.000021,0.000000|vel|0.000000,-0.000000,0.000000,0.000000,0.000000,0.000000|eff|0.000000,467.285156,-950.683594,0.000000,76.538086,0.000000
cobot_dynamixel_driver/joint_states|name|J1,J2,J3,J4,J5,J6|pos|-0.000013,0.000025,-0.000025,-0.000025,-0.000021,0.000000|vel|0.000000,-0.000000,0.000000,0.000000,0.000000,0.000000|eff|0.000000,451.171875,-950.683594,-48.339844,76.538086,20.141602
cobot_dynamixel_driver/joint_states|name|J1,J2,J3,J4,J5,J6|pos|-0.000013,0.000025,-0.000025,-0.000025,-0.000021,0.000000|vel|0.000000,-0.000000,0.000000,0.000000,0.000000,0.000000|eff|0.000000,257.812500,-950.683594,0.000000,76.538086,0.000000
cobot_dynamixel_driver/joint_states|name|J1,J2,J3,J4,J5,J6|pos|-0.000013,0.000025,-0.000025,-0.000025,-0.000021,0.000000|vel|0.000000,-0.000000,0.000000,0.000000,0.000000,0.000000|eff|0.000000,290.039062,-950.683594,0.000000,76.538086,36.254883
cobot_dynamixel_driver/joint_states|name|J1,J2,J3,J4,J5,J6|pos|-0.000013,0.000025,-0.000025,-0.000025,-0.000021,0.000000|vel|0.000000,-0.000000,0.000000,0.000000,0.000000,0.000000|eff|0.000000,483.398438,-950.683594,-48.339844,76.538086,20.141602
cobot_dynamixel_driver/joint_states|name|J1,J2,J3,J4,J5,J6|pos|-0.000013,0.000025,-0.000025,-0.000025,-0.000021,0.000000|vel|0.000000,-0.000000,0.000000,0.000000,0.000000,0.000000|eff|0.000000,467.285156,-950.683594,0.000000,76.538086,36.254883
cobot_dynamixel_driver/joint_states|name|J1,J2,J3,J4,J5,J6|pos|-0.000013,0.000025,-0.000025,-0.000025,-0.000021,0.000000|vel|0.000000,-0.000000,0.000000,0.000000,0.000000,0.000000|eff|0.000000,338.378906,-950.683594,0.000000,76.538086,20.141602
cobot_dynamixel_driver/joint_states|name|J1,J2,J3,J4,J5,J6|pos|-0.000013,0.000025,-0.000025,-0.000025,-0.000021,0.000000|vel|0.000000,-0.000000,0.000000,0.000000,0.000000,0.000000|eff|0.000000,467.285156,-950.683594,0.000000,76.538086,20.141602
cobot_dynamixel_driver/joint_states|name|J1,J2,J3,J4,J5,J6|pos|-0.000013,0.000025,-0.000025,-0.000025,-0.000021,0.000000|vel|0.000000,-0.000000,0.000000,0.000000,0.000000,0.000000|eff|0.000000,354.492188,-950.683594,0.000000,76.538086,36.254883
cobot_dynamixel_driver/joint_states|name|J1,J2,J3,J4,J5,J6|pos|-0.000013,0.000025,-0.000025,-0.000025,-0.000021,0.000000|vel|0.000000,-0.000000,0.000000,0.000000,0.000000,0.000000|eff|0.000000,483.398438,-950.683594,0.000000,76.538086,28.198242
cobot_dynamixel_driver/joint_states|name|J1,J2,J3,J4,J5,J6|pos|-0.000013,0.000025,-0.000025,-0.000025,-0.000021,0.000000|vel|0.000000,-0.000000,0.000000,0.000000,0.000000,0.000000|eff|0.000000,257.812500,-950.683594,-64.453125,76.538086,12.084961
cobot_dynamixel_driver/joint_states|name|J1,J2,J3,J4,J5,J6|pos|-0.000013,0.000025,-0.000025,-0.000025,-0.000021,0.000000|vel|0.000000,-0.000000,0.000000,0.000000,0.000000,0.000000|eff|0.000000,354.492188,-950.683594,-32.226562,76.538086,0.000000
cobot_dynamixel_driver/joint_states|name|J1,J2,J3,J4,J5,J6|pos|-0.000013,0.000025,-0.000025,-0.000025,-0.000021,0.000000|vel|0.000000,-0.000000,0.000000,0.000000,0.000000,0.000000|eff|0.000000,306.152344,-950.683594,-64.453125,76.538086,36.254883
cobot_dynamixel_driver/joint_states|name|J1,J2,J3,J4,J5,J6|pos|-0.000013,0.000025,-0.000025,-0.000025,-0.000021,0.000000|vel|0.000000,-0.000000,0.000000,0.000000,0.000000,0.000000|eff|0.000000,402.832031,-950.683594,0.000000,76.538086,36.254883
cobot_dynamixel_driver/joint_states|name|J1,J2,J3,J4,J5,J6|pos|-0.000013,0.000025,-0.000025,-0.000025,-0.000021,0.000000|vel|0.000000,-0.000000,0.000000,0.000000,0.000000,0.000000|eff|0.000000,451.171875,-950.683594,-80.566406,76.538086,0.000000
cobot_dynamixel_driver/joint_states|name|J1,J2,J3,J4,J5,J6|pos|-0.000013,0.000025,-0.000025,-0.000025,-0.000021,0.000000|vel|0.000000,-0.000000,0.000000,0.000000,0.000000,0.000000|eff|0.000000,273.925781,-950.683594,-64.453125,76.538086,36.254883
cobot_dynamixel_driver/joint_states|name|J1,J2,J3,J4,J5,J6|pos|-0.000013,0.000025,-0.000025,-0.000025,-0.000021,0.000000|vel|0.000000,-0.000000,0.000000,0.000000,0.000000,0.000000|eff|0.000000,257.812500,-950.683594,-48.339844,76.538086,0.000000
cobot_dynamixel_driver/joint_states|name|J1,J2,J3,J4,J5,J6|pos|-0.000013,0.000025,-0.000025,-0.000025,-0.000021,0.000000|vel|0.000000,-0.000000,0.000000,0.000000,0.000000,0.000000|eff|0.000000,402.832031,-950.683594,-48.339844,76.538086,32.226562
cobot_dynamixel_driver/joint_states|name|J1,J2,J3,J4,J5,J6|pos|-0.000013,0.000025,-0.000025,-0.000025,-0.000021,0.000000|vel|0.000000,-0.000000,0.000000,0.000000,0.000000,0.000000|eff|0.000000,467.285156,-950.683594,-80.566406,76.538086,0.000000
cobot_dynamixel_driver/joint_states|name|J1,J2,J3,J4,J5,J6|pos|-0.000013,0.000025,-0.000025,-0.000025,-0.000021,0.000000|vel|0.000000,-0.000000,0.000000,0.000000,0.000000,0.000000|eff|0.000000,467.285156,-950.683594,0.000000,72.509766,12.084961
cobot_dynamixel_driver/joint_states|name|J1,J2,J3,J4,J5,J6|pos|-0.000013,0.000025,-0.000025,-0.000025,-0.000021,0.000000|vel|0.000000,-0.000000,0.000000,0.000000,0.000000,0.000000|eff|0.000000,418.945312,-934.570312,0.000000,80.566406,12.084961
cobot_dynamixel_driver/joint_states|name|J1,J2,J3,J4,J5,J6|pos|-0.000013,0.000025,-0.000025,-0.000025,-0.000021,0.000000|vel|0.000000,-0.000000,0.000000,0.000000,0.000000,0.000000|eff|0.000000,338.378906,-950.683594,-80.566406,76.538086,28.198242
cobot_dynamixel_driver/joint_states|name|J1,J2,J3,J4,J5,J6|pos|-0.000013,0.000025,-0.000025,-0.000025,-0.000021,0.000000|vel|0.000000,-0.000000,0.000000,0.000000,0.000000,0.000000|eff|0.000000,467.285156,-950.683594,-64.453125,68.481445,0.000000
cobot_dynamixel_driver/joint_states|name|J1,J2,J3,J4,J5,J6|pos|-0.000013,0.000025,-0.000025,-0.000025,-0.000021,0.000000|vel|0.000000,-0.000000,0.000000,0.000000,0.000000,0.000000|eff|0.000000,386.718750,-950.683594,-96.679688,68.481445,0.000000
cobot_dynamixel_driver/joint_states|name|J1,J2,J3,J4,J5,J6|pos|-0.000013,0.000025,-0.000025,-0.000025,-0.000021,0.000000|vel|0.000000,-0.000000,0.000000,0.000000,0.000000,0.000000|eff|0.000000,338.378906,-950.683594,-48.339844,72.509766,0.000000
cobot_dynamixel_driver/joint_states|name|J1,J2,J3,J4,J5,J6|pos|-0.000013,0.000025,-0.000025,-0.000025,-0.000021,0.000000|vel|0.000000,-0.000000,0.000000,0.000000,0.000000,0.000000|eff|0.000000,338.378906,-950.683594,0.000000,72.509766,0.000000
cobot_dynamixel_driver/joint_states|name|J1,J2,J3,J4,J5,J6|pos|-0.000013,0.000025,-0.000025,-0.000025,-0.000021,0.000000|vel|0.000000,-0.000000,0.000000,0.000000,0.000000,0.000000|eff|0.000000,402.832031,-950.683594,-96.679688,72.509766,32.226562
cobot_dynamixel_driver/joint_states|name|J1,J2,J3,J4,J5,J6|pos|-0.000013,0.000025,-0.000025,-0.000025,-0.000021,0.000000|vel|0.000000,-0.000000,0.000000,0.000000,0.000000,0.000000|eff|0.000000,338.378906,-950.683594,-48.339844,76.538086,0.000000
cobot_dynamixel_driver/joint_states|name|J1,J2,J3,J4,J5,J6|pos|-0.000013,0.000025,-0.000025,-0.000025,-0.000021,0.000000|vel|0.000000,-0.000000,0.000000,0.000000,0.000000,0.000000|eff|0.000000,338.378906,-950.683594,-80.566406,72.509766,32.226562
cobot_dynamixel_driver/joint_states|name|J1,J2,J3,J4,J5,J6|pos|-0.000013,0.000025,-0.000025,-0.000025,-0.000021,0.000000|vel|0.000000,-0.000000,0.000000,0.000000,0.000000,0.000000|eff|0.000000,257.812500,-950.683594,-64.453125,80.566406,0.000000
cobot_dynamixel_driver/joint_states|name|J1,J2,J3,J4,J5,J6|pos|-0.000013,0.000025,-0.000025,-0.000025,-0.000021,0.000000|vel|0.000000,-0.000000,0.000000,0.000000,0.000000,0.000000|eff|0.000000,354.492188,-950.683594,-48.339844,76.538086,28.198242
cobot_dynamixel_driver/joint_states|name|J1,J2,J3,J4,J5,J6|pos|-0.000013,0.000025,-0.000025,-0.000025,-0.000021,0.000000|vel|0.000000,-0.000000,0.000000,0.000000,0.000000,0.000000|eff|0.000000,418.945312,-950.683594,-80.566406,76.538086,0.000000
cobot_dynamixel_driver/joint_states|name|J1,J2,J3,J4,J5,J6|pos|-0.000013,0.000025,-0.000025,-0.000025,-0.000021,0.000000|vel|0.000000,-0.000000,0.000000,0.000000,0.000000,0.000000|eff|0.000000,451.171875,-950.683594,0.000000,76.538086,20.141602
cobot_dynamixel_driver/joint_states|name|J1,J2,J3,J4,J5,J6|pos|-0.000013,0.000025,-0.000025,-0.000025,-0.000021,0.000000|vel|0.000000,-0.000000,0.000000,0.000000,0.000000,0.000000|eff|0.000000,418.945312,-950.683594,0.000000,80.566406,28.198242
cobot_dynamixel_driver/joint_states|name|J1,J2,J3,J4,J5,J6|pos|-0.000013,0.000025,-0.000025,-0.000025,-0.000021,0.000000|vel|0.000000,-0.000000,0.000000,0.000000,0.000000,0.000000|eff|0.000000,418.945312,-950.683594,0.000000,80.566406,0.000000
cobot_dynamixel_driver/joint_states|name|J1,J2,J3,J4,J5,J6|pos|-0.000013,0.000025,-0.000025,-0.000025,-0.000021,0.000000|vel|0.000000,-0.000000,0.000000,0.000000,0.000000,0.000000|eff|0.000000,338.378906,-950.683594,0.000000,80.566406,36.254883
cobot_dynamixel_driver/joint_states|name|J1,J2,J3,J4,J5,J6|pos|-0.000013,0.000025,-0.000025,-0.000025,-0.000021,0.000000|vel|0.000000,-0.000000,0.000000,0.000000,0.000000,0.000000|eff|0.000000,386.718750,-950.683594,-64.453125,80.566406,0.000000
cobot_dynamixel_driver/joint_states|name|J1,J2,J3,J4,J5,J6|pos|-0.000013,0.000025,-0.000025,-0.000025,-0.000021,0.000000|vel|0.000000,-0.000000,0.000000,0.000000,0.000000,0.000000|eff|0.000000,386.718750,-950.683594,-48.339844,72.509766,20.141602
cobot_dynamixel_driver/joint_states|name|J1,J2,J3,J4,J5,J6|pos|-0.000013,0.000025,-0.000025,-0.000025,-0.000021,0.000000|vel|0.000000,-0.000000,0.000000,0.000000,0.000000,0.000000|eff|0.000000,338.378906,-950.683594,0.000000,72.509766,0.000000
cobot_dynamixel_driver/joint_states|name|J1,J2,J3,J4,J5,J6|pos|-0.000013,0.000025,-0.000025,-0.000025,-0.000021,0.000000|vel|0.000000,-0.000000,0.000000,0.000000,0.000000,0.000000|eff|0.000000,402.832031,-950.683594,-48.339844,80.566406,32.226562
cobot_dynamixel_driver/joint_states|name|J1,J2,J3,J4,J5,J6|pos|-0.000013,0.000025,-0.000025,-0.000025,-0.000021,0.000000|vel|0.000000,-0.000000,0.000000,0.000000,0.000000,0.000000|eff|0.000000,257.812500,-950.683594,0.000000,80.566406,0.000000
cobot_dynamixel_driver/joint_states|name|J1,J2,J3,J4,J5,J6|pos|-0.000013,0.000025,-0.000025,-0.000025,-0.000021,0.000000|vel|0.000000,-0.000000,0.000000,0.000000,0.000000,0.000000|eff|0.000000,306.152344,-950.683594,-80.566406,68.481445,12.084961
cobot_dynamixel_driver/joint_states|name|J1,J2,J3,J4,J5,J6|pos|-0.000013,0.000025,-0.000025,-0.000025,-0.000021,0.000000|vel|0.000000,-0.000000,0.000000,0.000000,0.000000,0.000000|eff|0.000000,354.492188,-950.683594,0.000000,76.538086,20.141602
cobot_dynamixel_driver/joint_states|name|J1,J2,J3,J4,J5,J6|pos|-0.000013,0.000025,-0.000025,-0.000025,-0.000021,0.000000|vel|0.000000,-0.000000,0.000000,0.000000,0.000000,0.000000|eff|0.000000,257.812500,-950.683594,-80.566406,80.566406,0.000000
cobot_dynamixel_driver/joint_states|name|J1,J2,J3,J4,J5,J6|pos|-0.000013,0.000025,-0.000025,-0.000025,-0.000021,0.000000|vel|0.000000,-0.000000,0.000000,0.000000,0.000000,0.000000|eff|0.000000,418.945312,-950.683594,0.000000,80.566406,12.084961
cobot_dynamixel_driver/joint_states|name|J1,J2,J3,J4,J5,J6|pos|-0.000013,0.000025,-0.000025,-0.000025,-0.000021,0.000000|vel|0.000000,-0.000000,0.000000,0.000000,0.000000,0.000000|eff|0.000000,402.832031,-950.683594,0.000000,76.538086,0.000000
