surachairobotic/cobot/cobot_dynamixel_driver/log/2018-12-19T06:38:56.171306_driver_log.txt
cobot_dynamixel_driver/joint_states|name|J1,J2,J3,J4,J5,J6|pos|-1.044170,-1.266694,1.296275,-0.001715,-1.223375,-0.000083|vel|0.000000,-0.000000,0.000000,0.000000,0.000000,0.000000|eff|0.000000,0.000000,0.000000,0.000000,0.000000,8.056641
cobot_dynamixel_driver/joint_states|name|J1,J2,J3,J4,J5,J6|pos|-1.044170,-1.266694,1.296275,-0.001715,-1.223375,-0.000083|vel|0.000000,-0.000000,0.000000,0.000000,0.000000,0.000000|eff|0.000000,0.000000,0.000000,0.000000,0.000000,-8.056641
cobot_dynamixel_driver/joint_states|name|J1,J2,J3,J4,J5,J6|pos|-1.044170,-1.266694,1.296275,-0.001715,-1.223375,-0.000083|vel|0.000000,-0.000000,0.000000,0.000000,0.000000,0.000000|eff|0.000000,0.000000,0.000000,0.000000,0.000000,-8.056641
cobot_dynamixel_driver/joint_states|name|J1,J2,J3,J4,J5,J6|pos|-1.044170,-1.266694,1.296275,-0.001715,-1.223375,-0.000083|vel|0.000000,-0.000000,0.000000,0.000000,0.000000,0.000000|eff|0.000000,0.000000,0.000000,0.000000,0.000000,0.000000
cobot_dynamixel_driver/joint_states|name|J1,J2,J3,J4,J5,J6|pos|-1.044170,-1.266694,1.296275,-0.001715,-1.223375,-0.000083|vel|0.000000,-0.000000,0.000000,0.000000,0.000000,0.000000|eff|0.000000,0.000000,0.000000,0.000000,0.000000,-8.056641
cobot_dynamixel_driver/joint_states|name|J1,J2,J3,J4,J5,J6|pos|-1.044170,-1.266694,1.296275,-0.001715,-1.223375,-0.000083|vel|0.000000,-0.000000,0.000000,0.000000,0.000000,0.000000|eff|0.000000,0.000000,0.000000,0.000000,0.000000,0.000000
cobot_dynamixel_driver/joint_states|name|J1,J2,J3,J4,J5,J6|pos|-1.044170,-1.266694,1.296275,-0.001715,-1.223375,-0.000083|vel|0.000000,-0.000000,0.000000,0.000000,0.000000,0.000000|eff|0.000000,0.000000,0.000000,0.000000,0.000000,8.056641
cobot_dynamixel_driver/joint_states|name|J1,J2,J3,J4,J5,J6|pos|-1.044170,-1.266694,1.296275,-0.001715,-1.223375,-0.000083|vel|0.000000,-0.000000,0.000000,0.000000,0.000000,0.000000|eff|0.000000,0.000000,0.000000,0.000000,0.000000,0.000000
cobot_dynamixel_driver/joint_states|name|J1,J2,J3,J4,J5,J6|pos|-1.044170,-1.266694,1.296275,-0.001715,-1.223375,-0.000083|vel|0.000000,-0.000000,0.000000,0.000000,0.000000,0.000000|eff|0.000000,0.000000,0.000000,0.000000,0.000000,-8.056641
cobot_dynamixel_driver/joint_states|name|J1,J2,J3,J4,J5,J6|pos|-1.044170,-1.266694,1.296275,-0.001715,-1.223375,-0.000083|vel|0.000000,-0.000000,0.000000,0.000000,0.000000,0.000000|eff|0.000000,0.000000,0.000000,0.000000,0.000000,-8.056641
cobot_dynamixel_driver/joint_states|name|J1,J2,J3,J4,J5,J6|pos|-1.044170,-1.266694,1.296275,-0.001715,-1.223375,-0.000083|vel|0.000000,-0.000000,0.000000,0.000000,0.000000,0.000000|eff|0.000000,0.000000,0.000000,0.000000,0.000000,-8.056641
cobot_dynamixel_driver/joint_states|name|J1,J2,J3,J4,J5,J6|pos|-1.044170,-1.266694,1.296275,-0.001715,-1.223375,-0.000083|vel|0.000000,-0.000000,0.000000,0.000000,0.000000,0.000000|eff|0.000000,0.000000,0.000000,0.000000,0.000000,0.000000
cobot_dynamixel_driver/joint_states|name|J1,J2,J3,J4,J5,J6|pos|-1.044170,-1.266694,1.296275,-0.001715,-1.223375,-0.000083|vel|0.000000,-0.000000,0.000000,0.000000,0.000000,0.000000|eff|0.000000,0.000000,0.000000,0.000000,0.000000,16.113281
cobot_dynamixel_driver/joint_states|name|J1,J2,J3,J4,J5,J6|pos|-1.044170,-1.266694,1.296275,-0.001715,-1.223375,-0.000083|vel|0.000000,-0.000000,0.000000,0.000000,0.000000,0.000000|eff|0.000000,0.000000,0.000000,0.000000,0.000000,-8.056641
cobot_dynamixel_driver/joint_states|name|J1,J2,J3,J4,J5,J6|pos|-1.044170,-1.266694,1.296275,-0.001715,-1.223375,-0.000083|vel|0.000000,-0.000000,0.000000,0.000000,0.000000,0.000000|eff|0.000000,0.000000,0.000000,0.000000,0.000000,-8.056641
cobot_dynamixel_driver/joint_states|name|J1,J2,J3,J4,J5,J6|pos|-1.044170,-1.266694,1.296275,-0.001715,-1.223375,-0.000083|vel|0.000000,-0.000000,0.000000,0.000000,0.000000,0.000000|eff|0.000000,0.000000,0.000000,0.000000,0.000000,16.113281
cobot_dynamixel_driver/joint_states|name|J1,J2,J3,J4,J5,J6|pos|-1.044170,-1.266694,1.296275,-0.001715,-1.223375,-0.000083|vel|0.000000,-0.000000,0.000000,0.000000,0.000000,0.000000|eff|0.000000,0.000000,0.000000,0.000000,0.000000,-8.056641
cobot_dynamixel_driver/joint_states|name|J1,J2,J3,J4,J5,J6|pos|-1.044170,-1.266694,1.296275,-0.001715,-1.223375,-0.000083|vel|0.000000,-0.000000,0.000000,0.000000,0.000000,0.000000|eff|0.000000,0.000000,0.000000,0.000000,0.000000,20.141602
cobot_dynamixel_driver/joint_states|name|J1,J2,J3,J4,J5,J6|pos|-1.044170,-1.266694,1.296275,-0.001715,-1.223375,-0.000083|vel|0.000000,-0.000000,0.000000,0.000000,0.000000,0.000000|eff|0.000000,0.000000,0.000000,0.000000,0.000000,-8.056641
cobot_dynamixel_driver/joint_states|name|J1,J2,J3,J4,J5,J6|pos|-1.044170,-1.266694,1.296275,-0.001715,-1.223375,-0.000083|vel|0.000000,-0.000000,0.000000,0.000000,0.000000,0.000000|eff|0.000000,0.000000,0.000000,0.000000,0.000000,0.000000
cobot_dynamixel_driver/joint_states|name|J1,J2,J3,J4,J5,J6|pos|-1.044170,-1.266694,1.296275,-0.001715,-1.223375,-0.000083|vel|0.000000,-0.000000,0.000000,0.000000,0.000000,0.000000|eff|0.000000,0.000000,0.000000,0.000000,0.000000,-8.056641
cobot_dynamixel_driver/joint_states|name|J1,J2,J3,J4,J5,J6|pos|-1.044170,-1.266694,1.296275,-0.001715,-1.223375,-0.000083|vel|0.000000,-0.000000,0.000000,0.000000,0.000000,0.000000|eff|0.000000,0.000000,0.000000,0.000000,0.000000,0.000000
cobot_dynamixel_driver/joint_states|name|J1,J2,J3,J4,J5,J6|pos|-1.044170,-1.266694,1.296275,-0.001715,-1.223375,-0.000083|vel|0.000000,-0.000000,0.000000,0.000000,0.000000,0.000000|eff|0.000000,0.000000,0.000000,0.000000,0.000000,8.056641
cobot_dynamixel_driver/joint_states|name|J1,J2,J3,J4,J5,J6|pos|-1.044170,-1.266694,1.296275,-0.001715,-1.223375,-0.000083|vel|0.000000,-0.000000,0.000000,0.000000,0.000000,0.000000|eff|0.000000,0.000000,0.000000,0.000000,0.000000,-8.056641
cobot_dynamixel_driver/joint_states|name|J1,J2,J3,J4,J5,J6|pos|-1.044170,-1.266694,1.296275,-0.001715,-1.223375,-0.000083|vel|0.000000,-0.000000,0.000000,0.000000,0.000000,0.000000|eff|0.000000,0.000000,0.000000,0.000000,0.000000,8.056641
cobot_dynamixel_driver/joint_states|name|J1,J2,J3,J4,J5,J6|pos|-1.044170,-1.266694,1.296275,-0.001715,-1.223375,-0.000083|vel|0.000000,-0.000000,0.000000,0.000000,0.000000,0.000000|eff|0.000000,0.000000,0.000000,0.000000,0.000000,-8.056641
cobot_dynamixel_driver/joint_states|name|J1,J2,J3,J4,J5,J6|pos|-1.044170,-1.266694,1.296275,-0.001715,-1.223375,-0.000083|vel|0.000000,-0.000000,0.000000,0.000000,0.000000,0.000000|eff|0.000000,0.000000,0.000000,0.000000,0.000000,0.000000
cobot_dynamixel_driver/joint_states|name|J1,J2,J3,J4,J5,J6|pos|-1.044170,-1.266694,1.296275,-0.001715,-1.223375,-0.000083|vel|0.000000,-0.000000,0.000000,0.000000,0.000000,0.000000|eff|0.000000,0.000000,0.000000,0.000000,0.000000,20.141602
cobot_dynamixel_driver/joint_states|name|J1,J2,J3,J4,J5,J6|pos|-1.044170,-1.266694,1.296275,-0.001715,-1.223375,-0.000083|vel|0.000000,-0.000000,0.000000,0.000000,0.000000,0.000000|eff|0.000000,0.000000,0.000000,0.000000,0.000000,-8.056641
cobot_dynamixel_driver/joint_states|name|J1,J2,J3,J4,J5,J6|pos|-1.044170,-1.266694,1.296275,-0.001715,-1.223375,-0.000083|vel|0.000000,-0.000000,0.000000,0.000000,0.000000,0.000000|eff|0.000000,0.000000,0.000000,0.000000,0.000000,-8.056641
cobot_dynamixel_driver/joint_states|name|J1,J2,J3,J4,J5,J6|pos|-1.044170,-1.266694,1.296275,-0.001715,-1.223375,-0.000083|vel|0.000000,-0.000000,0.000000,0.000000,0.000000,0.000000|eff|0.000000,0.000000,0.000000,0.000000,0.000000,20.141602
cobot_dynamixel_driver/joint_states|name|J1,J2,J3,J4,J5,J6|pos|-1.044170,-1.266694,1.296275,-0.001715,-1.223375,-0.000083|vel|0.000000,-0.000000,0.000000,0.000000,0.000000,0.000000|eff|0.000000,0.000000,0.000000,0.000000,0.000000,-8.056641
cobot_dynamixel_driver/joint_states|name|J1,J2,J3,J4,J5,J6|pos|-1.044170,-1.266694,1.296275,-0.001715,-1.223375,-0.000083|vel|0.000000,-0.000000,0.000000,0.000000,0.000000,0.000000|eff|0.000000,0.000000,0.000000,0.000000,0.000000,0.000000
cobot_dynamixel_driver/joint_states|name|J1,J2,J3,J4,J5,J6|pos|-1.044170,-1.266694,1.296275,-0.001715,-1.223375,-0.000083|vel|0.000000,-0.000000,0.000000,0.000000,0.000000,0.000000|eff|0.000000,0.000000,0.000000,0.000000,0.000000,-8.056641
cobot_dynamixel_driver/joint_states|name|J1,J2,J3,J4,J5,J6|pos|-1.044170,-1.266694,1.296275,-0.001715,-1.223375,-0.000083|vel|0.000000,-0.000000,0.000000,0.000000,0.000000,0.000000|eff|0.000000,0.000000,0.000000,0.000000,0.000000,-8.056641
cobot_dynamixel_driver/joint_states|name|J1,J2,J3,J4,J5,J6|pos|-1.044170,-1.266694,1.296275,-0.001715,-1.223375,-0.000083|vel|0.000000,-0.000000,0.000000,0.000000,0.000000,0.000000|eff|0.000000,0.000000,0.000000,0.000000,0.000000,20.141602
cobot_dynamixel_driver/joint_states|name|J1,J2,J3,J4,J5,J6|pos|-1.044170,-1.266694,1.296275,-0.001715,-1.223375,-0.000083|vel|0.000000,-0.000000,0.000000,0.000000,0.000000,0.000000|eff|0.000000,0.000000,0.000000,0.000000,0.000000,-8.056641
cobot_dynamixel_driver/joint_states|name|J1,J2,J3,J4,J5,J6|pos|-1.044170,-1.266694,1.296275,-0.001715,-1.223375,-0.000083|vel|0.000000,-0.000000,0.000000,0.000000,0.000000,0.000000|eff|0.000000,0.000000,0.000000,0.000000,0.000000,20.141602
cobot_dynamixel_driver/joint_states|name|J1,J2,J3,J4,J5,J6|pos|-1.044170,-1.266694,1.296275,-0.001715,-1.223375,-0.000083|vel|0.000000,-0.000000,0.000000,0.000000,0.000000,0.000000|eff|0.000000,0.000000,0.000000,0.000000,0.000000,8.056641
cobot_dynamixel_driver/joint_states|name|J1,J2,J3,J4,J5,J6|pos|-1.044170,-1.266694,1.296275,-0.001715,-1.223375,-0.000083|vel|0.000000,-0.000000,0.000000,0.000000,0.000000,0.000000|eff|0.000000,0.000000,0.000000,0.000000,0.000000,0.000000
cobot_dynamixel_driver/joint_states|name|J1,J2,J3,J4,J5,J6|pos|-1.044170,-1.266694,1.296275,-0.001715,-1.223375,-0.000083|vel|0.000000,-0.000000,0.000000,0.000000,0.000000,0.000000|eff|0.000000,0.000000,0.000000,0.000000,0.000000,0.000000
cobot_dynamixel_driver/joint_states|name|J1,J2,J3,J4,J5,J6|pos|-1.044170,-1.266694,1.296275,-0.001715,-1.223375,-0.000083|vel|0.000000,-0.000000,0.000000,0.000000,0.000000,0.000000|eff|0.000000,0.000000,0.000000,0.000000,0.000000,-8.056641
cobot_dynamixel_driver/joint_states|name|J1,J2,J3,J4,J5,J6|pos|-1.044170,-1.266694,1.296275,-0.001715,-1.223375,-0.000083|vel|0.000000,-0.000000,0.000000,0.000000,0.000000,0.000000|eff|0.000000,0.000000,0.000000,0.000000,0.000000,0.000000
cobot_dynamixel_driver/joint_states|name|J1,J2,J3,J4,J5,J6|pos|-1.044170,-1.266694,1.296275,-0.001715,-1.223375,-0.000083|vel|0.000000,-0.000000,0.000000,0.000000,0.000000,0.000000|eff|0.000000,0.000000,0.000000,0.000000,0.000000,8.056641
cobot_dynamixel_driver/joint_states|name|J1,J2,J3,J4,J5,J6|pos|-1.044170,-1.266694,1.296275,-0.001715,-1.223375,-0.000083|vel|0.000000,-0.000000,0.000000,0.000000,0.000000,0.000000|eff|0.000000,0.000000,0.000000,0.000000,0.000000,-8.056641
cobot_dynamixel_driver/joint_states|name|J1,J2,J3,J4,J5,J6|pos|-1.044170,-1.266694,1.296275,-0.001715,-1.223375,-0.000083|vel|0.000000,-0.000000,0.000000,0.000000,0.000000,0.000000|eff|0.000000,0.000000,0.000000,0.000000,0.000000,-8.056641
cobot_dynamixel_driver/joint_states|name|J1,J2,J3,J4,J5,J6|pos|-1.044170,-1.266694,1.296275,-0.001715,-1.223375,-0.000083|vel|0.000000,-0.000000,0.000000,0.000000,0.000000,0.000000|eff|0.000000,0.000000,0.000000,0.000000,0.000000,-8.056641
cobot_dynamixel_driver/joint_states|name|J1,J2,J3,J4,J5,J6|pos|-1.044170,-1.266694,1.296275,-0.001715,-1.223375,-0.000083|vel|0.000000,-0.000000,0.000000,0.000000,0.000000,0.000000|eff|0.000000,0.000000,0.000000,0.000000,0.000000,20.141602
cobot_dynamixel_driver/joint_states|name|J1,J2,J3,J4,J5,J6|pos|-1.044170,-1.266694,1.296275,-0.001715,-1.223375,-0.000083|vel|0.000000,-0.000000,0.000000,0.000000,0.000000,0.000000|eff|0.000000,0.000000,0.000000,0.000000,0.000000,16.113281
cobot_dynamixel_driver/joint_states|name|J1,J2,J3,J4,J5,J6|pos|-1.044170,-1.266694,1.296275,-0.001715,-1.223375,-0.000083|vel|0.000000,-0.000000,0.000000,0.000000,0.000000,0.000000|eff|0.000000,0.000000,0.000000,0.000000,0.000000,-8.056641
cobot_dynamixel_driver/joint_states|name|J1,J2,J3,J4,J5,J6|pos|-1.044170,-1.266694,1.296275,-0.001715,-1.223375,-0.000083|vel|0.000000,-0.000000,0.000000,0.000000,0.000000,0.000000|eff|0.000000,0.000000,0.000000,0.000000,0.000000,16.113281
cobot_dynamixel_driver/joint_states|name|J1,J2,J3,J4,J5,J6|pos|-1.044170,-1.266694,1.296275,-0.001715,-1.223375,-0.000083|vel|0.000000,-0.000000,0.000000,0.000000,0.000000,0.000000|eff|0.000000,0.000000,0.000000,0.000000,0.000000,-8.056641
cobot_dynamixel_driver/joint_states|name|J1,J2,J3,J4,J5,J6|pos|-1.044170,-1.266694,1.296275,-0.001715,-1.223375,-0.000083|vel|0.000000,-0.000000,0.000000,0.000000,0.000000,0.000000|eff|0.000000,0.000000,0.000000,0.000000,0.000000,0.000000
cobot_dynamixel_driver/joint_states|name|J1,J2,J3,J4,J5,J6|pos|-1.044170,-1.266694,1.296275,-0.001715,-1.223375,-0.000083|vel|0.000000,-0.000000,0.000000,0.000000,0.000000,0.000000|eff|0.000000,0.000000,0.000000,0.000000,0.000000,16.113281
cobot_dynamixel_driver/joint_states|name|J1,J2,J3,J4,J5,J6|pos|-1.044170,-1.266694,1.296275,-0.001715,-1.223375,-0.000083|vel|0.000000,-0.000000,0.000000,0.000000,0.000000,0.000000|eff|0.000000,0.000000,0.000000,0.000000,0.000000,-8.056641
cobot_dynamixel_driver/joint_states|name|J1,J2,J3,J4,J5,J6|pos|-1.044170,-1.266694,1.296275,-0.001715,-1.223375,-0.000083|vel|0.000000,-0.000000,0.000000,0.000000,0.000000,0.000000|eff|0.000000,0.000000,0.000000,0.000000,0.000000,0.000000
cobot_dynamixel_driver/joint_states|name|J1,J2,J3,J4,J5,J6|pos|-1.044170,-1.266694,1.296275,-0.001715,-1.223375,-0.000083|vel|0.000000,-0.000000,0.000000,0.000000,0.000000,0.000000|eff|0.000000,0.000000,0.000000,0.000000,0.000000,8.056641
cobot_dynamixel_driver/joint_states|name|J1,J2,J3,J4,J5,J6|pos|-1.044170,-1.266694,1.296275,-0.001715,-1.223375,-0.000083|vel|0.000000,-0.000000,0.000000,0.000000,0.000000,0.000000|eff|0.000000,0.000000,0.000000,0.000000,0.000000,-8.056641
cobot_dynamixel_driver/joint_states|name|J1,J2,J3,J4,J5,J6|pos|-1.044170,-1.266694,1.296275,-0.001715,-1.223375,-0.000083|vel|0.000000,-0.000000,0.000000,0.000000,0.000000,0.000000|eff|0.000000,0.000000,0.000000,0.000000,0.000000,20.141602
cobot_dynamixel_driver/joint_states|name|J1,J2,J3,J4,J5,J6|pos|-1.044170,-1.266694,1.296275,-0.001715,-1.223375,-0.000083|vel|0.000000,-0.000000,0.000000,0.000000,0.000000,0.000000|eff|0.000000,0.000000,0.000000,0.000000,0.000000,16.113281
cobot_dynamixel_driver/joint_states|name|J1,J2,J3,J4,J5,J6|pos|-1.044170,-1.266694,1.296275,-0.001715,-1.223375,-0.000083|vel|0.000000,-0.000000,0.000000,0.000000,0.000000,0.000000|eff|0.000000,0.000000,0.000000,0.000000,0.000000,-8.056641
cobot_dynamixel_driver/joint_states|name|J1,J2,J3,J4,J5,J6|pos|-1.044170,-1.266694,1.296275,-0.001715,-1.223375,-0.000083|vel|0.000000,-0.000000,0.000000,0.000000,0.000000,0.000000|eff|0.000000,0.000000,0.000000,0.000000,0.000000,0.000000
cobot_dynamixel_driver/joint_states|name|J1,J2,J3,J4,J5,J6|pos|-1.044170,-1.266694,1.296275,-0.001715,-1.223375,-0.000083|vel|0.000000,-0.000000,0.000000,0.000000,0.000000,0.000000|eff|0.000000,0.000000,0.000000,0.000000,0.000000,8.056641
cobot_dynamixel_driver/joint_states|name|J1,J2,J3,J4,J5,J6|pos|-1.044170,-1.266694,1.296275,-0.001715,-1.223375,-0.000083|vel|0.000000,-0.000000,0.000000,0.000000,0.000000,0.000000|eff|0.000000,0.000000,0.000000,0.000000,0.000000,-8.056641
cobot_dynamixel_driver/joint_states|name|J1,J2,J3,J4,J5,J6|pos|-1.044170,-1.266694,1.296275,-0.001715,-1.223375,-0.000083|vel|0.000000,-0.000000,0.000000,0.000000,0.000000,0.000000|eff|0.000000,0.000000,0.000000,0.000000,0.000000,16.113281
cobot_dynamixel_driver/joint_states|name|J1,J2,J3,J4,J5,J6|pos|-1.044170,-1.266694,1.296275,-0.001715,-1.223375,-0.000083|vel|0.000000,-0.000000,0.000000,0.000000,0.000000,0.000000|eff|0.000000,0.000000,0.000000,0.000000,0.000000,-8.056641
cobot_dynamixel_driver/joint_states|name|J1,J2,J3,J4,J5,J6|pos|-1.044170,-1.266694,1.296275,-0.001715,-1.223375,-0.000083|vel|0.000000,-0.000000,0.000000,0.000000,0.000000,0.000000|eff|0.000000,0.000000,0.000000,0.000000,0.000000,-8.056641
cobot_dynamixel_driver/joint_states|name|J1,J2,J3,J4,J5,J6|pos|-1.044170,-1.266694,1.296275,-0.001715,-1.223375,-0.000083|vel|0.000000,-0.000000,0.000000,0.000000,0.000000,0.000000|eff|0.000000,0.000000,0.000000,0.000000,0.000000,-8.056641
cobot_dynamixel_driver/joint_states|name|J1,J2,J3,J4,J5,J6|pos|-1.044170,-1.266694,1.296275,-0.001715,-1.223375,-0.000083|vel|0.000000,-0.000000,0.000000,0.000000,0.000000,0.000000|eff|0.000000,0.000000,0.000000,0.000000,0.000000,0.000000
cobot_dynamixel_driver/joint_states|name|J1,J2,J3,J4,J5,J6|pos|-1.044170,-1.266694,1.296275,-0.001715,-1.223375,-0.000083|vel|0.000000,-0.000000,0.000000,0.000000,0.000000,0.000000|eff|0.000000,0.000000,0.000000,0.000000,0.000000,-8.056641
cobot_dynamixel_driver/joint_states|name|J1,J2,J3,J4,J5,J6|pos|-1.044170,-1.266694,1.296275,-0.001715,-1.223375,-0.000083|vel|0.000000,-0.000000,0.000000,0.000000,0.000000,0.000000|eff|0.000000,0.000000,0.000000,0.000000,0.000000,-8.056641
cobot_dynamixel_driver/joint_states|name|J1,J2,J3,J4,J5,J6|pos|-1.044170,-1.266694,1.296275,-0.001715,-1.223375,-0.000083|vel|0.000000,-0.000000,0.000000,0.000000,0.000000,0.000000|eff|0.000000,0.000000,0.000000,0.000000,0.000000,-8.056641
cobot_dynamixel_driver/joint_states|name|J1,J2,J3,J4,J5,J6|pos|-1.044170,-1.266694,1.296275,-0.001715,-1.223375,-0.000083|vel|0.000000,-0.000000,0.000000,0.000000,0.000000,0.000000|eff|0.000000,0.000000,0.000000,0.000000,0.000000,0.000000
cobot_dynamixel_driver/joint_states|name|J1,J2,J3,J4,J5,J6|pos|-1.044170,-1.266694,1.296275,-0.001715,-1.223375,-0.000083|vel|0.000000,-0.000000,0.000000,0.000000,0.000000,0.000000|eff|0.000000,0.000000,0.000000,0.000000,0.000000,-8.056641
cobot_dynamixel_driver/joint_states|name|J1,J2,J3,J4,J5,J6|pos|-1.044170,-1.266694,1.296275,-0.001715,-1.223375,-0.000083|vel|0.000000,-0.000000,0.000000,0.000000,0.000000,0.000000|eff|0.000000,0.000000,0.000000,0.000000,0.000000,-8.056641
cobot_dynamixel_driver/joint_states|name|J1,J2,J3,J4,J5,J6|pos|-1.044170,-1.266694,1.296275,-0.001715,-1.223375,-0.000083|vel|0.000000,-0.000000,0.000000,0.000000,0.000000,0.000000|eff|0.000000,0.000000,0.000000,0.000000,0.000000,0.000000
cobot_dynamixel_driver/joint_states|name|J1,J2,J3,J4,J5,J6|pos|-1.044170,-1.266694,1.296275,-0.001715,-1.223375,-0.000083|vel|0.000000,-0.000000,0.000000,0.000000,0.000000,0.000000|eff|0.000000,0.000000,0.000000,0.000000,0.000000,16.113281
cobot_dynamixel_driver/joint_states|name|J1,J2,J3,J4,J5,J6|pos|-1.044170,-1.266694,1.296275,-0.001715,-1.223375,-0.000083|vel|0.000000,-0.000000,0.000000,0.000000,0.000000,0.000000|eff|0.000000,0.000000,0.000000,0.000000,0.000000,-8.056641
cobot_dynamixel_driver/joint_states|name|J1,J2,J3,J4,J5,J6|pos|-1.044170,-1.266694,1.296275,-0.001715,-1.223375,-0.000083|vel|0.000000,-0.000000,0.000000,0.000000,0.000000,0.000000|eff|0.000000,0.000000,0.000000,0.000000,0.000000,20.141602
cobot_dynamixel_driver/joint_states|name|J1,J2,J3,J4,J5,J6|pos|-1.044170,-1.266694,1.296275,-0.001715,-1.223375,-0.000083|vel|0.000000,-0.000000,0.000000,0.000000,0.000000,0.000000|eff|0.000000,0.000000,0.000000,0.000000,0.000000,-8.056641
cobot_dynamixel_driver/joint_states|name|J1,J2,J3,J4,J5,J6|pos|-1.044170,-1.266694,1.296275,-0.001715,-1.223375,-0.000083|vel|0.000000,-0.000000,0.000000,0.000000,0.000000,0.000000|eff|0.000000,0.000000,0.000000,0.000000,0.000000,0.000000
cobot_dynamixel_driver/joint_states|name|J1,J2,J3,J4,J5,J6|pos|-1.044170,-1.266694,1.296275,-0.001715,-1.223375,-0.000083|vel|0.000000,-0.000000,0.000000,0.000000,0.000000,0.000000|eff|0.000000,0.000000,0.000000,0.000000,0.000000,-8.056641
cobot_dynamixel_driver/joint_states|name|J1,J2,J3,J4,J5,J6|pos|-1.044170,-1.266694,1.296275,-0.001715,-1.223375,-0.000083|vel|0.000000,-0.000000,0.000000,0.000000,0.000000,0.000000|eff|0.000000,0.000000,0.000000,0.000000,0.000000,0.000000
cobot_dynamixel_driver/joint_states|name|J1,J2,J3,J4,J5,J6|pos|-1.044170,-1.266694,1.296275,-0.001715,-1.223375,-0.000083|vel|0.000000,-0.000000,0.000000,0.000000,0.000000,0.000000|eff|0.000000,0.000000,0.000000,0.000000,0.000000,-8.056641
cobot_dynamixel_driver/joint_states|name|J1,J2,J3,J4,J5,J6|pos|-1.044170,-1.266694,1.296275,-0.001715,-1.223375,-0.000083|vel|0.000000,-0.000000,0.000000,0.000000,0.000000,0.000000|eff|0.000000,0.000000,0.000000,0.000000,0.000000,0.000000
cobot_dynamixel_driver/joint_states|name|J1,J2,J3,J4,J5,J6|pos|-1.044170,-1.266694,1.296275,-0.001715,-1.223375,-0.000083|vel|0.000000,-0.000000,0.000000,0.000000,0.000000,0.000000|eff|0.000000,0.000000,0.000000,0.000000,0.000000,-8.056641
cobot_dynamixel_driver/joint_states|name|J1,J2,J3,J4,J5,J6|pos|-1.044170,-1.266694,1.296275,-0.001715,-1.223375,-0.000083|vel|0.000000,-0.000000,0.000000,0.000000,0.000000,0.000000|eff|0.000000,0.000000,0.000000,0.000000,0.000000,0.000000
cobot_dynamixel_driver/joint_states|name|J1,J2,J3,J4,J5,J6|pos|-1.044170,-1.266694,1.296275,-0.001715,-1.223375,-0.000083|vel|0.000000,-0.000000,0.000000,0.000000,0.000000,0.000000|eff|0.000000,0.000000,0.000000,0.000000,0.000000,0.000000
cobot_dynamixel_driver/joint_states|name|J1,J2,J3,J4,J5,J6|pos|-1.044170,-1.266694,1.296275,-0.001715,-1.223375,-0.000083|vel|0.000000,-0.000000,0.000000,0.000000,0.000000,0.000000|eff|0.000000,0.000000,0.000000,0.000000,0.000000,8.056641
cobot_dynamixel_driver/joint_states|name|J1,J2,J3,J4,J5,J6|pos|-1.044170,-1.266694,1.296275,-0.001715,-1.223375,-0.000083|vel|0.000000,-0.000000,0.000000,0.000000,0.000000,0.000000|eff|0.000000,0.000000,0.000000,0.000000,0.000000,-8.056641
cobot_dynamixel_driver/joint_states|name|J1,J2,J3,J4,J5,J6|pos|-1.044170,-1.266694,1.296275,-0.001715,-1.223375,-0.000083|vel|0.000000,-0.000000,0.000000,0.000000,0.000000,0.000000|eff|0.000000,0.000000,0.000000,0.000000,0.000000,8.056641
cobot_dynamixel_driver/joint_states|name|J1,J2,J3,J4,J5,J6|pos|-1.044170,-1.266694,1.296275,-0.001715,-1.223375,-0.000083|vel|0.000000,-0.000000,0.000000,0.000000,0.000000,0.000000|eff|0.000000,0.000000,0.000000,0.000000,0.000000,0.000000
cobot_dynamixel_driver/joint_states|name|J1,J2,J3,J4,J5,J6|pos|-1.044170,-1.266694,1.296275,-0.001715,-1.223375,-0.000083|vel|0.000000,-0.000000,0.000000,0.000000,0.000000,0.000000|eff|0.000000,0.000000,0.000000,0.000000,0.000000,-8.056641
cobot_dynamixel_driver/joint_states|name|J1,J2,J3,J4,J5,J6|pos|-1.044170,-1.266694,1.296275,-0.001715,-1.223375,-0.000083|vel|0.000000,-0.000000,0.000000,0.000000,0.000000,0.000000|eff|0.000000,0.000000,0.000000,0.000000,0.000000,0.000000
cobot_dynamixel_driver/joint_states|name|J1,J2,J3,J4,J5,J6|pos|-1.044170,-1.266694,1.296275,-0.001715,-1.223375,-0.000083|vel|0.000000,-0.000000,0.000000,0.000000,0.000000,0.000000|eff|0.000000,0.000000,0.000000,0.000000,0.000000,16.113281
cobot_dynamixel_driver/joint_states|name|J1,J2,J3,J4,J5,J6|pos|-1.044170,-1.266694,1.296275,-0.001715,-1.223375,-0.000083|vel|0.000000,-0.000000,0.000000,0.000000,0.000000,0.000000|eff|0.000000,0.000000,0.000000,0.000000,0.000000,-8.056641
cobot_dynamixel_driver/joint_states|name|J1,J2,J3,J4,J5,J6|pos|-1.044170,-1.266694,1.296275,-0.001715,-1.223375,-0.000083|vel|0.000000,-0.000000,0.000000,0.000000,0.000000,0.000000|eff|0.000000,0.000000,0.000000,0.000000,0.000000,-8.056641
cobot_dynamixel_driver/joint_states|name|J1,J2,J3,J4,J5,J6|pos|-1.044170,-1.266694,1.296275,-0.001715,-1.223375,-0.000083|vel|0.000000,-0.000000,0.000000,0.000000,0.000000,0.000000|eff|0.000000,0.000000,0.000000,0.000000,0.000000,16.113281
cobot_dynamixel_driver/joint_states|name|J1,J2,J3,J4,J5,J6|pos|-1.044170,-1.266694,1.296275,-0.001715,-1.223375,-0.000083|vel|0.000000,-0.000000,0.000000,0.000000,0.000000,0.000000|eff|0.000000,0.000000,0.000000,0.000000,0.000000,-8.056641
cobot_dynamixel_driver/joint_states|name|J1,J2,J3,J4,J5,J6|pos|-1.044170,-1.266694,1.296275,-0.001715,-1.223375,-0.000083|vel|0.000000,-0.000000,0.000000,0.000000,0.000000,0.000000|eff|0.000000,0.000000,0.000000,0.000000,0.000000,0.000000
cobot_dynamixel_driver/joint_states|name|J1,J2,J3,J4,J5,J6|pos|-1.044170,-1.266694,1.296275,-0.001715,-1.223375,-0.000083|vel|0.000000,-0.000000,0.000000,0.000000,0.000000,0.000000|eff|0.000000,0.000000,0.000000,0.000000,0.000000,-8.056641
cobot_dynamixel_driver/joint_states|name|J1,J2,J3,J4,J5,J6|pos|-1.044170,-1.266694,1.296275,-0.001715,-1.223375,-0.000083|vel|0.000000,-0.000000,0.000000,0.000000,0.000000,0.000000|eff|0.000000,0.000000,0.000000,0.000000,0.000000,-8.056641
cobot_dynamixel_driver/joint_states|name|J1,J2,J3,J4,J5,J6|pos|-1.044170,-1.266694,1.296275,-0.001715,-1.223375,-0.000083|vel|0.000000,-0.000000,0.000000,0.000000,0.000000,0.000000|eff|0.000000,0.000000,0.000000,0.000000,0.000000,16.113281
cobot_dynamixel_driver/joint_states|name|J1,J2,J3,J4,J5,J6|pos|-1.044170,-1.266694,1.296275,-0.001715,-1.223375,-0.000083|vel|0.000000,-0.000000,0.000000,0.000000,0.000000,0.000000|eff|0.000000,0.000000,0.000000,0.000000,0.000000,-8.056641
cobot_dynamixel_driver/joint_states|name|J1,J2,J3,J4,J5,J6|pos|-1.044170,-1.266694,1.296275,-0.001715,-1.223375,-0.000083|vel|0.000000,-0.000000,0.000000,0.000000,0.000000,0.000000|eff|0.000000,0.000000,0.000000,0.000000,0.000000,0.000000
cobot_dynamixel_driver/joint_states|name|J1,J2,J3,J4,J5,J6|pos|-1.044170,-1.266694,1.296275,-0.001715,-1.223375,-0.000083|vel|0.000000,-0.000000,0.000000,0.000000,0.000000,0.000000|eff|0.000000,0.000000,0.000000,0.000000,0.000000,0.000000
cobot_dynamixel_driver/joint_states|name|J1,J2,J3,J4,J5,J6|pos|-1.044170,-1.266694,1.296275,-0.001715,-1.223375,-0.000083|vel|0.000000,-0.000000,0.000000,0.000000,0.000000,0.000000|eff|0.000000,0.000000,0.000000,0.000000,0.000000,-8.056641
cobot_dynamixel_driver/joint_states|name|J1,J2,J3,J4,J5,J6|pos|-1.044170,-1.266694,1.296275,-0.001715,-1.223375,-0.000083|vel|0.000000,-0.000000,0.000000,0.000000,0.000000,0.000000|eff|0.000000,0.000000,0.000000,0.000000,0.000000,0.000000
cobot_dynamixel_driver/joint_states|name|J1,J2,J3,J4,J5,J6|pos|-1.044170,-1.266694,1.296275,-0.001715,-1.223375,-0.000083|vel|0.000000,-0.000000,0.000000,0.000000,0.000000,0.000000|eff|0.000000,0.000000,0.000000,0.000000,0.000000,16.113281
cobot_dynamixel_driver/joint_states|name|J1,J2,J3,J4,J5,J6|pos|-1.044170,-1.266694,1.296275,-0.001715,-1.223375,-0.000083|vel|0.000000,-0.000000,0.000000,0.000000,0.000000,0.000000|eff|0.000000,0.000000,0.000000,0.000000,0.000000,-8.056641
cobot_dynamixel_driver/joint_states|name|J1,J2,J3,J4,J5,J6|pos|-1.044170,-1.266694,1.296275,-0.001715,-1.223375,-0.000083|vel|0.000000,-0.000000,0.000000,0.000000,0.000000,0.000000|eff|0.000000,0.000000,0.000000,0.000000,0.000000,0.000000
cobot_dynamixel_driver/joint_states|name|J1,J2,J3,J4,J5,J6|pos|-1.044170,-1.266694,1.296275,-0.001715,-1.223375,-0.000083|vel|0.000000,-0.000000,0.000000,0.000000,0.000000,0.000000|eff|0.000000,0.000000,0.000000,0.000000,0.000000,16.113281
cobot_dynamixel_driver/joint_states|name|J1,J2,J3,J4,J5,J6|pos|-1.044170,-1.266694,1.296275,-0.001715,-1.223375,-0.000083|vel|0.000000,-0.000000,0.000000,0.000000,0.000000,0.000000|eff|0.000000,0.000000,0.000000,0.000000,0.000000,-8.056641
cobot_dynamixel_driver/joint_states|name|J1,J2,J3,J4,J5,J6|pos|-1.044170,-1.266694,1.296275,-0.001715,-1.223375,-0.000083|vel|0.000000,-0.000000,0.000000,0.000000,0.000000,0.000000|eff|0.000000,0.000000,0.000000,0.000000,0.000000,0.000000
cobot_dynamixel_driver/joint_states|name|J1,J2,J3,J4,J5,J6|pos|-1.044170,-1.266694,1.296275,-0.001715,-1.223375,-0.000083|vel|0.000000,-0.000000,0.000000,0.000000,0.000000,0.000000|eff|0.000000,0.000000,0.000000,0.000000,0.000000,-8.056641
cobot_dynamixel_driver/joint_states|name|J1,J2,J3,J4,J5,J6|pos|-1.044170,-1.266694,1.296275,-0.001715,-1.223375,-0.000083|vel|0.000000,-0.000000,0.000000,0.000000,0.000000,0.000000|eff|0.000000,0.000000,0.000000,0.000000,0.000000,0.000000
cobot_dynamixel_driver/joint_states|name|J1,J2,J3,J4,J5,J6|pos|-1.044170,-1.266694,1.296275,-0.001715,-1.223375,-0.000083|vel|0.000000,-0.000000,0.000000,0.000000,0.000000,0.000000|eff|0.000000,0.000000,0.000000,0.000000,0.000000,-8.056641
cobot_dynamixel_driver/joint_states|name|J1,J2,J3,J4,J5,J6|pos|-1.044170,-1.266694,1.296275,-0.001715,-1.223375,-0.000083|vel|0.000000,-0.000000,0.000000,0.000000,0.000000,0.000000|eff|0.000000,0.000000,0.000000,0.000000,0.000000,8.056641
cobot_dynamixel_driver/joint_states|name|J1,J2,J3,J4,J5,J6|pos|-1.044170,-1.266694,1.296275,-0.001715,-1.223375,-0.000083|vel|0.000000,-0.000000,0.000000,0.000000,0.000000,0.000000|eff|0.000000,0.000000,0.000000,0.000000,0.000000,-8.056641
cobot_dynamixel_driver/joint_states|name|J1,J2,J3,J4,J5,J6|pos|-1.044170,-1.266694,1.296275,-0.001715,-1.223375,-0.000083|vel|0.000000,-0.000000,0.000000,0.000000,0.000000,0.000000|eff|0.000000,0.000000,0.000000,0.000000,0.000000,16.113281
cobot_dynamixel_driver/joint_states|name|J1,J2,J3,J4,J5,J6|pos|-1.044170,-1.266694,1.296275,-0.001715,-1.223375,-0.000083|vel|0.000000,-0.000000,0.000000,0.000000,0.000000,0.000000|eff|0.000000,0.000000,0.000000,0.000000,0.000000,-8.056641
cobot_dynamixel_driver/joint_states|name|J1,J2,J3,J4,J5,J6|pos|-1.044170,-1.266694,1.296275,-0.001715,-1.223375,-0.000083|vel|0.000000,-0.000000,0.000000,0.000000,0.000000,0.000000|eff|0.000000,0.000000,0.000000,0.000000,0.000000,-8.056641
cobot_dynamixel_driver/joint_states|name|J1,J2,J3,J4,J5,J6|pos|-1.044170,-1.266694,1.296275,-0.001715,-1.223375,-0.000083|vel|0.000000,-0.000000,0.000000,0.000000,0.000000,0.000000|eff|0.000000,0.000000,0.000000,0.000000,0.000000,0.000000
cobot_dynamixel_driver/joint_states|name|J1,J2,J3,J4,J5,J6|pos|-1.044170,-1.266694,1.296275,-0.001715,-1.223375,-0.000083|vel|0.000000,-0.000000,0.000000,0.000000,0.000000,0.000000|eff|0.000000,0.000000,0.000000,0.000000,0.000000,0.000000
cobot_dynamixel_driver/joint_states|name|J1,J2,J3,J4,J5,J6|pos|-1.044170,-1.266694,1.296275,-0.001715,-1.223375,-0.000083|vel|0.000000,-0.000000,0.000000,0.000000,0.000000,0.000000|eff|0.000000,0.000000,0.000000,0.000000,0.000000,8.056641
cobot_dynamixel_driver/joint_states|name|J1,J2,J3,J4,J5,J6|pos|-1.044170,-1.266694,1.296275,-0.001715,-1.223375,-0.000083|vel|0.000000,-0.000000,0.000000,0.000000,0.000000,0.000000|eff|0.000000,0.000000,0.000000,0.000000,0.000000,0.000000
cobot_dynamixel_driver/joint_states|name|J1,J2,J3,J4,J5,J6|pos|-1.044170,-1.266694,1.296275,-0.001715,-1.223375,-0.000083|vel|0.000000,-0.000000,0.000000,0.000000,0.000000,0.000000|eff|0.000000,0.000000,0.000000,0.000000,0.000000,20.141602
cobot_dynamixel_driver/joint_states|name|J1,J2,J3,J4,J5,J6|pos|-1.044170,-1.266694,1.296275,-0.001715,-1.223375,-0.000083|vel|0.000000,-0.000000,0.000000,0.000000,0.000000,0.000000|eff|0.000000,0.000000,0.000000,0.000000,0.000000,-8.056641
cobot_dynamixel_driver/joint_states|name|J1,J2,J3,J4,J5,J6|pos|-1.044170,-1.266694,1.296275,-0.001715,-1.223375,-0.000083|vel|0.000000,-0.000000,0.000000,0.000000,0.000000,0.000000|eff|0.000000,0.000000,0.000000,0.000000,0.000000,-8.056641
cobot_dynamixel_driver/joint_states|name|J1,J2,J3,J4,J5,J6|pos|-1.044170,-1.266694,1.296275,-0.001715,-1.223375,-0.000083|vel|0.000000,-0.000000,0.000000,0.000000,0.000000,0.000000|eff|0.000000,0.000000,0.000000,0.000000,0.000000,20.141602
cobot_dynamixel_driver/joint_states|name|J1,J2,J3,J4,J5,J6|pos|-1.044170,-1.266694,1.296275,-0.001715,-1.223375,-0.000083|vel|0.000000,-0.000000,0.000000,0.000000,0.000000,0.000000|eff|0.000000,0.000000,0.000000,0.000000,0.000000,-8.056641
cobot_dynamixel_driver/joint_states|name|J1,J2,J3,J4,J5,J6|pos|-1.044170,-1.266694,1.296275,-0.001715,-1.223375,-0.000083|vel|0.000000,-0.000000,0.000000,0.000000,0.000000,0.000000|eff|0.000000,0.000000,0.000000,0.000000,0.000000,0.000000
cobot_dynamixel_driver/joint_states|name|J1,J2,J3,J4,J5,J6|pos|-1.044170,-1.266694,1.296275,-0.001715,-1.223375,-0.000083|vel|0.000000,-0.000000,0.000000,0.000000,0.000000,0.000000|eff|0.000000,0.000000,0.000000,0.000000,0.000000,-8.056641
cobot_dynamixel_driver/joint_states|name|J1,J2,J3,J4,J5,J6|pos|-1.044170,-1.266694,1.296275,-0.001715,-1.223375,-0.000083|vel|0.000000,-0.000000,0.000000,0.000000,0.000000,0.000000|eff|0.000000,0.000000,0.000000,0.000000,0.000000,0.000000
cobot_dynamixel_driver/goal|-:J1,J2,J3,J4,J5,J6:1.047198,0.000000,0.000000,0.000000,0.000000,0.000000:0.500000,0.500000,0.500000,0.500000,0.500000,0.500000:pos_vel_
cobot_dynamixel_driver/joint_states|name|J1,J2,J3,J4,J5,J6|pos|-1.044170,-1.266694,1.294497,0.001014,-1.224968,-0.000083|vel|0.000000,-0.000000,0.000000,0.000000,0.000000,0.000000|eff|0.000000,0.000000,0.000000,0.000000,0.000000,-8.056641
cobot_dynamixel_driver/goal|-:J1,J2,J3,J4,J5,J6:1.047198,0.000000,0.000000,0.000000,0.000000,0.000000:0.500000,0.500000,0.500000,0.500000,0.500000,0.500000:pos_vel_
cobot_dynamixel_driver/goal|-:J1,J2,J3,J4,J5,J6:1.047198,0.000000,0.000000,0.000000,0.000000,0.000000:0.500000,0.500000,0.500000,0.500000,0.500000,0.500000:pos_vel_
cobot_dynamixel_driver/goal|-:J1,J2,J3,J4,J5,J6:1.047198,0.000000,0.000000,0.000000,0.000000,0.000000:0.500000,0.500000,0.500000,0.500000,0.500000,0.500000:pos_vel_
cobot_dynamixel_driver/goal|-:J1,J2,J3,J4,J5,J6:1.047198,0.000000,0.000000,0.000000,0.000000,0.000000:0.500000,0.500000,0.500000,0.500000,0.500000,0.500000:pos_vel_
cobot_dynamixel_driver/goal|-:J1,J2,J3,J4,J5,J6:1.047198,0.000000,0.000000,0.000000,0.000000,0.000000:0.500000,0.500000,0.500000,0.500000,0.500000,0.500000:pos_vel_
cobot_dynamixel_driver/goal|-:J1,J2,J3,J4,J5,J6:1.047198,0.000000,0.000000,0.000000,0.000000,0.000000:0.500000,0.500000,0.500000,0.500000,0.500000,0.500000:pos_vel_
cobot_dynamixel_driver/goal|-:J1,J2,J3,J4,J5,J6:1.047198,0.000000,0.000000,0.000000,0.000000,0.000000:0.500000,0.500000,0.500000,0.500000,0.500000,0.500000:pos_vel_
cobot_dynamixel_driver/goal|-:J1,J2,J3,J4,J5,J6:1.047198,0.000000,0.000000,0.000000,0.000000,0.000000:0.500000,0.500000,0.500000,0.500000,0.500000,0.500000:pos_vel_
cobot_dynamixel_driver/goal|-:J1,J2,J3,J4,J5,J6:1.047198,0.000000,0.000000,0.000000,0.000000,0.000000:0.500000,0.500000,0.500000,0.500000,0.500000,0.500000:pos_vel_
cobot_dynamixel_driver/goal|-:J1,J2,J3,J4,J5,J6:1.047198,0.000000,0.000000,0.000000,0.000000,0.000000:0.500000,0.500000,0.500000,0.500000,0.500000,0.500000:pos_vel_
cobot_dynamixel_driver/goal|-:J1,J2,J3,J4,J5,J6:1.047198,0.000000,0.000000,0.000000,0.000000,0.000000:0.500000,0.500000,0.500000,0.500000,0.500000,0.500000:pos_vel_
cobot_dynamixel_driver/goal|-:J1,J2,J3,J4,J5,J6:1.047198,0.000000,0.000000,0.000000,0.000000,0.000000:0.500000,0.500000,0.500000,0.500000,0.500000,0.500000:pos_vel_
cobot_dynamixel_driver/goal|-:J1,J2,J3,J4,J5,J6:1.047198,0.000000,0.000000,0.000000,0.000000,0.000000:0.500000,0.500000,0.500000,0.500000,0.500000,0.500000:pos_vel_
cobot_dynamixel_driver/goal|-:J1,J2,J3,J4,J5,J6:1.047198,0.000000,0.000000,0.000000,0.000000,0.000000:0.500000,0.500000,0.500000,0.500000,0.500000,0.500000:pos_vel_
cobot_dynamixel_driver/goal|-:J1,J2,J3,J4,J5,J6:1.047198,0.000000,0.000000,0.000000,0.000000,0.000000:0.500000,0.500000,0.500000,0.500000,0.500000,0.500000:pos_vel_
cobot_dynamixel_driver/goal|-:J1,J2,J3,J4,J5,J6:1.047198,0.000000,0.000000,0.000000,0.000000,0.000000:0.500000,0.500000,0.500000,0.500000,0.500000,0.500000:pos_vel_
cobot_dynamixel_driver/goal|-:J1,J2,J3,J4,J5,J6:1.047198,0.000000,0.000000,0.000000,0.000000,0.000000:0.500000,0.500000,0.500000,0.500000,0.500000,0.500000:pos_vel_
cobot_dynamixel_driver/goal|-:J1,J2,J3,J4,J5,J6:1.047198,0.000000,0.000000,0.000000,0.000000,0.000000:0.500000,0.500000,0.500000,0.500000,0.500000,0.500000:pos_vel_
cobot_dynamixel_driver/goal|-:J1,J2,J3,J4,J5,J6:1.047198,0.000000,0.000000,0.000000,0.000000,0.000000:0.500000,0.500000,0.500000,0.500000,0.500000,0.500000:pos_vel_
cobot_dynamixel_driver/goal|-:J1,J2,J3,J4,J5,J6:1.047198,0.000000,0.000000,0.000000,0.000000,0.000000:0.500000,0.500000,0.500000,0.500000,0.500000,0.500000:pos_vel_
cobot_dynamixel_driver/goal|-:J1,J2,J3,J4,J5,J6:1.047198,0.000000,0.000000,0.000000,0.000000,0.000000:0.500000,0.500000,0.500000,0.500000,0.500000,0.500000:pos_vel_
cobot_dynamixel_driver/goal|-:J1,J2,J3,J4,J5,J6:1.047198,0.000000,0.000000,0.000000,0.000000,0.000000:0.500000,0.500000,0.500000,0.500000,0.500000,0.500000:pos_vel_
cobot_dynamixel_driver/goal|-:J1,J2,J3,J4,J5,J6:1.047198,0.000000,0.000000,0.000000,0.000000,0.000000:0.500000,0.500000,0.500000,0.500000,0.500000,0.500000:pos_vel_
cobot_dynamixel_driver/goal|-:J1,J2,J3,J4,J5,J6:1.047198,0.000000,0.000000,0.000000,0.000000,0.000000:0.500000,0.500000,0.500000,0.500000,0.500000,0.500000:pos_vel_
cobot_dynamixel_driver/goal|-:J1,J2,J3,J4,J5,J6:1.047198,0.000000,0.000000,0.000000,0.000000,0.000000:0.500000,0.500000,0.500000,0.500000,0.500000,0.500000:pos_vel_
cobot_dynamixel_driver/goal|-:J1,J2,J3,J4,J5,J6:1.047198,0.000000,0.000000,0.000000,0.000000,0.000000:0.500000,0.500000,0.500000,0.500000,0.500000,0.500000:pos_vel_
cobot_dynamixel_driver/goal|-:J1,J2,J3,J4,J5,J6:1.047198,0.000000,0.000000,0.000000,0.000000,0.000000:0.500000,0.500000,0.500000,0.500000,0.500000,0.500000:pos_vel_
cobot_dynamixel_driver/goal|-:J1,J2,J3,J4,J5,J6:1.047198,0.000000,0.000000,0.000000,0.000000,0.000000:0.500000,0.500000,0.500000,0.500000,0.500000,0.500000:pos_vel_
cobot_dynamixel_driver/goal|-:J1,J2,J3,J4,J5,J6:1.047198,0.000000,0.000000,0.000000,0.000000,0.000000:0.500000,0.500000,0.500000,0.500000,0.500000,0.500000:pos_vel_
cobot_dynamixel_driver/joint_states|name|J1,J2,J3,J4,J5,J6|pos|-1.044070,-1.266056,1.294347,0.001014,-1.224657,-0.000083|vel|0.017944,-0.007094,-0.023786,0.000000,0.042743,0.000000|eff|386.718750,-241.699219,-225.585938,-80.566406,112.792969,-8.056641
cobot_dynamixel_driver/joint_states|name|J1,J2,J3,J4,J5,J6|pos|-1.043519,-1.265830,1.293658,0.001001,-1.223396,-0.000083|vel|0.052996,0.046945,-0.060716,0.000000,0.106512,0.000000|eff|692.871094,-708.984375,-451.171875,-80.566406,88.623047,-8.056641
cobot_dynamixel_driver/joint_states|name|J1,J2,J3,J4,J5,J6|pos|-1.042205,-1.264741,1.292306,0.001001,-1.221224,-0.000083|vel|0.112461,0.088258,-0.096186,0.000000,0.132365,0.000000|eff|918.457031,-1063.476562,-725.097656,-193.359375,76.538086,-8.056641
cobot_dynamixel_driver/joint_states|name|J1,J2,J3,J4,J5,J6|pos|-1.039851,-1.262688,1.290391,0.000989,-1.217955,-0.000083|vel|0.151895,0.128109,-0.118929,0.000000,0.174418,0.000000|eff|918.457031,-1401.855469,-1321.289062,-193.359375,72.509766,16.113281
cobot_dynamixel_driver/joint_states|name|J1,J2,J3,J4,J5,J6|pos|-1.036321,-1.259747,1.287424,0.000939,-1.213715,-0.000083|vel|0.214697,0.173177,-0.195919,-0.002712,0.247839,0.000000|eff|950.683594,-1595.214844,-1417.968750,-225.585938,52.368164,0.000000
cobot_dynamixel_driver/joint_states|name|J1,J2,J3,J4,J5,J6|pos|-1.031802,-1.255741,1.282955,0.000851,-1.208854,-0.000083|vel|0.257679,0.215323,-0.239318,-0.005425,0.235430,0.000000|eff|757.324219,-1627.441406,-1321.289062,-209.472656,52.368164,0.000000
cobot_dynamixel_driver/joint_states|name|J1,J2,J3,J4,J5,J6|pos|-1.026469,-1.250909,1.277435,0.000751,-1.203455,-0.000083|vel|0.282508,0.280838,-0.272284,-0.004173,0.314711,0.000000|eff|531.738281,-1933.593750,-1289.062500,-225.585938,52.368164,0.000000
cobot_dynamixel_driver/joint_states|name|J1,J2,J3,J4,J5,J6|pos|-1.020611,-1.245125,1.271276,0.000689,-1.197456,-0.000083|vel|0.298156,0.306085,-0.344893,-0.003547,0.339874,0.000000|eff|1256.835938,-1579.101562,-1385.742188,-241.699219,52.368164,0.000000
cobot_dynamixel_driver/joint_states|name|J1,J2,J3,J4,J5,J6|pos|-1.014227,-1.238766,1.264704,0.000613,-1.191002,-0.000083|vel|0.336756,0.344267,-0.359290,-0.003338,0.334703,0.000000|eff|1305.175781,-1788.574219,-1063.476562,-241.699219,44.311523,20.141602
cobot_dynamixel_driver/joint_states|name|J1,J2,J3,J4,J5,J6|pos|-1.007129,-1.231843,1.257719,0.000538,-1.184197,-0.000083|vel|0.358872,0.378068,-0.378068,-0.004173,0.350904,0.000000|eff|789.550781,-1224.609375,-1321.289062,-161.132812,32.226562,0.000000
cobot_dynamixel_driver/joint_states|name|J1,J2,J3,J4,J5,J6|pos|-0.999943,-1.224495,1.250458,0.000438,-1.177040,-0.000083|vel|0.362628,0.443791,-0.381197,-0.005633,0.372965,0.000000|eff|596.191406,-1353.515625,-1369.628906,-209.472656,48.339844,20.141602
cobot_dynamixel_driver/joint_states|name|J1,J2,J3,J4,J5,J6|pos|-0.992758,-1.216847,1.242885,0.000363,-1.169531,-0.000083|vel|0.390169,0.406444,-0.401853,-0.003338,0.404333,0.000000|eff|934.570312,-1901.367188,-934.570312,-193.359375,64.453125,8.056641
cobot_dynamixel_driver/joint_states|name|J1,J2,J3,J4,J5,J6|pos|-0.984909,-1.208672,1.235073,0.000288,-1.161753,-0.000083|vel|0.412077,0.428143,-0.411660,-0.003547,0.363313,0.000000|eff|483.398438,-1305.175781,-1353.515625,-145.019531,8.056641,8.056641
cobot_dynamixel_driver/joint_states|name|J1,J2,J3,J4,J5,J6|pos|-0.976547,-1.200460,1.226961,0.000250,-1.153893,-0.000083|vel|0.434194,0.443165,-0.421675,-0.001878,0.405711,0.000000|eff|1385.742188,-1321.289062,-1047.363281,-161.132812,52.368164,24.169922
cobot_dynamixel_driver/joint_states|name|J1,J2,J3,J4,J5,J6|pos|-0.968848,-1.191998,1.218649,0.000200,-1.145619,-0.000083|vel|0.427100,0.405818,-0.431690,-0.002086,0.499125,0.000000|eff|886.230469,-1256.835938,-982.910156,-161.132812,36.254883,16.113281
cobot_dynamixel_driver/joint_states|name|J1,J2,J3,J4,J5,J6|pos|-0.960311,-1.183360,1.210024,0.000163,-1.137282,-0.000083|vel|0.452972,0.432525,-0.438575,-0.002086,0.485337,0.000000|eff|1305.175781,-2159.179688,-1272.949219,-161.132812,28.198242,-8.056641
cobot_dynamixel_driver/joint_states|name|J1,J2,J3,J4,J5,J6|pos|-0.951623,-1.174585,1.201337,0.000125,-1.128739,-0.000083|vel|0.427934,0.397055,-0.449008,-0.002086,0.461898,0.000000|eff|386.718750,-886.230469,-1401.855469,-112.792969,20.141602,8.056641
cobot_dynamixel_driver/joint_states|name|J1,J2,J3,J4,J5,J6|pos|-0.942848,-1.165785,1.192599,0.000100,-1.120114,-0.000083|vel|0.462987,0.458814,-0.444209,-0.001252,0.455348,0.000000|eff|692.871094,-1579.101562,-837.890625,-112.792969,36.254883,8.056641
cobot_dynamixel_driver/joint_states|name|J1,J2,J3,J4,J5,J6|pos|-0.933609,-1.156872,1.183773,0.000088,-1.111384,-0.000083|vel|0.456936,0.469455,-0.477801,-0.001252,0.389855,0.000000|eff|1015.136719,-789.550781,-1530.761719,-96.679688,32.226562,20.141602
cobot_dynamixel_driver/joint_states|name|J1,J2,J3,J4,J5,J6|pos|-0.925059,-1.147846,1.174861,0.000075,-1.102572,-0.000083|vel|0.435863,0.474045,-0.392047,-0.000626,0.450867,0.000000|eff|725.097656,-2384.765625,-934.570312,-193.359375,32.226562,8.056641
cobot_dynamixel_driver/joint_states|name|J1,J2,J3,J4,J5,J6|pos|-0.915908,-1.138658,1.165897,0.000063,-1.093636,-0.000083|vel|0.459857,0.478844,-0.414581,-0.000626,0.474307,0.000000|eff|177.246094,-1466.308594,-1240.722656,-128.906250,32.226562,8.056641
cobot_dynamixel_driver/joint_states|name|J1,J2,J3,J4,J5,J6|pos|-0.906232,-1.129407,1.156722,0.000063,-1.084535,-0.000083|vel|0.484269,0.501587,-0.514105,-0.000626,0.488784,0.000000|eff|128.906250,-1514.648438,-1337.402344,-128.906250,20.141602,0.000000
cobot_dynamixel_driver/joint_states|name|J1,J2,J3,J4,J5,J6|pos|-0.897006,-1.120181,1.147446,0.000050,-1.075433,-0.000083|vel|0.479053,0.487816,-0.397055,-0.000626,0.482235,0.000000|eff|660.644531,-1111.816406,-1417.968750,-161.132812,44.311523,-8.056641
cobot_dynamixel_driver/joint_states|name|J1,J2,J3,J4,J5,J6|pos|-0.887755,-1.110880,1.138195,0.000050,-1.066269,-0.000083|vel|0.466117,0.463613,-0.528085,-0.000626,0.484992,0.000000|eff|2159.179688,-870.117188,-1208.496094,-193.359375,24.169922,24.169922
cobot_dynamixel_driver/joint_states|name|J1,J2,J3,J4,J5,J6|pos|-0.878955,-1.101541,1.128781,0.000050,-1.057106,-0.000083|vel|0.501795,0.481556,-0.445461,-0.000209,0.536697,0.000000|eff|1401.855469,-692.871094,-1095.703125,-112.792969,60.424805,24.169922
cobot_dynamixel_driver/joint_states|name|J1,J2,J3,J4,J5,J6|pos|-0.869579,-1.092253,1.119480,0.000038,-1.047756,-0.000083|vel|0.456102,0.514940,-0.494075,-0.000209,0.548762,0.000000|eff|1369.628906,-1224.609375,-982.910156,-177.246094,24.169922,12.084961
cobot_dynamixel_driver/joint_states|name|J1,J2,J3,J4,J5,J6|pos|-0.859677,-1.082676,1.110154,0.000038,-1.038448,-0.000083|vel|0.485521,0.488025,-0.474671,-0.000209,0.509811,0.000000|eff|1853.027344,-628.417969,-1111.816406,-128.906250,0.000000,20.141602
cobot_dynamixel_driver/joint_states|name|J1,J2,J3,J4,J5,J6|pos|-0.850764,-1.073200,1.100677,0.000025,-1.029201,-0.000083|vel|0.487190,0.508472,-0.493658,-0.000209,0.494989,0.000000|eff|1611.328125,-886.230469,-1047.363281,-96.679688,36.254883,24.169922
cobot_dynamixel_driver/joint_states|name|J1,J2,J3,J4,J5,J6|pos|-0.841325,-1.063736,1.091239,0.000025,-1.019748,-0.000083|vel|0.493241,0.491989,-0.454432,-0.000209,0.473962,0.000000|eff|1772.460938,-1031.250000,-1111.816406,-177.246094,16.113281,16.113281
cobot_dynamixel_driver/joint_states|name|J1,J2,J3,J4,J5,J6|pos|-0.831748,-1.054197,1.081600,0.000013,-1.010357,-0.000083|vel|0.505759,0.522869,-0.504925,-0.000209,0.439147,0.000000|eff|1111.816406,-1546.875000,-1417.968750,-96.679688,36.254883,24.169922
cobot_dynamixel_driver/joint_states|name|J1,J2,J3,J4,J5,J6|pos|-0.821196,-1.044145,1.071648,0.000013,-1.000345,-0.000083|vel|0.487816,0.508889,-0.513479,-0.000209,0.472583,0.000000|eff|1482.421875,-660.644531,-870.117188,-112.792969,40.283203,28.198242
cobot_dynamixel_driver/joint_states|name|J1,J2,J3,J4,J5,J6|pos|-0.810267,-1.033154,1.060657,0.000013,-0.989547,-0.000083|vel|0.467160,0.499083,-0.486981,-0.000209,0.479822,0.000000|eff|322.265625,-2143.066406,-902.343750,-193.359375,36.254883,8.056641
cobot_dynamixel_driver/joint_states|name|J1,J2,J3,J4,J5,J6|pos|-0.802230,-1.025055,1.052007,0.000000,-0.981004,-0.000083|vel|0.513062,0.504090,-0.488442,-0.000209,0.519118,0.000000|eff|435.058594,-2271.972656,-1595.214844,-128.906250,8.056641,24.169922
cobot_dynamixel_driver/joint_states|name|J1,J2,J3,J4,J5,J6|pos|-0.793067,-1.015979,1.043006,0.000000,-0.971923,-0.000083|vel|0.503047,0.491154,-0.495119,-0.000209,0.457761,0.000000|eff|1998.046875,-1160.156250,-1321.289062,-96.679688,40.283203,24.169922
cobot_dynamixel_driver/joint_states|name|J1,J2,J3,J4,J5,J6|pos|-0.782377,-1.005326,1.032904,0.000000,-0.962015,-0.000062|vel|0.536639,0.474045,-0.425222,-0.000209,0.492576,0.000000|eff|1208.496094,-1337.402344,-1224.609375,-193.359375,56.396484,24.169922
cobot_dynamixel_driver/joint_states|name|J1,J2,J3,J4,J5,J6|pos|-0.774152,-0.996726,1.024216,-0.000013,-0.953348,-0.000062|vel|0.494701,0.481139,-0.511810,-0.000209,0.430875,0.000000|eff|209.472656,-1853.027344,-1530.761719,-96.679688,20.141602,28.198242
cobot_dynamixel_driver/joint_states|name|J1,J2,J3,J4,J5,J6|pos|-0.764676,-0.987062,1.014565,-0.000013,-0.943874,-0.000021|vel|0.495327,0.576282,-0.493032,-0.000209,0.492576,0.000000|eff|306.152344,-2416.992188,-1192.382812,-128.906250,28.198242,28.198242
cobot_dynamixel_driver/joint_states|name|J1,J2,J3,J4,J5,J6|pos|-0.755087,-0.977536,1.004938,-0.000025,-0.934359,0.000000|vel|0.525164,0.486564,-0.520156,-0.000209,0.442939,0.001723|eff|612.304688,-1240.722656,-676.757812,-128.906250,32.226562,16.113281
cobot_dynamixel_driver/joint_states|name|J1,J2,J3,J4,J5,J6|pos|-0.745385,-0.968009,0.995299,-0.000025,-0.924740,0.000000|vel|0.506803,0.519530,-0.504508,-0.000209,0.510845,0.001723|eff|1611.328125,-628.417969,-982.910156,-112.792969,0.000000,0.000000
cobot_dynamixel_driver/joint_states|name|J1,J2,J3,J4,J5,J6|pos|-0.735721,-0.958245,0.985835,-0.000038,-0.915142,0.000000|vel|0.486981,0.478427,-0.472793,-0.000209,0.480167,0.001723|eff|708.984375,-1176.269531,-1272.949219,-161.132812,0.000000,0.000000
cobot_dynamixel_driver/joint_states|name|J1,J2,J3,J4,J5,J6|pos|-0.726120,-0.948606,0.976109,-0.000050,-0.905730,0.000000|vel|0.494701,0.473211,-0.449842,-0.000209,0.497057,0.001723|eff|193.359375,-2110.839844,-1482.421875,-161.132812,28.198242,20.141602
cobot_dynamixel_driver/joint_states|name|J1,J2,J3,J4,J5,J6|pos|-0.716556,-0.938879,0.966470,-0.000050,-0.896277,0.000000|vel|0.534135,0.495327,-0.503882,-0.000417,0.423636,0.001723|eff|499.511719,-612.304688,-789.550781,-96.679688,48.339844,0.000000
cobot_dynamixel_driver/joint_states|name|J1,J2,J3,J4,J5,J6|pos|-0.706892,-0.929253,0.956680,-0.000063,-0.886741,0.000000|vel|0.475297,0.440244,-0.497622,-0.000417,0.552554,0.001723|eff|1337.402344,-789.550781,-1015.136719,-80.566406,48.339844,0.000000
cobot_dynamixel_driver/joint_states|name|J1,J2,J3,J4,J5,J6|pos|-0.697178,-0.919539,0.946991,-0.000063,-0.877040,0.000000|vel|0.491989,0.501378,-0.509515,-0.000417,0.464310,0.000000|eff|1224.609375,-1498.535156,-1530.761719,-177.246094,20.141602,-8.056641
cobot_dynamixel_driver/joint_states|name|J1,J2,J3,J4,J5,J6|pos|-0.687088,-0.909887,0.937352,-0.000063,-0.867400,0.000000|vel|0.484478,0.505551,-0.494493,-0.000417,0.482235,0.000000|eff|177.246094,-2207.519531,-773.437500,-96.679688,12.084961,-8.056641
cobot_dynamixel_driver/joint_states|name|J1,J2,J3,J4,J5,J6|pos|-0.677925,-0.900248,0.927688,-0.000063,-0.857864,0.000000|vel|0.474462,0.509932,-0.518070,-0.000417,0.497746,0.000000|eff|467.285156,-515.625000,-821.777344,-128.906250,36.254883,8.056641
cobot_dynamixel_driver/joint_states|name|J1,J2,J3,J4,J5,J6|pos|-0.667710,-0.890484,0.918137,-0.000063,-0.848287,0.000000|vel|0.498457,0.525998,-0.465699,-0.000417,0.430530,0.000000|eff|1836.914062,-1305.175781,-1127.929688,-145.019531,52.368164,-8.056641
cobot_dynamixel_driver/joint_states|name|J1,J2,J3,J4,J5,J6|pos|-0.658409,-0.880807,0.908448,-0.000063,-0.838648,0.000000|vel|0.505134,0.490528,-0.502421,0.000000,0.489129,0.000000|eff|112.792969,-2288.085938,-1434.082031,-177.246094,36.254883,-8.056641
cobot_dynamixel_driver/joint_states|name|J1,J2,J3,J4,J5,J6|pos|-0.648281,-0.871193,0.898746,-0.000063,-0.829029,0.000000|vel|0.470915,0.502838,-0.467577,0.000000,0.492231,0.000000|eff|1015.136719,-435.058594,-725.097656,-80.566406,44.311523,-8.056641
cobot_dynamixel_driver/joint_states|name|J1,J2,J3,J4,J5,J6|pos|-0.638742,-0.861492,0.889019,-0.000063,-0.819431,0.000000|vel|0.514105,0.480722,-0.511393,0.000000,0.520496,0.000000|eff|1095.703125,-692.871094,-902.343750,-128.906250,36.254883,0.000000
cobot_dynamixel_driver/joint_states|name|J1,J2,J3,J4,J5,J6|pos|-0.629003,-0.851339,0.878867,-0.000063,-0.809336,0.000000|vel|0.496162,0.504716,-0.504716,0.000000,0.484992,0.000000|eff|177.246094,-1417.968750,-821.777344,-80.566406,0.000000,0.000000
cobot_dynamixel_driver/joint_states|name|J1,J2,J3,J4,J5,J6|pos|-0.619740,-0.842114,0.869654,-0.000063,-0.800235,0.000000|vel|0.486981,0.450051,-0.481139,0.000000,0.445352,0.000000|eff|48.339844,-2545.898438,-1401.855469,-112.792969,24.169922,12.084961
cobot_dynamixel_driver/joint_states|name|J1,J2,J3,J4,J5,J6|pos|-0.609525,-0.832337,0.860127,-0.000063,-0.790575,0.000000|vel|0.484686,0.481348,-0.506803,0.000000,0.526701,0.000000|eff|1385.742188,-580.078125,-708.984375,-80.566406,0.000000,16.113281
cobot_dynamixel_driver/joint_states|name|J1,J2,J3,J4,J5,J6|pos|-0.600011,-0.822673,0.850326,-0.000063,-0.781018,0.000000|vel|0.504090,0.479679,-0.516609,0.000000,0.539800,0.000000|eff|1659.667969,-1031.250000,-1095.703125,-96.679688,32.226562,0.000000
cobot_dynamixel_driver/joint_states|name|J1,J2,J3,J4,J5,J6|pos|-0.590284,-0.812934,0.840636,-0.000063,-0.771379,0.000000|vel|0.485521,0.506803,-0.419171,0.000000,0.443284,0.000000|eff|128.906250,-1740.234375,-1353.515625,-80.566406,28.198242,12.084961
cobot_dynamixel_driver/joint_states|name|J1,J2,J3,J4,J5,J6|pos|-0.580057,-0.802781,0.830422,-0.000063,-0.761263,0.000000|vel|0.510767,0.500961,-0.508055,0.000000,0.526701,0.000000|eff|1756.347656,-1208.496094,-1208.496094,-80.566406,40.283203,0.000000
cobot_dynamixel_driver/joint_states|name|J1,J2,J3,J4,J5,J6|pos|-0.570819,-0.793568,0.821208,-0.000063,-0.752079,0.000000|vel|0.488859,0.516400,-0.498040,0.000000,0.504640,0.000000|eff|1724.121094,-1079.589844,-1031.250000,-96.679688,24.169922,0.000000
cobot_dynamixel_driver/joint_states|name|J1,J2,J3,J4,J5,J6|pos|-0.561255,-0.783941,0.811506,-0.000063,-0.742088,0.000000|vel|0.519530,0.517026,-0.505551,0.000000,0.418121,0.000000|eff|757.324219,-2352.539062,-1321.289062,-161.132812,28.198242,0.000000
cobot_dynamixel_driver/joint_states|name|J1,J2,J3,J4,J5,J6|pos|-0.551515,-0.774302,0.801880,-0.000063,-0.732987,0.000000|vel|0.513062,0.502212,-0.508263,0.000000,0.570478,0.000000|eff|80.566406,-1353.515625,-1160.156250,-80.566406,28.198242,12.084961
cobot_dynamixel_driver/joint_states|name|J1,J2,J3,J4,J5,J6|pos|-0.541751,-0.764501,0.792241,-0.000063,-0.723326,0.000000|vel|0.491363,0.491363,-0.514105,0.000000,0.523599,0.000000|eff|1337.402344,-580.078125,-821.777344,-80.566406,32.226562,-8.056641
cobot_dynamixel_driver/joint_states|name|J1,J2,J3,J4,J5,J6|pos|-0.531499,-0.754336,0.781989,-0.000063,-0.713253,0.000000|vel|0.483643,0.523912,-0.510976,0.000000,0.500849,0.000000|eff|483.398438,-435.058594,-644.531250,-80.566406,28.198242,8.056641
cobot_dynamixel_driver/joint_states|name|J1,J2,J3,J4,J5,J6|pos|-0.521935,-0.744759,0.772249,-0.000063,-0.703655,0.000000|vel|0.493241,0.501169,-0.509098,0.000000,0.483269,0.000000|eff|966.796875,-354.492188,-757.324219,-80.566406,24.169922,-8.056641
cobot_dynamixel_driver/joint_states|name|J1,J2,J3,J4,J5,J6|pos|-0.512759,-0.735583,0.763061,-0.000063,-0.694491,0.000000|vel|0.493241,0.520365,-0.507429,0.000000,0.518773,0.000000|eff|241.699219,-1031.250000,-676.757812,-80.566406,12.084961,0.000000
cobot_dynamixel_driver/joint_states|name|J1,J2,J3,J4,J5,J6|pos|-0.503007,-0.725894,0.753359,-0.000063,-0.684893,0.000000|vel|0.479261,0.517444,-0.461526,0.002086,0.560137,0.000000|eff|1353.515625,-418.945312,-966.796875,-80.566406,32.226562,1023.193359
cobot_dynamixel_driver/joint_states|name|J1,J2,J3,J4,J5,J6|pos|-0.492805,-0.715679,0.743257,-0.000063,-0.674799,0.000000|vel|0.513271,0.523494,-0.465282,-0.000835,0.492231,0.000000|eff|612.304688,-96.679688,-821.777344,-80.566406,24.169922,20.141602
cobot_dynamixel_driver/joint_states|name|J1,J2,J3,J4,J5,J6|pos|-0.483679,-0.706441,0.734106,-0.000063,-0.665697,0.000000|vel|0.467160,0.521617,-0.554166,0.002086,0.485337,0.000000|eff|225.585938,-1015.136719,-1337.402344,-48.339844,76.538086,16.113281
cobot_dynamixel_driver/joint_states|name|J1,J2,J3,J4,J5,J6|pos|-0.474053,-0.696677,0.724342,-0.000063,-0.656078,0.000000|vel|0.463822,0.484686,-0.503256,-0.001669,0.504296,0.000000|eff|483.398438,-402.832031,-708.984375,-80.566406,20.141602,8.056641
cobot_dynamixel_driver/joint_states|name|J1,J2,J3,J4,J5,J6|pos|-0.464814,-0.686950,0.714628,-0.000063,-0.646460,0.000000|vel|0.474671,0.496996,-0.505759,0.001878,0.479477,0.000000|eff|1627.441406,-1111.816406,-1160.156250,-80.566406,28.198242,0.000000
cobot_dynamixel_driver/joint_states|name|J1,J2,J3,J4,J5,J6|pos|-0.455075,-0.677286,0.704876,-0.000063,-0.636903,0.000000|vel|0.497831,0.519530,-0.533092,0.001669,0.554622,0.000000|eff|580.078125,-2207.519531,-1321.289062,-80.566406,44.311523,0.000000
cobot_dynamixel_driver/joint_states|name|J1,J2,J3,J4,J5,J6|pos|-0.445436,-0.667597,0.695162,-0.000063,-0.627243,0.000000|vel|0.498457,0.513897,-0.456519,0.000835,0.450178,0.000000|eff|306.152344,-257.812500,-644.531250,-80.566406,56.396484,0.000000
cobot_dynamixel_driver/joint_states|name|J1,J2,J3,J4,J5,J6|pos|-0.435234,-0.657970,0.685523,-0.000063,-0.617604,0.000000|vel|0.500126,0.482600,-0.500752,0.000835,0.502917,0.000000|eff|1176.269531,-773.437500,-982.910156,-80.566406,36.254883,12.084961
cobot_dynamixel_driver/joint_states|name|J1,J2,J3,J4,J5,J6|pos|-0.425469,-0.648281,0.675947,-0.000063,-0.608047,0.000000|vel|0.493032,0.476966,-0.505551,0.000626,0.500504,0.000000|eff|241.699219,-1643.554688,-1498.535156,-80.566406,44.311523,12.084961
cobot_dynamixel_driver/joint_states|name|J1,J2,J3,J4,J5,J6|pos|-0.416244,-0.638480,0.666308,-0.000063,-0.598428,0.000000|vel|0.481765,0.529545,-0.527041,0.000626,0.447075,0.000000|eff|177.246094,-563.964844,-1675.781250,-80.566406,48.339844,12.084961
cobot_dynamixel_driver/joint_states|name|J1,J2,J3,J4,J5,J6|pos|-0.406091,-0.628841,0.656568,-0.000063,-0.588789,0.000000|vel|0.476966,0.508472,-0.520573,0.000626,0.488439,0.000000|eff|1015.136719,-483.398438,-580.078125,-80.566406,64.453125,16.113281
cobot_dynamixel_driver/joint_states|name|J1,J2,J3,J4,J5,J6|pos|-0.396415,-0.619239,0.646854,-0.000063,-0.579149,0.000000|vel|0.491780,0.482808,-0.507011,0.000626,0.424325,0.000000|eff|1933.593750,-999.023438,-1208.496094,-80.566406,48.339844,0.000000
cobot_dynamixel_driver/joint_states|name|J1,J2,J3,J4,J5,J6|pos|-0.386701,-0.609525,0.637090,-0.000063,-0.569551,0.000000|vel|0.478844,0.465491,-0.547489,0.000626,0.438803,0.000000|eff|290.039062,-902.343750,-692.871094,0.000000,24.169922,16.113281
cobot_dynamixel_driver/joint_states|name|J1,J2,J3,J4,J5,J6|pos|-0.376999,-0.599811,0.627426,-0.000063,-0.559953,0.000000|vel|0.510767,0.503256,-0.488859,0.000626,0.562895,0.000000|eff|547.851562,-64.453125,-628.417969,-80.566406,24.169922,-8.056641
cobot_dynamixel_driver/joint_states|name|J1,J2,J3,J4,J5,J6|pos|-0.367297,-0.590122,0.617862,-0.000063,-0.550293,0.000000|vel|0.483017,0.492823,-0.490111,0.000626,0.520152,0.000000|eff|1562.988281,-596.191406,-934.570312,0.000000,44.311523,-8.056641
cobot_dynamixel_driver/joint_states|name|J1,J2,J3,J4,J5,J6|pos|-0.357733,-0.580370,0.608085,-0.000063,-0.540757,0.000000|vel|0.498874,0.501169,-0.504090,0.000626,0.488095,0.000000|eff|1337.402344,-1949.707031,-1337.402344,-80.566406,72.509766,16.113281
cobot_dynamixel_driver/joint_states|name|J1,J2,J3,J4,J5,J6|pos|-0.348069,-0.570606,0.598384,-0.000063,-0.531159,0.000000|vel|0.514940,0.504716,-0.490528,0.000626,0.440871,0.000000|eff|112.792969,-80.566406,-1192.382812,-80.566406,56.396484,-8.056641
cobot_dynamixel_driver/joint_states|name|J1,J2,J3,J4,J5,J6|pos|-0.338343,-0.560979,0.588657,-0.000063,-0.521561,0.000000|vel|0.471124,0.493658,-0.400810,0.000626,0.524288,0.000000|eff|773.437500,-580.078125,-789.550781,-80.566406,28.198242,16.113281
cobot_dynamixel_driver/joint_states|name|J1,J2,J3,J4,J5,J6|pos|-0.328666,-0.551353,0.578905,-0.000063,-0.512005,0.000000|vel|0.499083,0.509724,-0.496162,0.000626,0.517049,0.000000|eff|2126.953125,-1466.308594,-1401.855469,-80.566406,52.368164,-8.056641
cobot_dynamixel_driver/joint_states|name|J1,J2,J3,J4,J5,J6|pos|-0.319065,-0.541626,0.569179,-0.000063,-0.502345,0.000000|vel|0.499291,0.519530,-0.513897,0.000626,0.441560,0.000000|eff|741.210938,-1321.289062,-870.117188,-80.566406,28.198242,12.084961
cobot_dynamixel_driver/joint_states|name|J1,J2,J3,J4,J5,J6|pos|-0.309275,-0.532012,0.559527,-0.000063,-0.492788,0.000000|vel|0.525372,0.482182,-0.498874,0.001878,0.493955,0.000000|eff|177.246094,-112.792969,-725.097656,-80.566406,56.396484,-8.056641
cobot_dynamixel_driver/joint_states|name|J1,J2,J3,J4,J5,J6|pos|-0.299536,-0.522298,0.549963,-0.000063,-0.483128,0.000000|vel|0.496162,0.528502,-0.512853,0.001461,0.496023,0.000000|eff|1498.535156,-563.964844,-966.796875,-80.566406,40.283203,0.000000
cobot_dynamixel_driver/joint_states|name|J1,J2,J3,J4,J5,J6|pos|-0.289847,-0.512534,0.540412,-0.000063,-0.473509,0.000000|vel|0.506594,0.476966,-0.517026,-0.002086,0.483269,0.000000|eff|886.230469,-2062.500000,-1192.382812,-80.566406,24.169922,0.000000
cobot_dynamixel_driver/joint_states|name|J1,J2,J3,J4,J5,J6|pos|-0.280195,-0.502882,0.530685,-0.000063,-0.463932,0.000000|vel|0.494284,0.511810,-0.504508,-0.001669,0.564618,0.000000|eff|209.472656,-112.792969,-1530.761719,-80.566406,60.424805,20.141602
cobot_dynamixel_driver/joint_states|name|J1,J2,J3,J4,J5,J6|pos|-0.269981,-0.492855,0.520458,-0.000063,-0.453320,0.000000|vel|0.484269,0.485729,-0.529545,0.002086,0.429496,0.000000|eff|64.453125,-2223.632812,-789.550781,-80.566406,24.169922,-8.056641
cobot_dynamixel_driver/joint_states|name|J1,J2,J3,J4,J5,J6|pos|-0.260767,-0.483629,0.511207,-0.000063,-0.444736,0.000000|vel|0.479261,0.509306,-0.491780,-0.002086,0.511190,0.000000|eff|1981.933594,-741.210938,-1240.722656,-80.566406,60.424805,0.000000
cobot_dynamixel_driver/joint_states|name|J1,J2,J3,J4,J5,J6|pos|-0.251091,-0.473877,0.501530,-0.000063,-0.435096,0.000000|vel|0.490737,0.504716,-0.441705,0.001669,0.499470,0.000000|eff|-48.339844,-386.718750,-999.023438,-80.566406,32.226562,-8.056641
cobot_dynamixel_driver/joint_states|name|J1,J2,J3,J4,J5,J6|pos|-0.241401,-0.464163,0.491954,-0.000063,-0.425457,0.000000|vel|0.489276,0.474254,-0.507637,-0.001878,0.422946,0.000000|eff|789.550781,-48.339844,-1031.250000,-96.679688,16.113281,0.000000
cobot_dynamixel_driver/joint_states|name|J1,J2,J3,J4,J5,J6|pos|-0.231787,-0.454399,0.482139,-0.000063,-0.415942,0.000000|vel|0.507220,0.481139,-0.484269,0.002504,0.556345,0.000000|eff|1353.515625,-773.437500,-982.910156,-80.566406,64.453125,0.000000
cobot_dynamixel_driver/joint_states|name|J1,J2,J3,J4,J5,J6|pos|-0.222061,-0.444697,0.472475,-0.000063,-0.406261,0.000000|vel|0.489694,0.503673,-0.457979,-0.001461,0.474307,0.000000|eff|467.285156,-1579.101562,-1385.742188,-80.566406,52.368164,-8.056641
cobot_dynamixel_driver/joint_states|name|J1,J2,J3,J4,J5,J6|pos|-0.212384,-0.435046,0.462699,-0.000063,-0.396684,0.000000|vel|0.514523,0.474254,-0.495953,-0.002295,0.505674,0.000000|eff|128.906250,-483.398438,-773.437500,-80.566406,44.311523,0.000000
cobot_dynamixel_driver/joint_states|name|J1,J2,J3,J4,J5,J6|pos|-0.202683,-0.425319,0.452922,-0.000063,-0.387044,0.000000|vel|0.445461,0.501587,-0.498248,0.001043,0.510155,0.000000|eff|837.890625,-225.585938,-870.117188,-80.566406,36.254883,20.141602
cobot_dynamixel_driver/joint_states|name|J1,J2,J3,J4,J5,J6|pos|-0.193056,-0.415655,0.443233,-0.000063,-0.377426,0.000000|vel|0.504090,0.515983,-0.514523,0.001043,0.478443,0.000000|eff|1240.722656,-2078.613281,-1466.308594,-128.906250,44.311523,8.056641
cobot_dynamixel_driver/joint_states|name|J1,J2,J3,J4,J5,J6|pos|-0.183279,-0.405979,0.433594,-0.000063,-0.367827,0.000000|vel|0.490320,0.467160,-0.503047,0.001043,0.491886,0.000000|eff|0.000000,-1401.855469,-1321.289062,-80.566406,84.594727,-8.056641
cobot_dynamixel_driver/joint_states|name|J1,J2,J3,J4,J5,J6|pos|-0.173553,-0.396239,0.423942,-0.000063,-0.358229,0.000000|vel|0.484269,0.483852,-0.522660,0.001043,0.469136,0.000000|eff|692.871094,-32.226562,-692.871094,-128.906250,104.736328,-8.056641
cobot_dynamixel_driver/joint_states|name|J1,J2,J3,J4,J5,J6|pos|-0.163876,-0.386463,0.414341,-0.000063,-0.348569,0.000000|vel|0.565224,0.469038,-0.453806,0.001669,0.477409,0.000000|eff|1869.140625,-1256.835938,-902.343750,-80.566406,32.226562,20.141602
cobot_dynamixel_driver/joint_states|name|J1,J2,J3,J4,J5,J6|pos|-0.154187,-0.376761,0.404664,-0.000063,-0.338992,0.000000|vel|0.509515,0.501169,-0.515983,-0.001878,0.570478,0.000000|eff|644.531250,-725.097656,-1498.535156,-80.566406,52.368164,12.084961
cobot_dynamixel_driver/joint_states|name|J1,J2,J3,J4,J5,J6|pos|-0.144448,-0.367135,0.394912,-0.000063,-0.329332,0.000000|vel|0.499917,0.515357,-0.467786,0.002086,0.482580,0.000000|eff|402.832031,241.699219,-886.230469,-80.566406,40.283203,20.141602
cobot_dynamixel_driver/joint_states|name|J1,J2,J3,J4,J5,J6|pos|-0.134771,-0.357495,0.385161,-0.000063,-0.319755,0.000000|vel|0.509724,0.468829,-0.512436,0.002086,0.513602,0.000000|eff|1385.742188,-435.058594,-870.117188,-80.566406,48.339844,0.000000
cobot_dynamixel_driver/joint_states|name|J1,J2,J3,J4,J5,J6|pos|-0.125045,-0.347806,0.375534,-0.000063,-0.310157,0.000000|vel|0.492197,0.512645,-0.480931,0.000835,0.503261,0.000000|eff|999.023438,-1353.515625,-1321.289062,-96.679688,76.538086,20.141602
cobot_dynamixel_driver/joint_states|name|J1,J2,J3,J4,J5,J6|pos|-0.115355,-0.338080,0.365933,-0.000063,-0.300476,0.000000|vel|0.497831,0.478635,-0.513271,-0.001669,0.479133,0.000000|eff|257.812500,290.039062,-1611.328125,-112.792969,36.254883,-8.056641
cobot_dynamixel_driver/joint_states|name|J1,J2,J3,J4,J5,J6|pos|-0.105729,-0.328353,0.356131,-0.000063,-0.290981,0.000000|vel|0.510558,0.420840,-0.512019,0.002086,0.519807,0.000000|eff|757.324219,-128.906250,-660.644531,-80.566406,72.509766,12.084961
cobot_dynamixel_driver/joint_states|name|J1,J2,J3,J4,J5,J6|pos|-0.096052,-0.318664,0.346367,-0.000063,-0.281342,0.000000|vel|0.502421,0.499500,-0.515983,0.002295,0.476720,0.000000|eff|1820.800781,-1015.136719,-1127.929688,-80.566406,60.424805,-8.056641
cobot_dynamixel_driver/joint_states|name|J1,J2,J3,J4,J5,J6|pos|-0.086363,-0.308937,0.336690,-0.000063,-0.271765,0.000000|vel|0.515357,0.488233,-0.500543,0.001461,0.521186,0.000000|eff|80.566406,-241.699219,-1514.648438,-80.566406,40.283203,0.000000
cobot_dynamixel_driver/joint_states|name|J1,J2,J3,J4,J5,J6|pos|-0.076674,-0.299173,0.326964,-0.000063,-0.262125,0.000000|vel|0.507011,0.481765,-0.489902,0.000835,0.511534,0.000000|eff|290.039062,112.792969,-547.851562,-80.566406,48.339844,-8.056641
cobot_dynamixel_driver/joint_states|name|J1,J2,J3,J4,J5,J6|pos|-0.067010,-0.289496,0.317262,-0.000063,-0.252506,0.000000|vel|0.498666,0.504716,-0.470081,0.002086,0.403643,0.000000|eff|1321.289062,-950.683594,-982.910156,-80.566406,44.311523,8.056641
cobot_dynamixel_driver/joint_states|name|J1,J2,J3,J4,J5,J6|pos|-0.057296,-0.279882,0.307598,-0.000063,-0.242950,0.000000|vel|0.490320,0.478635,-0.489068,0.001252,0.506019,0.000000|eff|418.945312,-1869.140625,-1466.308594,-80.566406,56.396484,0.000000
cobot_dynamixel_driver/joint_states|name|J1,J2,J3,J4,J5,J6|pos|-0.047094,-0.269755,0.297421,-0.000063,-0.232814,0.000000|vel|0.491989,0.481139,-0.490737,-0.001252,0.488095,0.000000|eff|1804.687500,-870.117188,-1047.363281,-80.566406,56.396484,-8.056641
cobot_dynamixel_driver/joint_states|name|J1,J2,J3,J4,J5,J6|pos|-0.037918,-0.260554,0.288232,-0.000063,-0.223692,0.000000|vel|0.467160,0.501795,-0.440870,0.002086,0.521531,0.000000|eff|757.324219,-128.906250,-757.324219,-80.566406,60.424805,20.141602
cobot_dynamixel_driver/joint_states|name|J1,J2,J3,J4,J5,J6|pos|-0.028229,-0.250815,0.278593,-0.000063,-0.214094,0.000000|vel|0.508681,0.503047,-0.467994,0.001669,0.520841,0.000000|eff|1949.707031,-1079.589844,-1192.382812,-80.566406,40.283203,-8.056641
cobot_dynamixel_driver/joint_states|name|J1,J2,J3,J4,J5,J6|pos|-0.018477,-0.241114,0.268879,-0.000063,-0.204599,0.000000|vel|0.505551,0.594643,-0.494075,0.000835,0.442939,0.000000|eff|112.792969,290.039062,-1482.421875,-80.566406,52.368164,0.000000
cobot_dynamixel_driver/joint_states|name|J1,J2,J3,J4,J5,J6|pos|-0.008825,-0.231387,0.259215,-0.000063,-0.195001,0.000000|vel|0.519113,0.481556,-0.529545,-0.002295,0.518084,0.000000|eff|370.605469,96.679688,-628.417969,-80.566406,80.566406,-8.056641
cobot_dynamixel_driver/joint_states|name|J1,J2,J3,J4,J5,J6|pos|0.000914,-0.221685,0.249613,-0.000063,-0.185320,0.000000|vel|0.513479,0.479053,-0.451929,-0.001669,0.433977,0.000000|eff|1595.214844,-902.343750,-918.457031,-96.679688,48.339844,0.000000
cobot_dynamixel_driver/joint_states|name|J1,J2,J3,J4,J5,J6|pos|0.010578,-0.212059,0.239862,-0.000063,-0.175743,0.000000|vel|0.503882,0.482808,-0.506385,0.000835,0.476030,0.000000|eff|789.550781,-1192.382812,-1272.949219,-80.566406,84.594727,16.113281
cobot_dynamixel_driver/joint_states|name|J1,J2,J3,J4,J5,J6|pos|0.020280,-0.202357,0.230260,-0.000063,-0.166083,0.000000|vel|0.505968,0.524955,-0.497622,-0.000835,0.562895,0.000000|eff|112.792969,499.511719,-1675.781250,-80.566406,56.396484,-8.056641
cobot_dynamixel_driver/joint_states|name|J1,J2,J3,J4,J5,J6|pos|0.030031,-0.192681,0.220496,-0.000063,-0.156464,0.000000|vel|0.492615,0.471124,-0.466743,0.002086,0.442939,0.000000|eff|1385.742188,-241.699219,-708.984375,-80.566406,60.424805,-8.056641
cobot_dynamixel_driver/joint_states|name|J1,J2,J3,J4,J5,J6|pos|0.039708,-0.183004,0.210757,-0.000063,-0.146928,0.000000|vel|0.486564,0.518070,-0.499083,0.001252,0.529803,0.000000|eff|1015.136719,-1337.402344,-1369.628906,-80.566406,68.481445,0.000000
cobot_dynamixel_driver/joint_states|name|J1,J2,J3,J4,J5,J6|pos|0.049347,-0.173302,0.201030,-0.000063,-0.137372,0.000000|vel|0.485312,0.529754,-0.515357,0.001252,0.482580,0.000000|eff|145.019531,-225.585938,-1579.101562,-128.906250,80.566406,8.056641
cobot_dynamixel_driver/joint_states|name|J1,J2,J3,J4,J5,J6|pos|0.058961,-0.163588,0.191291,-0.000063,-0.127712,0.000000|vel|0.523494,0.489068,-0.486147,-0.000626,0.513947,0.000000|eff|402.832031,338.378906,-676.757812,-80.566406,60.424805,-8.056641
cobot_dynamixel_driver/joint_states|name|J1,J2,J3,J4,J5,J6|pos|0.069626,-0.152485,0.180237,-0.000063,-0.116583,0.000000|vel|0.520782,0.445878,-0.519113,0.001669,0.478788,0.000000|eff|1127.929688,-1756.347656,-1385.742188,-80.566406,64.453125,20.141602
cobot_dynamixel_driver/joint_states|name|J1,J2,J3,J4,J5,J6|pos|0.078364,-0.144323,0.172000,-0.000063,-0.108433,0.000000|vel|0.491154,0.499917,-0.461109,-0.001669,0.481890,0.000000|eff|886.230469,-1611.328125,-1095.703125,-96.679688,64.453125,20.141602
cobot_dynamixel_driver/joint_states|name|J1,J2,J3,J4,J5,J6|pos|0.088066,-0.134608,0.162311,-0.000063,-0.098980,0.000000|vel|0.511184,0.512645,-0.508263,0.000835,0.476375,0.000000|eff|209.472656,483.398438,-757.324219,-80.566406,108.764648,0.000000
cobot_dynamixel_driver/goal|-:J1,J2,J3,J4,J5,J6:1.047198,0.000000,0.000000,0.000000,0.000000,0.000000:0.500000,0.500000,0.500000,0.500000,0.500000,0.500000:pos_vel_
cobot_dynamixel_driver/joint_states|name|J1,J2,J3,J4,J5,J6|pos|0.097717,-0.124844,0.152685,-0.000063,-0.089423,0.000000|vel|0.502004,0.498248,-0.512645,-0.000835,0.519462,0.000000|eff|773.437500,-128.906250,-676.757812,-80.566406,100.708008,-8.056641
cobot_dynamixel_driver/joint_states|name|J1,J2,J3,J4,J5,J6|pos|0.107406,-0.115105,0.142946,-0.000063,-0.079742,0.000000|vel|0.479470,0.510976,-0.455893,0.002086,0.485337,0.000000|eff|2207.519531,80.566406,-1208.496094,-80.566406,72.509766,-8.056641
cobot_dynamixel_driver/joint_states|name|J1,J2,J3,J4,J5,J6|pos|0.117121,-0.105454,0.133257,-0.000063,-0.070103,0.000000|vel|0.499917,0.476966,-0.505759,0.001252,0.563929,0.000000|eff|48.339844,306.152344,-1289.062500,-80.566406,44.311523,-8.056641
cobot_dynamixel_driver/joint_states|name|J1,J2,J3,J4,J5,J6|pos|0.126847,-0.095789,0.123643,-0.000063,-0.060856,0.000000|vel|0.484060,0.478009,-0.511810,-0.001252,0.439837,0.000000|eff|612.304688,273.925781,-757.324219,-161.132812,-52.368164,0.000000
cobot_dynamixel_driver/joint_states|name|J1,J2,J3,J4,J5,J6|pos|0.136536,-0.086125,0.113891,-0.000063,-0.052996,0.000000|vel|0.505551,0.499291,-0.500961,0.000626,0.330222,0.000000|eff|1869.140625,-644.531250,-966.796875,-80.566406,-20.141602,0.000000
cobot_dynamixel_driver/joint_states|name|J1,J2,J3,J4,J5,J6|pos|0.147252,-0.074959,0.102762,-0.000063,-0.045529,0.000000|vel|0.504090,0.475714,-0.510767,0.001043,0.262316,0.000000|eff|531.738281,660.644531,-805.664062,-80.566406,24.169922,20.141602
cobot_dynamixel_driver/joint_states|name|J1,J2,J3,J4,J5,J6|pos|0.156002,-0.066860,0.094525,-0.000063,-0.040709,0.000000|vel|0.488859,0.490737,-0.503673,0.000835,0.288514,0.000000|eff|676.757812,821.777344,-854.003906,-80.566406,40.283203,0.000000
cobot_dynamixel_driver/joint_states|name|J1,J2,J3,J4,J5,J6|pos|0.165704,-0.057959,0.084811,-0.000063,-0.035620,0.000000|vel|0.495327,0.444417,-0.478844,-0.002086,0.209233,0.000000|eff|1836.914062,32.226562,-854.003906,-80.566406,20.141602,16.113281
cobot_dynamixel_driver/joint_states|name|J1,J2,J3,J4,J5,J6|pos|0.175330,-0.050110,0.075109,-0.000063,-0.031214,0.000000|vel|0.498666,0.397055,-0.495536,0.002086,0.213369,0.000000|eff|1482.421875,934.570312,-1192.382812,-80.566406,36.254883,-8.056641
cobot_dynamixel_driver/joint_states|name|J1,J2,J3,J4,J5,J6|pos|0.184944,-0.043338,0.065621,-0.000063,-0.027408,0.000000|vel|0.520991,0.307545,-0.500961,0.001252,0.176831,0.000000|eff|145.019531,225.585938,-1208.496094,-80.566406,56.396484,-8.056641
cobot_dynamixel_driver/joint_states|name|J1,J2,J3,J4,J5,J6|pos|0.194671,-0.037617,0.056958,-0.000063,-0.024016,0.000000|vel|0.514314,0.283968,-0.429186,0.000835,0.146153,0.000000|eff|757.324219,708.984375,-451.171875,-80.566406,44.311523,0.000000
cobot_dynamixel_driver/joint_states|name|J1,J2,J3,J4,J5,J6|pos|0.204435,-0.032760,0.049535,-0.000063,-0.021058,0.000000|vel|0.477592,0.225547,-0.344684,0.001669,0.153391,0.000000|eff|1869.140625,145.019531,-467.285156,-80.566406,64.453125,-8.056641
cobot_dynamixel_driver/joint_states|name|J1,J2,J3,J4,J5,J6|pos|0.214099,-0.028567,0.043175,-0.000063,-0.018389,0.000000|vel|0.498666,0.200927,-0.301703,0.001252,0.133743,0.000000|eff|112.792969,112.792969,-563.964844,-80.566406,52.368164,-8.056641
cobot_dynamixel_driver/joint_states|name|J1,J2,J3,J4,J5,J6|pos|0.224176,-0.024749,0.037480,-0.000063,-0.016010,0.000000|vel|0.536639,0.169004,-0.275622,0.001043,0.107891,0.000000|eff|2014.160156,322.265625,-805.664062,-80.566406,64.453125,0.000000
cobot_dynamixel_driver/joint_states|name|J1,J2,J3,J4,J5,J6|pos|0.233365,-0.021832,0.033086,-0.000063,-0.014066,0.000000|vel|0.478218,0.139376,-0.223461,0.001043,0.085141,0.000000|eff|1127.929688,354.492188,-870.117188,-80.566406,56.396484,12.084961
cobot_dynamixel_driver/joint_states|name|J1,J2,J3,J4,J5,J6|pos|0.243104,-0.019178,0.028880,-0.000063,-0.012328,0.000000|vel|0.479261,0.130404,-0.203430,-0.001043,0.076179,0.000000|eff|805.664062,161.132812,-789.550781,-80.566406,64.453125,8.056641
cobot_dynamixel_driver/joint_states|name|J1,J2,J3,J4,J5,J6|pos|0.252881,-0.016787,0.025199,-0.000063,-0.010777,0.000000|vel|0.509724,0.114964,-0.151895,0.000835,0.072042,0.000000|eff|128.906250,290.039062,-692.871094,-80.566406,60.424805,20.141602
cobot_dynamixel_driver/joint_states|name|J1,J2,J3,J4,J5,J6|pos|0.262595,-0.014646,0.022120,-0.000063,-0.009433,0.000000|vel|0.482808,0.097021,-0.138750,-0.000835,0.066182,0.000000|eff|1079.589844,273.925781,-757.324219,-80.566406,68.481445,12.084961
cobot_dynamixel_driver/joint_states|name|J1,J2,J3,J4,J5,J6|pos|0.272271,-0.012831,0.019428,-0.000063,-0.008274,0.000000|vel|0.537682,0.080329,-0.128318,0.000626,0.048258,0.000000|eff|708.984375,209.472656,-902.343750,-96.679688,48.339844,8.056641
cobot_dynamixel_driver/joint_states|name|J1,J2,J3,J4,J5,J6|pos|0.281986,-0.011304,0.017062,-0.000063,-0.007261,0.000000|vel|0.505551,0.071357,-0.115590,-0.000626,0.047224,0.000000|eff|96.679688,225.585938,-837.890625,-80.566406,64.453125,20.141602
cobot_dynamixel_driver/joint_states|name|J1,J2,J3,J4,J5,J6|pos|0.291687,-0.009927,0.014934,-0.000063,-0.006392,0.000000|vel|0.493032,0.069688,-0.103071,0.000417,0.038951,0.000000|eff|837.890625,193.359375,-805.664062,-80.566406,64.453125,-8.056641
cobot_dynamixel_driver/joint_states|name|J1,J2,J3,J4,J5,J6|pos|0.301314,-0.008700,0.013119,-0.000063,-0.005626,0.000000|vel|0.501378,0.056126,-0.078660,0.000417,0.034470,0.000000|eff|1820.800781,177.246094,-950.683594,-80.566406,84.594727,0.000000
cobot_dynamixel_driver/joint_states|name|J1,J2,J3,J4,J5,J6|pos|0.310940,-0.007599,0.011529,-0.000063,-0.004964,0.000000|vel|0.515566,0.054665,-0.075113,0.000417,0.028955,0.000000|eff|1047.363281,177.246094,-902.343750,-80.566406,84.594727,-8.056641
cobot_dynamixel_driver/joint_states|name|J1,J2,J3,J4,J5,J6|pos|0.320692,-0.006572,0.010002,-0.000063,-0.004323,0.000000|vel|0.504925,0.046528,-0.074487,0.000417,0.031368,0.000000|eff|1160.156250,193.359375,-837.890625,-80.566406,80.566406,-8.056641
cobot_dynamixel_driver/joint_states|name|J1,J2,J3,J4,J5,J6|pos|0.330431,-0.005783,0.008800,-0.000063,-0.003785,0.000000|vel|0.500335,0.035261,-0.057795,0.000417,0.030334,0.000000|eff|1466.308594,241.699219,-854.003906,-80.566406,76.538086,0.000000
cobot_dynamixel_driver/joint_states|name|J1,J2,J3,J4,J5,J6|pos|0.340070,-0.005107,0.007736,-0.000063,-0.003268,0.000000|vel|0.496996,0.034009,-0.052370,0.000417,0.018614,0.000000|eff|2626.464844,177.246094,-854.003906,-48.339844,76.538086,0.000000
cobot_dynamixel_driver/joint_states|name|J1,J2,J3,J4,J5,J6|pos|0.349672,-0.004482,0.006797,-0.000063,-0.002917,0.000000|vel|0.486773,0.031088,-0.041312,0.000417,0.020337,0.000000|eff|193.359375,225.585938,-870.117188,-80.566406,84.594727,-8.056641
cobot_dynamixel_driver/joint_states|name|J1,J2,J3,J4,J5,J6|pos|0.359361,-0.003893,0.006059,-0.000063,-0.002544,0.000000|vel|0.507846,0.027541,-0.037348,0.000000,0.015167,0.000000|eff|451.171875,290.039062,-918.457031,-80.566406,72.509766,16.113281
cobot_dynamixel_driver/joint_states|name|J1,J2,J3,J4,J5,J6|pos|0.369137,-0.003417,0.005370,-0.000063,-0.002255,0.000000|vel|0.473002,0.022325,-0.038182,0.000000,0.015167,0.000000|eff|1708.007812,209.472656,-934.570312,-48.339844,76.538086,12.084961
cobot_dynamixel_driver/joint_states|name|J1,J2,J3,J4,J5,J6|pos|0.378914,-0.002979,0.004644,-0.000063,-0.001903,0.000000|vel|0.507846,0.021908,-0.030880,0.000000,0.014822,0.000000|eff|64.453125,193.359375,-950.683594,-80.566406,64.453125,8.056641
cobot_dynamixel_driver/joint_states|name|J1,J2,J3,J4,J5,J6|pos|0.388603,-0.002616,0.004031,-0.000063,-0.001717,0.000000|vel|0.472167,0.016483,-0.032758,0.000000,0.007239,0.000000|eff|467.285156,193.359375,-854.003906,0.000000,88.623047,8.056641
cobot_dynamixel_driver/joint_states|name|J1,J2,J3,J4,J5,J6|pos|0.398267,-0.002278,0.003505,-0.000063,-0.001551,0.000000|vel|0.522869,0.015648,-0.020239,0.000000,0.007928,0.000000|eff|1417.968750,209.472656,-934.570312,-80.566406,80.566406,8.056641
cobot_dynamixel_driver/joint_states|name|J1,J2,J3,J4,J5,J6|pos|0.407969,-0.001928,0.003117,-0.000063,-0.001365,0.000000|vel|0.521408,0.016483,-0.025455,0.000000,0.010686,0.000000|eff|870.117188,257.812500,-918.457031,0.000000,84.594727,0.000000
cobot_dynamixel_driver/joint_states|name|J1,J2,J3,J4,J5,J6|pos|0.417696,-0.001690,0.002654,-0.000063,-0.001138,0.000000|vel|0.502004,0.010015,-0.016066,0.000000,0.011030,0.000000|eff|193.359375,354.492188,-902.343750,-80.566406,72.509766,0.000000
cobot_dynamixel_driver/joint_states|name|J1,J2,J3,J4,J5,J6|pos|0.427297,-0.001502,0.002403,-0.000063,-0.001055,0.000000|vel|0.478427,0.009389,-0.012936,0.000000,0.003102,0.000000|eff|2126.953125,322.265625,-950.683594,-80.566406,80.566406,20.141602
cobot_dynamixel_driver/joint_states|name|J1,J2,J3,J4,J5,J6|pos|0.436949,-0.001339,0.002141,-0.000063,-0.000972,0.000000|vel|0.504299,0.008346,-0.018361,0.000000,0.006549,0.000000|eff|1836.914062,128.906250,-918.457031,-80.566406,88.623047,0.000000
cobot_dynamixel_driver/joint_states|name|J1,J2,J3,J4,J5,J6|pos|0.446700,-0.001189,0.001753,-0.000063,-0.000807,0.000000|vel|0.514105,0.008346,-0.016900,0.000000,0.007583,0.000000|eff|177.246094,209.472656,-854.003906,-32.226562,76.538086,-8.056641
cobot_dynamixel_driver/joint_states|name|J1,J2,J3,J4,J5,J6|pos|0.456440,-0.001026,0.001552,-0.000063,-0.000683,0.000000|vel|0.488025,0.008763,-0.005842,0.000000,0.005515,0.000000|eff|580.078125,241.699219,-950.683594,0.000000,72.509766,-8.056641
cobot_dynamixel_driver/joint_states|name|J1,J2,J3,J4,J5,J6|pos|0.466054,-0.000901,0.001527,-0.000063,-0.000600,0.000000|vel|0.512436,0.005008,-0.001252,0.000000,0.005515,0.000000|eff|1498.535156,225.585938,-999.023438,-80.566406,80.566406,-8.056641
cobot_dynamixel_driver/joint_states|name|J1,J2,J3,J4,J5,J6|pos|0.475630,-0.000789,0.001427,-0.000063,-0.000496,0.000000|vel|0.508055,0.006468,-0.006051,0.000000,0.005515,0.000000|eff|1901.367188,161.132812,-999.023438,0.000000,72.509766,20.141602
cobot_dynamixel_driver/joint_states|name|J1,J2,J3,J4,J5,J6|pos|0.485344,-0.000689,0.001252,-0.000063,-0.000434,0.000000|vel|0.456728,0.004590,-0.011684,0.000000,0.003792,0.000000|eff|112.792969,225.585938,-934.570312,-64.453125,68.481445,-8.056641
cobot_dynamixel_driver/joint_states|name|J1,J2,J3,J4,J5,J6|pos|0.495121,-0.000613,0.000939,-0.000063,-0.000414,0.000000|vel|0.495953,0.003338,-0.017318,0.000000,0.002068,0.000000|eff|789.550781,177.246094,-837.890625,-64.453125,76.538086,16.113281
cobot_dynamixel_driver/joint_states|name|J1,J2,J3,J4,J5,J6|pos|0.504860,-0.000551,0.000676,-0.000063,-0.000393,0.000000|vel|0.476549,0.003338,-0.009180,0.000000,0.002068,0.000000|eff|2465.332031,225.585938,-854.003906,-32.226562,76.538086,0.000000
cobot_dynamixel_driver/joint_states|name|J1,J2,J3,J4,J5,J6|pos|0.514524,-0.000476,0.000601,-0.000063,-0.000331,0.000000|vel|0.513479,0.003756,-0.003964,0.000000,0.003102,0.000000|eff|64.453125,241.699219,-854.003906,0.000000,76.538086,-8.056641
cobot_dynamixel_driver/joint_states|name|J1,J2,J3,J4,J5,J6|pos|0.524201,-0.000401,0.000601,-0.000063,-0.000269,0.000000|vel|0.510141,0.003964,-0.003964,0.000000,0.003447,0.000000|eff|531.738281,193.359375,-854.003906,-80.566406,76.538086,16.113281
cobot_dynamixel_driver/joint_states|name|J1,J2,J3,J4,J5,J6|pos|0.533940,-0.000325,0.000588,-0.000063,-0.000207,0.000000|vel|0.486981,0.003756,-0.003964,0.000000,0.003792,0.000000|eff|451.171875,225.585938,-934.570312,-48.339844,72.509766,0.000000
cobot_dynamixel_driver/joint_states|name|J1,J2,J3,J4,J5,J6|pos|0.544155,-0.000225,0.000588,-0.000063,-0.000207,0.000000|vel|0.486147,0.005633,-0.003964,0.000000,0.003792,0.000000|eff|999.023438,225.585938,-886.230469,0.000000,64.453125,16.113281
cobot_dynamixel_driver/joint_states|name|J1,J2,J3,J4,J5,J6|pos|0.554257,-0.000138,0.000588,-0.000063,-0.000207,0.000000|vel|0.496996,0.003338,-0.003964,0.000000,0.003792,0.000000|eff|64.453125,290.039062,-854.003906,0.000000,56.396484,8.056641
cobot_dynamixel_driver/joint_states|name|J1,J2,J3,J4,J5,J6|pos|0.563007,-0.000075,0.000588,-0.000063,-0.000207,0.000000|vel|0.520991,0.003338,-0.003964,0.000000,0.003792,0.000000|eff|1111.816406,273.925781,-902.343750,-32.226562,44.311523,-8.056641
cobot_dynamixel_driver/joint_states|name|J1,J2,J3,J4,J5,J6|pos|0.573260,-0.000025,0.000588,-0.000050,-0.000207,0.000000|vel|0.484895,0.003130,0.000000,0.000000,0.003792,0.000000|eff|1337.402344,322.265625,-918.457031,0.000000,40.283203,-8.056641
cobot_dynamixel_driver/joint_states|name|J1,J2,J3,J4,J5,J6|pos|0.584877,-0.000025,0.000588,-0.000050,-0.000207,0.000000|vel|0.495327,0.003130,0.000000,0.000000,0.003792,0.000000|eff|2030.273438,386.718750,-934.570312,0.000000,24.169922,20.141602
cobot_dynamixel_driver/joint_states|name|J1,J2,J3,J4,J5,J6|pos|0.592988,-0.000025,0.000588,-0.000050,-0.000207,0.000000|vel|0.486564,0.000417,0.000000,0.000000,0.000000,0.000000|eff|1595.214844,257.812500,-934.570312,0.000000,52.368164,20.141602
cobot_dynamixel_driver/joint_states|name|J1,J2,J3,J4,J5,J6|pos|0.601651,-0.000000,0.000576,-0.000050,-0.000207,0.000000|vel|0.494075,0.000417,0.000000,0.000000,0.000000,0.000000|eff|1740.234375,290.039062,-950.683594,0.000000,48.339844,0.000000
cobot_dynamixel_driver/joint_states|name|J1,J2,J3,J4,J5,J6|pos|0.611403,0.000013,0.000538,-0.000050,-0.000207,0.000000|vel|0.493449,0.001043,-0.000417,0.000000,0.000000,0.000000|eff|80.566406,241.699219,-950.683594,-32.226562,56.396484,-8.056641
cobot_dynamixel_driver/joint_states|name|J1,J2,J3,J4,J5,J6|pos|0.621167,0.000013,0.000476,-0.000050,-0.000207,0.000000|vel|0.503673,0.001043,-0.003130,0.000000,0.000000,0.000000|eff|273.925781,386.718750,-950.683594,0.000000,56.396484,20.141602
cobot_dynamixel_driver/joint_states|name|J1,J2,J3,J4,J5,J6|pos|0.630868,0.000025,0.000426,-0.000050,-0.000207,0.000000|vel|0.522660,0.001043,-0.002504,0.000000,0.000000,0.000000|eff|2046.386719,257.812500,-982.910156,0.000000,56.396484,16.113281
cobot_dynamixel_driver/joint_states|name|J1,J2,J3,J4,J5,J6|pos|0.640495,0.000025,0.000325,-0.000050,-0.000207,0.000000|vel|0.503882,0.000209,-0.006259,0.000000,0.000000,0.000000|eff|2030.273438,241.699219,-918.457031,0.000000,56.396484,-8.056641
cobot_dynamixel_driver/joint_states|name|J1,J2,J3,J4,J5,J6|pos|0.650222,0.000025,0.000263,-0.000050,-0.000207,0.000000|vel|0.493449,0.000209,-0.002712,0.000000,0.000000,0.000000|eff|-48.339844,241.699219,-934.570312,-48.339844,60.424805,0.000000
cobot_dynamixel_driver/joint_states|name|J1,J2,J3,J4,J5,J6|pos|0.659961,0.000025,0.000150,-0.000050,-0.000207,0.000000|vel|0.500752,0.000209,-0.006259,0.000000,0.000000,0.000000|eff|886.230469,322.265625,-886.230469,-64.453125,64.453125,16.113281
cobot_dynamixel_driver/joint_states|name|J1,J2,J3,J4,J5,J6|pos|0.669650,0.000025,0.000063,-0.000050,-0.000186,0.000000|vel|0.483643,0.000209,-0.003756,0.000000,0.000000,0.000000|eff|1836.914062,435.058594,-886.230469,-64.453125,60.424805,-8.056641
cobot_dynamixel_driver/joint_states|name|J1,J2,J3,J4,J5,J6|pos|0.679276,0.000038,-0.000038,-0.000050,-0.000145,0.000000|vel|0.482600,0.000209,-0.004173,0.000000,0.001723,0.000000|eff|418.945312,273.925781,-854.003906,0.000000,68.481445,-8.056641
cobot_dynamixel_driver/joint_states|name|J1,J2,J3,J4,J5,J6|pos|0.689003,0.000050,-0.000075,-0.000050,-0.000124,0.000000|vel|0.495119,0.000209,-0.001878,0.000000,0.001723,0.000000|eff|467.285156,257.812500,-805.664062,0.000000,64.453125,0.000000
cobot_dynamixel_driver/joint_states|name|J1,J2,J3,J4,J5,J6|pos|0.698767,0.000050,-0.000100,-0.000050,-0.000124,0.000000|vel|0.504508,0.000209,-0.001669,0.000000,0.001723,0.000000|eff|1611.328125,290.039062,-854.003906,0.000000,64.453125,-8.056641
cobot_dynamixel_driver/joint_states|name|J1,J2,J3,J4,J5,J6|pos|0.708419,0.000050,-0.000100,-0.000050,-0.000124,0.000000|vel|0.515149,0.000209,-0.001669,0.000000,0.001723,0.000000|eff|596.191406,435.058594,-837.890625,0.000000,64.453125,0.000000
cobot_dynamixel_driver/joint_states|name|J1,J2,J3,J4,J5,J6|pos|0.717983,0.000050,-0.000100,-0.000050,-0.000124,0.000000|vel|0.503047,0.000209,0.001669,0.000000,0.001723,0.000000|eff|209.472656,386.718750,-821.777344,0.000000,60.424805,-8.056641
cobot_dynamixel_driver/joint_states|name|J1,J2,J3,J4,J5,J6|pos|0.728123,0.000063,-0.000113,-0.000050,-0.000124,0.000000|vel|0.506803,0.000209,-0.001669,0.000000,0.001723,0.000000|eff|1901.367188,418.945312,-805.664062,0.000000,60.424805,0.000000
cobot_dynamixel_driver/joint_states|name|J1,J2,J3,J4,J5,J6|pos|0.737411,0.000063,-0.000113,-0.000050,-0.000124,0.000000|vel|0.518070,0.000209,-0.001669,0.000000,0.001723,0.000000|eff|2368.652344,370.605469,-789.550781,0.000000,60.424805,8.056641
cobot_dynamixel_driver/joint_states|name|J1,J2,J3,J4,J5,J6|pos|0.749604,0.000063,-0.000100,-0.000050,-0.000124,0.000000|vel|0.436906,-0.000000,0.001669,0.000000,0.000000,0.000000|eff|805.664062,435.058594,-805.664062,0.000000,52.368164,0.000000
cobot_dynamixel_driver/joint_states|name|J1,J2,J3,J4,J5,J6|pos|0.757791,0.000063,-0.000113,-0.000050,-0.000124,0.000000|vel|0.507429,-0.000000,0.000000,0.000000,0.000000,0.000000|eff|1289.062500,273.925781,-789.550781,0.000000,56.396484,-8.056641
cobot_dynamixel_driver/joint_states|name|J1,J2,J3,J4,J5,J6|pos|0.770359,0.000063,-0.000113,-0.000050,-0.000124,0.000000|vel|0.475714,-0.000000,0.000000,0.000000,0.000000,0.000000|eff|966.796875,290.039062,-805.664062,0.000000,60.424805,20.141602
cobot_dynamixel_driver/joint_states|name|J1,J2,J3,J4,J5,J6|pos|0.778634,0.000063,-0.000113,-0.000050,-0.000124,0.000000|vel|0.506594,-0.000000,0.000000,0.000000,0.000000,0.000000|eff|1079.589844,273.925781,-821.777344,0.000000,56.396484,8.056641
cobot_dynamixel_driver/joint_states|name|J1,J2,J3,J4,J5,J6|pos|0.786921,0.000063,-0.000113,-0.000050,-0.000124,0.000000|vel|0.484269,-0.000000,0.000000,0.000000,0.000000,0.000000|eff|1192.382812,370.605469,-757.324219,0.000000,64.453125,0.000000
cobot_dynamixel_driver/joint_states|name|J1,J2,J3,J4,J5,J6|pos|0.795596,0.000063,-0.000113,-0.000050,-0.000124,0.000000|vel|0.519530,-0.000000,0.000000,0.000000,0.000000,0.000000|eff|1708.007812,273.925781,-725.097656,0.000000,64.453125,0.000000
cobot_dynamixel_driver/joint_states|name|J1,J2,J3,J4,J5,J6|pos|0.805247,0.000063,-0.000113,-0.000050,-0.000103,0.000000|vel|0.503882,-0.000000,0.000000,0.000000,0.000000,0.000000|eff|1981.933594,338.378906,-805.664062,0.000000,64.453125,-8.056641
cobot_dynamixel_driver/joint_states|name|J1,J2,J3,J4,J5,J6|pos|0.815500,0.000063,-0.000113,-0.000050,-0.000103,0.000000|vel|0.526833,-0.000000,0.000000,0.000000,0.000000,0.000000|eff|644.531250,257.812500,-741.210938,0.000000,64.453125,-8.056641
cobot_dynamixel_driver/joint_states|name|J1,J2,J3,J4,J5,J6|pos|0.824776,0.000063,-0.000113,-0.000050,-0.000062,0.000000|vel|0.509932,-0.000000,0.000000,0.000000,0.000000,0.000000|eff|870.117188,402.832031,-773.437500,0.000000,68.481445,0.000000
cobot_dynamixel_driver/joint_states|name|J1,J2,J3,J4,J5,J6|pos|0.834402,0.000063,-0.000113,-0.000050,-0.000041,0.000000|vel|0.481348,-0.000000,0.000000,0.000000,0.001379,0.000000|eff|1788.574219,290.039062,-725.097656,0.000000,64.453125,-8.056641
cobot_dynamixel_driver/joint_states|name|J1,J2,J3,J4,J5,J6|pos|0.843991,0.000063,-0.000113,-0.000050,-0.000041,0.000000|vel|0.494910,-0.000000,0.000000,0.000000,0.001379,0.000000|eff|918.457031,322.265625,-757.324219,0.000000,64.453125,-8.056641
cobot_dynamixel_driver/joint_states|name|J1,J2,J3,J4,J5,J6|pos|0.853680,0.000063,-0.000113,-0.000050,-0.000041,0.000000|vel|0.500126,-0.000000,0.000000,0.000000,0.001379,0.000000|eff|225.585938,338.378906,-725.097656,0.000000,60.424805,-8.056641
cobot_dynamixel_driver/joint_states|name|J1,J2,J3,J4,J5,J6|pos|0.863457,0.000063,-0.000113,-0.000050,-0.000041,0.000000|vel|0.519113,-0.000000,0.000000,0.000000,0.001379,0.000000|eff|1289.062500,435.058594,-725.097656,0.000000,60.424805,0.000000
cobot_dynamixel_driver/joint_states|name|J1,J2,J3,J4,J5,J6|pos|0.873171,0.000063,-0.000113,-0.000050,-0.000041,0.000000|vel|0.499709,-0.000000,0.000000,0.000000,0.001379,0.000000|eff|1160.156250,338.378906,-757.324219,0.000000,56.396484,-8.056641
cobot_dynamixel_driver/joint_states|name|J1,J2,J3,J4,J5,J6|pos|0.882785,0.000063,-0.000100,-0.000050,-0.000041,0.000000|vel|0.500752,-0.000000,0.000000,0.000000,0.001379,0.000000|eff|96.679688,370.605469,-725.097656,0.000000,52.368164,12.084961
cobot_dynamixel_driver/joint_states|name|J1,J2,J3,J4,J5,J6|pos|0.892474,0.000063,-0.000100,-0.000038,-0.000041,0.000000|vel|0.521617,-0.000000,0.000000,0.000000,0.000000,0.000000|eff|660.644531,418.945312,-725.097656,0.000000,56.396484,16.113281
cobot_dynamixel_driver/joint_states|name|J1,J2,J3,J4,J5,J6|pos|0.902189,0.000063,-0.000100,-0.000038,-0.000041,0.000000|vel|0.509932,-0.000000,0.000000,0.000000,0.000000,0.000000|eff|1820.800781,338.378906,-725.097656,0.000000,52.368164,8.056641
cobot_dynamixel_driver/joint_states|name|J1,J2,J3,J4,J5,J6|pos|0.911915,0.000063,-0.000100,-0.000038,-0.000041,0.000000|vel|0.463196,-0.000000,0.000000,0.000000,0.000000,0.000000|eff|32.226562,322.265625,-789.550781,0.000000,52.368164,-8.056641
cobot_dynamixel_driver/joint_states|name|J1,J2,J3,J4,J5,J6|pos|0.921529,0.000063,-0.000100,-0.000038,-0.000041,0.000000|vel|0.507429,-0.000000,0.000000,0.000000,0.000000,0.000000|eff|273.925781,451.171875,-773.437500,0.000000,40.283203,0.000000
cobot_dynamixel_driver/joint_states|name|J1,J2,J3,J4,J5,J6|pos|0.931231,0.000063,-0.000100,-0.000038,-0.000041,0.000000|vel|0.493241,-0.000000,0.000000,0.000000,0.000000,0.000000|eff|1321.289062,402.832031,-708.984375,0.000000,56.396484,8.056641
cobot_dynamixel_driver/joint_states|name|J1,J2,J3,J4,J5,J6|pos|0.941008,0.000063,-0.000100,-0.000038,-0.000041,0.000000|vel|0.488650,-0.000000,0.000000,0.000000,0.000000,0.000000|eff|966.796875,273.925781,-708.984375,0.000000,56.396484,12.084961
cobot_dynamixel_driver/joint_states|name|J1,J2,J3,J4,J5,J6|pos|0.950747,0.000063,-0.000100,-0.000038,-0.000041,0.000000|vel|0.490946,-0.000000,0.000000,0.000000,0.000000,0.000000|eff|225.585938,386.718750,-725.097656,0.000000,56.396484,0.000000
cobot_dynamixel_driver/joint_states|name|J1,J2,J3,J4,J5,J6|pos|0.960386,0.000063,-0.000100,-0.000038,-0.000041,0.000000|vel|0.464030,-0.000000,0.000000,0.000000,0.000000,0.000000|eff|1401.855469,338.378906,-725.097656,0.000000,56.396484,0.000000
cobot_dynamixel_driver/joint_states|name|J1,J2,J3,J4,J5,J6|pos|0.970000,0.000063,-0.000100,-0.000038,-0.000041,0.000000|vel|0.506803,-0.000000,0.000000,0.000000,0.000000,0.000000|eff|1272.949219,435.058594,-708.984375,0.000000,48.339844,0.000000
cobot_dynamixel_driver/joint_states|name|J1,J2,J3,J4,J5,J6|pos|0.979651,0.000063,-0.000100,-0.000038,-0.000041,0.000000|vel|0.492406,-0.000000,0.000000,0.000000,0.000000,0.000000|eff|0.000000,306.152344,-708.984375,0.000000,56.396484,0.000000
cobot_dynamixel_driver/joint_states|name|J1,J2,J3,J4,J5,J6|pos|0.988664,0.000063,-0.000100,-0.000038,-0.000041,0.000000|vel|0.435446,-0.000000,0.000000,0.000000,0.000000,0.000000|eff|854.003906,402.832031,-725.097656,0.000000,56.396484,0.000000
cobot_dynamixel_driver/joint_states|name|J1,J2,J3,J4,J5,J6|pos|0.996488,0.000063,-0.000100,-0.000038,-0.000041,0.000000|vel|0.412286,-0.000000,0.000000,0.000000,0.000000,0.000000|eff|-161.132812,386.718750,-708.984375,0.000000,56.396484,0.000000
cobot_dynamixel_driver/joint_states|name|J1,J2,J3,J4,J5,J6|pos|1.003524,0.000063,-0.000100,-0.000038,-0.000041,0.000000|vel|0.302746,-0.000000,0.000000,0.000000,0.000000,0.000000|eff|-273.925781,370.605469,-708.984375,0.000000,40.283203,16.113281
cobot_dynamixel_driver/joint_states|name|J1,J2,J3,J4,J5,J6|pos|1.008994,0.000063,-0.000100,-0.000038,-0.000041,0.000000|vel|0.280004,-0.000000,0.000000,0.000000,0.000000,0.000000|eff|-64.453125,418.945312,-708.984375,0.000000,56.396484,-8.056641
cobot_dynamixel_driver/joint_states|name|J1,J2,J3,J4,J5,J6|pos|1.013989,0.000063,-0.000100,-0.000038,-0.000041,0.000000|vel|0.232432,-0.000000,0.000000,0.000000,0.000000,0.000000|eff|0.000000,467.285156,-708.984375,0.000000,52.368164,0.000000
cobot_dynamixel_driver/joint_states|name|J1,J2,J3,J4,J5,J6|pos|1.018283,0.000063,-0.000100,-0.000038,-0.000041,0.000000|vel|0.215949,-0.000000,0.000000,0.000000,0.000000,0.000000|eff|48.339844,306.152344,-708.984375,0.000000,52.368164,-8.056641
cobot_dynamixel_driver/joint_states|name|J1,J2,J3,J4,J5,J6|pos|1.022000,0.000063,-0.000100,-0.000025,-0.000041,0.000000|vel|0.171299,-0.000000,0.000000,0.000000,0.000000,0.000000|eff|306.152344,338.378906,-708.984375,0.000000,52.368164,16.113281
cobot_dynamixel_driver/joint_states|name|J1,J2,J3,J4,J5,J6|pos|1.025280,0.000063,-0.000100,-0.000025,-0.000041,0.000000|vel|0.159615,-0.000000,0.000000,0.000000,0.000000,0.000000|eff|290.039062,338.378906,-676.757812,0.000000,44.311523,-8.056641
cobot_dynamixel_driver/joint_states|name|J1,J2,J3,J4,J5,J6|pos|1.028147,0.000063,-0.000100,-0.000025,-0.000041,0.000000|vel|0.142297,-0.000000,0.000000,0.000000,0.000000,0.000000|eff|193.359375,322.265625,-644.531250,0.000000,52.368164,16.113281
cobot_dynamixel_driver/joint_states|name|J1,J2,J3,J4,J5,J6|pos|1.030588,0.000050,-0.000100,-0.000025,-0.000041,0.000000|vel|0.111000,-0.000000,0.000000,0.000000,0.000000,0.000000|eff|306.152344,402.832031,-708.984375,0.000000,48.339844,0.000000
cobot_dynamixel_driver/joint_states|name|J1,J2,J3,J4,J5,J6|pos|1.032691,0.000063,-0.000100,-0.000025,-0.000041,0.000000|vel|0.097647,-0.000000,0.000000,0.000000,0.000000,0.000000|eff|290.039062,435.058594,-644.531250,0.000000,56.396484,0.000000
cobot_dynamixel_driver/joint_states|name|J1,J2,J3,J4,J5,J6|pos|1.034481,0.000063,-0.000100,-0.000025,-0.000041,0.000000|vel|0.084085,-0.000000,0.000000,0.000000,0.000000,0.000000|eff|257.812500,338.378906,-628.417969,48.339844,32.226562,8.056641
cobot_dynamixel_driver/joint_states|name|J1,J2,J3,J4,J5,J6|pos|1.036121,0.000063,-0.000100,-0.000025,-0.000041,0.000000|vel|0.072818,-0.000000,0.000000,0.000000,0.000000,0.000000|eff|145.019531,257.812500,-660.644531,32.226562,52.368164,0.000000
cobot_dynamixel_driver/joint_states|name|J1,J2,J3,J4,J5,J6|pos|1.037561,0.000063,-0.000100,-0.000025,-0.000041,0.000000|vel|0.068853,-0.000000,0.000000,0.000000,0.000000,0.000000|eff|161.132812,435.058594,-660.644531,64.453125,52.368164,20.141602
cobot_dynamixel_driver/joint_states|name|J1,J2,J3,J4,J5,J6|pos|1.038800,0.000050,-0.000088,-0.000025,-0.000041,0.000000|vel|0.058421,-0.000000,0.000000,0.000000,0.000000,0.000000|eff|225.585938,386.718750,-676.757812,64.453125,56.396484,0.000000
cobot_dynamixel_driver/joint_states|name|J1,J2,J3,J4,J5,J6|pos|1.039826,0.000050,-0.000088,-0.000025,-0.000041,0.000000|vel|0.049241,-0.000000,0.000000,0.000000,0.000000,0.000000|eff|257.812500,483.398438,-628.417969,0.000000,56.396484,0.000000
cobot_dynamixel_driver/joint_states|name|J1,J2,J3,J4,J5,J6|pos|1.040728,0.000050,-0.000088,-0.000025,-0.000041,0.000000|vel|0.043399,-0.000000,0.000000,0.000000,0.000000,0.000000|eff|209.472656,435.058594,-628.417969,32.226562,56.396484,0.000000
cobot_dynamixel_driver/joint_states|name|J1,J2,J3,J4,J5,J6|pos|1.041579,0.000050,-0.000088,-0.000025,-0.000041,0.000000|vel|0.041312,-0.000000,0.000000,0.000000,0.000000,0.000000|eff|193.359375,354.492188,-644.531250,0.000000,56.396484,-8.056641
cobot_dynamixel_driver/joint_states|name|J1,J2,J3,J4,J5,J6|pos|1.042305,0.000050,-0.000088,-0.000025,-0.000041,0.000000|vel|0.034218,-0.000000,0.000000,0.000000,0.000000,0.000000|eff|193.359375,273.925781,-660.644531,48.339844,56.396484,-8.056641
cobot_dynamixel_driver/joint_states|name|J1,J2,J3,J4,J5,J6|pos|1.042906,0.000050,-0.000088,-0.000025,-0.000041,0.000000|vel|0.028793,-0.000000,0.000000,0.000000,0.000000,0.000000|eff|161.132812,483.398438,-644.531250,0.000000,56.396484,16.113281
cobot_dynamixel_driver/joint_states|name|J1,J2,J3,J4,J5,J6|pos|1.043444,0.000050,-0.000088,-0.000025,-0.000041,0.000000|vel|0.026289,-0.000000,0.000000,0.000000,0.000000,0.000000|eff|209.472656,467.285156,-628.417969,64.453125,52.368164,16.113281
cobot_dynamixel_driver/joint_states|name|J1,J2,J3,J4,J5,J6|pos|1.043945,0.000050,-0.000088,-0.000025,-0.000041,0.000000|vel|0.026081,-0.000000,0.000000,0.000000,0.000000,0.000000|eff|161.132812,467.285156,-612.304688,0.000000,48.339844,0.000000
cobot_dynamixel_driver/joint_states|name|J1,J2,J3,J4,J5,J6|pos|1.044408,0.000050,-0.000088,-0.000025,-0.000041,0.000000|vel|0.018987,-0.000000,0.000000,0.000000,0.000000,0.000000|eff|257.812500,386.718750,-660.644531,48.339844,56.396484,0.000000
cobot_dynamixel_driver/joint_states|name|J1,J2,J3,J4,J5,J6|pos|1.044696,0.000050,-0.000088,-0.000025,-0.000041,0.000000|vel|0.015648,-0.000000,0.000000,0.000000,0.000000,0.000000|eff|193.359375,467.285156,-612.304688,0.000000,52.368164,8.056641
cobot_dynamixel_driver/joint_states|name|J1,J2,J3,J4,J5,J6|pos|1.044984,0.000050,-0.000088,-0.000025,-0.000041,0.000000|vel|0.013979,-0.000000,0.000000,0.000000,0.000000,0.000000|eff|257.812500,435.058594,-644.531250,48.339844,48.339844,-8.056641
cobot_dynamixel_driver/joint_states|name|J1,J2,J3,J4,J5,J6|pos|1.045234,0.000050,-0.000088,-0.000025,-0.000041,0.000000|vel|0.012102,-0.000000,0.000000,0.000000,0.000000,0.000000|eff|193.359375,354.492188,-612.304688,0.000000,56.396484,-8.056641
cobot_dynamixel_driver/joint_states|name|J1,J2,J3,J4,J5,J6|pos|1.045460,0.000050,-0.000088,-0.000025,-0.000041,0.000000|vel|0.011058,-0.000000,0.000000,0.000000,0.000000,0.000000|eff|177.246094,273.925781,-612.304688,0.000000,56.396484,16.113281
cobot_dynamixel_driver/joint_states|name|J1,J2,J3,J4,J5,J6|pos|1.045697,0.000050,-0.000088,-0.000025,-0.000041,0.000000|vel|0.013562,-0.000000,0.000000,0.000000,0.000000,0.000000|eff|145.019531,306.152344,-628.417969,32.226562,52.368164,20.141602
cobot_dynamixel_driver/joint_states|name|J1,J2,J3,J4,J5,J6|pos|1.045910,0.000050,-0.000088,-0.000025,-0.000041,0.000000|vel|0.009598,-0.000000,0.000000,0.000000,0.000000,0.000000|eff|241.699219,483.398438,-676.757812,32.226562,56.396484,20.141602
cobot_dynamixel_driver/joint_states|name|J1,J2,J3,J4,J5,J6|pos|1.046086,0.000050,-0.000075,-0.000025,-0.000041,0.000000|vel|0.008137,-0.000000,0.000000,0.000000,0.000000,0.000000|eff|273.925781,467.285156,-628.417969,0.000000,44.311523,12.084961
cobot_dynamixel_driver/joint_states|name|J1,J2,J3,J4,J5,J6|pos|1.046223,0.000050,-0.000075,-0.000025,-0.000041,0.000000|vel|0.006677,-0.000000,0.000000,0.000000,0.000000,0.000000|eff|241.699219,483.398438,-660.644531,0.000000,56.396484,0.000000
cobot_dynamixel_driver/joint_states|name|J1,J2,J3,J4,J5,J6|pos|1.046336,0.000050,-0.000075,-0.000025,-0.000041,0.000000|vel|0.006051,-0.000000,0.000000,0.000000,0.000000,0.000000|eff|290.039062,483.398438,-644.531250,0.000000,52.368164,20.141602
cobot_dynamixel_driver/joint_states|name|J1,J2,J3,J4,J5,J6|pos|1.046474,0.000050,-0.000075,-0.000025,-0.000041,0.000000|vel|0.007094,-0.000000,0.000000,0.000000,0.000000,0.000000|eff|112.792969,402.832031,-628.417969,48.339844,52.368164,0.000000
