surachairobotic/cobot/cobot_dynamixel_driver/log/2018-12-19T08:45:13.265167_driver_log.txt
cobot_dynamixel_driver/joint_states|name|J1,J2,J3,J4,J5,J6|pos|0.000839,-1.267658,1.296275,-0.001715,-1.095477,-0.000083|vel|0.000000,-0.000000,0.000000,0.000000,0.000000,0.000000|eff|0.000000,0.000000,0.000000,0.000000,0.000000,0.000000
cobot_dynamixel_driver/goal|-:J1,J2,J3,J4,J5,J6:0.000000,0.261799,0.000000,0.000000,0.000000,0.000000:0.500000,0.500000,0.500000,0.500000,0.500000,0.500000:pos_vel_
cobot_dynamixel_driver/goal|-:J1,J2,J3,J4,J5,J6:0.000000,0.261799,0.000000,0.000000,0.000000,0.000000:0.500000,0.500000,0.500000,0.500000,0.500000,0.500000:pos_vel_
cobot_dynamixel_driver/goal|-:J1,J2,J3,J4,J5,J6:0.000000,0.261799,0.000000,0.000000,0.000000,0.000000:0.500000,0.500000,0.500000,0.500000,0.500000,0.500000:pos_vel_
cobot_dynamixel_driver/goal|-:J1,J2,J3,J4,J5,J6:0.000000,0.261799,0.000000,0.000000,0.000000,0.000000:0.500000,0.500000,0.500000,0.500000,0.500000,0.500000:pos_vel_
cobot_dynamixel_driver/goal|-:J1,J2,J3,J4,J5,J6:0.000000,0.261799,0.000000,0.000000,0.000000,0.000000:0.500000,0.500000,0.500000,0.500000,0.500000,0.500000:pos_vel_
cobot_dynamixel_driver/goal|-:J1,J2,J3,J4,J5,J6:0.000000,0.261799,0.000000,0.000000,0.000000,0.000000:0.500000,0.500000,0.500000,0.500000,0.500000,0.500000:pos_vel_
cobot_dynamixel_driver/goal|-:J1,J2,J3,J4,J5,J6:0.000000,0.261799,0.000000,0.000000,0.000000,0.000000:0.500000,0.500000,0.500000,0.500000,0.500000,0.500000:pos_vel_
cobot_dynamixel_driver/goal|-:J1,J2,J3,J4,J5,J6:0.000000,0.261799,0.000000,0.000000,0.000000,0.000000:0.500000,0.500000,0.500000,0.500000,0.500000,0.500000:pos_vel_
cobot_dynamixel_driver/goal|-:J1,J2,J3,J4,J5,J6:0.000000,0.261799,0.000000,0.000000,0.000000,0.000000:0.500000,0.500000,0.500000,0.500000,0.500000,0.500000:pos_vel_
cobot_dynamixel_driver/goal|-:J1,J2,J3,J4,J5,J6:0.000000,0.261799,0.000000,0.000000,0.000000,0.000000:0.500000,0.500000,0.500000,0.500000,0.500000,0.500000:pos_vel_
cobot_dynamixel_driver/goal|-:J1,J2,J3,J4,J5,J6:0.000000,0.261799,0.000000,0.000000,0.000000,0.000000:0.500000,0.500000,0.500000,0.500000,0.500000,0.500000:pos_vel_
cobot_dynamixel_driver/goal|-:J1,J2,J3,J4,J5,J6:0.000000,0.261799,0.000000,0.000000,0.000000,0.000000:0.500000,0.500000,0.500000,0.500000,0.500000,0.500000:pos_vel_
cobot_dynamixel_driver/goal|-:J1,J2,J3,J4,J5,J6:0.000000,0.261799,0.000000,0.000000,0.000000,0.000000:0.500000,0.500000,0.500000,0.500000,0.500000,0.500000:pos_vel_
cobot_dynamixel_driver/joint_states|name|J1,J2,J3,J4,J5,J6|pos|0.000839,-1.267658,1.294497,0.001014,-1.095477,-0.000083|vel|0.000000,-0.000000,0.000000,0.000000,0.000000,0.000000|eff|0.000000,0.000000,0.000000,0.000000,0.000000,0.000000
cobot_dynamixel_driver/joint_states|name|J1,J2,J3,J4,J5,J6|pos|0.000839,-1.267621,1.294447,0.001001,-1.095332,-0.000083|vel|0.000000,-0.000000,-0.009389,0.000000,0.026197,0.000000|eff|0.000000,-483.398438,-257.812500,-96.679688,96.679688,0.000000
cobot_dynamixel_driver/joint_states|name|J1,J2,J3,J4,J5,J6|pos|0.000801,-1.266982,1.293834,0.000914,-1.093988,-0.000083|vel|-0.001669,0.056752,-0.047363,0.007303,0.095137,0.000000|eff|-80.566406,-628.417969,-644.531250,-48.339844,112.792969,0.000000
cobot_dynamixel_driver/joint_states|name|J1,J2,J3,J4,J5,J6|pos|0.000751,-1.265317,1.292394,0.000901,-1.091361,-0.000083|vel|-0.002504,0.107453,-0.085128,-0.007303,0.162009,0.000000|eff|-112.792969,-934.570312,-1015.136719,-80.566406,88.623047,0.000000
cobot_dynamixel_driver/joint_states|name|J1,J2,J3,J4,J5,J6|pos|0.000714,-1.262901,1.290203,0.000901,-1.087741,-0.000083|vel|-0.001669,0.130821,-0.146053,-0.007303,0.208543,0.000000|eff|-112.792969,-1482.421875,-1498.535156,-64.453125,68.481445,0.000000
cobot_dynamixel_driver/joint_states|name|J1,J2,J3,J4,J5,J6|pos|0.000676,-1.259697,1.286736,0.000901,-1.083356,-0.000083|vel|-0.002086,0.195502,-0.222417,-0.007303,0.217161,0.000000|eff|-96.679688,-1853.027344,-1305.175781,0.000000,48.339844,0.000000
cobot_dynamixel_driver/joint_states|name|J1,J2,J3,J4,J5,J6|pos|0.000638,-1.255440,1.281841,0.000901,-1.078370,-0.000083|vel|-0.002086,0.249124,-0.291271,-0.007303,0.221297,0.000000|eff|-241.699219,-1965.820312,-1272.949219,0.000000,60.424805,0.000000
cobot_dynamixel_driver/joint_states|name|J1,J2,J3,J4,J5,J6|pos|0.000588,-1.250320,1.276133,0.000901,-1.072827,-0.000083|vel|-0.002295,0.275831,-0.312553,-0.007303,0.330222,0.000000|eff|-96.679688,-1949.707031,-1095.703125,-80.566406,64.453125,0.000000
cobot_dynamixel_driver/joint_states|name|J1,J2,J3,J4,J5,J6|pos|0.000538,-1.244324,1.269836,0.000901,-1.066704,-0.000083|vel|-0.002504,0.310049,-0.344476,0.000000,0.345389,0.000000|eff|-80.566406,-1708.007812,-1031.250000,-32.226562,64.453125,0.000000
cobot_dynamixel_driver/joint_states|name|J1,J2,J3,J4,J5,J6|pos|0.000488,-1.237815,1.263239,0.000901,-1.060209,-0.000083|vel|-0.002086,0.332374,-0.348440,0.000000,0.294718,0.000000|eff|-209.472656,-2094.726562,-1208.496094,-96.679688,52.368164,12.084961
cobot_dynamixel_driver/joint_states|name|J1,J2,J3,J4,J5,J6|pos|0.000438,-1.230742,1.256141,0.000889,-1.053341,-0.000083|vel|-0.002712,0.374521,-0.370139,0.000000,0.368829,0.000000|eff|-80.566406,-1691.894531,-1015.136719,-161.132812,76.538086,0.000000
cobot_dynamixel_driver/joint_states|name|J1,J2,J3,J4,J5,J6|pos|0.000388,-1.223394,1.248793,0.000826,-1.046060,-0.000083|vel|-0.002712,0.394134,-0.389543,-0.002921,0.403299,0.000000|eff|-96.679688,-2030.273438,-1047.363281,-161.132812,64.453125,0.000000
cobot_dynamixel_driver/joint_states|name|J1,J2,J3,J4,J5,J6|pos|0.000338,-1.215632,1.241182,0.000751,-1.038551,-0.000083|vel|-0.002086,0.396846,-0.404566,-0.003756,0.356075,0.000000|eff|-161.132812,-1047.363281,-1353.515625,-225.585938,60.424805,16.113281
cobot_dynamixel_driver/joint_states|name|J1,J2,J3,J4,J5,J6|pos|0.000300,-1.207483,1.233346,0.000689,-1.030773,-0.000083|vel|-0.002295,0.433568,-0.428560,-0.003964,0.402954,0.000000|eff|-112.792969,-2271.972656,-1015.136719,-161.132812,52.368164,0.000000
cobot_dynamixel_driver/joint_states|name|J1,J2,J3,J4,J5,J6|pos|0.000263,-1.199346,1.225096,0.000626,-1.022747,-0.000083|vel|-0.001878,0.447964,-0.437741,-0.002504,0.419155,0.000000|eff|-128.906250,-2126.953125,-870.117188,-177.246094,28.198242,0.000000
cobot_dynamixel_driver/joint_states|name|J1,J2,J3,J4,J5,J6|pos|0.000225,-1.190821,1.216684,0.000576,-1.014535,-0.000083|vel|-0.001461,0.443791,-0.450468,-0.002921,0.413295,0.000000|eff|-128.906250,-2562.011719,-870.117188,-177.246094,44.311523,12.084961
cobot_dynamixel_driver/joint_states|name|J1,J2,J3,J4,J5,J6|pos|0.000200,-1.182209,1.208096,0.000513,-1.006220,-0.000083|vel|-0.001669,0.465908,-0.431064,-0.002921,0.443628,0.000000|eff|-128.906250,-725.097656,-1144.042969,-177.246094,44.311523,0.000000
cobot_dynamixel_driver/joint_states|name|J1,J2,J3,J4,J5,J6|pos|0.000163,-1.173421,1.199459,0.000476,-0.997656,-0.000083|vel|-0.001669,0.459231,-0.454432,-0.001878,0.495678,0.000000|eff|-112.792969,-1691.894531,-1546.875000,-193.359375,28.198242,16.113281
cobot_dynamixel_driver/joint_states|name|J1,J2,J3,J4,J5,J6|pos|0.000125,-1.164583,1.190709,0.000438,-0.988948,-0.000083|vel|-0.001878,0.457353,-0.468203,-0.001878,0.441905,0.000000|eff|-112.792969,-1208.496094,-773.437500,-193.359375,24.169922,0.000000
cobot_dynamixel_driver/joint_states|name|J1,J2,J3,J4,J5,J6|pos|0.000088,-1.155633,1.181921,0.000388,-0.980156,-0.000083|vel|-0.002086,0.491989,-0.458188,-0.002295,0.443628,0.000000|eff|0.000000,-1901.367188,-1353.515625,-177.246094,52.368164,0.000000
cobot_dynamixel_driver/joint_states|name|J1,J2,J3,J4,J5,J6|pos|0.000075,-1.146594,1.172958,0.000338,-0.971262,-0.000083|vel|-0.000835,0.446712,-0.397889,-0.002921,0.457416,0.000000|eff|-145.019531,-902.343750,-821.777344,-193.359375,24.169922,24.169922
cobot_dynamixel_driver/joint_states|name|J1,J2,J3,J4,J5,J6|pos|0.000063,-1.137381,1.163957,0.000275,-0.962243,-0.000083|vel|-0.000835,0.500335,-0.396011,-0.003130,0.515671,0.000000|eff|-145.019531,-854.003906,-1466.308594,-161.132812,48.339844,0.000000
cobot_dynamixel_driver/joint_states|name|J1,J2,J3,J4,J5,J6|pos|0.000050,-1.128117,1.154781,0.000200,-0.953203,-0.000083|vel|-0.000626,0.482600,-0.490320,-0.003130,0.476720,0.000000|eff|-161.132812,-1724.121094,-1337.402344,-161.132812,44.311523,20.141602
cobot_dynamixel_driver/joint_states|name|J1,J2,J3,J4,J5,J6|pos|0.000038,-1.118854,1.145493,0.000163,-0.944122,-0.000083|vel|-0.000626,0.503882,-0.506594,-0.001878,0.470515,0.000000|eff|-161.132812,-1144.042969,-1192.382812,-209.472656,32.226562,20.141602
cobot_dynamixel_driver/joint_states|name|J1,J2,J3,J4,J5,J6|pos|0.000013,-1.109503,1.135716,0.000138,-0.934917,-0.000083|vel|-0.000626,0.475923,-0.479679,-0.001878,0.470515,0.000000|eff|0.000000,-2288.085938,-1160.156250,-209.472656,20.141602,24.169922
cobot_dynamixel_driver/joint_states|name|J1,J2,J3,J4,J5,J6|pos|0.000000,-1.100177,1.126841,0.000125,-0.925671,-0.000083|vel|-0.000626,0.479679,-0.478844,-0.000835,0.513258,0.000000|eff|-80.566406,-2497.558594,-999.023438,-177.246094,40.283203,16.113281
cobot_dynamixel_driver/joint_states|name|J1,J2,J3,J4,J5,J6|pos|0.000000,-1.090788,1.117026,0.000100,-0.916362,-0.000083|vel|-0.000626,0.511393,-0.446295,-0.000835,0.432598,0.000000|eff|-128.906250,-2497.558594,-1031.250000,-209.472656,44.311523,28.198242
cobot_dynamixel_driver/joint_states|name|J1,J2,J3,J4,J5,J6|pos|-0.000013,-1.081262,1.107675,0.000088,-0.907013,-0.000083|vel|-0.000626,0.474254,-0.476758,-0.000835,0.476720,0.000000|eff|-145.019531,-1820.800781,-999.023438,-209.472656,40.283203,0.000000
cobot_dynamixel_driver/joint_states|name|J1,J2,J3,J4,J5,J6|pos|-0.000013,-1.071823,1.098099,0.000063,-0.897725,-0.000083|vel|-0.000626,0.496788,-0.499917,-0.000835,0.479822,0.000000|eff|-128.906250,-1272.949219,-1208.496094,-193.359375,72.509766,16.113281
cobot_dynamixel_driver/joint_states|name|J1,J2,J3,J4,J5,J6|pos|-0.000025,-1.062234,1.088610,0.000050,-0.888189,-0.000083|vel|-0.000626,0.468620,-0.477175,-0.000835,0.511879,0.000000|eff|-112.792969,-660.644531,-1305.175781,-161.132812,8.056641,28.198242
cobot_dynamixel_driver/joint_states|name|J1,J2,J3,J4,J5,J6|pos|-0.000025,-1.052670,1.079059,0.000038,-0.878839,-0.000083|vel|-0.000626,0.482391,-0.499083,-0.000835,0.496368,0.000000|eff|0.000000,-934.570312,-1595.214844,-177.246094,36.254883,8.056641
cobot_dynamixel_driver/joint_states|name|J1,J2,J3,J4,J5,J6|pos|-0.000025,-1.043144,1.069570,0.000038,-0.869469,-0.000083|vel|-0.000626,0.479887,-0.480931,-0.000835,0.523254,0.000000|eff|-32.226562,-1289.062500,-1240.722656,-177.246094,52.368164,0.000000
cobot_dynamixel_driver/joint_states|name|J1,J2,J3,J4,J5,J6|pos|-0.000025,-1.033617,1.060068,0.000038,-0.859995,-0.000083|vel|-0.000209,0.490737,-0.493658,-0.000417,0.470170,0.000000|eff|0.000000,-1885.253906,-676.757812,-161.132812,44.311523,32.226562
cobot_dynamixel_driver/joint_states|name|J1,J2,J3,J4,J5,J6|pos|-0.000025,-1.024091,1.050567,0.000025,-0.850583,-0.000083|vel|-0.000209,0.492615,-0.486981,-0.000417,0.478788,0.000000|eff|-128.906250,-2368.652344,-708.984375,-193.359375,44.311523,20.141602
cobot_dynamixel_driver/joint_states|name|J1,J2,J3,J4,J5,J6|pos|-0.000038,-1.014452,1.041078,0.000025,-0.841109,-0.000083|vel|-0.000209,0.513897,-0.486355,-0.000417,0.414329,0.000000|eff|-145.019531,-982.910156,-821.777344,-177.246094,56.396484,32.226562
cobot_dynamixel_driver/joint_states|name|J1,J2,J3,J4,J5,J6|pos|-0.000038,-1.004850,1.031477,0.000025,-0.831594,-0.000083|vel|-0.000209,0.482391,-0.524329,-0.000417,0.515326,0.000000|eff|0.000000,-580.078125,-1127.929688,-112.792969,52.368164,20.141602
cobot_dynamixel_driver/joint_states|name|J1,J2,J3,J4,J5,J6|pos|-0.000038,-0.995287,1.021763,0.000025,-0.822037,-0.000083|vel|-0.000209,0.506385,-0.499291,-0.000417,0.441216,0.000000|eff|-112.792969,-950.683594,-1514.648438,-177.246094,60.424805,20.141602
cobot_dynamixel_driver/joint_states|name|J1,J2,J3,J4,J5,J6|pos|-0.000038,-0.985610,1.012149,0.000013,-0.812418,-0.000083|vel|-0.000209,0.486147,-0.528502,-0.000417,0.497057,0.000000|eff|-32.226562,-1917.480469,-1256.835938,-209.472656,20.141602,32.226562
cobot_dynamixel_driver/joint_states|name|J1,J2,J3,J4,J5,J6|pos|-0.000038,-0.976021,1.002472,0.000013,-0.802965,-0.000083|vel|0.000000,0.491989,-0.493449,0.000000,0.506019,0.000000|eff|-161.132812,-2352.539062,-757.324219,-177.246094,52.368164,28.198242
cobot_dynamixel_driver/joint_states|name|J1,J2,J3,J4,J5,J6|pos|-0.000038,-0.966382,0.992883,0.000013,-0.793471,-0.000083|vel|0.000000,0.518487,-0.437741,0.000000,0.493610,0.000000|eff|-161.132812,-354.492188,-1063.476562,-112.792969,44.311523,32.226562
cobot_dynamixel_driver/joint_states|name|J1,J2,J3,J4,J5,J6|pos|-0.000038,-0.956643,0.983294,0.000000,-0.783790,-0.000083|vel|0.000000,0.466951,-0.510767,0.000000,0.467413,0.000000|eff|-177.246094,-1047.363281,-1385.742188,-209.472656,20.141602,0.000000
cobot_dynamixel_driver/joint_states|name|J1,J2,J3,J4,J5,J6|pos|-0.000038,-0.947029,0.973592,0.000000,-0.774337,-0.000083|vel|0.000000,0.484895,-0.517652,0.000000,0.479822,0.000000|eff|-80.566406,-2062.500000,-1144.042969,-177.246094,44.311523,28.198242
cobot_dynamixel_driver/joint_states|name|J1,J2,J3,J4,J5,J6|pos|-0.000038,-0.937327,0.963916,0.000000,-0.764759,-0.000041|vel|0.000000,0.524538,-0.493658,0.000000,0.504985,0.002068|eff|-80.566406,-1498.535156,-644.531250,-209.472656,36.254883,0.000000
cobot_dynamixel_driver/joint_states|name|J1,J2,J3,J4,J5,J6|pos|-0.000038,-0.927651,0.954239,0.000000,-0.755099,-0.000021|vel|0.000000,0.452972,-0.500752,0.000000,0.443973,0.002068|eff|-112.792969,-596.191406,-1144.042969,-177.246094,16.113281,20.141602
cobot_dynamixel_driver/joint_states|name|J1,J2,J3,J4,J5,J6|pos|-0.000038,-0.917999,0.944538,-0.000013,-0.745522,-0.000021|vel|0.000000,0.604449,-0.536639,0.000000,0.480856,0.002068|eff|-177.246094,-1256.835938,-1611.328125,-193.359375,28.198242,32.226562
cobot_dynamixel_driver/joint_states|name|J1,J2,J3,J4,J5,J6|pos|-0.000038,-0.908347,0.934874,-0.000013,-0.735986,-0.000021|vel|0.000000,0.516400,-0.502838,0.000000,0.521186,0.002068|eff|-80.566406,-2143.066406,-757.324219,-128.906250,68.481445,16.113281
cobot_dynamixel_driver/joint_states|name|J1,J2,J3,J4,J5,J6|pos|-0.000038,-0.898721,0.925272,-0.000013,-0.726409,-0.000021|vel|0.000000,0.492197,-0.419797,0.000000,0.601846,0.002068|eff|-161.132812,-1160.156250,-902.343750,-225.585938,52.368164,0.000000
cobot_dynamixel_driver/joint_states|name|J1,J2,J3,J4,J5,J6|pos|-0.000050,-0.888994,0.915633,-0.000013,-0.716293,-0.000021|vel|0.000000,0.506803,-0.516818,0.000000,0.559448,0.002068|eff|-145.019531,-708.984375,-1321.289062,-177.246094,36.254883,0.000000
cobot_dynamixel_driver/joint_states|name|J1,J2,J3,J4,J5,J6|pos|-0.000050,-0.879343,0.905906,-0.000013,-0.707151,-0.000021|vel|0.000000,0.481974,-0.516400,0.000000,0.434322,0.002068|eff|-80.566406,-1546.875000,-1208.496094,-177.246094,24.169922,0.000000
cobot_dynamixel_driver/joint_states|name|J1,J2,J3,J4,J5,J6|pos|-0.000050,-0.869704,0.896230,-0.000025,-0.697077,-0.000021|vel|0.000000,0.473419,-0.504090,0.000000,0.489129,0.000000|eff|-145.019531,-2642.578125,-741.210938,-145.019531,92.651367,0.000000
cobot_dynamixel_driver/joint_states|name|J1,J2,J3,J4,J5,J6|pos|-0.000050,-0.859977,0.886553,-0.000025,-0.687975,-0.000021|vel|0.000000,0.503882,-0.507637,0.000000,0.518084,0.000000|eff|-161.132812,-483.398438,-982.910156,-177.246094,64.453125,0.000000
cobot_dynamixel_driver/joint_states|name|J1,J2,J3,J4,J5,J6|pos|-0.000050,-0.850363,0.876852,-0.000025,-0.677881,-0.000021|vel|0.000000,0.520991,-0.448799,0.000000,0.525322,0.000000|eff|0.000000,-1031.250000,-1595.214844,-209.472656,20.141602,0.000000
cobot_dynamixel_driver/joint_states|name|J1,J2,J3,J4,J5,J6|pos|-0.000050,-0.840636,0.867200,-0.000025,-0.668262,-0.000021|vel|0.000000,0.488442,-0.464447,0.000000,0.570133,0.000000|eff|-96.679688,-2046.386719,-982.910156,-225.585938,48.339844,0.000000
cobot_dynamixel_driver/joint_states|name|J1,J2,J3,J4,J5,J6|pos|-0.000050,-0.830897,0.857549,-0.000025,-0.658602,-0.000021|vel|0.000000,0.528502,-0.536848,0.000000,0.481201,0.000000|eff|-80.566406,-676.757812,-789.550781,-177.246094,36.254883,0.000000
cobot_dynamixel_driver/joint_states|name|J1,J2,J3,J4,J5,J6|pos|-0.000050,-0.821208,0.847872,-0.000038,-0.649004,-0.000021|vel|0.000000,0.483434,-0.489068,0.000000,0.511534,0.000000|eff|-112.792969,-644.531250,-1176.269531,-112.792969,52.368164,0.000000
cobot_dynamixel_driver/joint_states|name|J1,J2,J3,J4,J5,J6|pos|-0.000050,-0.811481,0.838158,-0.000038,-0.639447,-0.000021|vel|0.000000,0.479679,-0.481765,0.000000,0.497746,0.000000|eff|0.000000,-1901.367188,-692.871094,-161.132812,68.481445,0.000000
cobot_dynamixel_driver/joint_states|name|J1,J2,J3,J4,J5,J6|pos|-0.000050,-0.801792,0.828469,-0.000038,-0.629808,-0.000021|vel|0.000000,0.498040,-0.496162,0.000000,0.450178,0.000000|eff|-145.019531,-1562.988281,-596.191406,-128.906250,40.283203,24.169922
cobot_dynamixel_driver/joint_states|name|J1,J2,J3,J4,J5,J6|pos|-0.000050,-0.792141,0.818730,-0.000038,-0.620272,-0.000021|vel|0.000000,0.471541,-0.465699,0.000000,0.551175,0.000000|eff|-96.679688,-306.152344,-1031.250000,-112.792969,40.283203,0.000000
cobot_dynamixel_driver/joint_states|name|J1,J2,J3,J4,J5,J6|pos|-0.000050,-0.782514,0.809078,-0.000050,-0.610674,-0.000021|vel|0.000000,0.485312,-0.491363,0.000000,0.521875,0.000000|eff|-112.792969,-982.910156,-1482.421875,-209.472656,52.368164,0.000000
cobot_dynamixel_driver/joint_states|name|J1,J2,J3,J4,J5,J6|pos|-0.000050,-0.772850,0.799502,-0.000050,-0.601055,-0.000021|vel|0.000000,0.503047,-0.518278,0.000000,0.531872,0.000000|eff|0.000000,-1853.027344,-1369.628906,-177.246094,60.424805,24.169922
cobot_dynamixel_driver/joint_states|name|J1,J2,J3,J4,J5,J6|pos|-0.000050,-0.763073,0.789800,-0.000050,-0.591478,-0.000021|vel|0.000000,0.514314,-0.498040,0.000000,0.504296,0.000000|eff|-80.566406,-451.171875,-708.984375,-112.792969,44.311523,0.000000
cobot_dynamixel_driver/joint_states|name|J1,J2,J3,J4,J5,J6|pos|-0.000050,-0.753459,0.780086,-0.000050,-0.581838,-0.000021|vel|0.000000,0.487190,-0.475714,0.000000,0.425015,0.000000|eff|0.000000,-499.511719,-1208.496094,-209.472656,48.339844,0.000000
cobot_dynamixel_driver/joint_states|name|J1,J2,J3,J4,J5,J6|pos|-0.000050,-0.743745,0.770434,-0.000050,-0.572158,-0.000021|vel|0.000000,0.494701,-0.494701,0.000000,0.475686,0.000000|eff|-80.566406,-1643.554688,-1901.367188,-112.792969,40.283203,16.113281
cobot_dynamixel_driver/joint_states|name|J1,J2,J3,J4,J5,J6|pos|-0.000050,-0.734056,0.760682,-0.000050,-0.562642,-0.000021|vel|0.000000,0.504508,-0.463822,0.000000,0.476375,0.000000|eff|-32.226562,-1224.609375,-757.324219,-209.472656,56.396484,0.000000
cobot_dynamixel_driver/joint_states|name|J1,J2,J3,J4,J5,J6|pos|-0.000050,-0.724442,0.751006,-0.000050,-0.553044,-0.000021|vel|0.000000,0.483852,-0.519739,0.000000,0.514292,0.000000|eff|-145.019531,-322.265625,-1047.363281,-177.246094,56.396484,0.000000
cobot_dynamixel_driver/joint_states|name|J1,J2,J3,J4,J5,J6|pos|-0.000050,-0.714678,0.741417,-0.000050,-0.543426,-0.000021|vel|0.000000,0.541021,-0.511602,0.000000,0.500159,0.000000|eff|-80.566406,-918.457031,-1530.761719,-193.359375,48.339844,0.000000
cobot_dynamixel_driver/joint_states|name|J1,J2,J3,J4,J5,J6|pos|-0.000050,-0.704976,0.731653,-0.000050,-0.533869,-0.000021|vel|0.000000,0.517652,-0.534761,0.000000,0.477064,0.000000|eff|-64.453125,-2497.558594,-918.457031,-177.246094,60.424805,0.000000
cobot_dynamixel_driver/joint_states|name|J1,J2,J3,J4,J5,J6|pos|-0.000050,-0.695287,0.721914,-0.000050,-0.524230,-0.000021|vel|0.000000,0.490528,-0.518904,0.000000,0.490163,0.000000|eff|-80.566406,-273.925781,-805.664062,-112.792969,32.226562,24.169922
cobot_dynamixel_driver/joint_states|name|J1,J2,J3,J4,J5,J6|pos|-0.000050,-0.685573,0.712174,-0.000050,-0.514652,-0.000021|vel|0.000000,0.518487,-0.491154,0.000000,0.477064,0.000000|eff|0.000000,-757.324219,-1385.742188,-161.132812,52.368164,0.000000
cobot_dynamixel_driver/joint_states|name|J1,J2,J3,J4,J5,J6|pos|-0.000050,-0.675884,0.702460,-0.000050,-0.505034,-0.000021|vel|0.000000,0.506385,-0.467994,0.000000,0.480167,0.000000|eff|0.000000,-1933.593750,-982.910156,-128.906250,60.424805,0.000000
cobot_dynamixel_driver/joint_states|name|J1,J2,J3,J4,J5,J6|pos|-0.000050,-0.666207,0.692784,-0.000050,-0.495415,-0.000021|vel|0.000000,0.503464,-0.487607,0.000000,0.521186,0.000000|eff|0.000000,-515.625000,-789.550781,-161.132812,40.283203,0.000000
cobot_dynamixel_driver/joint_states|name|J1,J2,J3,J4,J5,J6|pos|-0.000050,-0.656543,0.683095,-0.000050,-0.485858,-0.000021|vel|0.000000,0.509724,-0.528085,0.000000,0.444318,0.000000|eff|0.000000,-370.605469,-1289.062500,-145.019531,72.509766,0.000000
cobot_dynamixel_driver/joint_states|name|J1,J2,J3,J4,J5,J6|pos|-0.000050,-0.646792,0.673506,-0.000050,-0.476178,-0.000021|vel|0.000000,0.509515,-0.459231,0.000000,0.492921,0.000000|eff|0.000000,-1353.515625,-1208.496094,-128.906250,56.396484,0.000000
cobot_dynamixel_driver/joint_states|name|J1,J2,J3,J4,J5,J6|pos|-0.000050,-0.637015,0.663854,-0.000050,-0.466580,-0.000021|vel|0.000000,0.498248,-0.512645,0.000000,0.458106,0.000000|eff|-145.019531,-918.457031,-708.984375,-112.792969,52.368164,0.000000
cobot_dynamixel_driver/joint_states|name|J1,J2,J3,J4,J5,J6|pos|-0.000050,-0.627388,0.654127,-0.000050,-0.456981,-0.000021|vel|0.000000,0.477801,-0.499917,0.000000,0.509811,0.000000|eff|0.000000,-193.359375,-886.230469,-128.906250,40.283203,16.113281
cobot_dynamixel_driver/joint_states|name|J1,J2,J3,J4,J5,J6|pos|-0.000050,-0.617662,0.644488,-0.000050,-0.447363,-0.000021|vel|0.000000,0.610083,-0.433985,0.001878,0.556690,0.000000|eff|-145.019531,-1095.703125,-1305.175781,-112.792969,36.254883,0.000000
cobot_dynamixel_driver/joint_states|name|J1,J2,J3,J4,J5,J6|pos|-0.000050,-0.607948,0.634787,-0.000050,-0.437744,-0.000021|vel|0.000000,0.505759,-0.512019,-0.001461,0.524978,0.000000|eff|-80.566406,-2368.652344,-1272.949219,-161.132812,48.339844,0.000000
cobot_dynamixel_driver/joint_states|name|J1,J2,J3,J4,J5,J6|pos|-0.000050,-0.598284,0.625135,-0.000050,-0.428208,-0.000021|vel|0.000000,0.479470,-0.507846,-0.001461,0.530837,0.000000|eff|0.000000,-209.472656,-741.210938,-177.246094,72.509766,0.000000
cobot_dynamixel_driver/joint_states|name|J1,J2,J3,J4,J5,J6|pos|-0.000050,-0.588519,0.615596,-0.000050,-0.418589,-0.000021|vel|0.000000,0.494284,-0.534135,-0.001461,0.525322,0.000000|eff|0.000000,-773.437500,-902.343750,-112.792969,88.623047,0.000000
cobot_dynamixel_driver/joint_states|name|J1,J2,J3,J4,J5,J6|pos|-0.000050,-0.578780,0.605807,-0.000050,-0.408971,-0.000021|vel|0.000000,0.520573,-0.525998,0.002086,0.415708,0.000000|eff|-80.566406,-2014.160156,-1514.648438,-112.792969,36.254883,16.113281
cobot_dynamixel_driver/joint_states|name|J1,J2,J3,J4,J5,J6|pos|-0.000050,-0.569104,0.596055,-0.000050,-0.399352,-0.000021|vel|0.000000,0.561468,-0.465491,-0.001878,0.487405,0.000000|eff|0.000000,-273.925781,-757.324219,-112.792969,68.481445,8.056641
cobot_dynamixel_driver/joint_states|name|J1,J2,J3,J4,J5,J6|pos|-0.000050,-0.559439,0.586304,-0.000050,-0.389692,-0.000021|vel|0.000000,0.469038,-0.523703,0.001878,0.503951,0.000000|eff|0.000000,-531.738281,-1031.250000,-112.792969,48.339844,0.000000
cobot_dynamixel_driver/joint_states|name|J1,J2,J3,J4,J5,J6|pos|-0.000050,-0.549800,0.576489,-0.000050,-0.380115,-0.000021|vel|0.000000,0.467160,-0.428978,-0.001878,0.477754,0.000000|eff|-145.019531,-1385.742188,-1224.609375,-112.792969,60.424805,0.000000
cobot_dynamixel_driver/joint_states|name|J1,J2,J3,J4,J5,J6|pos|-0.000050,-0.540174,0.566813,-0.000050,-0.370517,-0.000021|vel|0.000000,0.498874,-0.517652,0.001878,0.558069,0.000000|eff|-64.453125,-773.437500,-644.531250,-112.792969,96.679688,0.000000
cobot_dynamixel_driver/joint_states|name|J1,J2,J3,J4,J5,J6|pos|-0.000050,-0.530535,0.557161,-0.000050,-0.360877,-0.000021|vel|0.000000,0.593808,-0.499709,-0.001878,0.486716,0.000000|eff|-64.453125,-64.453125,-934.570312,-112.792969,48.339844,24.169922
cobot_dynamixel_driver/joint_states|name|J1,J2,J3,J4,J5,J6|pos|-0.000050,-0.520783,0.547597,-0.000050,-0.351279,-0.000021|vel|0.000000,0.463196,-0.491572,0.001878,0.526701,0.000000|eff|0.000000,-580.078125,-1127.929688,-112.792969,44.311523,8.056641
cobot_dynamixel_driver/joint_states|name|J1,J2,J3,J4,J5,J6|pos|-0.000050,-0.511057,0.537933,-0.000050,-0.341702,-0.000021|vel|0.000000,0.501169,-0.425431,-0.001878,0.502917,0.000000|eff|0.000000,-2014.160156,-1562.988281,-112.792969,80.566406,0.000000
cobot_dynamixel_driver/joint_states|name|J1,J2,J3,J4,J5,J6|pos|-0.000050,-0.501455,0.528219,-0.000050,-0.332021,-0.000021|vel|0.000000,0.507637,-0.517861,-0.001878,0.418121,0.000000|eff|-112.792969,-805.664062,-773.437500,-112.792969,24.169922,0.000000
cobot_dynamixel_driver/joint_states|name|J1,J2,J3,J4,J5,J6|pos|-0.000050,-0.491766,0.518517,-0.000050,-0.322464,-0.000021|vel|0.000000,0.462570,-0.517026,0.001878,0.476375,0.000000|eff|0.000000,-161.132812,-870.117188,-112.792969,48.339844,8.056641
cobot_dynamixel_driver/joint_states|name|J1,J2,J3,J4,J5,J6|pos|-0.000050,-0.482039,0.508816,-0.000050,-0.312928,-0.000021|vel|0.000000,0.501378,-0.495119,-0.001878,0.531182,0.000000|eff|-112.792969,-1224.609375,-1482.421875,-112.792969,84.594727,0.000000
cobot_dynamixel_driver/joint_states|name|J1,J2,J3,J4,J5,J6|pos|-0.000038,-0.472350,0.499177,-0.000050,-0.303248,-0.000021|vel|0.000000,0.484060,-0.511393,0.001878,0.475341,0.000000|eff|0.000000,-773.437500,-1466.308594,-112.792969,44.311523,0.000000
cobot_dynamixel_driver/joint_states|name|J1,J2,J3,J4,J5,J6|pos|-0.000038,-0.462573,0.489563,-0.000050,-0.293629,-0.000021|vel|0.000000,0.480513,-0.530588,0.001878,0.504296,0.000000|eff|0.000000,-128.906250,-628.417969,-112.792969,64.453125,0.000000
cobot_dynamixel_driver/joint_states|name|J1,J2,J3,J4,J5,J6|pos|-0.000038,-0.452822,0.479849,-0.000050,-0.284052,-0.000021|vel|0.000000,0.491780,-0.444209,0.001878,0.429840,0.000000|eff|-48.339844,-1321.289062,-1127.929688,-128.906250,76.538086,24.169922
cobot_dynamixel_driver/joint_states|name|J1,J2,J3,J4,J5,J6|pos|-0.000038,-0.443133,0.470059,-0.000050,-0.274454,-0.000021|vel|0.000000,0.480931,-0.497205,-0.000626,0.489474,0.000000|eff|0.000000,-1385.742188,-1756.347656,-112.792969,64.453125,0.000000
cobot_dynamixel_driver/joint_states|name|J1,J2,J3,J4,J5,J6|pos|-0.000038,-0.433481,0.460308,-0.000050,-0.264835,-0.000021|vel|0.000000,0.499917,-0.467369,0.001878,0.456038,0.000000|eff|0.000000,128.906250,-644.531250,-112.792969,80.566406,0.000000
cobot_dynamixel_driver/joint_states|name|J1,J2,J3,J4,J5,J6|pos|-0.000038,-0.423830,0.450543,-0.000050,-0.255196,-0.000021|vel|0.000000,0.503882,-0.488025,0.001878,0.522565,0.000000|eff|-80.566406,-467.285156,-1256.835938,-112.792969,64.453125,0.000000
cobot_dynamixel_driver/joint_states|name|J1,J2,J3,J4,J5,J6|pos|-0.000038,-0.414216,0.440817,-0.000050,-0.245680,-0.000021|vel|0.000000,0.474671,-0.418337,-0.001878,0.499470,0.000000|eff|0.000000,-1192.382812,-1353.515625,-96.679688,92.651367,0.000000
cobot_dynamixel_driver/joint_states|name|J1,J2,J3,J4,J5,J6|pos|-0.000038,-0.404539,0.431215,-0.000050,-0.235958,-0.000021|vel|0.000000,0.520156,-0.495744,0.002086,0.525667,0.000000|eff|0.000000,-1417.968750,-773.437500,-112.792969,48.339844,8.056641
cobot_dynamixel_driver/joint_states|name|J1,J2,J3,J4,J5,J6|pos|-0.000038,-0.394750,0.421564,-0.000050,-0.226319,-0.000021|vel|0.000000,0.501587,-0.515357,-0.001669,0.541178,0.000000|eff|0.000000,-112.792969,-982.910156,-112.792969,60.424805,0.000000
cobot_dynamixel_driver/joint_states|name|J1,J2,J3,J4,J5,J6|pos|-0.000038,-0.385011,0.411862,-0.000050,-0.216741,-0.000021|vel|0.000000,0.514105,-0.493449,0.001878,0.493610,0.000000|eff|-145.019531,-1224.609375,-1369.628906,-112.792969,88.623047,12.084961
cobot_dynamixel_driver/joint_states|name|J1,J2,J3,J4,J5,J6|pos|-0.000038,-0.374871,0.402186,-0.000050,-0.207123,-0.000021|vel|0.000000,0.527250,-0.496370,-0.001878,0.435700,0.000000|eff|0.000000,-1095.703125,-1240.722656,-112.792969,84.594727,0.000000
cobot_dynamixel_driver/joint_states|name|J1,J2,J3,J4,J5,J6|pos|-0.000038,-0.365232,0.392459,-0.000050,-0.197504,-0.000021|vel|0.000000,0.506803,-0.490320,0.001878,0.519118,0.000000|eff|0.000000,-32.226562,-757.324219,-96.679688,52.368164,0.000000
cobot_dynamixel_driver/joint_states|name|J1,J2,J3,J4,J5,J6|pos|-0.000038,-0.356043,0.382795,-0.000050,-0.187968,-0.000021|vel|0.000000,0.431273,-0.509515,-0.001878,0.519462,0.000000|eff|0.000000,-418.945312,-1095.703125,-112.792969,52.368164,0.000000
cobot_dynamixel_driver/joint_states|name|J1,J2,J3,J4,J5,J6|pos|-0.000038,-0.345854,0.373256,-0.000050,-0.178370,-0.000021|vel|0.000000,0.513062,-0.513479,0.001878,0.539455,0.000000|eff|0.000000,-1530.761719,-1482.421875,-112.792969,64.453125,0.000000
cobot_dynamixel_driver/joint_states|name|J1,J2,J3,J4,J5,J6|pos|-0.000038,-0.336114,0.363492,-0.000050,-0.168751,-0.000021|vel|0.000000,0.487399,-0.527250,-0.001878,0.493955,0.000000|eff|0.000000,161.132812,-628.417969,-112.792969,104.736328,0.000000
cobot_dynamixel_driver/joint_states|name|J1,J2,J3,J4,J5,J6|pos|-0.000038,-0.326350,0.353815,-0.000050,-0.159071,-0.000021|vel|0.000000,0.508681,-0.459857,0.001878,0.480856,0.000000|eff|0.000000,-386.718750,-918.457031,-112.792969,64.453125,0.000000
cobot_dynamixel_driver/joint_states|name|J1,J2,J3,J4,J5,J6|pos|-0.000038,-0.316573,0.344063,-0.000050,-0.149473,-0.000021|vel|0.000000,0.524329,-0.515775,-0.001878,0.493610,0.000000|eff|0.000000,-1208.496094,-1530.761719,-112.792969,64.453125,0.000000
cobot_dynamixel_driver/joint_states|name|J1,J2,J3,J4,J5,J6|pos|-0.000038,-0.306897,0.334324,-0.000050,-0.139916,-0.000021|vel|0.000000,0.504090,-0.457353,-0.001878,0.488439,0.000000|eff|0.000000,209.472656,-676.757812,-112.792969,104.736328,24.169922
cobot_dynamixel_driver/joint_states|name|J1,J2,J3,J4,J5,J6|pos|-0.000038,-0.297295,0.324585,-0.000050,-0.130214,-0.000021|vel|0.000000,0.506594,-0.518070,0.001878,0.447765,0.000000|eff|0.000000,-64.453125,-854.003906,-112.792969,52.368164,16.113281
cobot_dynamixel_driver/joint_states|name|J1,J2,J3,J4,J5,J6|pos|-0.000038,-0.287656,0.314846,-0.000050,-0.120637,-0.000021|vel|0.000000,0.494910,-0.493449,-0.001878,0.481890,0.000000|eff|0.000000,-725.097656,-1353.515625,-112.792969,80.566406,16.113281
cobot_dynamixel_driver/joint_states|name|J1,J2,J3,J4,J5,J6|pos|-0.000038,-0.278030,0.305194,-0.000050,-0.111081,-0.000021|vel|0.000000,0.488442,-0.457979,0.001878,0.469136,0.000000|eff|0.000000,-1401.855469,-1289.062500,-112.792969,60.424805,0.000000
cobot_dynamixel_driver/joint_states|name|J1,J2,J3,J4,J5,J6|pos|-0.000038,-0.268341,0.295530,-0.000050,-0.101462,-0.000021|vel|0.000000,0.504090,-0.517026,-0.001878,0.517739,0.000000|eff|-48.339844,273.925781,-676.757812,-112.792969,76.538086,0.000000
cobot_dynamixel_driver/joint_states|name|J1,J2,J3,J4,J5,J6|pos|-0.000038,-0.258627,0.285841,-0.000050,-0.091864,-0.000021|vel|0.000000,0.473211,-0.503256,0.001878,0.543591,0.000000|eff|0.000000,-193.359375,-1224.609375,-112.792969,76.538086,0.000000
cobot_dynamixel_driver/joint_states|name|J1,J2,J3,J4,J5,J6|pos|-0.000038,-0.248900,0.276202,-0.000050,-0.082224,-0.000021|vel|0.000000,0.473419,-0.451094,-0.001878,0.410882,0.000000|eff|0.000000,-1434.082031,-1562.988281,-112.792969,80.566406,0.000000
cobot_dynamixel_driver/joint_states|name|J1,J2,J3,J4,J5,J6|pos|-0.000038,-0.239173,0.266475,-0.000050,-0.072688,-0.000021|vel|0.000000,0.524955,-0.513897,0.001878,0.490163,0.000000|eff|0.000000,128.906250,-692.871094,-112.792969,84.594727,16.113281
cobot_dynamixel_driver/joint_states|name|J1,J2,J3,J4,J5,J6|pos|-0.000038,-0.229484,0.256799,-0.000050,-0.063235,-0.000021|vel|0.000000,0.419797,-0.494493,0.001878,0.386408,0.000000|eff|-80.566406,0.000000,-950.683594,-112.792969,-20.141602,0.000000
cobot_dynamixel_driver/joint_states|name|J1,J2,J3,J4,J5,J6|pos|-0.000038,-0.219833,0.247222,-0.000050,-0.055002,-0.000021|vel|0.000000,0.480722,-0.510767,0.001878,0.370552,0.000000|eff|-48.339844,-854.003906,-1337.402344,-112.792969,-20.141602,24.169922
cobot_dynamixel_driver/joint_states|name|J1,J2,J3,J4,J5,J6|pos|-0.000038,-0.210118,0.237458,-0.000050,-0.048135,-0.000021|vel|0.000000,0.493449,-0.512228,0.001878,0.321605,0.000000|eff|-128.906250,-918.457031,-1353.515625,-112.792969,20.141602,0.000000
cobot_dynamixel_driver/joint_states|name|J1,J2,J3,J4,J5,J6|pos|-0.000025,-0.200404,0.227757,-0.000050,-0.042198,-0.000021|vel|0.000000,0.516192,-0.496370,0.001878,0.285067,0.000000|eff|-80.566406,322.265625,-741.210938,-112.792969,44.311523,12.084961
cobot_dynamixel_driver/joint_states|name|J1,J2,J3,J4,J5,J6|pos|-0.000025,-0.190753,0.218067,-0.000050,-0.036944,-0.000021|vel|0.000000,0.495119,-0.501587,0.001878,0.252320,0.000000|eff|0.000000,-322.265625,-1160.156250,-112.792969,40.283203,0.000000
cobot_dynamixel_driver/joint_states|name|J1,J2,J3,J4,J5,J6|pos|-0.000025,-0.181139,0.208291,-0.000050,-0.032331,-0.000021|vel|0.000000,0.507846,-0.492615,-0.001669,0.185104,0.000000|eff|0.000000,-1305.175781,-1337.402344,-112.792969,32.226562,0.000000
cobot_dynamixel_driver/joint_states|name|J1,J2,J3,J4,J5,J6|pos|-0.000025,-0.171425,0.198539,-0.000050,-0.028339,-0.000021|vel|0.000000,0.489694,-0.469872,0.001878,0.166490,0.000000|eff|0.000000,257.812500,-660.644531,-112.792969,56.396484,0.000000
cobot_dynamixel_driver/joint_states|name|J1,J2,J3,J4,J5,J6|pos|-0.000025,-0.161735,0.188825,-0.000050,-0.024864,-0.000021|vel|0.000000,0.478218,-0.499709,-0.001669,0.149944,0.000000|eff|0.000000,112.792969,-1256.835938,-112.792969,52.368164,0.000000
cobot_dynamixel_driver/joint_states|name|J1,J2,J3,J4,J5,J6|pos|-0.000025,-0.152046,0.179186,-0.000050,-0.021782,-0.000021|vel|0.000000,0.518070,-0.517444,0.001878,0.142016,0.000000|eff|0.000000,-966.796875,-1643.554688,-112.792969,60.424805,8.056641
cobot_dynamixel_driver/joint_states|name|J1,J2,J3,J4,J5,J6|pos|-0.000025,-0.142357,0.169497,-0.000050,-0.019134,-0.000021|vel|0.000000,0.511184,-0.461318,-0.001878,0.136846,0.000000|eff|0.000000,-886.230469,-580.078125,-112.792969,72.509766,0.000000
cobot_dynamixel_driver/joint_states|name|J1,J2,J3,J4,J5,J6|pos|-0.000025,-0.132643,0.159783,-0.000050,-0.016734,-0.000021|vel|0.000000,0.509515,-0.495953,0.001878,0.101342,0.000000|eff|0.000000,338.378906,-982.910156,-96.679688,64.453125,0.000000
cobot_dynamixel_driver/joint_states|name|J1,J2,J3,J4,J5,J6|pos|-0.000025,-0.122904,0.150131,-0.000050,-0.014666,-0.000021|vel|0.000000,0.498040,-0.499083,-0.001878,0.110304,0.000000|eff|-48.339844,-483.398438,-1369.628906,-112.792969,76.538086,0.000000
cobot_dynamixel_driver/joint_states|name|J1,J2,J3,J4,J5,J6|pos|-0.000025,-0.113190,0.140442,-0.000050,-0.012784,-0.000021|vel|0.000000,0.510767,-0.512019,-0.001878,0.086864,0.000000|eff|0.000000,-1305.175781,-773.437500,-112.792969,60.424805,0.000000
cobot_dynamixel_driver/joint_states|name|J1,J2,J3,J4,J5,J6|pos|-0.000025,-0.103501,0.130753,-0.000050,-0.011211,-0.000021|vel|0.000000,0.499291,-0.490737,0.001878,0.077557,0.000000|eff|0.000000,547.851562,-837.890625,-96.679688,64.453125,0.000000
cobot_dynamixel_driver/joint_states|name|J1,J2,J3,J4,J5,J6|pos|-0.000025,-0.093849,0.120651,-0.000050,-0.009826,-0.000021|vel|0.000000,0.516192,-0.532049,-0.002086,0.064114,0.000000|eff|-80.566406,-112.792969,-1144.042969,-112.792969,76.538086,12.084961
cobot_dynamixel_driver/joint_states|name|J1,J2,J3,J4,J5,J6|pos|-0.000025,-0.084160,0.111462,-0.000050,-0.008584,-0.000021|vel|0.000000,0.520365,-0.446295,0.001878,0.056531,0.000000|eff|0.000000,-1127.929688,-1643.554688,-112.792969,72.509766,16.113281
cobot_dynamixel_driver/joint_states|name|J1,J2,J3,J4,J5,J6|pos|-0.000025,-0.074446,0.101736,-0.000050,-0.007550,-0.000021|vel|0.000000,0.513688,-0.519322,-0.001878,0.047224,0.000000|eff|0.000000,241.699219,-676.757812,-112.792969,72.509766,0.000000
cobot_dynamixel_driver/joint_states|name|J1,J2,J3,J4,J5,J6|pos|-0.000025,-0.064782,0.092047,-0.000050,-0.006640,-0.000021|vel|0.000000,0.485103,-0.512019,0.001878,0.041709,0.000000|eff|0.000000,193.359375,-950.683594,-112.792969,88.623047,0.000000
cobot_dynamixel_driver/joint_states|name|J1,J2,J3,J4,J5,J6|pos|-0.000025,-0.055105,0.081844,-0.000050,-0.005813,-0.000021|vel|0.000000,0.540812,-0.522243,-0.001878,0.038606,0.000000|eff|-48.339844,-692.871094,-1530.761719,-112.792969,72.509766,0.000000
cobot_dynamixel_driver/joint_states|name|J1,J2,J3,J4,J5,J6|pos|-0.000025,-0.045404,0.072105,-0.000050,-0.005109,-0.000021|vel|0.000000,0.505551,-0.514314,0.001878,0.027921,0.000000|eff|0.000000,-1047.363281,-515.625000,-112.792969,88.623047,24.169922
cobot_dynamixel_driver/joint_states|name|J1,J2,J3,J4,J5,J6|pos|-0.000025,-0.035727,0.062741,-0.000050,-0.004509,-0.000021|vel|0.000000,0.472585,-0.456728,-0.001878,0.029989,0.000000|eff|0.000000,467.285156,-402.832031,-112.792969,80.566406,0.000000
cobot_dynamixel_driver/joint_states|name|J1,J2,J3,J4,J5,J6|pos|-0.000025,-0.026075,0.054842,-0.000050,-0.004013,-0.000021|vel|0.000000,0.534553,-0.424179,0.001669,0.026887,0.000000|eff|0.000000,-80.566406,-596.191406,-112.792969,100.708008,0.000000
cobot_dynamixel_driver/joint_states|name|J1,J2,J3,J4,J5,J6|pos|-0.000025,-0.016386,0.047407,-0.000050,-0.003496,-0.000021|vel|0.000000,0.495744,-0.338842,0.001461,0.020682,0.000000|eff|0.000000,-1079.589844,-1240.722656,-112.792969,92.651367,0.000000
cobot_dynamixel_driver/joint_states|name|J1,J2,J3,J4,J5,J6|pos|-0.000025,-0.006722,0.041348,-0.000050,-0.003082,-0.000021|vel|0.000000,0.520782,-0.292731,0.001252,0.022750,0.000000|eff|-48.339844,0.000000,-789.550781,-112.792969,104.736328,0.000000
cobot_dynamixel_driver/joint_states|name|J1,J2,J3,J4,J5,J6|pos|-0.000025,0.002967,0.036140,-0.000050,-0.002710,-0.000021|vel|0.000000,0.479261,-0.250167,0.001043,0.016546,0.000000|eff|0.000000,451.171875,-789.550781,-112.792969,104.736328,0.000000
cobot_dynamixel_driver/joint_states|name|J1,J2,J3,J4,J5,J6|pos|-0.000025,0.012681,0.031696,-0.000050,-0.002379,-0.000021|vel|0.000000,0.508055,-0.212820,-0.001043,0.018958,0.000000|eff|0.000000,-483.398438,-1015.136719,-112.792969,92.651367,0.000000
cobot_dynamixel_driver/joint_states|name|J1,J2,J3,J4,J5,J6|pos|-0.000025,0.022383,0.027690,-0.000050,-0.002027,-0.000021|vel|0.000000,0.506803,-0.196754,-0.000835,0.017580,0.000000|eff|0.000000,-1095.703125,-757.324219,-112.792969,88.623047,0.000000
cobot_dynamixel_driver/joint_states|name|J1,J2,J3,J4,J5,J6|pos|-0.000025,0.032059,0.024160,-0.000050,-0.001820,-0.000021|vel|0.000000,0.501169,-0.165040,0.000626,0.007928,0.000000|eff|0.000000,612.304688,-692.871094,-112.792969,96.679688,0.000000
cobot_dynamixel_driver/joint_states|name|J1,J2,J3,J4,J5,J6|pos|-0.000013,0.041773,0.021168,-0.000050,-0.001613,-0.000021|vel|0.000000,0.457771,-0.140211,-0.000626,0.010341,0.000000|eff|0.000000,-80.566406,-789.550781,-112.792969,76.538086,0.000000
cobot_dynamixel_driver/joint_states|name|J1,J2,J3,J4,J5,J6|pos|-0.000013,0.051475,0.018602,-0.000050,-0.001386,-0.000021|vel|0.000000,0.502004,-0.120180,0.000626,0.011720,0.000000|eff|0.000000,-1079.589844,-854.003906,-64.453125,120.849609,16.113281
cobot_dynamixel_driver/joint_states|name|J1,J2,J3,J4,J5,J6|pos|-0.000013,0.061164,0.016286,-0.000050,-0.001220,-0.000021|vel|0.000000,0.493658,-0.114547,0.000626,0.007928,0.000000|eff|0.000000,596.191406,-821.777344,-64.453125,88.623047,0.000000
cobot_dynamixel_driver/joint_states|name|J1,J2,J3,J4,J5,J6|pos|-0.000013,0.070878,0.014258,-0.000050,-0.001096,-0.000021|vel|0.000000,0.526833,-0.098481,-0.000626,0.005860,0.000000|eff|0.000000,273.925781,-854.003906,-96.679688,96.679688,0.000000
cobot_dynamixel_driver/joint_states|name|J1,J2,J3,J4,J5,J6|pos|-0.000013,0.080580,0.012543,-0.000050,-0.000993,-0.000021|vel|0.000000,0.520365,-0.082624,0.000417,0.005515,0.000000|eff|0.000000,-918.457031,-805.664062,-112.792969,100.708008,0.000000
cobot_dynamixel_driver/joint_states|name|J1,J2,J3,J4,J5,J6|pos|-0.000013,0.090281,0.010978,-0.000050,-0.000827,-0.000021|vel|0.000000,0.503256,-0.071774,0.000417,0.008962,0.000000|eff|0.000000,418.945312,-821.777344,-112.792969,96.679688,0.000000
cobot_dynamixel_driver/joint_states|name|J1,J2,J3,J4,J5,J6|pos|-0.000013,0.099996,0.009576,-0.000050,-0.000703,-0.000021|vel|0.000000,0.491154,-0.064889,0.000417,0.006549,0.000000|eff|0.000000,467.285156,-805.664062,-112.792969,92.651367,0.000000
cobot_dynamixel_driver/joint_states|name|J1,J2,J3,J4,J5,J6|pos|-0.000013,0.109685,0.008412,-0.000050,-0.000662,-0.000021|vel|0.000000,0.505968,-0.047154,-0.000417,0.005170,0.000000|eff|0.000000,-483.398438,-837.890625,-112.792969,92.651367,0.000000
cobot_dynamixel_driver/joint_states|name|J1,J2,J3,J4,J5,J6|pos|-0.000013,0.119374,0.007423,-0.000050,-0.000662,-0.000021|vel|0.000000,0.471124,-0.038808,-0.000417,0.005170,0.000000|eff|0.000000,-1079.589844,-870.117188,-64.453125,92.651367,0.000000
cobot_dynamixel_driver/joint_states|name|J1,J2,J3,J4,J5,J6|pos|-0.000013,0.129000,0.006585,-0.000050,-0.000662,-0.000021|vel|0.000000,0.493241,-0.038391,0.000209,0.005170,0.000000|eff|-80.566406,596.191406,-854.003906,-112.792969,88.623047,16.113281
cobot_dynamixel_driver/joint_states|name|J1,J2,J3,J4,J5,J6|pos|-0.000013,0.138727,0.005808,-0.000050,-0.000662,-0.000021|vel|0.000000,0.530171,-0.045694,0.000209,0.005170,0.000000|eff|0.000000,0.000000,-918.457031,-112.792969,88.623047,0.000000
cobot_dynamixel_driver/joint_states|name|J1,J2,J3,J4,J5,J6|pos|-0.000013,0.148429,0.005020,-0.000050,-0.000662,-0.000021|vel|0.000000,0.482600,-0.041729,0.000209,0.005170,0.000000|eff|0.000000,-1160.156250,-837.890625,-112.792969,88.623047,16.113281
cobot_dynamixel_driver/joint_states|name|J1,J2,J3,J4,J5,J6|pos|-0.000013,0.158068,0.004331,-0.000050,-0.000662,-0.000021|vel|0.000000,0.508889,-0.026289,0.000209,0.005170,0.000000|eff|0.000000,257.812500,-837.890625,-112.792969,88.623047,0.000000
cobot_dynamixel_driver/joint_states|name|J1,J2,J3,J4,J5,J6|pos|-0.000013,0.167782,0.003781,-0.000050,-0.000641,-0.000021|vel|0.000000,0.508263,-0.030254,0.000209,0.000000,0.000000|eff|0.000000,563.964844,-854.003906,-112.792969,96.679688,0.000000
cobot_dynamixel_driver/joint_states|name|J1,J2,J3,J4,J5,J6|pos|-0.000013,0.177483,0.003267,-0.000050,-0.000559,-0.000021|vel|0.000000,0.493032,-0.023160,0.000209,0.003792,0.000000|eff|0.000000,-789.550781,-837.890625,-112.792969,92.651367,0.000000
cobot_dynamixel_driver/joint_states|name|J1,J2,J3,J4,J5,J6|pos|-0.000013,0.187160,0.002817,-0.000050,-0.000517,-0.000021|vel|0.000000,0.512228,-0.026289,0.000000,0.004481,0.000000|eff|0.000000,-209.472656,-773.437500,-96.679688,88.623047,16.113281
cobot_dynamixel_driver/joint_states|name|J1,J2,J3,J4,J5,J6|pos|-0.000013,0.196711,0.002429,-0.000050,-0.000517,-0.000021|vel|0.000000,0.484060,-0.010850,0.000000,0.002068,0.000000|eff|0.000000,1079.589844,-837.890625,-64.453125,96.679688,0.000000
cobot_dynamixel_driver/joint_states|name|J1,J2,J3,J4,J5,J6|pos|-0.000013,0.205474,0.002291,-0.000050,-0.000517,-0.000021|vel|0.000000,0.408530,-0.006259,0.000000,0.002068,0.000000|eff|0.000000,644.531250,-934.570312,-80.566406,96.679688,0.000000
cobot_dynamixel_driver/joint_states|name|J1,J2,J3,J4,J5,J6|pos|-0.000013,0.213098,0.002141,-0.000050,-0.000496,-0.000021|vel|0.000000,0.370348,-0.009806,0.000000,0.002068,0.000000|eff|0.000000,177.246094,-918.457031,-64.453125,104.736328,24.169922
cobot_dynamixel_driver/joint_states|name|J1,J2,J3,J4,J5,J6|pos|-0.000013,0.219682,0.001878,-0.000050,-0.000476,-0.000021|vel|0.000000,0.312553,-0.016692,0.000000,0.002068,0.000000|eff|0.000000,1240.722656,-870.117188,-112.792969,104.736328,0.000000
cobot_dynamixel_driver/joint_states|name|J1,J2,J3,J4,J5,J6|pos|-0.000013,0.225203,0.001527,-0.000050,-0.000476,-0.000021|vel|0.000000,0.248290,-0.015440,0.000000,0.000345,0.000000|eff|0.000000,612.304688,-837.890625,-64.453125,112.792969,0.000000
cobot_dynamixel_driver/joint_states|name|J1,J2,J3,J4,J5,J6|pos|-0.000013,0.229860,0.001339,-0.000050,-0.000393,-0.000021|vel|0.000000,0.225338,-0.006051,0.000000,0.005515,0.000000|eff|-48.339844,306.152344,-870.117188,-112.792969,116.821289,16.113281
cobot_dynamixel_driver/joint_states|name|J1,J2,J3,J4,J5,J6|pos|-0.000013,0.233903,0.001227,-0.000050,-0.000310,-0.000021|vel|0.000000,0.206143,-0.005216,0.000000,0.005860,0.000000|eff|0.000000,370.605469,-902.343750,-112.792969,100.708008,0.000000
cobot_dynamixel_driver/joint_states|name|J1,J2,J3,J4,J5,J6|pos|-0.000013,0.237483,0.001127,-0.000050,-0.000310,-0.000021|vel|0.000000,0.169630,-0.005425,0.000000,0.005860,0.000000|eff|0.000000,757.324219,-870.117188,-96.679688,92.651367,0.000000
cobot_dynamixel_driver/joint_states|name|J1,J2,J3,J4,J5,J6|pos|-0.000013,0.240525,0.000914,-0.000050,-0.000310,-0.000021|vel|0.000000,0.138124,-0.010224,0.000000,0.005860,0.000000|eff|-80.566406,725.097656,-854.003906,-112.792969,84.594727,8.056641
cobot_dynamixel_driver/joint_states|name|J1,J2,J3,J4,J5,J6|pos|-0.000013,0.243179,0.000676,-0.000050,-0.000310,-0.000021|vel|0.000000,0.131656,-0.010641,0.000000,0.005860,0.000000|eff|0.000000,531.738281,-805.664062,-112.792969,72.509766,0.000000
cobot_dynamixel_driver/joint_states|name|J1,J2,J3,J4,J5,J6|pos|-0.000013,0.245495,0.000563,-0.000050,-0.000310,-0.000021|vel|0.000000,0.106827,-0.004590,0.000000,0.005860,0.000000|eff|0.000000,483.398438,-837.890625,-64.453125,72.509766,12.084961
cobot_dynamixel_driver/joint_states|name|J1,J2,J3,J4,J5,J6|pos|-0.000013,0.247473,0.000513,-0.000050,-0.000310,-0.000021|vel|0.000000,0.098064,-0.002295,0.000000,0.005860,0.000000|eff|0.000000,402.832031,-837.890625,-48.339844,60.424805,0.000000
cobot_dynamixel_driver/joint_states|name|J1,J2,J3,J4,J5,J6|pos|-0.000013,0.249200,0.000488,-0.000050,-0.000310,-0.000021|vel|0.000000,0.086171,-0.002295,0.000000,0.000000,0.000000|eff|0.000000,483.398438,-837.890625,-112.792969,68.481445,0.000000
cobot_dynamixel_driver/joint_states|name|J1,J2,J3,J4,J5,J6|pos|0.000000,0.250715,0.000488,-0.000050,-0.000310,-0.000021|vel|0.000000,0.074904,-0.002295,0.000000,0.000000,0.000000|eff|-48.339844,451.171875,-837.890625,-64.453125,72.509766,0.000000
cobot_dynamixel_driver/joint_states|name|J1,J2,J3,J4,J5,J6|pos|0.000000,0.252042,0.000488,-0.000050,-0.000310,-0.000021|vel|0.000000,0.065515,-0.000417,0.000000,0.000000,0.000000|eff|0.000000,386.718750,-886.230469,-112.792969,76.538086,0.000000
cobot_dynamixel_driver/joint_states|name|J1,J2,J3,J4,J5,J6|pos|0.000000,0.253194,0.000463,-0.000050,-0.000310,-0.000021|vel|0.000000,0.056335,-0.001043,0.000000,0.000000,0.000000|eff|0.000000,435.058594,-886.230469,-96.679688,84.594727,0.000000
cobot_dynamixel_driver/joint_states|name|J1,J2,J3,J4,J5,J6|pos|0.000000,0.254270,0.000438,-0.000050,-0.000310,-0.000021|vel|0.000000,0.055500,-0.001043,0.000000,0.000000,0.000000|eff|-112.792969,499.511719,-886.230469,-96.679688,84.594727,0.000000
cobot_dynamixel_driver/joint_states|name|J1,J2,J3,J4,J5,J6|pos|0.000000,0.255247,0.000426,-0.000050,-0.000310,-0.000021|vel|0.000000,0.048615,-0.001043,0.000000,0.000000,0.000000|eff|0.000000,499.511719,-918.457031,-32.226562,92.651367,12.084961
cobot_dynamixel_driver/joint_states|name|J1,J2,J3,J4,J5,J6|pos|0.000000,0.256060,0.000426,-0.000050,-0.000310,-0.000021|vel|0.000000,0.037765,-0.001043,0.000000,0.000000,0.000000|eff|0.000000,435.058594,-918.457031,-32.226562,96.679688,24.169922
cobot_dynamixel_driver/joint_states|name|J1,J2,J3,J4,J5,J6|pos|0.000000,0.256774,0.000401,-0.000050,-0.000310,-0.000021|vel|0.000000,0.034844,-0.000417,0.000000,0.000000,0.000000|eff|0.000000,418.945312,-886.230469,-80.566406,100.708008,0.000000
cobot_dynamixel_driver/joint_states|name|J1,J2,J3,J4,J5,J6|pos|0.000000,0.257412,0.000363,-0.000050,-0.000310,-0.000021|vel|0.000000,0.032966,-0.002921,0.000000,0.000000,0.000000|eff|-48.339844,451.171875,-934.570312,-112.792969,108.764648,0.000000
cobot_dynamixel_driver/joint_states|name|J1,J2,J3,J4,J5,J6|pos|0.000000,0.257938,0.000238,-0.000050,-0.000248,-0.000021|vel|0.000000,0.022325,-0.007511,0.000000,0.001034,0.000000|eff|0.000000,338.378906,-854.003906,-96.679688,100.708008,24.169922
cobot_dynamixel_driver/joint_states|name|J1,J2,J3,J4,J5,J6|pos|0.000000,0.258364,0.000100,-0.000050,-0.000186,-0.000021|vel|0.000000,0.022951,-0.006468,0.000000,0.003447,0.000000|eff|0.000000,322.265625,-837.890625,0.000000,96.679688,24.169922
cobot_dynamixel_driver/joint_states|name|J1,J2,J3,J4,J5,J6|pos|0.000000,0.258727,-0.000050,-0.000050,-0.000165,-0.000021|vel|0.000000,0.014814,-0.007511,0.000000,0.003447,0.000000|eff|0.000000,370.605469,-773.437500,-112.792969,92.651367,0.000000
cobot_dynamixel_driver/joint_states|name|J1,J2,J3,J4,J5,J6|pos|0.000000,0.259052,-0.000213,-0.000050,-0.000165,-0.000021|vel|0.000000,0.016900,-0.006885,0.000000,0.003447,0.000000|eff|0.000000,612.304688,-741.210938,-64.453125,88.623047,12.084961
cobot_dynamixel_driver/joint_states|name|J1,J2,J3,J4,J5,J6|pos|0.000000,0.259390,-0.000300,-0.000050,-0.000165,-0.000021|vel|0.000000,0.020030,-0.004173,0.000000,0.003447,0.000000|eff|0.000000,354.492188,-708.984375,-48.339844,84.594727,8.056641
cobot_dynamixel_driver/joint_states|name|J1,J2,J3,J4,J5,J6|pos|0.000000,0.259728,-0.000338,-0.000050,-0.000165,-0.000021|vel|0.000000,0.014605,-0.001669,0.000000,0.003447,0.000000|eff|0.000000,273.925781,-676.757812,-96.679688,80.566406,0.000000
cobot_dynamixel_driver/joint_states|name|J1,J2,J3,J4,J5,J6|pos|0.000000,0.260004,-0.000338,-0.000050,-0.000165,-0.000021|vel|0.000000,0.013771,-0.001669,0.000000,0.003447,0.000000|eff|0.000000,467.285156,-676.757812,-64.453125,72.509766,0.000000
cobot_dynamixel_driver/joint_states|name|J1,J2,J3,J4,J5,J6|pos|0.000000,0.260254,-0.000338,-0.000050,-0.000165,-0.000021|vel|0.000000,0.012936,-0.001669,0.000000,0.003447,0.000000|eff|0.000000,209.472656,-692.871094,-96.679688,64.453125,12.084961
cobot_dynamixel_driver/joint_states|name|J1,J2,J3,J4,J5,J6|pos|0.000000,0.260492,-0.000338,-0.000050,-0.000165,-0.000021|vel|0.000000,0.010641,-0.001669,0.000000,0.000000,0.000000|eff|0.000000,402.832031,-596.191406,-96.679688,72.509766,0.000000
cobot_dynamixel_driver/joint_states|name|J1,J2,J3,J4,J5,J6|pos|0.000000,0.260642,-0.000338,-0.000050,-0.000165,-0.000021|vel|0.000000,0.007511,-0.000209,0.000000,0.000000,0.000000|eff|0.000000,435.058594,-676.757812,0.000000,76.538086,24.169922
cobot_dynamixel_driver/joint_states|name|J1,J2,J3,J4,J5,J6|pos|0.000000,0.260780,-0.000338,-0.000050,-0.000165,-0.000021|vel|0.000000,0.006885,0.000209,0.000000,0.000000,0.000000|eff|0.000000,354.492188,-596.191406,-96.679688,80.566406,0.000000
cobot_dynamixel_driver/joint_states|name|J1,J2,J3,J4,J5,J6|pos|0.000000,0.260917,-0.000338,-0.000050,-0.000165,-0.000021|vel|0.000000,0.005633,0.000209,0.000000,0.000000,0.000000|eff|0.000000,370.605469,-676.757812,-96.679688,76.538086,0.000000
cobot_dynamixel_driver/joint_states|name|J1,J2,J3,J4,J5,J6|pos|0.000000,0.260967,-0.000338,-0.000050,-0.000165,-0.000021|vel|0.000000,0.002504,0.000209,0.000000,0.000000,0.000000|eff|0.000000,370.605469,-580.078125,-80.566406,80.566406,0.000000
cobot_dynamixel_driver/joint_states|name|J1,J2,J3,J4,J5,J6|pos|0.000000,0.261080,-0.000338,-0.000050,-0.000165,-0.000021|vel|0.000000,0.005216,0.000209,0.000000,0.000000,0.000000|eff|0.000000,402.832031,-580.078125,-96.679688,80.566406,8.056641
cobot_dynamixel_driver/joint_states|name|J1,J2,J3,J4,J5,J6|pos|0.000000,0.261168,-0.000338,-0.000050,-0.000165,-0.000021|vel|0.000000,0.003964,0.000209,0.000000,0.000000,0.000000|eff|-112.792969,354.492188,-580.078125,-80.566406,84.594727,0.000000
cobot_dynamixel_driver/joint_states|name|J1,J2,J3,J4,J5,J6|pos|0.000000,0.261230,-0.000325,-0.000050,-0.000165,-0.000021|vel|0.000000,0.003338,0.000209,0.000000,0.000000,0.000000|eff|0.000000,402.832031,-547.851562,-48.339844,88.623047,0.000000
cobot_dynamixel_driver/joint_states|name|J1,J2,J3,J4,J5,J6|pos|0.000000,0.261318,-0.000325,-0.000050,-0.000165,-0.000021|vel|0.000000,0.004799,0.000000,0.000000,0.000000,0.000000|eff|0.000000,435.058594,-515.625000,-96.679688,88.623047,0.000000
cobot_dynamixel_driver/joint_states|name|J1,J2,J3,J4,J5,J6|pos|0.000000,0.261431,-0.000325,-0.000050,-0.000165,-0.000021|vel|0.000000,0.005008,0.000000,0.000000,0.000000,0.000000|eff|0.000000,451.171875,-547.851562,-96.679688,92.651367,0.000000
cobot_dynamixel_driver/joint_states|name|J1,J2,J3,J4,J5,J6|pos|0.000000,0.261506,-0.000325,-0.000050,-0.000165,-0.000021|vel|0.000000,0.003338,0.000000,0.000000,0.000000,0.000000|eff|-48.339844,402.832031,-563.964844,-96.679688,96.679688,0.000000
cobot_dynamixel_driver/joint_states|name|J1,J2,J3,J4,J5,J6|pos|0.000000,0.261581,-0.000313,-0.000050,-0.000145,-0.000021|vel|0.000000,0.003338,0.000000,0.000000,0.000000,0.000000|eff|0.000000,402.832031,-515.625000,-48.339844,96.679688,8.056641
cobot_dynamixel_driver/joint_states|name|J1,J2,J3,J4,J5,J6|pos|0.000000,0.261618,-0.000313,-0.000050,-0.000145,-0.000021|vel|0.000000,0.002295,0.000000,0.000000,0.000000,0.000000|eff|0.000000,515.625000,-483.398438,-96.679688,96.679688,0.000000
cobot_dynamixel_driver/joint_states|name|J1,J2,J3,J4,J5,J6|pos|0.000000,0.261656,-0.000300,-0.000050,-0.000145,-0.000021|vel|0.000000,0.001252,0.000000,0.000000,0.000000,0.000000|eff|-80.566406,402.832031,-499.511719,-96.679688,104.736328,0.000000
cobot_dynamixel_driver/joint_states|name|J1,J2,J3,J4,J5,J6|pos|0.000000,0.261681,-0.000300,-0.000050,-0.000145,-0.000021|vel|0.000000,0.001878,0.000209,0.000000,0.000000,0.000000|eff|0.000000,515.625000,-483.398438,0.000000,100.708008,16.113281
cobot_dynamixel_driver/joint_states|name|J1,J2,J3,J4,J5,J6|pos|0.000000,0.261694,-0.000288,-0.000050,-0.000124,-0.000021|vel|0.000000,0.001878,0.000209,0.000000,0.000000,0.000000|eff|0.000000,531.738281,-467.285156,0.000000,96.679688,0.000000
cobot_dynamixel_driver/joint_states|name|J1,J2,J3,J4,J5,J6|pos|0.000000,0.261706,-0.000275,-0.000050,-0.000124,-0.000021|vel|0.000000,0.001878,0.000209,0.000000,0.000000,0.000000|eff|0.000000,531.738281,-451.171875,0.000000,104.736328,0.000000
cobot_dynamixel_driver/joint_states|name|J1,J2,J3,J4,J5,J6|pos|0.000000,0.261706,-0.000275,-0.000050,-0.000124,-0.000021|vel|0.000000,0.001878,0.000209,0.000000,0.000000,0.000000|eff|-80.566406,515.625000,-467.285156,0.000000,104.736328,12.084961
cobot_dynamixel_driver/joint_states|name|J1,J2,J3,J4,J5,J6|pos|0.000000,0.261706,-0.000263,-0.000050,-0.000124,-0.000021|vel|0.000000,0.001878,0.000209,0.000000,0.000000,0.000000|eff|0.000000,515.625000,-467.285156,0.000000,108.764648,0.000000
cobot_dynamixel_driver/joint_states|name|J1,J2,J3,J4,J5,J6|pos|0.000000,0.261706,-0.000263,-0.000050,-0.000103,-0.000021|vel|0.000000,0.001878,0.000209,0.000000,0.000000,0.000000|eff|0.000000,451.171875,-467.285156,0.000000,104.736328,12.084961
cobot_dynamixel_driver/joint_states|name|J1,J2,J3,J4,J5,J6|pos|0.000000,0.261706,-0.000263,-0.000050,-0.000103,-0.000021|vel|0.000000,-0.000000,0.000209,0.000000,0.000345,0.000000|eff|0.000000,515.625000,-402.832031,0.000000,112.792969,16.113281
cobot_dynamixel_driver/joint_states|name|J1,J2,J3,J4,J5,J6|pos|0.000000,0.261706,-0.000263,-0.000050,-0.000103,-0.000021|vel|0.000000,-0.000000,0.000209,0.000000,0.000345,0.000000|eff|-112.792969,499.511719,-467.285156,-96.679688,112.792969,0.000000
cobot_dynamixel_driver/joint_states|name|J1,J2,J3,J4,J5,J6|pos|0.000000,0.261706,-0.000250,-0.000050,-0.000103,-0.000021|vel|0.000000,-0.000000,0.000209,0.000000,0.000345,0.000000|eff|0.000000,499.511719,-402.832031,0.000000,108.764648,8.056641
cobot_dynamixel_driver/joint_states|name|J1,J2,J3,J4,J5,J6|pos|0.000000,0.261719,-0.000250,-0.000050,-0.000083,-0.000021|vel|0.000000,-0.000000,0.000209,0.000000,0.000345,0.000000|eff|0.000000,547.851562,-370.605469,0.000000,108.764648,0.000000
cobot_dynamixel_driver/joint_states|name|J1,J2,J3,J4,J5,J6|pos|0.000000,0.261731,-0.000238,-0.000038,-0.000083,-0.000021|vel|0.000000,-0.000000,0.000000,0.000000,0.000345,0.000000|eff|0.000000,515.625000,-386.718750,-96.679688,112.792969,0.000000
cobot_dynamixel_driver/joint_states|name|J1,J2,J3,J4,J5,J6|pos|0.000000,0.261731,-0.000225,-0.000038,-0.000083,-0.000021|vel|0.000000,0.000417,0.001043,0.000000,0.000345,0.000000|eff|0.000000,515.625000,-435.058594,0.000000,108.764648,24.169922
cobot_dynamixel_driver/joint_states|name|J1,J2,J3,J4,J5,J6|pos|0.000000,0.261744,-0.000225,-0.000038,-0.000083,-0.000021|vel|0.000000,0.000417,0.001043,0.000000,0.000000,0.000000|eff|0.000000,515.625000,-402.832031,0.000000,112.792969,0.000000
cobot_dynamixel_driver/joint_states|name|J1,J2,J3,J4,J5,J6|pos|0.000000,0.261744,-0.000225,-0.000038,-0.000062,-0.000021|vel|0.000000,0.000417,0.001043,0.000000,0.000000,0.000000|eff|0.000000,402.832031,-402.832031,0.000000,116.821289,0.000000
cobot_dynamixel_driver/joint_states|name|J1,J2,J3,J4,J5,J6|pos|0.000000,0.261756,-0.000213,-0.000038,-0.000062,-0.000021|vel|0.000000,0.000417,0.001043,0.000000,0.000000,0.000000|eff|0.000000,418.945312,-370.605469,0.000000,112.792969,0.000000
cobot_dynamixel_driver/joint_states|name|J1,J2,J3,J4,J5,J6|pos|0.000000,0.261756,-0.000213,-0.000038,-0.000062,-0.000021|vel|0.000000,0.000417,0.001043,0.000000,0.000000,0.000000|eff|0.000000,515.625000,-451.171875,0.000000,116.821289,0.000000
cobot_dynamixel_driver/joint_states|name|J1,J2,J3,J4,J5,J6|pos|0.000000,0.261756,-0.000213,-0.000038,-0.000062,-0.000021|vel|0.000000,0.000209,0.001043,0.000000,0.000000,0.000000|eff|0.000000,515.625000,-370.605469,-48.339844,112.792969,12.084961
cobot_dynamixel_driver/joint_states|name|J1,J2,J3,J4,J5,J6|pos|0.000000,0.261756,-0.000213,-0.000038,-0.000062,-0.000021|vel|0.000000,0.000209,0.000000,0.000000,0.000000,0.000000|eff|0.000000,515.625000,-451.171875,-48.339844,116.821289,0.000000
cobot_dynamixel_driver/joint_states|name|J1,J2,J3,J4,J5,J6|pos|0.000000,0.261769,-0.000213,-0.000038,-0.000062,-0.000021|vel|0.000000,0.000209,0.000000,0.000000,0.000000,0.000000|eff|0.000000,531.738281,-418.945312,0.000000,112.792969,0.000000
cobot_dynamixel_driver/joint_states|name|J1,J2,J3,J4,J5,J6|pos|0.000000,0.261781,-0.000200,-0.000038,-0.000041,-0.000021|vel|0.000000,0.000209,0.000000,0.000000,0.000000,0.000000|eff|0.000000,483.398438,-435.058594,0.000000,120.849609,0.000000
cobot_dynamixel_driver/joint_states|name|J1,J2,J3,J4,J5,J6|pos|0.000000,0.261781,-0.000200,-0.000038,-0.000041,-0.000021|vel|0.000000,0.000209,0.000000,0.000000,0.000000,0.000000|eff|0.000000,451.171875,-354.492188,0.000000,116.821289,24.169922
cobot_dynamixel_driver/joint_states|name|J1,J2,J3,J4,J5,J6|pos|0.000000,0.261781,-0.000188,-0.000038,-0.000041,-0.000021|vel|0.000000,0.000209,0.000000,0.000000,0.000000,0.000000|eff|0.000000,515.625000,-386.718750,0.000000,112.792969,0.000000
cobot_dynamixel_driver/joint_states|name|J1,J2,J3,J4,J5,J6|pos|0.000000,0.261781,-0.000188,-0.000038,-0.000041,-0.000021|vel|0.000000,-0.000000,0.000000,0.000000,0.000000,0.000000|eff|-112.792969,467.285156,-386.718750,0.000000,116.821289,0.000000
cobot_dynamixel_driver/joint_states|name|J1,J2,J3,J4,J5,J6|pos|0.000000,0.261781,-0.000175,-0.000038,-0.000021,-0.000021|vel|0.000000,-0.000000,0.000000,0.000000,0.000000,0.000000|eff|0.000000,370.605469,-354.492188,0.000000,112.792969,0.000000
cobot_dynamixel_driver/joint_states|name|J1,J2,J3,J4,J5,J6|pos|0.000000,0.261781,-0.000175,-0.000038,0.000083,-0.000021|vel|0.000000,-0.000000,0.000000,0.000000,0.007583,0.000000|eff|0.000000,435.058594,-338.378906,0.000000,108.764648,16.113281
cobot_dynamixel_driver/joint_states|name|J1,J2,J3,J4,J5,J6|pos|0.000000,0.261781,-0.000175,-0.000038,0.000228,-0.000021|vel|0.000000,-0.000000,0.000000,0.000000,0.005860,0.000000|eff|0.000000,402.832031,-338.378906,0.000000,76.538086,16.113281
cobot_dynamixel_driver/joint_states|name|J1,J2,J3,J4,J5,J6|pos|-0.000025,0.261781,-0.000175,-0.000038,0.000248,-0.000021|vel|0.000000,-0.000000,0.000000,0.000000,0.005860,0.000000|eff|0.000000,499.511719,-338.378906,0.000000,60.424805,0.000000
cobot_dynamixel_driver/joint_states|name|J1,J2,J3,J4,J5,J6|pos|-0.000038,0.261781,-0.000175,-0.000038,0.000248,-0.000021|vel|0.000000,-0.000000,0.000209,0.000000,0.005860,0.000000|eff|-64.453125,499.511719,-338.378906,0.000000,44.311523,0.000000
cobot_dynamixel_driver/joint_states|name|J1,J2,J3,J4,J5,J6|pos|-0.000038,0.261781,-0.000175,-0.000038,0.000248,-0.000021|vel|0.000626,-0.000000,0.000209,0.000000,0.005860,0.000000|eff|0.000000,499.511719,-338.378906,-32.226562,24.169922,0.000000
cobot_dynamixel_driver/joint_states|name|J1,J2,J3,J4,J5,J6|pos|-0.000025,0.261781,-0.000163,-0.000038,0.000248,-0.000021|vel|0.000626,-0.000000,0.000209,0.000000,0.005860,0.000000|eff|0.000000,515.625000,-354.492188,-48.339844,20.141602,0.000000
cobot_dynamixel_driver/joint_states|name|J1,J2,J3,J4,J5,J6|pos|-0.000025,0.261794,-0.000138,-0.000038,0.000248,-0.000021|vel|0.000626,-0.000000,0.000209,0.000000,0.005860,0.000000|eff|0.000000,531.738281,-290.039062,-48.339844,0.000000,24.169922
cobot_dynamixel_driver/joint_states|name|J1,J2,J3,J4,J5,J6|pos|-0.000025,0.261794,-0.000125,-0.000038,0.000228,-0.000021|vel|0.000626,-0.000000,0.000835,0.000000,-0.005860,0.000000|eff|0.000000,483.398438,-306.152344,-32.226562,28.198242,0.000000
cobot_dynamixel_driver/joint_states|name|J1,J2,J3,J4,J5,J6|pos|0.000013,0.261806,-0.000125,-0.000038,0.000228,-0.000021|vel|0.001669,-0.000000,0.000835,0.000000,0.000000,0.000000|eff|0.000000,499.511719,-338.378906,0.000000,20.141602,0.000000
cobot_dynamixel_driver/joint_states|name|J1,J2,J3,J4,J5,J6|pos|0.000025,0.261806,-0.000113,-0.000038,0.000228,-0.000021|vel|0.001669,-0.000000,0.000835,0.000000,0.000000,0.000000|eff|-64.453125,483.398438,-338.378906,0.000000,16.113281,0.000000
cobot_dynamixel_driver/joint_states|name|J1,J2,J3,J4,J5,J6|pos|0.000025,0.261806,-0.000113,-0.000038,0.000228,-0.000021|vel|0.001669,-0.000000,0.000835,0.000000,0.000000,0.000000|eff|0.000000,435.058594,-338.378906,-48.339844,16.113281,0.000000
cobot_dynamixel_driver/joint_states|name|J1,J2,J3,J4,J5,J6|pos|0.000025,0.261806,-0.000113,-0.000038,0.000228,-0.000021|vel|0.001669,-0.000000,0.000835,0.000000,0.000000,0.000000|eff|0.000000,402.832031,-338.378906,0.000000,0.000000,0.000000
cobot_dynamixel_driver/joint_states|name|J1,J2,J3,J4,J5,J6|pos|0.000025,0.261806,-0.000113,-0.000038,0.000228,-0.000021|vel|0.001669,-0.000000,0.000835,0.000000,0.000000,0.000000|eff|0.000000,515.625000,-273.925781,-32.226562,0.000000,0.000000
cobot_dynamixel_driver/joint_states|name|J1,J2,J3,J4,J5,J6|pos|0.000025,0.261806,-0.000113,-0.000038,0.000228,-0.000021|vel|0.001669,-0.000000,0.000835,0.000000,0.000000,0.000000|eff|0.000000,499.511719,-338.378906,0.000000,12.084961,0.000000
cobot_dynamixel_driver/joint_states|name|J1,J2,J3,J4,J5,J6|pos|0.000025,0.261806,-0.000113,-0.000038,0.000207,-0.000021|vel|0.001669,-0.000000,0.000000,0.000000,0.000000,0.000000|eff|-145.019531,515.625000,-338.378906,0.000000,0.000000,0.000000
cobot_dynamixel_driver/joint_states|name|J1,J2,J3,J4,J5,J6|pos|0.000013,0.261806,-0.000113,-0.000038,0.000186,-0.000021|vel|0.000000,-0.000000,0.000000,0.000000,0.000000,0.000000|eff|0.000000,499.511719,-338.378906,0.000000,0.000000,0.000000
cobot_dynamixel_driver/joint_states|name|J1,J2,J3,J4,J5,J6|pos|0.000013,0.261806,-0.000113,-0.000038,0.000186,-0.000021|vel|0.000000,-0.000000,0.000000,0.000000,0.000000,0.000000|eff|0.000000,515.625000,-338.378906,0.000000,0.000000,0.000000
cobot_dynamixel_driver/joint_states|name|J1,J2,J3,J4,J5,J6|pos|0.000013,0.261806,-0.000100,-0.000038,0.000186,-0.000021|vel|0.000000,-0.000000,0.000000,0.000000,0.000000,0.000000|eff|-80.566406,483.398438,-338.378906,0.000000,0.000000,8.056641
cobot_dynamixel_driver/joint_states|name|J1,J2,J3,J4,J5,J6|pos|0.000025,0.261806,-0.000100,-0.000038,0.000186,-0.000021|vel|0.000000,-0.000000,0.000000,0.000000,0.000000,0.000000|eff|-145.019531,499.511719,-338.378906,0.000000,0.000000,0.000000
cobot_dynamixel_driver/joint_states|name|J1,J2,J3,J4,J5,J6|pos|0.000025,0.261806,-0.000100,-0.000038,0.000145,-0.000021|vel|0.000000,-0.000000,0.000000,0.000000,-0.000345,0.000000|eff|-80.566406,418.945312,-322.265625,0.000000,-12.084961,0.000000
cobot_dynamixel_driver/joint_states|name|J1,J2,J3,J4,J5,J6|pos|0.000025,0.261806,-0.000100,-0.000038,0.000083,-0.000021|vel|0.000000,-0.000000,0.000000,0.000000,-0.003447,0.000000|eff|0.000000,515.625000,-338.378906,0.000000,0.000000,0.000000
cobot_dynamixel_driver/joint_states|name|J1,J2,J3,J4,J5,J6|pos|0.000025,0.261806,-0.000088,-0.000038,0.000083,-0.000021|vel|0.000000,-0.000000,0.000000,0.000000,-0.003447,0.000000|eff|0.000000,499.511719,-273.925781,0.000000,0.000000,0.000000
cobot_dynamixel_driver/joint_states|name|J1,J2,J3,J4,J5,J6|pos|0.000025,0.261806,-0.000088,-0.000025,0.000083,-0.000021|vel|0.000000,-0.000000,0.000000,0.000000,-0.003447,0.000000|eff|-112.792969,499.511719,-273.925781,0.000000,12.084961,0.000000
cobot_dynamixel_driver/joint_states|name|J1,J2,J3,J4,J5,J6|pos|0.000025,0.261806,-0.000088,-0.000025,0.000083,-0.000021|vel|0.000000,-0.000000,0.000000,0.000000,-0.003447,0.000000|eff|0.000000,515.625000,-338.378906,0.000000,0.000000,0.000000
cobot_dynamixel_driver/joint_states|name|J1,J2,J3,J4,J5,J6|pos|0.000025,0.261806,-0.000075,-0.000025,0.000083,-0.000021|vel|0.000000,-0.000000,0.000000,0.000000,-0.003447,0.000000|eff|0.000000,499.511719,-338.378906,0.000000,20.141602,0.000000
cobot_dynamixel_driver/joint_states|name|J1,J2,J3,J4,J5,J6|pos|0.000025,0.261806,-0.000075,-0.000025,0.000083,-0.000021|vel|0.000000,-0.000000,0.000000,0.000000,-0.003447,0.000000|eff|0.000000,499.511719,-241.699219,0.000000,20.141602,0.000000
cobot_dynamixel_driver/joint_states|name|J1,J2,J3,J4,J5,J6|pos|0.000025,0.261806,-0.000075,-0.000025,0.000083,-0.000021|vel|0.000000,-0.000000,0.000000,0.000000,0.000000,0.000000|eff|-48.339844,499.511719,-225.585938,0.000000,20.141602,24.169922
cobot_dynamixel_driver/joint_states|name|J1,J2,J3,J4,J5,J6|pos|0.000025,0.261806,-0.000075,-0.000025,0.000083,-0.000021|vel|0.000000,-0.000000,0.000000,0.000000,0.000000,0.000000|eff|0.000000,499.511719,-225.585938,0.000000,20.141602,0.000000
cobot_dynamixel_driver/joint_states|name|J1,J2,J3,J4,J5,J6|pos|0.000025,0.261806,-0.000075,-0.000025,0.000083,-0.000021|vel|0.000000,-0.000000,0.000000,0.000000,0.000000,0.000000|eff|-48.339844,515.625000,-273.925781,0.000000,20.141602,0.000000
cobot_dynamixel_driver/joint_states|name|J1,J2,J3,J4,J5,J6|pos|0.000025,0.261806,-0.000075,-0.000025,0.000083,-0.000021|vel|0.000000,-0.000000,0.000000,0.000000,0.000000,0.000000|eff|0.000000,483.398438,-306.152344,0.000000,20.141602,0.000000
cobot_dynamixel_driver/joint_states|name|J1,J2,J3,J4,J5,J6|pos|0.000025,0.261806,-0.000063,-0.000025,0.000083,-0.000021|vel|0.000000,-0.000000,0.000000,0.000000,0.000000,0.000000|eff|0.000000,515.625000,-241.699219,0.000000,20.141602,0.000000
cobot_dynamixel_driver/joint_states|name|J1,J2,J3,J4,J5,J6|pos|0.000013,0.261806,-0.000050,-0.000025,0.000083,-0.000021|vel|0.000000,-0.000000,0.000000,0.000000,0.000000,0.000000|eff|-64.453125,499.511719,-225.585938,0.000000,20.141602,0.000000
cobot_dynamixel_driver/joint_states|name|J1,J2,J3,J4,J5,J6|pos|0.000013,0.261806,-0.000050,-0.000025,0.000083,-0.000021|vel|0.000000,-0.000000,0.000000,0.000000,0.000000,0.000000|eff|0.000000,515.625000,-225.585938,0.000000,16.113281,24.169922
cobot_dynamixel_driver/joint_states|name|J1,J2,J3,J4,J5,J6|pos|0.000013,0.261806,-0.000050,-0.000025,0.000083,-0.000021|vel|0.000000,-0.000000,0.000000,0.000000,0.000000,0.000000|eff|-80.566406,515.625000,-290.039062,0.000000,16.113281,12.084961
cobot_dynamixel_driver/joint_states|name|J1,J2,J3,J4,J5,J6|pos|0.000013,0.261806,-0.000038,-0.000025,0.000083,-0.000021|vel|0.000000,-0.000000,0.000000,0.000000,0.000000,0.000000|eff|0.000000,515.625000,-241.699219,0.000000,20.141602,0.000000
cobot_dynamixel_driver/joint_states|name|J1,J2,J3,J4,J5,J6|pos|0.000013,0.261806,-0.000038,-0.000025,0.000083,-0.000021|vel|0.000000,-0.000000,0.000000,0.000000,0.000000,0.000000|eff|0.000000,499.511719,-257.812500,0.000000,20.141602,24.169922
cobot_dynamixel_driver/joint_states|name|J1,J2,J3,J4,J5,J6|pos|0.000013,0.261806,-0.000038,-0.000025,0.000083,-0.000021|vel|0.000000,-0.000000,0.000000,0.000000,0.000000,0.000000|eff|-145.019531,483.398438,-273.925781,0.000000,16.113281,0.000000
cobot_dynamixel_driver/joint_states|name|J1,J2,J3,J4,J5,J6|pos|0.000013,0.261806,-0.000038,-0.000025,0.000083,-0.000021|vel|0.000000,-0.000000,0.000000,0.000000,0.000000,0.000000|eff|0.000000,418.945312,-241.699219,0.000000,20.141602,12.084961
cobot_dynamixel_driver/joint_states|name|J1,J2,J3,J4,J5,J6|pos|0.000013,0.261806,-0.000025,-0.000025,0.000083,-0.000021|vel|0.000000,-0.000000,0.000000,0.000000,0.000000,0.000000|eff|0.000000,515.625000,-338.378906,0.000000,16.113281,0.000000
cobot_dynamixel_driver/joint_states|name|J1,J2,J3,J4,J5,J6|pos|0.000013,0.261806,-0.000025,-0.000025,0.000083,-0.000021|vel|0.000000,-0.000000,0.000000,0.000000,0.000000,0.000000|eff|0.000000,515.625000,-338.378906,0.000000,8.056641,0.000000
cobot_dynamixel_driver/joint_states|name|J1,J2,J3,J4,J5,J6|pos|0.000013,0.261806,-0.000025,-0.000025,0.000083,-0.000021|vel|0.000000,-0.000000,0.000000,0.000000,0.000000,0.000000|eff|0.000000,515.625000,-306.152344,0.000000,16.113281,0.000000
cobot_dynamixel_driver/joint_states|name|J1,J2,J3,J4,J5,J6|pos|0.000013,0.261806,-0.000013,-0.000025,0.000083,-0.000021|vel|0.000000,-0.000000,0.000000,0.000000,0.000000,0.000000|eff|-80.566406,499.511719,-225.585938,0.000000,16.113281,16.113281
cobot_dynamixel_driver/joint_states|name|J1,J2,J3,J4,J5,J6|pos|0.000013,0.261806,-0.000013,-0.000025,0.000083,-0.000021|vel|0.000000,-0.000000,0.000000,0.000000,0.000000,0.000000|eff|0.000000,483.398438,-257.812500,0.000000,0.000000,0.000000
cobot_dynamixel_driver/joint_states|name|J1,J2,J3,J4,J5,J6|pos|0.000013,0.261806,-0.000013,-0.000025,0.000083,-0.000021|vel|0.000000,-0.000000,0.000000,0.000000,0.000000,0.000000|eff|0.000000,515.625000,-290.039062,0.000000,16.113281,0.000000
cobot_dynamixel_driver/joint_states|name|J1,J2,J3,J4,J5,J6|pos|0.000013,0.261806,-0.000013,-0.000025,0.000083,-0.000021|vel|0.000000,-0.000000,0.000000,0.000000,0.000000,0.000000|eff|-112.792969,499.511719,-241.699219,0.000000,0.000000,0.000000
cobot_dynamixel_driver/joint_states|name|J1,J2,J3,J4,J5,J6|pos|0.000013,0.261806,-0.000013,-0.000025,0.000083,-0.000021|vel|0.000000,-0.000000,0.000000,0.000000,0.000000,0.000000|eff|-64.453125,499.511719,-225.585938,0.000000,0.000000,0.000000
cobot_dynamixel_driver/joint_states|name|J1,J2,J3,J4,J5,J6|pos|0.000013,0.261806,-0.000013,-0.000025,0.000083,-0.000021|vel|0.000000,-0.000000,0.000000,0.000000,0.000000,0.000000|eff|0.000000,515.625000,-241.699219,0.000000,0.000000,0.000000
cobot_dynamixel_driver/joint_states|name|J1,J2,J3,J4,J5,J6|pos|0.000013,0.261806,0.000000,-0.000025,0.000083,-0.000021|vel|0.000000,-0.000000,0.000000,0.000000,0.000000,0.000000|eff|0.000000,467.285156,-322.265625,0.000000,12.084961,0.000000
cobot_dynamixel_driver/joint_states|name|J1,J2,J3,J4,J5,J6|pos|0.000013,0.261806,0.000000,-0.000025,0.000083,-0.000021|vel|0.000000,-0.000000,0.000000,0.000000,0.000000,0.000000|eff|-64.453125,499.511719,-225.585938,0.000000,0.000000,0.000000
cobot_dynamixel_driver/joint_states|name|J1,J2,J3,J4,J5,J6|pos|0.000013,0.261806,0.000000,-0.000025,0.000083,-0.000021|vel|0.000000,-0.000000,0.000000,0.000000,0.000000,0.000000|eff|0.000000,467.285156,-273.925781,0.000000,8.056641,8.056641
cobot_dynamixel_driver/joint_states|name|J1,J2,J3,J4,J5,J6|pos|0.000013,0.261806,0.000000,-0.000025,0.000083,-0.000021|vel|0.000000,-0.000000,0.000000,0.000000,0.000000,0.000000|eff|0.000000,499.511719,-225.585938,0.000000,8.056641,0.000000
cobot_dynamixel_driver/joint_states|name|J1,J2,J3,J4,J5,J6|pos|0.000013,0.261806,0.000000,-0.000025,0.000083,-0.000021|vel|0.000000,-0.000000,0.000000,0.000000,0.000000,0.000000|eff|-48.339844,370.605469,-225.585938,0.000000,16.113281,0.000000
cobot_dynamixel_driver/joint_states|name|J1,J2,J3,J4,J5,J6|pos|0.000013,0.261806,0.000000,-0.000025,0.000083,-0.000021|vel|0.000000,-0.000000,0.000000,0.000000,0.000000,0.000000|eff|0.000000,370.605469,-257.812500,0.000000,12.084961,0.000000
cobot_dynamixel_driver/joint_states|name|J1,J2,J3,J4,J5,J6|pos|0.000013,0.261806,0.000000,-0.000025,0.000083,-0.000021|vel|0.000000,-0.000000,0.000000,0.000000,0.000000,0.000000|eff|-80.566406,402.832031,-241.699219,0.000000,0.000000,12.084961
cobot_dynamixel_driver/joint_states|name|J1,J2,J3,J4,J5,J6|pos|0.000013,0.261806,0.000000,-0.000025,0.000083,-0.000021|vel|0.000000,-0.000000,0.000000,0.000000,0.000000,0.000000|eff|0.000000,515.625000,-225.585938,0.000000,0.000000,0.000000
cobot_dynamixel_driver/joint_states|name|J1,J2,J3,J4,J5,J6|pos|0.000013,0.261806,0.000013,-0.000025,0.000083,-0.000021|vel|0.000000,-0.000000,0.000000,0.000000,0.000000,0.000000|eff|0.000000,499.511719,-322.265625,0.000000,0.000000,0.000000
cobot_dynamixel_driver/joint_states|name|J1,J2,J3,J4,J5,J6|pos|0.000013,0.261806,0.000013,-0.000025,0.000083,-0.000021|vel|0.000000,-0.000000,0.000000,0.000000,0.000000,0.000000|eff|-112.792969,499.511719,-257.812500,0.000000,0.000000,16.113281
cobot_dynamixel_driver/joint_states|name|J1,J2,J3,J4,J5,J6|pos|0.000013,0.261806,0.000013,-0.000025,0.000083,-0.000021|vel|0.000000,-0.000000,0.000000,0.000000,0.000000,0.000000|eff|-112.792969,515.625000,-290.039062,0.000000,0.000000,0.000000
cobot_dynamixel_driver/joint_states|name|J1,J2,J3,J4,J5,J6|pos|0.000013,0.261806,0.000013,-0.000025,0.000083,-0.000021|vel|0.000000,-0.000000,0.000000,0.000000,0.000000,0.000000|eff|0.000000,483.398438,-306.152344,0.000000,0.000000,0.000000
cobot_dynamixel_driver/joint_states|name|J1,J2,J3,J4,J5,J6|pos|0.000013,0.261806,0.000013,-0.000025,0.000083,-0.000021|vel|0.000000,-0.000000,0.000000,0.000000,0.000000,0.000000|eff|0.000000,467.285156,-290.039062,0.000000,0.000000,0.000000
cobot_dynamixel_driver/joint_states|name|J1,J2,J3,J4,J5,J6|pos|0.000013,0.261806,0.000013,-0.000025,0.000083,-0.000021|vel|0.000000,-0.000000,0.000000,0.000000,0.000000,0.000000|eff|0.000000,499.511719,-338.378906,0.000000,0.000000,24.169922
cobot_dynamixel_driver/joint_states|name|J1,J2,J3,J4,J5,J6|pos|0.000013,0.261806,0.000013,-0.000025,0.000083,-0.000021|vel|0.000000,-0.000000,0.000000,0.000000,0.000000,0.000000|eff|0.000000,499.511719,-290.039062,0.000000,0.000000,16.113281
cobot_dynamixel_driver/joint_states|name|J1,J2,J3,J4,J5,J6|pos|0.000013,0.261806,0.000013,-0.000025,0.000083,-0.000021|vel|0.000000,-0.000000,0.000000,0.000000,0.000000,0.000000|eff|-112.792969,499.511719,-257.812500,0.000000,0.000000,0.000000
cobot_dynamixel_driver/joint_states|name|J1,J2,J3,J4,J5,J6|pos|0.000013,0.261806,0.000013,-0.000025,0.000083,-0.000021|vel|0.000000,-0.000000,0.000000,0.000000,0.000000,0.000000|eff|-80.566406,418.945312,-290.039062,0.000000,0.000000,0.000000
cobot_dynamixel_driver/joint_states|name|J1,J2,J3,J4,J5,J6|pos|0.000013,0.261806,0.000013,-0.000025,0.000083,-0.000021|vel|0.000000,-0.000000,0.000000,0.000000,0.000000,0.000000|eff|0.000000,483.398438,-290.039062,0.000000,0.000000,0.000000
cobot_dynamixel_driver/joint_states|name|J1,J2,J3,J4,J5,J6|pos|0.000013,0.261806,0.000013,-0.000025,0.000083,-0.000021|vel|0.000000,-0.000000,0.000000,0.000000,0.000000,0.000000|eff|0.000000,451.171875,-273.925781,0.000000,0.000000,0.000000
cobot_dynamixel_driver/joint_states|name|J1,J2,J3,J4,J5,J6|pos|0.000013,0.261806,0.000025,-0.000025,0.000083,-0.000021|vel|0.000000,-0.000000,0.000000,0.000000,0.000000,0.000000|eff|0.000000,499.511719,-241.699219,0.000000,0.000000,0.000000
cobot_dynamixel_driver/joint_states|name|J1,J2,J3,J4,J5,J6|pos|0.000013,0.261806,0.000025,-0.000025,0.000083,-0.000021|vel|0.000000,-0.000000,0.000000,0.000000,0.000000,0.000000|eff|0.000000,499.511719,-306.152344,0.000000,0.000000,0.000000
cobot_dynamixel_driver/joint_states|name|J1,J2,J3,J4,J5,J6|pos|0.000013,0.261806,0.000025,-0.000025,0.000083,-0.000021|vel|0.000000,-0.000000,0.000000,0.000000,0.000000,0.000000|eff|0.000000,515.625000,-290.039062,0.000000,0.000000,0.000000
cobot_dynamixel_driver/joint_states|name|J1,J2,J3,J4,J5,J6|pos|0.000013,0.261806,0.000025,-0.000025,0.000083,-0.000021|vel|0.000000,-0.000000,0.000000,0.000000,0.000000,0.000000|eff|-112.792969,499.511719,-225.585938,0.000000,-8.056641,0.000000
cobot_dynamixel_driver/joint_states|name|J1,J2,J3,J4,J5,J6|pos|0.000013,0.261806,0.000025,-0.000025,0.000083,-0.000021|vel|0.000000,-0.000000,0.000000,0.000000,0.000000,0.000000|eff|-64.453125,467.285156,-322.265625,0.000000,0.000000,0.000000
cobot_dynamixel_driver/joint_states|name|J1,J2,J3,J4,J5,J6|pos|0.000013,0.261806,0.000025,-0.000025,0.000083,-0.000021|vel|0.000000,-0.000000,0.000000,0.000000,0.000000,0.000000|eff|-48.339844,467.285156,-322.265625,0.000000,0.000000,24.169922
cobot_dynamixel_driver/joint_states|name|J1,J2,J3,J4,J5,J6|pos|0.000013,0.261806,0.000025,-0.000025,0.000083,-0.000021|vel|0.000000,-0.000000,0.000000,0.000000,0.000000,0.000000|eff|0.000000,499.511719,-257.812500,0.000000,0.000000,0.000000
cobot_dynamixel_driver/joint_states|name|J1,J2,J3,J4,J5,J6|pos|0.000013,0.261806,0.000025,-0.000025,0.000083,-0.000021|vel|0.000000,-0.000000,0.000000,0.000000,0.000000,0.000000|eff|0.000000,499.511719,-290.039062,0.000000,-8.056641,0.000000
cobot_dynamixel_driver/joint_states|name|J1,J2,J3,J4,J5,J6|pos|0.000013,0.261806,0.000025,-0.000025,0.000062,-0.000021|vel|0.000000,-0.000000,0.000000,0.000000,0.000000,0.000000|eff|0.000000,499.511719,-257.812500,0.000000,-8.056641,0.000000
cobot_dynamixel_driver/joint_states|name|J1,J2,J3,J4,J5,J6|pos|0.000013,0.261806,0.000025,-0.000025,0.000041,-0.000021|vel|0.000000,-0.000000,0.000000,0.000000,0.000000,0.000000|eff|0.000000,499.511719,-322.265625,0.000000,0.000000,0.000000
cobot_dynamixel_driver/joint_states|name|J1,J2,J3,J4,J5,J6|pos|0.000013,0.261806,0.000025,-0.000025,0.000041,-0.000021|vel|0.000000,-0.000000,0.000000,0.000000,0.000000,0.000000|eff|-80.566406,499.511719,-322.265625,0.000000,-16.113281,0.000000
cobot_dynamixel_driver/joint_states|name|J1,J2,J3,J4,J5,J6|pos|0.000013,0.261806,0.000025,-0.000025,0.000041,-0.000021|vel|0.000000,-0.000000,0.000000,0.000000,0.000000,0.000000|eff|0.000000,435.058594,-290.039062,0.000000,0.000000,12.084961
cobot_dynamixel_driver/joint_states|name|J1,J2,J3,J4,J5,J6|pos|0.000013,0.261806,0.000025,-0.000025,0.000041,-0.000021|vel|0.000000,-0.000000,0.000000,0.000000,0.000000,0.000000|eff|-112.792969,515.625000,-241.699219,0.000000,-12.084961,8.056641
cobot_dynamixel_driver/joint_states|name|J1,J2,J3,J4,J5,J6|pos|0.000013,0.261806,0.000025,-0.000025,0.000041,-0.000021|vel|0.000000,-0.000000,0.000000,0.000000,0.000000,0.000000|eff|-80.566406,418.945312,-241.699219,0.000000,-16.113281,0.000000
cobot_dynamixel_driver/joint_states|name|J1,J2,J3,J4,J5,J6|pos|0.000013,0.261806,0.000025,-0.000025,0.000041,-0.000021|vel|0.000000,-0.000000,0.000000,0.000000,0.000000,0.000000|eff|0.000000,515.625000,-306.152344,0.000000,-12.084961,0.000000
cobot_dynamixel_driver/joint_states|name|J1,J2,J3,J4,J5,J6|pos|0.000013,0.261806,0.000025,-0.000025,0.000041,-0.000021|vel|0.000000,-0.000000,0.000000,0.000000,0.000000,0.000000|eff|-112.792969,515.625000,-209.472656,0.000000,-8.056641,0.000000
cobot_dynamixel_driver/joint_states|name|J1,J2,J3,J4,J5,J6|pos|0.000013,0.261806,0.000025,-0.000025,0.000041,-0.000021|vel|0.000000,-0.000000,0.000000,0.000000,0.000000,0.000000|eff|0.000000,515.625000,-306.152344,0.000000,-8.056641,0.000000
cobot_dynamixel_driver/joint_states|name|J1,J2,J3,J4,J5,J6|pos|0.000013,0.261806,0.000025,-0.000025,0.000041,-0.000021|vel|0.000000,-0.000000,0.000000,0.000000,0.000000,0.000000|eff|0.000000,499.511719,-257.812500,0.000000,0.000000,0.000000
cobot_dynamixel_driver/joint_states|name|J1,J2,J3,J4,J5,J6|pos|0.000013,0.261806,0.000025,-0.000025,0.000041,-0.000021|vel|0.000000,-0.000000,0.000000,0.000000,0.000000,0.000000|eff|-48.339844,515.625000,-225.585938,0.000000,-16.113281,0.000000
cobot_dynamixel_driver/joint_states|name|J1,J2,J3,J4,J5,J6|pos|0.000013,0.261806,0.000038,-0.000025,0.000041,-0.000021|vel|0.000000,-0.000000,0.000000,0.000000,0.000000,0.000000|eff|0.000000,515.625000,-241.699219,0.000000,0.000000,0.000000
cobot_dynamixel_driver/joint_states|name|J1,J2,J3,J4,J5,J6|pos|0.000013,0.261806,0.000038,-0.000025,0.000041,-0.000021|vel|0.000000,-0.000000,0.000000,0.000000,0.000000,0.000000|eff|0.000000,499.511719,-322.265625,0.000000,0.000000,0.000000
cobot_dynamixel_driver/joint_states|name|J1,J2,J3,J4,J5,J6|pos|0.000013,0.261806,0.000038,-0.000025,0.000041,-0.000021|vel|0.000000,-0.000000,0.000000,0.000000,0.000000,0.000000|eff|-80.566406,499.511719,-322.265625,0.000000,-20.141602,0.000000
cobot_dynamixel_driver/joint_states|name|J1,J2,J3,J4,J5,J6|pos|0.000013,0.261806,0.000038,-0.000025,0.000041,-0.000021|vel|0.000000,-0.000000,0.000000,0.000000,0.000000,0.000000|eff|0.000000,418.945312,-338.378906,0.000000,0.000000,24.169922
cobot_dynamixel_driver/joint_states|name|J1,J2,J3,J4,J5,J6|pos|0.000013,0.261806,0.000038,-0.000025,0.000041,-0.000021|vel|0.000000,-0.000000,0.000000,0.000000,0.000000,0.000000|eff|-80.566406,467.285156,-306.152344,0.000000,0.000000,0.000000
cobot_dynamixel_driver/joint_states|name|J1,J2,J3,J4,J5,J6|pos|0.000013,0.261806,0.000038,-0.000025,0.000041,-0.000021|vel|0.000000,-0.000000,0.000000,0.000000,0.000000,0.000000|eff|-112.792969,483.398438,-225.585938,0.000000,0.000000,0.000000
cobot_dynamixel_driver/joint_states|name|J1,J2,J3,J4,J5,J6|pos|0.000013,0.261806,0.000038,-0.000025,0.000041,-0.000021|vel|0.000000,-0.000000,0.000000,0.000000,0.000000,0.000000|eff|0.000000,451.171875,-290.039062,0.000000,-16.113281,0.000000
cobot_dynamixel_driver/joint_states|name|J1,J2,J3,J4,J5,J6|pos|0.000013,0.261806,0.000038,-0.000025,0.000041,-0.000021|vel|0.000000,-0.000000,0.000000,0.000000,0.000000,0.000000|eff|0.000000,499.511719,-225.585938,0.000000,-16.113281,24.169922
cobot_dynamixel_driver/joint_states|name|J1,J2,J3,J4,J5,J6|pos|0.000013,0.261806,0.000038,-0.000025,0.000041,-0.000021|vel|0.000000,-0.000000,0.000000,0.000000,0.000000,0.000000|eff|0.000000,499.511719,-306.152344,0.000000,0.000000,0.000000
cobot_dynamixel_driver/joint_states|name|J1,J2,J3,J4,J5,J6|pos|0.000013,0.261806,0.000038,-0.000025,0.000041,-0.000021|vel|0.000000,-0.000000,0.000000,0.000000,0.000000,0.000000|eff|0.000000,499.511719,-306.152344,0.000000,-16.113281,8.056641
cobot_dynamixel_driver/joint_states|name|J1,J2,J3,J4,J5,J6|pos|0.000013,0.261806,0.000038,-0.000025,0.000041,-0.000021|vel|0.000000,-0.000000,0.000000,0.000000,0.000000,0.000000|eff|0.000000,499.511719,-257.812500,0.000000,-16.113281,0.000000
cobot_dynamixel_driver/joint_states|name|J1,J2,J3,J4,J5,J6|pos|0.000013,0.261806,0.000038,-0.000025,0.000041,-0.000021|vel|0.000000,-0.000000,0.000000,0.000000,0.000000,0.000000|eff|0.000000,499.511719,-322.265625,0.000000,-20.141602,16.113281
cobot_dynamixel_driver/joint_states|name|J1,J2,J3,J4,J5,J6|pos|0.000013,0.261806,0.000038,-0.000025,0.000041,-0.000021|vel|0.000000,-0.000000,0.000000,0.000000,0.000000,0.000000|eff|0.000000,499.511719,-273.925781,0.000000,-16.113281,0.000000
cobot_dynamixel_driver/joint_states|name|J1,J2,J3,J4,J5,J6|pos|0.000013,0.261806,0.000038,-0.000013,0.000041,-0.000021|vel|0.000000,-0.000000,0.000000,0.000000,0.000000,0.000000|eff|0.000000,499.511719,-241.699219,0.000000,-16.113281,16.113281
cobot_dynamixel_driver/joint_states|name|J1,J2,J3,J4,J5,J6|pos|0.000013,0.261806,0.000038,-0.000013,0.000041,-0.000021|vel|0.000000,-0.000000,0.000000,0.000000,0.000000,0.000000|eff|0.000000,435.058594,-306.152344,0.000000,0.000000,0.000000
cobot_dynamixel_driver/joint_states|name|J1,J2,J3,J4,J5,J6|pos|0.000013,0.261806,0.000038,-0.000013,0.000041,-0.000021|vel|0.000000,-0.000000,0.000000,0.000000,0.000000,0.000000|eff|0.000000,515.625000,-290.039062,0.000000,0.000000,0.000000
cobot_dynamixel_driver/joint_states|name|J1,J2,J3,J4,J5,J6|pos|0.000013,0.261806,0.000038,-0.000013,0.000041,-0.000021|vel|0.000000,-0.000000,0.000000,0.000000,0.000000,0.000000|eff|0.000000,515.625000,-338.378906,0.000000,-8.056641,0.000000
cobot_dynamixel_driver/joint_states|name|J1,J2,J3,J4,J5,J6|pos|0.000013,0.261806,0.000038,-0.000013,0.000041,-0.000021|vel|0.000000,-0.000000,0.000000,0.000000,0.000000,0.000000|eff|-145.019531,499.511719,-322.265625,0.000000,-8.056641,0.000000
cobot_dynamixel_driver/joint_states|name|J1,J2,J3,J4,J5,J6|pos|0.000013,0.261806,0.000038,-0.000013,0.000041,-0.000021|vel|0.000000,-0.000000,0.000000,0.000000,0.000000,0.000000|eff|-80.566406,515.625000,-306.152344,0.000000,-16.113281,0.000000
cobot_dynamixel_driver/joint_states|name|J1,J2,J3,J4,J5,J6|pos|0.000013,0.261806,0.000038,-0.000013,0.000041,-0.000021|vel|0.000000,-0.000000,0.000000,0.000000,0.000000,0.000000|eff|-80.566406,418.945312,-306.152344,0.000000,-8.056641,0.000000
cobot_dynamixel_driver/joint_states|name|J1,J2,J3,J4,J5,J6|pos|0.000013,0.261806,0.000038,-0.000013,0.000041,-0.000021|vel|0.000000,-0.000000,0.000000,0.000000,0.000000,0.000000|eff|0.000000,515.625000,-306.152344,0.000000,-12.084961,0.000000
cobot_dynamixel_driver/joint_states|name|J1,J2,J3,J4,J5,J6|pos|0.000013,0.261806,0.000038,-0.000013,0.000041,-0.000021|vel|0.000000,-0.000000,0.000000,0.000000,0.000000,0.000000|eff|0.000000,483.398438,-273.925781,0.000000,-8.056641,0.000000
cobot_dynamixel_driver/joint_states|name|J1,J2,J3,J4,J5,J6|pos|0.000013,0.261806,0.000038,-0.000013,0.000041,-0.000021|vel|0.000000,-0.000000,0.000000,0.000000,0.000000,0.000000|eff|0.000000,515.625000,-322.265625,0.000000,-16.113281,24.169922
cobot_dynamixel_driver/joint_states|name|J1,J2,J3,J4,J5,J6|pos|0.000013,0.261806,0.000038,-0.000013,0.000041,-0.000021|vel|0.000000,-0.000000,0.000000,0.000000,0.000000,0.000000|eff|-80.566406,418.945312,-273.925781,0.000000,-20.141602,0.000000
cobot_dynamixel_driver/joint_states|name|J1,J2,J3,J4,J5,J6|pos|0.000013,0.261806,0.000038,-0.000013,0.000041,-0.000021|vel|0.000000,-0.000000,0.000000,0.000000,0.000000,0.000000|eff|-80.566406,515.625000,-273.925781,0.000000,0.000000,0.000000
cobot_dynamixel_driver/joint_states|name|J1,J2,J3,J4,J5,J6|pos|0.000013,0.261806,0.000038,-0.000013,0.000041,-0.000021|vel|0.000000,-0.000000,0.000000,0.000000,0.000000,0.000000|eff|-112.792969,499.511719,-290.039062,0.000000,0.000000,0.000000
cobot_dynamixel_driver/joint_states|name|J1,J2,J3,J4,J5,J6|pos|0.000013,0.261806,0.000038,-0.000013,0.000041,-0.000021|vel|0.000000,-0.000000,0.000000,0.000000,0.000000,0.000000|eff|0.000000,402.832031,-273.925781,0.000000,0.000000,0.000000
cobot_dynamixel_driver/joint_states|name|J1,J2,J3,J4,J5,J6|pos|0.000013,0.261806,0.000038,-0.000013,0.000041,-0.000021|vel|0.000000,-0.000000,0.000000,0.000000,0.000000,0.000000|eff|-112.792969,515.625000,-322.265625,0.000000,-16.113281,0.000000
cobot_dynamixel_driver/joint_states|name|J1,J2,J3,J4,J5,J6|pos|0.000013,0.261806,0.000038,-0.000013,0.000041,-0.000021|vel|0.000000,-0.000000,0.000000,0.000000,0.000000,0.000000|eff|-145.019531,467.285156,-257.812500,0.000000,-12.084961,0.000000
cobot_dynamixel_driver/joint_states|name|J1,J2,J3,J4,J5,J6|pos|0.000013,0.261806,0.000038,-0.000013,0.000041,-0.000021|vel|0.000000,-0.000000,0.000000,0.000000,0.000000,0.000000|eff|-80.566406,515.625000,-257.812500,0.000000,0.000000,0.000000
cobot_dynamixel_driver/joint_states|name|J1,J2,J3,J4,J5,J6|pos|0.000013,0.261806,0.000038,-0.000013,0.000041,-0.000021|vel|0.000000,-0.000000,0.000000,0.000000,0.000000,0.000000|eff|0.000000,499.511719,-257.812500,0.000000,-16.113281,0.000000
cobot_dynamixel_driver/joint_states|name|J1,J2,J3,J4,J5,J6|pos|0.000013,0.261806,0.000038,-0.000013,0.000041,-0.000021|vel|0.000000,-0.000000,0.000000,0.000000,0.000000,0.000000|eff|-80.566406,418.945312,-338.378906,0.000000,0.000000,0.000000
cobot_dynamixel_driver/joint_states|name|J1,J2,J3,J4,J5,J6|pos|0.000013,0.261806,0.000038,-0.000013,0.000041,-0.000021|vel|0.000000,-0.000000,0.000000,0.000000,0.000000,0.000000|eff|0.000000,499.511719,-273.925781,0.000000,-16.113281,0.000000
cobot_dynamixel_driver/joint_states|name|J1,J2,J3,J4,J5,J6|pos|0.000013,0.261806,0.000038,-0.000013,0.000041,-0.000021|vel|0.000000,-0.000000,0.000000,0.000000,0.000000,0.000000|eff|0.000000,499.511719,-338.378906,0.000000,-16.113281,0.000000
cobot_dynamixel_driver/joint_states|name|J1,J2,J3,J4,J5,J6|pos|0.000013,0.261806,0.000038,-0.000013,0.000041,-0.000021|vel|0.000000,-0.000000,0.000000,0.000000,0.000000,0.000000|eff|0.000000,451.171875,-338.378906,0.000000,-20.141602,0.000000
cobot_dynamixel_driver/joint_states|name|J1,J2,J3,J4,J5,J6|pos|0.000013,0.261806,0.000038,-0.000013,0.000041,-0.000021|vel|0.000000,-0.000000,0.000000,0.000000,0.000000,0.000000|eff|0.000000,499.511719,-338.378906,0.000000,0.000000,0.000000
cobot_dynamixel_driver/joint_states|name|J1,J2,J3,J4,J5,J6|pos|0.000013,0.261806,0.000038,-0.000013,0.000041,-0.000021|vel|0.000000,-0.000000,0.000000,0.000000,0.000000,0.000000|eff|0.000000,499.511719,-290.039062,0.000000,-8.056641,0.000000
cobot_dynamixel_driver/joint_states|name|J1,J2,J3,J4,J5,J6|pos|0.000013,0.261806,0.000038,-0.000013,0.000041,-0.000021|vel|0.000000,-0.000000,0.000000,0.000000,0.000000,0.000000|eff|0.000000,499.511719,-338.378906,0.000000,-16.113281,0.000000
cobot_dynamixel_driver/joint_states|name|J1,J2,J3,J4,J5,J6|pos|0.000013,0.261806,0.000038,-0.000013,0.000041,-0.000021|vel|0.000000,-0.000000,0.000000,0.000000,0.000000,0.000000|eff|0.000000,483.398438,-273.925781,0.000000,0.000000,0.000000
cobot_dynamixel_driver/joint_states|name|J1,J2,J3,J4,J5,J6|pos|0.000013,0.261806,0.000038,-0.000013,0.000041,-0.000021|vel|0.000000,-0.000000,0.000000,0.000000,0.000000,0.000000|eff|0.000000,370.605469,-322.265625,0.000000,0.000000,24.169922
cobot_dynamixel_driver/joint_states|name|J1,J2,J3,J4,J5,J6|pos|0.000013,0.261806,0.000038,-0.000013,0.000041,-0.000021|vel|0.000000,-0.000000,0.000000,0.000000,0.000000,0.000000|eff|0.000000,499.511719,-338.378906,0.000000,-8.056641,0.000000
cobot_dynamixel_driver/joint_states|name|J1,J2,J3,J4,J5,J6|pos|0.000013,0.261806,0.000038,-0.000013,0.000041,-0.000021|vel|0.000000,-0.000000,0.000000,0.000000,0.000000,0.000000|eff|-145.019531,499.511719,-338.378906,0.000000,-20.141602,0.000000
cobot_dynamixel_driver/joint_states|name|J1,J2,J3,J4,J5,J6|pos|0.000013,0.261806,0.000038,-0.000013,0.000041,-0.000021|vel|0.000000,-0.000000,0.000000,0.000000,0.000000,0.000000|eff|-48.339844,435.058594,-306.152344,0.000000,0.000000,0.000000
cobot_dynamixel_driver/joint_states|name|J1,J2,J3,J4,J5,J6|pos|0.000013,0.261806,0.000038,-0.000013,0.000041,-0.000021|vel|0.000000,-0.000000,0.000000,0.000000,0.000000,0.000000|eff|0.000000,499.511719,-338.378906,0.000000,-8.056641,0.000000
cobot_dynamixel_driver/joint_states|name|J1,J2,J3,J4,J5,J6|pos|0.000013,0.261806,0.000038,-0.000013,0.000041,-0.000021|vel|0.000000,-0.000000,0.000000,0.000000,0.000000,0.000000|eff|0.000000,499.511719,-306.152344,0.000000,0.000000,0.000000
cobot_dynamixel_driver/joint_states|name|J1,J2,J3,J4,J5,J6|pos|0.000013,0.261806,0.000038,-0.000013,0.000041,-0.000021|vel|0.000000,-0.000000,0.000000,0.000000,0.000000,0.000000|eff|-80.566406,418.945312,-273.925781,0.000000,0.000000,0.000000
cobot_dynamixel_driver/joint_states|name|J1,J2,J3,J4,J5,J6|pos|0.000013,0.261806,0.000038,-0.000013,0.000041,-0.000021|vel|0.000000,-0.000000,0.000000,0.000000,0.000000,0.000000|eff|0.000000,515.625000,-273.925781,0.000000,0.000000,0.000000
cobot_dynamixel_driver/joint_states|name|J1,J2,J3,J4,J5,J6|pos|0.000013,0.261806,0.000038,-0.000013,0.000041,-0.000021|vel|0.000000,-0.000000,0.000000,0.000000,0.000000,0.000000|eff|0.000000,499.511719,-338.378906,0.000000,0.000000,0.000000
cobot_dynamixel_driver/joint_states|name|J1,J2,J3,J4,J5,J6|pos|0.000013,0.261806,0.000038,-0.000013,0.000041,-0.000021|vel|0.000000,-0.000000,0.000000,0.000000,0.000000,0.000000|eff|-80.566406,515.625000,-322.265625,0.000000,0.000000,24.169922
cobot_dynamixel_driver/joint_states|name|J1,J2,J3,J4,J5,J6|pos|0.000013,0.261806,0.000038,-0.000013,0.000041,-0.000021|vel|0.000000,-0.000000,0.000000,0.000000,0.000000,0.000000|eff|-80.566406,499.511719,-273.925781,0.000000,-16.113281,0.000000
cobot_dynamixel_driver/joint_states|name|J1,J2,J3,J4,J5,J6|pos|0.000013,0.261806,0.000038,-0.000013,0.000041,-0.000021|vel|0.000000,-0.000000,0.000000,0.000000,0.000000,0.000000|eff|-64.453125,499.511719,-306.152344,0.000000,-12.084961,0.000000
cobot_dynamixel_driver/joint_states|name|J1,J2,J3,J4,J5,J6|pos|0.000013,0.261806,0.000038,-0.000013,0.000041,-0.000021|vel|0.000000,-0.000000,0.000000,0.000000,0.000000,0.000000|eff|0.000000,499.511719,-338.378906,0.000000,-20.141602,0.000000
cobot_dynamixel_driver/joint_states|name|J1,J2,J3,J4,J5,J6|pos|0.000013,0.261806,0.000038,-0.000013,0.000041,-0.000021|vel|0.000000,-0.000000,0.000000,0.000000,0.000000,0.000000|eff|0.000000,467.285156,-338.378906,0.000000,0.000000,8.056641
cobot_dynamixel_driver/joint_states|name|J1,J2,J3,J4,J5,J6|pos|0.000013,0.261806,0.000038,-0.000013,0.000041,-0.000021|vel|0.000000,-0.000000,0.000000,0.000000,0.000000,0.000000|eff|0.000000,499.511719,-290.039062,0.000000,-8.056641,0.000000
cobot_dynamixel_driver/joint_states|name|J1,J2,J3,J4,J5,J6|pos|0.000013,0.261806,0.000038,-0.000013,0.000041,-0.000021|vel|0.000000,-0.000000,0.000000,0.000000,0.000000,0.000000|eff|0.000000,515.625000,-322.265625,0.000000,0.000000,8.056641
cobot_dynamixel_driver/joint_states|name|J1,J2,J3,J4,J5,J6|pos|0.000013,0.261806,0.000038,-0.000013,0.000041,-0.000021|vel|0.000000,-0.000000,0.000000,0.000000,0.000000,0.000000|eff|-145.019531,483.398438,-338.378906,0.000000,-20.141602,16.113281
cobot_dynamixel_driver/joint_states|name|J1,J2,J3,J4,J5,J6|pos|0.000013,0.261806,0.000038,-0.000013,0.000041,-0.000021|vel|0.000000,-0.000000,0.000000,0.000000,0.000000,0.000000|eff|-64.453125,483.398438,-338.378906,0.000000,-12.084961,8.056641
cobot_dynamixel_driver/joint_states|name|J1,J2,J3,J4,J5,J6|pos|0.000013,0.261806,0.000038,-0.000013,0.000041,-0.000021|vel|0.000000,-0.000000,0.000000,0.000000,0.000000,0.000000|eff|-112.792969,499.511719,-338.378906,0.000000,0.000000,16.113281
cobot_dynamixel_driver/joint_states|name|J1,J2,J3,J4,J5,J6|pos|0.000013,0.261806,0.000038,-0.000013,0.000041,-0.000021|vel|0.000000,-0.000000,0.000000,0.000000,0.000000,0.000000|eff|-80.566406,483.398438,-338.378906,0.000000,0.000000,0.000000
cobot_dynamixel_driver/joint_states|name|J1,J2,J3,J4,J5,J6|pos|0.000013,0.261806,0.000038,-0.000013,0.000041,-0.000021|vel|0.000000,-0.000000,0.000000,0.000000,0.000000,0.000000|eff|0.000000,515.625000,-338.378906,0.000000,-16.113281,0.000000
cobot_dynamixel_driver/joint_states|name|J1,J2,J3,J4,J5,J6|pos|0.000013,0.261806,0.000038,-0.000013,0.000041,-0.000021|vel|0.000000,-0.000000,0.000000,0.000000,0.000000,0.000000|eff|0.000000,499.511719,-338.378906,0.000000,-20.141602,24.169922
cobot_dynamixel_driver/joint_states|name|J1,J2,J3,J4,J5,J6|pos|0.000013,0.261806,0.000038,-0.000013,0.000041,-0.000021|vel|0.000000,-0.000000,0.000000,0.000000,0.000000,0.000000|eff|0.000000,499.511719,-338.378906,0.000000,0.000000,0.000000
cobot_dynamixel_driver/joint_states|name|J1,J2,J3,J4,J5,J6|pos|0.000013,0.261806,0.000038,-0.000013,0.000041,-0.000021|vel|0.000000,-0.000000,0.000000,0.000000,0.000000,0.000000|eff|0.000000,515.625000,-338.378906,0.000000,-16.113281,0.000000
cobot_dynamixel_driver/joint_states|name|J1,J2,J3,J4,J5,J6|pos|0.000013,0.261806,0.000038,-0.000013,0.000041,-0.000021|vel|0.000000,-0.000000,0.000000,0.000000,0.000000,0.000000|eff|0.000000,467.285156,-338.378906,0.000000,-20.141602,0.000000
cobot_dynamixel_driver/joint_states|name|J1,J2,J3,J4,J5,J6|pos|0.000013,0.261806,0.000038,-0.000013,0.000041,-0.000021|vel|0.000000,-0.000000,0.000000,0.000000,0.000000,0.000000|eff|0.000000,370.605469,-338.378906,0.000000,-12.084961,0.000000
cobot_dynamixel_driver/joint_states|name|J1,J2,J3,J4,J5,J6|pos|0.000013,0.261806,0.000038,-0.000013,0.000041,-0.000021|vel|0.000000,-0.000000,0.000000,0.000000,0.000000,0.000000|eff|0.000000,515.625000,-338.378906,0.000000,-16.113281,0.000000
cobot_dynamixel_driver/joint_states|name|J1,J2,J3,J4,J5,J6|pos|0.000013,0.261806,0.000038,-0.000013,0.000041,-0.000021|vel|0.000000,-0.000000,0.000000,0.000000,0.000000,0.000000|eff|-145.019531,418.945312,-338.378906,0.000000,-8.056641,0.000000
cobot_dynamixel_driver/joint_states|name|J1,J2,J3,J4,J5,J6|pos|0.000013,0.261806,0.000038,-0.000013,0.000041,-0.000021|vel|0.000000,-0.000000,0.000000,0.000000,0.000000,0.000000|eff|0.000000,515.625000,-338.378906,0.000000,-12.084961,0.000000
cobot_dynamixel_driver/joint_states|name|J1,J2,J3,J4,J5,J6|pos|0.000013,0.261806,0.000038,-0.000013,0.000041,-0.000021|vel|0.000000,-0.000000,0.000000,0.000000,0.000000,0.000000|eff|0.000000,370.605469,-338.378906,0.000000,0.000000,0.000000
cobot_dynamixel_driver/joint_states|name|J1,J2,J3,J4,J5,J6|pos|0.000013,0.261806,0.000038,-0.000013,0.000041,-0.000021|vel|0.000000,-0.000000,0.000000,0.000000,0.000000,0.000000|eff|0.000000,499.511719,-402.832031,0.000000,0.000000,0.000000
cobot_dynamixel_driver/joint_states|name|J1,J2,J3,J4,J5,J6|pos|0.000013,0.261806,0.000038,-0.000013,0.000041,-0.000021|vel|0.000000,-0.000000,0.000000,0.000000,0.000000,0.000000|eff|-80.566406,499.511719,-338.378906,0.000000,0.000000,16.113281
cobot_dynamixel_driver/joint_states|name|J1,J2,J3,J4,J5,J6|pos|0.000013,0.261806,0.000038,-0.000013,0.000041,-0.000021|vel|0.000000,-0.000000,0.000000,0.000000,0.000000,0.000000|eff|0.000000,515.625000,-338.378906,0.000000,-12.084961,0.000000
cobot_dynamixel_driver/joint_states|name|J1,J2,J3,J4,J5,J6|pos|0.000013,0.261806,0.000038,-0.000013,0.000041,-0.000021|vel|0.000000,-0.000000,0.000000,0.000000,0.000000,0.000000|eff|0.000000,515.625000,-386.718750,0.000000,-8.056641,16.113281
cobot_dynamixel_driver/joint_states|name|J1,J2,J3,J4,J5,J6|pos|0.000013,0.261806,0.000038,-0.000013,0.000041,-0.000021|vel|0.000000,-0.000000,0.000000,0.000000,0.000000,0.000000|eff|0.000000,435.058594,-338.378906,0.000000,-8.056641,0.000000
cobot_dynamixel_driver/joint_states|name|J1,J2,J3,J4,J5,J6|pos|0.000013,0.261806,0.000038,-0.000013,0.000041,-0.000021|vel|0.000000,-0.000000,0.000000,0.000000,0.000000,0.000000|eff|0.000000,435.058594,-338.378906,0.000000,0.000000,0.000000
cobot_dynamixel_driver/joint_states|name|J1,J2,J3,J4,J5,J6|pos|0.000013,0.261806,0.000038,-0.000013,0.000041,-0.000021|vel|0.000000,-0.000000,0.000000,0.000000,0.000000,0.000000|eff|0.000000,515.625000,-338.378906,0.000000,-8.056641,0.000000
cobot_dynamixel_driver/joint_states|name|J1,J2,J3,J4,J5,J6|pos|0.000013,0.261806,0.000038,-0.000013,0.000041,-0.000021|vel|0.000000,-0.000000,0.000000,0.000000,0.000000,0.000000|eff|0.000000,499.511719,-338.378906,0.000000,0.000000,0.000000
cobot_dynamixel_driver/joint_states|name|J1,J2,J3,J4,J5,J6|pos|0.000013,0.261806,0.000038,-0.000013,0.000041,-0.000021|vel|0.000000,-0.000000,0.000000,0.000000,0.000000,0.000000|eff|0.000000,435.058594,-338.378906,0.000000,0.000000,0.000000
cobot_dynamixel_driver/joint_states|name|J1,J2,J3,J4,J5,J6|pos|0.000013,0.261806,0.000038,-0.000013,0.000041,-0.000021|vel|0.000000,-0.000000,0.000000,0.000000,0.000000,0.000000|eff|0.000000,499.511719,-338.378906,0.000000,-16.113281,0.000000
cobot_dynamixel_driver/joint_states|name|J1,J2,J3,J4,J5,J6|pos|0.000013,0.261806,0.000038,-0.000013,0.000041,-0.000021|vel|0.000000,-0.000000,0.000000,0.000000,0.000000,0.000000|eff|0.000000,515.625000,-386.718750,0.000000,0.000000,0.000000
cobot_dynamixel_driver/joint_states|name|J1,J2,J3,J4,J5,J6|pos|0.000013,0.261806,0.000038,-0.000013,0.000041,-0.000021|vel|0.000000,-0.000000,0.000000,0.000000,0.000000,0.000000|eff|0.000000,499.511719,-386.718750,0.000000,0.000000,0.000000
cobot_dynamixel_driver/joint_states|name|J1,J2,J3,J4,J5,J6|pos|0.000013,0.261806,0.000038,-0.000013,0.000041,-0.000021|vel|0.000000,-0.000000,0.000000,0.000000,0.000000,0.000000|eff|0.000000,418.945312,-338.378906,0.000000,0.000000,0.000000
cobot_dynamixel_driver/joint_states|name|J1,J2,J3,J4,J5,J6|pos|0.000013,0.261806,0.000038,-0.000013,0.000041,-0.000021|vel|0.000000,-0.000000,0.000000,0.000000,0.000000,0.000000|eff|-112.792969,499.511719,-386.718750,0.000000,0.000000,0.000000
cobot_dynamixel_driver/joint_states|name|J1,J2,J3,J4,J5,J6|pos|0.000013,0.261806,0.000038,-0.000013,0.000041,-0.000021|vel|0.000000,-0.000000,0.000000,0.000000,0.000000,0.000000|eff|0.000000,499.511719,-354.492188,0.000000,0.000000,0.000000
