surachairobotic/cobot/cobot_dynamixel_driver/log/2018-12-14T10:09:52.317703_driver_log.txt
cobot_dynamixel_driver/joint_states|name|J1,J2,J3,J4,J5,J6|pos|0.018990,-1.267658,1.296275,0.002216,-1.541620,1.751721|vel|0.000000,-0.000000,0.000000,0.000000,0.000000,0.000000|eff|0.000000,0.000000,0.000000,0.000000,0.000000,-8.056641
cobot_dynamixel_driver/joint_states|name|J1,J2,J3,J4,J5,J6|pos|0.018990,-1.267658,1.296275,0.002216,-1.541620,1.751721|vel|0.000000,-0.000000,0.000000,0.000000,0.000000,0.000000|eff|0.000000,0.000000,0.000000,0.000000,0.000000,-8.056641
cobot_dynamixel_driver/joint_states|name|J1,J2,J3,J4,J5,J6|pos|0.018990,-1.267658,1.296275,0.002216,-1.541620,1.751721|vel|0.000000,-0.000000,0.000000,0.000000,0.000000,0.000000|eff|0.000000,0.000000,0.000000,0.000000,0.000000,8.056641
cobot_dynamixel_driver/joint_states|name|J1,J2,J3,J4,J5,J6|pos|0.018990,-1.267658,1.296275,0.002216,-1.541620,1.751721|vel|0.000000,-0.000000,0.000000,0.000000,0.000000,0.000000|eff|0.000000,0.000000,0.000000,0.000000,0.000000,-8.056641
cobot_dynamixel_driver/joint_states|name|J1,J2,J3,J4,J5,J6|pos|0.018990,-1.267658,1.296275,0.002216,-1.541620,1.751721|vel|0.000000,-0.000000,0.000000,0.000000,0.000000,0.000000|eff|0.000000,0.000000,0.000000,0.000000,0.000000,16.113281
cobot_dynamixel_driver/joint_states|name|J1,J2,J3,J4,J5,J6|pos|0.018990,-1.267658,1.296275,0.002216,-1.541620,1.751721|vel|0.000000,-0.000000,0.000000,0.000000,0.000000,0.000000|eff|0.000000,0.000000,0.000000,0.000000,0.000000,-8.056641
cobot_dynamixel_driver/joint_states|name|J1,J2,J3,J4,J5,J6|pos|0.018990,-1.267658,1.296275,0.002216,-1.541620,1.751721|vel|0.000000,-0.000000,0.000000,0.000000,0.000000,0.000000|eff|0.000000,0.000000,0.000000,0.000000,0.000000,16.113281
cobot_dynamixel_driver/joint_states|name|J1,J2,J3,J4,J5,J6|pos|0.018990,-1.267658,1.296275,0.002216,-1.541620,1.751721|vel|0.000000,-0.000000,0.000000,0.000000,0.000000,0.000000|eff|0.000000,0.000000,0.000000,0.000000,0.000000,-8.056641
cobot_dynamixel_driver/joint_states|name|J1,J2,J3,J4,J5,J6|pos|0.018990,-1.267658,1.296275,0.002216,-1.541620,1.751721|vel|0.000000,-0.000000,0.000000,0.000000,0.000000,0.000000|eff|0.000000,0.000000,0.000000,0.000000,0.000000,-8.056641
cobot_dynamixel_driver/joint_states|name|J1,J2,J3,J4,J5,J6|pos|0.018990,-1.267658,1.296275,0.002216,-1.541620,1.751721|vel|0.000000,-0.000000,0.000000,0.000000,0.000000,0.000000|eff|0.000000,-32.226562,0.000000,0.000000,0.000000,-8.056641
cobot_dynamixel_driver/joint_states|name|J1,J2,J3,J4,J5,J6|pos|0.018990,-1.267658,1.296275,0.002216,-1.541620,1.751721|vel|0.000000,-0.000000,0.000000,0.000000,0.000000,0.000000|eff|0.000000,0.000000,0.000000,0.000000,0.000000,8.056641
cobot_dynamixel_driver/joint_states|name|J1,J2,J3,J4,J5,J6|pos|0.018990,-1.267658,1.296275,0.002216,-1.541620,1.751721|vel|0.000000,-0.000000,0.000000,0.000000,0.000000,0.000000|eff|0.000000,0.000000,0.000000,0.000000,0.000000,-8.056641
cobot_dynamixel_driver/joint_states|name|J1,J2,J3,J4,J5,J6|pos|0.018990,-1.267658,1.296275,0.002216,-1.541620,1.751721|vel|0.000000,-0.000000,0.000000,0.000000,0.000000,0.000000|eff|0.000000,0.000000,0.000000,0.000000,0.000000,8.056641
cobot_dynamixel_driver/joint_states|name|J1,J2,J3,J4,J5,J6|pos|0.018990,-1.267658,1.296275,0.002216,-1.541620,1.751721|vel|0.000000,-0.000000,0.000000,0.000000,0.000000,0.000000|eff|0.000000,0.000000,0.000000,0.000000,0.000000,16.113281
cobot_dynamixel_driver/joint_states|name|J1,J2,J3,J4,J5,J6|pos|0.018990,-1.267658,1.296275,0.002216,-1.541620,1.751721|vel|0.000000,-0.000000,0.000000,0.000000,0.000000,0.000000|eff|0.000000,0.000000,0.000000,0.000000,0.000000,8.056641
cobot_dynamixel_driver/joint_states|name|J1,J2,J3,J4,J5,J6|pos|0.018990,-1.267658,1.296275,0.002216,-1.541620,1.751721|vel|0.000000,-0.000000,0.000000,0.000000,0.000000,0.000000|eff|0.000000,0.000000,0.000000,0.000000,0.000000,-8.056641
cobot_dynamixel_driver/joint_states|name|J1,J2,J3,J4,J5,J6|pos|0.018990,-1.267658,1.296275,0.002216,-1.541620,1.751721|vel|0.000000,-0.000000,0.000000,0.000000,0.000000,0.000000|eff|0.000000,0.000000,0.000000,0.000000,0.000000,8.056641
cobot_dynamixel_driver/joint_states|name|J1,J2,J3,J4,J5,J6|pos|0.018990,-1.267658,1.296275,0.002216,-1.541620,1.751721|vel|0.000000,-0.000000,0.000000,0.000000,0.000000,0.000000|eff|0.000000,0.000000,0.000000,0.000000,0.000000,-8.056641
cobot_dynamixel_driver/goal|-:J1,J2,J3,J4,J5,J6:0.000000,0.000000,0.000000,0.000000,0.000000,0.000000:0.700000,0.700000,0.700000,0.700000,0.700000,0.700000:pos_vel_
cobot_dynamixel_driver/joint_states|name|J1,J2,J3,J4,J5,J6|pos|0.018990,-1.267658,1.296275,0.001014,-1.541620,1.751721|vel|0.000000,-0.000000,0.000000,0.000000,0.000000,0.000000|eff|0.000000,0.000000,0.000000,0.000000,0.000000,-8.056641
cobot_dynamixel_driver/joint_states|name|J1,J2,J3,J4,J5,J6|pos|0.013382,-1.259246,1.287687,0.000776,-1.527202,1.737365|vel|-0.098481,0.245577,-0.273327,-0.003338,0.315055,-0.302991|eff|-418.945312,-1901.367188,-1546.875000,-128.906250,76.538086,-116.821289
cobot_dynamixel_driver/joint_states|name|J1,J2,J3,J4,J5,J6|pos|0.006735,-1.221190,1.247742,0.000476,-1.486741,1.696346|vel|-0.046945,0.497831,-0.513479,-0.003130,0.552209,-0.527390|eff|-322.265625,-1127.929688,-1708.007812,-145.019531,32.226562,-76.538086
cobot_dynamixel_driver/joint_states|name|J1,J2,J3,J4,J5,J6|pos|0.003267,-1.166724,1.193901,0.000250,-1.433270,1.642709|vel|-0.023994,0.573570,-0.633660,-0.001252,0.531872,-0.621149|eff|-306.152344,-1321.289062,-966.796875,-80.566406,44.311523,-64.453125
cobot_dynamixel_driver/joint_states|name|J1,J2,J3,J4,J5,J6|pos|0.001552,-1.105685,1.133162,0.000125,-1.373054,1.582453|vel|-0.013353,0.674763,-0.684987,-0.002295,0.561860,-0.654240|eff|-225.585938,-2046.386719,-1627.441406,-80.566406,20.141602,-68.481445
cobot_dynamixel_driver/joint_states|name|J1,J2,J3,J4,J5,J6|pos|0.000663,-1.041078,1.069056,0.000088,-1.309426,1.518907|vel|-0.006885,0.665166,-0.676015,-0.000626,0.642175,-0.648725|eff|-193.359375,-1869.140625,-741.210938,-80.566406,52.368164,-84.594727
cobot_dynamixel_driver/joint_states|name|J1,J2,J3,J4,J5,J6|pos|0.000263,-0.974243,1.003248,0.000063,-1.244102,1.453479|vel|-0.002712,0.696880,-0.690620,-0.000209,0.655619,-0.666994|eff|-177.246094,-1047.363281,-660.644531,-80.566406,-48.339844,-60.424805
cobot_dynamixel_driver/joint_states|name|J1,J2,J3,J4,J5,J6|pos|0.000088,-0.907596,0.936539,0.000013,-1.177929,1.387245|vel|-0.002295,0.642840,-0.626566,-0.001043,0.690433,-0.665270|eff|-128.906250,-515.625000,-563.964844,-96.679688,32.226562,-40.283203
cobot_dynamixel_driver/joint_states|name|J1,J2,J3,J4,J5,J6|pos|-0.000013,-0.840399,0.868965,0.000000,-1.111012,1.320638|vel|-0.000626,0.668295,-0.722126,-0.001043,0.731108,-0.675956|eff|-128.906250,-2884.277344,-1546.875000,-96.679688,96.679688,-80.566406
cobot_dynamixel_driver/joint_states|name|J1,J2,J3,J4,J5,J6|pos|-0.000025,-0.772362,0.801504,0.000000,-1.043619,1.253327|vel|-0.001461,0.707312,-0.677684,0.000000,0.676990,-0.676645|eff|-112.792969,-1917.480469,-1611.328125,-96.679688,-20.141602,-52.368164
cobot_dynamixel_driver/joint_states|name|J1,J2,J3,J4,J5,J6|pos|-0.000025,-0.705239,0.733668,-0.000013,-0.976950,1.186059|vel|0.000000,0.619681,-0.732976,0.000000,0.608395,-0.737657|eff|0.000000,-805.664062,-1901.367188,-177.246094,84.594727,-52.368164
cobot_dynamixel_driver/joint_states|name|J1,J2,J3,J4,J5,J6|pos|-0.000025,-0.636927,0.665782,-0.000013,-0.909474,1.118934|vel|0.000000,0.709399,-0.597981,0.000000,0.712839,-0.667683|eff|-145.019531,-2465.332031,-1933.593750,-96.679688,-16.113281,-68.481445
cobot_dynamixel_driver/joint_states|name|J1,J2,J3,J4,J5,J6|pos|-0.000038,-0.569041,0.597921,-0.000013,-0.841936,1.051790|vel|0.000000,0.654107,-0.747581,0.000000,0.632524,-0.629422|eff|0.000000,-2191.406250,-2030.273438,-96.679688,-28.198242,-52.368164
cobot_dynamixel_driver/joint_states|name|J1,J2,J3,J4,J5,J6|pos|-0.000038,-0.501092,0.530447,-0.000013,-0.774585,0.984500|vel|0.000000,0.630113,-0.674137,0.000000,0.700430,-0.682505|eff|-145.019531,48.339844,-1675.781250,-112.792969,8.056641,-88.623047
cobot_dynamixel_driver/joint_states|name|J1,J2,J3,J4,J5,J6|pos|-0.000038,-0.433030,0.462674,-0.000013,-0.707875,0.917149|vel|0.000000,0.701470,-0.701053,0.000000,0.655963,-0.732487|eff|-145.019531,48.339844,-1015.136719,-80.566406,88.623047,-12.084961
cobot_dynamixel_driver/joint_states|name|J1,J2,J3,J4,J5,J6|pos|-0.000038,-0.365407,0.395275,-0.000013,-0.640399,0.849962|vel|0.000000,0.703974,-0.707312,0.000000,0.746964,-0.715596|eff|-96.679688,322.265625,-547.851562,-161.132812,0.000000,-80.566406
cobot_dynamixel_driver/joint_states|name|J1,J2,J3,J4,J5,J6|pos|-0.000038,-0.297608,0.326888,-0.000013,-0.572882,0.783045|vel|0.000000,0.705643,-0.681440,0.000000,0.715252,-0.730419|eff|-128.906250,96.679688,-1788.574219,-177.246094,-24.169922,-60.424805
cobot_dynamixel_driver/joint_states|name|J1,J2,J3,J4,J5,J6|pos|-0.000025,-0.229785,0.259252,-0.000025,-0.505716,0.715342|vel|0.000000,0.666209,-0.716701,0.000000,0.694915,-0.728350|eff|0.000000,467.285156,-1144.042969,-96.679688,0.000000,-60.424805
cobot_dynamixel_driver/joint_states|name|J1,J2,J3,J4,J5,J6|pos|-0.000025,-0.162023,0.190928,-0.000025,-0.438509,0.648011|vel|0.000000,0.731098,-0.720040,0.000000,0.737657,-0.689399|eff|-145.019531,531.738281,-902.343750,-145.019531,0.000000,-28.198242
cobot_dynamixel_driver/joint_states|name|J1,J2,J3,J4,J5,J6|pos|-0.000025,-0.094337,0.123229,-0.000025,-0.371365,0.580763|vel|0.000000,0.664748,-0.703348,0.000000,0.688021,-0.637005|eff|-64.453125,870.117188,-1208.496094,-80.566406,28.198242,-92.651367
cobot_dynamixel_driver/joint_states|name|J1,J2,J3,J4,J5,J6|pos|-0.000025,-0.046280,0.063392,-0.000025,-0.304261,0.513515|vel|0.000000,0.341346,-0.432942,0.000000,0.626664,-0.721456|eff|-96.679688,708.984375,-354.492188,-96.679688,80.566406,-52.368164
cobot_dynamixel_driver/joint_states|name|J1,J2,J3,J4,J5,J6|pos|-0.000025,-0.023309,0.032535,-0.000025,-0.236765,0.446391|vel|0.000000,0.166500,-0.232224,0.000000,0.693191,-0.707668|eff|-145.019531,435.058594,-837.890625,-112.792969,20.141602,-64.453125
cobot_dynamixel_driver/joint_states|name|J1,J2,J3,J4,J5,J6|pos|-0.000025,-0.012030,0.016749,-0.000025,-0.169806,0.379018|vel|0.000000,0.083667,-0.115590,0.000000,0.787983,-0.701464|eff|-112.792969,241.699219,-886.230469,-80.566406,52.368164,-100.708008
cobot_dynamixel_driver/joint_states|name|J1,J2,J3,J4,J5,J6|pos|-0.000025,-0.006209,0.008713,-0.000025,-0.102227,0.311811|vel|0.000000,0.041312,-0.050492,0.000000,0.692846,-0.732142|eff|0.000000,161.132812,-966.796875,-96.679688,32.226562,-36.254883
cobot_dynamixel_driver/joint_states|name|J1,J2,J3,J4,J5,J6|pos|-0.000025,-0.003230,0.004494,-0.000025,-0.051734,0.244522|vel|0.000000,0.020656,-0.027959,0.000000,0.313332,-0.647346|eff|-112.792969,209.472656,-902.343750,-161.132812,-8.056641,-100.708008
cobot_dynamixel_driver/joint_states|name|J1,J2,J3,J4,J5,J6|pos|-0.000038,-0.001652,0.002303,-0.000025,-0.026684,0.177108|vel|0.000000,0.011684,-0.020239,0.000000,0.158907,-0.695259|eff|0.000000,177.246094,-886.230469,-112.792969,36.254883,-64.453125
cobot_dynamixel_driver/joint_states|name|J1,J2,J3,J4,J5,J6|pos|-0.000025,-0.000914,0.001026,-0.000025,-0.013756,0.110294|vel|0.000000,0.005008,-0.015440,0.000000,0.088243,-0.661823|eff|-128.906250,145.019531,-773.437500,-112.792969,48.339844,-132.934570
cobot_dynamixel_driver/joint_states|name|J1,J2,J3,J4,J5,J6|pos|-0.000025,-0.000388,0.000864,-0.000025,-0.007074,0.056244|vel|0.000000,0.003964,-0.005842,0.000000,0.045156,-0.359177|eff|0.000000,241.699219,-854.003906,-96.679688,64.453125,0.000000
cobot_dynamixel_driver/joint_states|name|J1,J2,J3,J4,J5,J6|pos|-0.000025,-0.000088,0.000376,-0.000038,-0.003682,0.028980|vel|0.000000,0.003964,-0.009598,0.000000,0.025852,-0.180623|eff|-64.453125,241.699219,-789.550781,-80.566406,64.453125,-28.198242
cobot_dynamixel_driver/joint_states|name|J1,J2,J3,J4,J5,J6|pos|-0.000025,-0.000088,0.000113,-0.000038,-0.001944,0.014956|vel|0.000000,0.000209,-0.001669,0.000000,0.008962,-0.094792|eff|0.000000,241.699219,-789.550781,-80.566406,84.594727,-48.339844
cobot_dynamixel_driver/joint_states|name|J1,J2,J3,J4,J5,J6|pos|-0.000025,-0.000088,0.000113,-0.000038,-0.000993,0.007695|vel|0.000000,-0.000000,0.000000,0.000000,0.010341,-0.057220|eff|0.000000,402.832031,-805.664062,-161.132812,72.509766,-52.368164
cobot_dynamixel_driver/joint_states|name|J1,J2,J3,J4,J5,J6|pos|-0.000025,-0.000088,0.000113,-0.000038,-0.000496,0.003930|vel|0.000000,-0.000000,0.000000,0.000000,0.005860,-0.024474|eff|-96.679688,241.699219,-789.550781,-128.906250,76.538086,-64.453125
cobot_dynamixel_driver/joint_states|name|J1,J2,J3,J4,J5,J6|pos|-0.000025,-0.000088,0.000100,-0.000038,-0.000455,0.002027|vel|0.000000,-0.000000,0.000000,0.000000,0.004481,-0.015856|eff|-96.679688,241.699219,-757.324219,-80.566406,60.424805,-56.396484
cobot_dynamixel_driver/joint_states|name|J1,J2,J3,J4,J5,J6|pos|-0.000025,-0.000088,0.000075,-0.000038,-0.000455,0.001014|vel|0.000000,-0.000000,0.000000,0.000000,0.003792,-0.007239|eff|-64.453125,241.699219,-837.890625,-80.566406,28.198242,-52.368164
cobot_dynamixel_driver/joint_states|name|J1,J2,J3,J4,J5,J6|pos|-0.000025,-0.000075,0.000063,-0.000038,-0.000455,0.000641|vel|0.000000,-0.000000,0.000000,0.000000,0.000000,-0.003792|eff|-128.906250,241.699219,-854.003906,-80.566406,52.368164,-60.424805
cobot_dynamixel_driver/joint_states|name|J1,J2,J3,J4,J5,J6|pos|-0.000025,-0.000063,0.000050,-0.000025,-0.000310,0.000434|vel|0.000000,-0.000000,0.000000,0.000000,0.003102,-0.007239|eff|-64.453125,257.812500,-854.003906,-80.566406,68.481445,-36.254883
cobot_dynamixel_driver/joint_states|name|J1,J2,J3,J4,J5,J6|pos|-0.000025,-0.000038,0.000038,-0.000025,-0.000290,0.000434|vel|0.000000,-0.000000,0.000000,0.000000,0.003102,0.000000|eff|0.000000,161.132812,-854.003906,-80.566406,64.453125,0.000000
cobot_dynamixel_driver/joint_states|name|J1,J2,J3,J4,J5,J6|pos|-0.000025,-0.000013,0.000025,-0.000025,-0.000290,0.000434|vel|0.000000,0.000209,0.000000,0.000000,0.000000,0.000000|eff|0.000000,241.699219,-854.003906,-64.453125,72.509766,-40.283203
cobot_dynamixel_driver/joint_states|name|J1,J2,J3,J4,J5,J6|pos|-0.000025,0.000013,0.000025,-0.000025,-0.000145,0.000310|vel|0.000000,0.000209,0.000000,0.000000,0.003102,-0.005170|eff|-96.679688,241.699219,-854.003906,-80.566406,68.481445,-56.396484
cobot_dynamixel_driver/joint_states|name|J1,J2,J3,J4,J5,J6|pos|-0.000025,0.000025,0.000013,-0.000025,-0.000145,0.000269|vel|0.000000,-0.000000,0.000000,0.000000,0.000000,-0.003792|eff|-96.679688,241.699219,-854.003906,-64.453125,56.396484,-36.254883
cobot_dynamixel_driver/joint_states|name|J1,J2,J3,J4,J5,J6|pos|-0.000025,0.000050,0.000013,-0.000025,-0.000145,0.000269|vel|0.000000,-0.000000,0.000000,0.000000,0.000000,0.000000|eff|0.000000,241.699219,-854.003906,-80.566406,56.396484,-36.254883
cobot_dynamixel_driver/joint_states|name|J1,J2,J3,J4,J5,J6|pos|-0.000025,0.000063,0.000013,-0.000025,-0.000145,0.000145|vel|0.000000,-0.000000,0.000000,0.000000,0.000000,-0.001723|eff|-112.792969,241.699219,-854.003906,-64.453125,60.424805,-52.368164
cobot_dynamixel_driver/joint_states|name|J1,J2,J3,J4,J5,J6|pos|-0.000025,0.000063,0.000013,-0.000025,-0.000145,0.000062|vel|0.000000,-0.000000,0.000000,0.000000,0.000000,-0.002758|eff|0.000000,241.699219,-854.003906,-32.226562,72.509766,-36.254883
cobot_dynamixel_driver/joint_states|name|J1,J2,J3,J4,J5,J6|pos|-0.000025,0.000063,0.000013,-0.000025,-0.000124,0.000062|vel|0.000000,-0.000000,0.000000,0.000000,0.000000,0.000000|eff|-145.019531,241.699219,-854.003906,-64.453125,80.566406,-32.226562
cobot_dynamixel_driver/joint_states|name|J1,J2,J3,J4,J5,J6|pos|-0.000025,0.000063,0.000013,-0.000025,0.000021,0.000062|vel|0.000000,-0.000000,0.000000,0.000000,0.002758,0.000000|eff|-112.792969,273.925781,-854.003906,-80.566406,64.453125,-36.254883
cobot_dynamixel_driver/joint_states|name|J1,J2,J3,J4,J5,J6|pos|-0.000025,0.000063,0.000013,-0.000025,0.000021,0.000062|vel|0.000000,-0.000000,0.000000,0.000000,0.000000,0.000000|eff|0.000000,241.699219,-854.003906,-80.566406,44.311523,-36.254883
cobot_dynamixel_driver/joint_states|name|J1,J2,J3,J4,J5,J6|pos|-0.000025,0.000063,0.000013,-0.000025,0.000021,0.000062|vel|0.000000,-0.000000,0.000000,0.000000,0.000000,0.000000|eff|-64.453125,241.699219,-854.003906,-80.566406,48.339844,-36.254883
cobot_dynamixel_driver/joint_states|name|J1,J2,J3,J4,J5,J6|pos|-0.000025,0.000063,0.000000,-0.000025,0.000021,0.000062|vel|0.000000,-0.000000,0.000000,0.000000,0.000000,0.000000|eff|0.000000,354.492188,-854.003906,-80.566406,40.283203,-40.283203
cobot_dynamixel_driver/joint_states|name|J1,J2,J3,J4,J5,J6|pos|-0.000025,0.000063,0.000000,-0.000025,0.000021,0.000062|vel|0.000000,-0.000000,0.000000,0.000000,0.000000,0.000000|eff|0.000000,241.699219,-886.230469,-80.566406,40.283203,-36.254883
cobot_dynamixel_driver/joint_states|name|J1,J2,J3,J4,J5,J6|pos|-0.000025,0.000063,0.000000,-0.000025,0.000021,0.000041|vel|0.000000,-0.000000,0.000000,0.000000,0.000000,0.000000|eff|-112.792969,322.265625,-854.003906,-64.453125,40.283203,-52.368164
cobot_dynamixel_driver/joint_states|name|J1,J2,J3,J4,J5,J6|pos|-0.000025,0.000063,0.000000,-0.000025,0.000021,0.000041|vel|0.000000,-0.000000,0.000000,0.000000,0.000000,0.000000|eff|0.000000,273.925781,-854.003906,0.000000,40.283203,-40.283203
cobot_dynamixel_driver/joint_states|name|J1,J2,J3,J4,J5,J6|pos|-0.000025,0.000063,0.000000,-0.000025,0.000021,0.000041|vel|0.000000,-0.000000,0.000000,0.000000,0.000000,0.000000|eff|-128.906250,386.718750,-854.003906,-80.566406,44.311523,-48.339844
cobot_dynamixel_driver/joint_states|name|J1,J2,J3,J4,J5,J6|pos|-0.000025,0.000063,0.000000,-0.000025,0.000021,0.000041|vel|0.000000,-0.000000,0.000000,0.000000,0.000000,0.000000|eff|-128.906250,451.171875,-854.003906,-80.566406,40.283203,-48.339844
cobot_dynamixel_driver/joint_states|name|J1,J2,J3,J4,J5,J6|pos|-0.000025,0.000050,0.000000,-0.000025,0.000021,0.000041|vel|0.000000,-0.000000,0.000000,0.000000,0.000000,0.000000|eff|-96.679688,306.152344,-854.003906,-80.566406,40.283203,-48.339844
cobot_dynamixel_driver/joint_states|name|J1,J2,J3,J4,J5,J6|pos|-0.000025,0.000050,0.000000,-0.000025,0.000021,0.000041|vel|0.000000,-0.000000,0.000000,0.000000,0.000000,0.000000|eff|-128.906250,290.039062,-854.003906,-32.226562,44.311523,-40.283203
cobot_dynamixel_driver/joint_states|name|J1,J2,J3,J4,J5,J6|pos|-0.000025,0.000050,0.000000,-0.000025,0.000021,0.000021|vel|0.000000,-0.000000,0.000000,0.000000,0.000000,0.000000|eff|-128.906250,290.039062,-854.003906,-80.566406,40.283203,-52.368164
cobot_dynamixel_driver/joint_states|name|J1,J2,J3,J4,J5,J6|pos|-0.000025,0.000050,0.000000,-0.000025,0.000021,0.000021|vel|0.000000,-0.000000,0.000000,0.000000,0.000000,0.000000|eff|0.000000,451.171875,-854.003906,-80.566406,40.283203,-52.368164
cobot_dynamixel_driver/joint_states|name|J1,J2,J3,J4,J5,J6|pos|-0.000025,0.000050,0.000000,-0.000025,0.000021,0.000000|vel|0.000000,-0.000000,0.000000,0.000000,0.000000,0.000000|eff|-96.679688,290.039062,-837.890625,-80.566406,40.283203,-48.339844
cobot_dynamixel_driver/joint_states|name|J1,J2,J3,J4,J5,J6|pos|-0.000025,0.000050,0.000000,-0.000025,0.000021,0.000000|vel|0.000000,-0.000000,0.000000,0.000000,0.000000,0.000000|eff|0.000000,483.398438,-854.003906,-80.566406,44.311523,-44.311523
cobot_dynamixel_driver/joint_states|name|J1,J2,J3,J4,J5,J6|pos|-0.000025,0.000050,0.000000,-0.000025,0.000021,0.000000|vel|0.000000,-0.000000,0.000000,0.000000,0.000000,0.000000|eff|0.000000,273.925781,-854.003906,-80.566406,48.339844,-44.311523
cobot_dynamixel_driver/joint_states|name|J1,J2,J3,J4,J5,J6|pos|-0.000025,0.000038,-0.000013,-0.000025,0.000021,0.000000|vel|0.000000,-0.000000,0.000000,0.000000,0.000000,0.000000|eff|-128.906250,467.285156,-854.003906,0.000000,44.311523,-40.283203
cobot_dynamixel_driver/joint_states|name|J1,J2,J3,J4,J5,J6|pos|-0.000025,0.000038,-0.000013,-0.000025,0.000021,0.000000|vel|0.000000,-0.000000,0.000000,0.000000,0.000000,0.000000|eff|0.000000,273.925781,-854.003906,-80.566406,44.311523,-48.339844
cobot_dynamixel_driver/joint_states|name|J1,J2,J3,J4,J5,J6|pos|-0.000025,0.000038,-0.000013,-0.000025,0.000021,0.000000|vel|0.000000,-0.000000,0.000000,0.000000,0.000000,0.000000|eff|0.000000,467.285156,-854.003906,-32.226562,44.311523,-40.283203
cobot_dynamixel_driver/joint_states|name|J1,J2,J3,J4,J5,J6|pos|-0.000025,0.000038,-0.000013,-0.000025,0.000021,0.000000|vel|0.000000,-0.000000,0.000000,0.000000,0.000000,0.000000|eff|0.000000,290.039062,-854.003906,-80.566406,44.311523,-40.283203
cobot_dynamixel_driver/joint_states|name|J1,J2,J3,J4,J5,J6|pos|-0.000025,0.000025,-0.000013,-0.000025,0.000021,-0.000021|vel|0.000000,-0.000000,0.000000,0.000000,0.000000,0.000000|eff|-128.906250,467.285156,-854.003906,-80.566406,44.311523,-40.283203
cobot_dynamixel_driver/joint_states|name|J1,J2,J3,J4,J5,J6|pos|-0.000025,0.000025,-0.000013,-0.000025,0.000021,-0.000021|vel|0.000000,-0.000000,0.000000,0.000000,0.000000,0.000000|eff|-128.906250,483.398438,-854.003906,-80.566406,44.311523,-40.283203
cobot_dynamixel_driver/joint_states|name|J1,J2,J3,J4,J5,J6|pos|-0.000025,0.000025,-0.000013,-0.000025,0.000021,-0.000021|vel|0.000000,-0.000000,0.000000,0.000000,0.000000,0.000000|eff|-64.453125,451.171875,-854.003906,-80.566406,44.311523,-52.368164
cobot_dynamixel_driver/joint_states|name|J1,J2,J3,J4,J5,J6|pos|-0.000025,0.000025,-0.000013,-0.000025,0.000021,-0.000021|vel|0.000000,-0.000000,0.000000,0.000000,0.000000,0.000000|eff|-64.453125,322.265625,-854.003906,-64.453125,40.283203,-44.311523
cobot_dynamixel_driver/joint_states|name|J1,J2,J3,J4,J5,J6|pos|-0.000025,0.000025,-0.000013,-0.000025,0.000021,-0.000021|vel|0.000000,-0.000000,0.000000,0.000000,0.000000,0.000000|eff|-128.906250,290.039062,-854.003906,-48.339844,44.311523,-56.396484
cobot_dynamixel_driver/joint_states|name|J1,J2,J3,J4,J5,J6|pos|-0.000025,0.000025,-0.000013,-0.000025,0.000021,-0.000021|vel|0.000000,-0.000000,0.000000,0.000000,0.000000,0.000000|eff|-64.453125,354.492188,-854.003906,-48.339844,40.283203,-40.283203
cobot_dynamixel_driver/joint_states|name|J1,J2,J3,J4,J5,J6|pos|-0.000025,0.000025,-0.000013,-0.000025,0.000021,-0.000041|vel|0.000000,-0.000000,0.000000,0.000000,0.000000,0.000000|eff|0.000000,483.398438,-854.003906,-80.566406,44.311523,-52.368164
cobot_dynamixel_driver/joint_states|name|J1,J2,J3,J4,J5,J6|pos|-0.000025,0.000025,-0.000013,-0.000025,0.000021,-0.000041|vel|0.000000,-0.000000,0.000000,0.000000,0.000000,0.000000|eff|0.000000,354.492188,-854.003906,-80.566406,44.311523,-48.339844
cobot_dynamixel_driver/joint_states|name|J1,J2,J3,J4,J5,J6|pos|-0.000025,0.000025,-0.000013,-0.000025,0.000021,-0.000041|vel|0.000000,-0.000000,0.000000,0.000000,0.000000,0.000000|eff|-128.906250,483.398438,-854.003906,-64.453125,44.311523,-56.396484
cobot_dynamixel_driver/joint_states|name|J1,J2,J3,J4,J5,J6|pos|-0.000025,0.000025,-0.000013,-0.000025,0.000021,-0.000041|vel|0.000000,-0.000000,0.000000,0.000000,0.000000,0.000000|eff|-145.019531,338.378906,-854.003906,-64.453125,48.339844,-60.424805
cobot_dynamixel_driver/joint_states|name|J1,J2,J3,J4,J5,J6|pos|-0.000025,0.000025,-0.000013,-0.000025,0.000021,-0.000041|vel|0.000000,-0.000000,0.000000,0.000000,0.000000,0.000000|eff|-64.453125,418.945312,-854.003906,-80.566406,48.339844,-48.339844
cobot_dynamixel_driver/joint_states|name|J1,J2,J3,J4,J5,J6|pos|-0.000025,0.000025,-0.000013,-0.000025,0.000021,-0.000041|vel|0.000000,-0.000000,0.000000,0.000000,0.000000,0.000000|eff|0.000000,451.171875,-854.003906,-80.566406,48.339844,-48.339844
cobot_dynamixel_driver/joint_states|name|J1,J2,J3,J4,J5,J6|pos|-0.000025,0.000025,-0.000013,-0.000025,0.000021,-0.000041|vel|0.000000,-0.000000,0.000000,0.000000,0.000000,0.000000|eff|-96.679688,338.378906,-854.003906,-80.566406,48.339844,-44.311523
cobot_dynamixel_driver/joint_states|name|J1,J2,J3,J4,J5,J6|pos|-0.000025,0.000025,-0.000013,-0.000025,0.000021,-0.000041|vel|0.000000,-0.000000,0.000000,0.000000,0.000000,0.000000|eff|-64.453125,290.039062,-854.003906,0.000000,44.311523,-56.396484
cobot_dynamixel_driver/joint_states|name|J1,J2,J3,J4,J5,J6|pos|-0.000025,0.000025,-0.000013,-0.000025,0.000021,-0.000041|vel|0.000000,-0.000000,0.000000,0.000000,0.000000,0.000000|eff|-128.906250,306.152344,-854.003906,-80.566406,40.283203,0.000000
cobot_dynamixel_driver/joint_states|name|J1,J2,J3,J4,J5,J6|pos|-0.000025,0.000025,-0.000013,-0.000025,0.000021,-0.000041|vel|0.000000,-0.000000,0.000000,0.000000,0.000000,0.000000|eff|-128.906250,306.152344,-854.003906,-80.566406,44.311523,0.000000
cobot_dynamixel_driver/joint_states|name|J1,J2,J3,J4,J5,J6|pos|-0.000025,0.000025,-0.000013,-0.000025,0.000021,-0.000041|vel|0.000000,-0.000000,0.000000,0.000000,0.000000,0.000000|eff|0.000000,354.492188,-854.003906,-32.226562,48.339844,0.000000
cobot_dynamixel_driver/joint_states|name|J1,J2,J3,J4,J5,J6|pos|-0.000025,0.000025,-0.000013,-0.000025,0.000021,-0.000041|vel|0.000000,-0.000000,0.000000,0.000000,0.000000,0.000000|eff|-145.019531,451.171875,-854.003906,-80.566406,40.283203,0.000000
cobot_dynamixel_driver/goal|-:J1,J2,J3,J4,J5,J6:0.000000,0.000000,0.000000,0.000000,0.000000,1.000000:vel_
cobot_dynamixel_driver/joint_states|name|J1,J2,J3,J4,J5,J6|pos|0.000000,0.001364,0.002466,-0.000013,0.000021,0.000165|vel|0.000000,0.001669,0.000626,0.000000,0.000000,0.038951|eff|0.000000,225.585938,-370.605469,0.000000,0.000000,68.481445
cobot_dynamixel_driver/joint_states|name|J1,J2,J3,J4,J5,J6|pos|0.000000,0.001364,0.002466,-0.000013,0.000021,0.013797|vel|0.000000,-0.000000,0.000000,0.000000,0.000000,-0.407780|eff|0.000000,241.699219,-370.605469,0.000000,0.000000,-322.265625
cobot_dynamixel_driver/goal|-:J1,J2,J3,J4,J5,J6:0.000000,0.000000,0.000000,0.000000,0.000000,1.000000:vel_
cobot_dynamixel_driver/joint_states|name|J1,J2,J3,J4,J5,J6|pos|0.000000,0.001364,0.002466,-0.000013,0.000021,0.049086|vel|0.000000,-0.000000,0.000000,0.000000,0.000000,0.700085|eff|0.000000,322.265625,-273.925781,0.000000,8.056641,-2412.963867
cobot_dynamixel_driver/joint_states|name|J1,J2,J3,J4,J5,J6|pos|0.000013,0.001364,0.002466,-0.000013,0.000021,0.102103|vel|0.000000,-0.000000,0.000000,0.000000,0.000000,0.400541|eff|0.000000,273.925781,-354.492188,0.000000,-8.056641,-2976.928711
cobot_dynamixel_driver/goal|-:J1,J2,J3,J4,J5,J6:0.000000,0.000000,0.000000,0.000000,0.000000,1.000000:vel_
cobot_dynamixel_driver/joint_states|name|J1,J2,J3,J4,J5,J6|pos|0.000013,0.001364,0.002466,-0.000013,0.000021,0.173612|vel|0.000000,-0.000000,0.000000,0.000000,0.000000,0.467068|eff|0.000000,209.472656,-354.492188,0.000000,-8.056641,3178.344727
cobot_dynamixel_driver/joint_states|name|J1,J2,J3,J4,J5,J6|pos|0.000013,0.001364,0.002466,-0.000013,0.000021,0.265869|vel|0.000000,-0.000000,0.000000,0.000000,0.000000,1.430848|eff|0.000000,225.585938,-306.152344,0.000000,0.000000,-1937.622070
cobot_dynamixel_driver/goal|-:J1,J2,J3,J4,J5,J6:0.000000,0.000000,0.000000,0.000000,0.000000,1.000000:vel_
cobot_dynamixel_driver/joint_states|name|J1,J2,J3,J4,J5,J6|pos|0.000025,0.001364,0.002466,-0.000013,0.000021,0.362760|vel|0.000000,-0.000000,0.000000,0.000000,0.000000,0.731108|eff|0.000000,225.585938,-322.265625,0.000000,0.000000,1857.055664
cobot_dynamixel_driver/joint_states|name|J1,J2,J3,J4,J5,J6|pos|0.000025,0.001364,0.002466,-0.000013,0.000021,0.460167|vel|0.000000,-0.000000,0.000000,0.000000,0.000000,1.136130|eff|0.000000,370.605469,-354.492188,0.000000,-8.056641,-3460.327148
cobot_dynamixel_driver/goal|-:J1,J2,J3,J4,J5,J6:0.000000,0.000000,0.000000,0.000000,0.000000,1.000000:vel_
cobot_dynamixel_driver/joint_states|name|J1,J2,J3,J4,J5,J6|pos|0.000025,0.001364,0.002466,-0.000013,0.000021,0.556189|vel|0.000000,-0.000000,0.000000,0.000000,0.000000,0.844859|eff|0.000000,306.152344,-290.039062,0.000000,8.056641,3202.514648
cobot_dynamixel_driver/joint_states|name|J1,J2,J3,J4,J5,J6|pos|0.000025,0.001364,0.002466,-0.000013,0.000021,0.653906|vel|0.000000,-0.000000,0.000000,0.000000,0.000000,1.224028|eff|0.000000,225.585938,-257.812500,0.000000,0.000000,-3391.845703
cobot_dynamixel_driver/goal|-:J1,J2,J3,J4,J5,J6:0.000000,0.000000,0.000000,0.000000,0.000000,1.000000:vel_
cobot_dynamixel_driver/joint_states|name|J1,J2,J3,J4,J5,J6|pos|0.000025,0.001364,0.002466,-0.000013,0.000021,0.750259|vel|0.000000,-0.000000,0.000000,0.000000,0.000000,0.715596|eff|0.000000,225.585938,-322.265625,0.000000,8.056641,-161.132812
cobot_dynamixel_driver/joint_states|name|J1,J2,J3,J4,J5,J6|pos|0.000025,0.001364,0.002466,-0.000013,0.000021,0.847129|vel|0.000000,-0.000000,0.000000,0.000000,0.000000,1.109588|eff|0.000000,370.605469,-354.492188,0.000000,-8.056641,3069.580078
cobot_dynamixel_driver/goal|-:J1,J2,J3,J4,J5,J6:0.000000,0.000000,0.000000,0.000000,0.000000,1.000000:vel_
cobot_dynamixel_driver/joint_states|name|J1,J2,J3,J4,J5,J6|pos|0.000025,0.001364,0.002466,-0.000013,0.000021,0.944805|vel|0.000000,-0.000000,0.000000,0.000000,0.000000,1.093043|eff|0.000000,225.585938,-354.492188,0.000000,0.000000,3262.939453
cobot_dynamixel_driver/joint_states|name|J1,J2,J3,J4,J5,J6|pos|0.000025,0.001364,0.002466,0.000000,0.000021,1.041675|vel|0.000000,-0.000000,0.000000,0.000000,0.000000,1.195418|eff|0.000000,225.585938,-354.492188,0.000000,8.056641,2719.116211
cobot_dynamixel_driver/goal|-:J1,J2,J3,J4,J5,J6:0.000000,0.000000,0.000000,0.000000,0.000000,1.000000:vel_
cobot_dynamixel_driver/joint_states|name|J1,J2,J3,J4,J5,J6|pos|0.000025,0.001377,0.002466,0.000000,0.000021,1.139392|vel|0.000000,-0.000000,0.000000,0.000000,0.000000,0.848306|eff|0.000000,322.265625,-322.265625,0.000000,0.000000,-2328.369141
cobot_dynamixel_driver/joint_states|name|J1,J2,J3,J4,J5,J6|pos|0.000025,0.001377,0.002466,0.000000,0.000021,1.236696|vel|0.000000,-0.000000,0.000000,0.000000,0.000000,1.175081|eff|0.000000,370.605469,-290.039062,0.000000,8.056641,-1929.565430
cobot_dynamixel_driver/goal|-:J1,J2,J3,J4,J5,J6:0.000000,0.000000,0.000000,0.000000,0.000000,1.000000:vel_
cobot_dynamixel_driver/joint_states|name|J1,J2,J3,J4,J5,J6|pos|0.000025,0.001377,0.002466,0.000000,0.000021,1.334455|vel|0.000000,-0.000000,0.000000,0.000000,0.000000,0.835207|eff|0.000000,225.585938,-322.265625,0.000000,-8.056641,-2658.691406
cobot_dynamixel_driver/joint_states|name|J1,J2,J3,J4,J5,J6|pos|0.000025,0.001377,0.002466,0.000000,0.000021,1.431160|vel|0.000000,-0.000000,0.000000,0.000000,0.000000,0.926897|eff|0.000000,370.605469,-273.925781,0.000000,8.056641,3512.695312
cobot_dynamixel_driver/goal|-:J1,J2,J3,J4,J5,J6:0.000000,0.000000,0.000000,0.000000,0.000000,1.000000:vel_
cobot_dynamixel_driver/joint_states|name|J1,J2,J3,J4,J5,J6|pos|0.000038,0.001377,0.002466,0.000000,0.000021,1.528464|vel|0.000000,-0.000000,0.000000,0.000000,0.000000,0.775230|eff|0.000000,241.699219,-257.812500,0.000000,8.056641,-265.869141
cobot_dynamixel_driver/joint_states|name|J1,J2,J3,J4,J5,J6|pos|0.000038,0.001377,0.002466,0.000000,0.000021,1.626161|vel|0.000000,-0.000000,0.000000,0.000000,0.000000,0.866920|eff|0.000000,225.585938,-290.039062,0.000000,8.056641,-2856.079102
cobot_dynamixel_driver/goal|-:J1,J2,J3,J4,J5,J6:0.000000,0.000000,0.000000,0.000000,0.000000,1.000000:vel_
cobot_dynamixel_driver/joint_states|name|J1,J2,J3,J4,J5,J6|pos|0.000038,0.001377,0.002466,0.000000,0.000021,1.723134|vel|0.000000,-0.000000,0.000000,0.000000,0.000000,0.796946|eff|0.000000,370.605469,-322.265625,0.000000,-8.056641,342.407227
cobot_dynamixel_driver/joint_states|name|J1,J2,J3,J4,J5,J6|pos|0.000038,0.001377,0.002466,0.000000,0.000021,1.808089|vel|0.000000,-0.000000,0.000000,0.000000,0.000000,0.741794|eff|0.000000,225.585938,-354.492188,0.000000,8.056641,-8.056641
cobot_dynamixel_driver/goal|-:J1,J2,J3,J4,J5,J6:0.000000,0.000000,0.000000,0.000000,0.000000,1.000000:vel_
[RxPacketError] Hardware error occurred. Check the error at Control Table (Hardware Error Status)!
 /home/dell/catkin_ws/src/cobot/cobot_dynamixel_driver/src/cJoint_pro.cpp:389
