surachairobotic/cobot/cobot_dynamixel_driver/log/2018-12-11T11:09:49.165073_driver_log.txt
cobot_dynamixel_driver/joint_states|name|J1,J2,J3,J4,J5,J6|pos|-1.188055,-1.267658,1.296275,-0.001715,-1.282556,-0.000083|vel|0.000000,-0.000000,0.000000,0.000000,0.000000,0.000000|eff|0.000000,0.000000,0.000000,0.000000,0.000000,0.000000
cobot_dynamixel_driver/joint_states|name|J1,J2,J3,J4,J5,J6|pos|-1.188055,-1.267658,1.296275,-0.001715,-1.282556,-0.000083|vel|0.000000,-0.000000,0.000000,0.000000,0.000000,0.000000|eff|0.000000,0.000000,0.000000,0.000000,0.000000,0.000000
cobot_dynamixel_driver/joint_states|name|J1,J2,J3,J4,J5,J6|pos|-1.188055,-1.267658,1.296275,-0.001715,-1.282556,-0.000083|vel|0.000000,-0.000000,0.000000,0.000000,0.000000,0.000000|eff|0.000000,0.000000,0.000000,0.000000,0.000000,0.000000
cobot_dynamixel_driver/joint_states|name|J1,J2,J3,J4,J5,J6|pos|-1.188055,-1.267658,1.296275,-0.001715,-1.282556,-0.000083|vel|0.000000,-0.000000,0.000000,0.000000,0.000000,0.000000|eff|0.000000,0.000000,0.000000,0.000000,0.000000,0.000000
cobot_dynamixel_driver/joint_states|name|J1,J2,J3,J4,J5,J6|pos|-1.188055,-1.267658,1.296275,-0.001715,-1.282556,-0.000083|vel|0.000000,-0.000000,0.000000,0.000000,0.000000,0.000000|eff|0.000000,0.000000,0.000000,0.000000,0.000000,0.000000
cobot_dynamixel_driver/joint_states|name|J1,J2,J3,J4,J5,J6|pos|-1.188055,-1.267658,1.296275,-0.001715,-1.282556,-0.000083|vel|0.000000,-0.000000,0.000000,0.000000,0.000000,0.000000|eff|0.000000,0.000000,0.000000,0.000000,0.000000,0.000000
cobot_dynamixel_driver/joint_states|name|J1,J2,J3,J4,J5,J6|pos|-1.188055,-1.267658,1.296275,-0.001715,-1.282556,-0.000083|vel|0.000000,-0.000000,0.000000,0.000000,0.000000,0.000000|eff|0.000000,0.000000,0.000000,0.000000,0.000000,0.000000
cobot_dynamixel_driver/joint_states|name|J1,J2,J3,J4,J5,J6|pos|-1.188055,-1.267658,1.296275,-0.001715,-1.282556,-0.000083|vel|0.000000,-0.000000,0.000000,0.000000,0.000000,0.000000|eff|0.000000,0.000000,0.000000,0.000000,0.000000,0.000000
cobot_dynamixel_driver/joint_states|name|J1,J2,J3,J4,J5,J6|pos|-1.188055,-1.267658,1.296275,-0.001715,-1.282556,-0.000083|vel|0.000000,-0.000000,0.000000,0.000000,0.000000,0.000000|eff|0.000000,0.000000,0.000000,0.000000,0.000000,0.000000
cobot_dynamixel_driver/joint_states|name|J1,J2,J3,J4,J5,J6|pos|-1.188055,-1.267658,1.296275,-0.001715,-1.282556,-0.000083|vel|0.000000,-0.000000,0.000000,0.000000,0.000000,0.000000|eff|0.000000,0.000000,0.000000,0.000000,0.000000,0.000000
cobot_dynamixel_driver/joint_states|name|J1,J2,J3,J4,J5,J6|pos|-1.188055,-1.267658,1.296275,-0.001715,-1.282556,-0.000083|vel|0.000000,-0.000000,0.000000,0.000000,0.000000,0.000000|eff|0.000000,0.000000,0.000000,0.000000,0.000000,0.000000
cobot_dynamixel_driver/joint_states|name|J1,J2,J3,J4,J5,J6|pos|-1.188055,-1.267658,1.296275,-0.001715,-1.282556,-0.000083|vel|0.000000,-0.000000,0.000000,0.000000,0.000000,0.000000|eff|0.000000,0.000000,0.000000,0.000000,0.000000,0.000000
cobot_dynamixel_driver/joint_states|name|J1,J2,J3,J4,J5,J6|pos|-1.188055,-1.267658,1.296275,-0.001715,-1.282556,-0.000083|vel|0.000000,-0.000000,0.000000,0.000000,0.000000,0.000000|eff|0.000000,0.000000,0.000000,0.000000,0.000000,0.000000
cobot_dynamixel_driver/joint_states|name|J1,J2,J3,J4,J5,J6|pos|-1.188055,-1.267658,1.296275,-0.001715,-1.282556,-0.000083|vel|0.000000,-0.000000,0.000000,0.000000,0.000000,0.000000|eff|0.000000,0.000000,0.000000,0.000000,0.000000,0.000000
cobot_dynamixel_driver/joint_states|name|J1,J2,J3,J4,J5,J6|pos|-1.188055,-1.267658,1.296275,-0.001715,-1.282556,-0.000083|vel|0.000000,-0.000000,0.000000,0.000000,0.000000,0.000000|eff|0.000000,0.000000,0.000000,0.000000,0.000000,-8.056641
cobot_dynamixel_driver/joint_states|name|J1,J2,J3,J4,J5,J6|pos|-1.188055,-1.267658,1.296275,-0.001715,-1.282556,-0.000083|vel|0.000000,-0.000000,0.000000,0.000000,0.000000,0.000000|eff|0.000000,0.000000,0.000000,0.000000,0.000000,0.000000
cobot_dynamixel_driver/joint_states|name|J1,J2,J3,J4,J5,J6|pos|-1.188055,-1.267658,1.296275,-0.001715,-1.282556,-0.000083|vel|0.000000,-0.000000,0.000000,0.000000,0.000000,0.000000|eff|0.000000,0.000000,0.000000,0.000000,0.000000,0.000000
cobot_dynamixel_driver/joint_states|name|J1,J2,J3,J4,J5,J6|pos|-1.188055,-1.267658,1.296275,-0.001715,-1.282556,-0.000083|vel|0.000000,-0.000000,0.000000,0.000000,0.000000,0.000000|eff|0.000000,0.000000,0.000000,0.000000,0.000000,0.000000
cobot_dynamixel_driver/joint_states|name|J1,J2,J3,J4,J5,J6|pos|-1.188055,-1.267658,1.296275,-0.001715,-1.282556,-0.000083|vel|0.000000,-0.000000,0.000000,0.000000,0.000000,0.000000|eff|0.000000,0.000000,0.000000,0.000000,0.000000,0.000000
cobot_dynamixel_driver/joint_states|name|J1,J2,J3,J4,J5,J6|pos|-1.188055,-1.267658,1.296275,-0.001715,-1.282556,-0.000083|vel|0.000000,-0.000000,0.000000,0.000000,0.000000,0.000000|eff|0.000000,0.000000,0.000000,0.000000,0.000000,0.000000
cobot_dynamixel_driver/joint_states|name|J1,J2,J3,J4,J5,J6|pos|-1.188055,-1.267658,1.296275,-0.001715,-1.282556,-0.000083|vel|0.000000,-0.000000,0.000000,0.000000,0.000000,0.000000|eff|0.000000,0.000000,0.000000,0.000000,0.000000,0.000000
cobot_dynamixel_driver/joint_states|name|J1,J2,J3,J4,J5,J6|pos|-1.188055,-1.267658,1.296275,-0.001715,-1.282556,-0.000083|vel|0.000000,-0.000000,0.000000,0.000000,0.000000,0.000000|eff|0.000000,0.000000,0.000000,0.000000,0.000000,0.000000
cobot_dynamixel_driver/joint_states|name|J1,J2,J3,J4,J5,J6|pos|-1.188055,-1.267658,1.296275,-0.001715,-1.282556,-0.000083|vel|0.000000,-0.000000,0.000000,0.000000,0.000000,0.000000|eff|0.000000,0.000000,0.000000,0.000000,0.000000,8.056641
cobot_dynamixel_driver/joint_states|name|J1,J2,J3,J4,J5,J6|pos|-1.188055,-1.267658,1.296275,-0.001715,-1.282556,-0.000083|vel|0.000000,-0.000000,0.000000,0.000000,0.000000,0.000000|eff|0.000000,0.000000,0.000000,0.000000,0.000000,0.000000
cobot_dynamixel_driver/joint_states|name|J1,J2,J3,J4,J5,J6|pos|-1.188055,-1.267658,1.296275,-0.001715,-1.282556,-0.000083|vel|0.000000,-0.000000,0.000000,0.000000,0.000000,0.000000|eff|0.000000,0.000000,0.000000,0.000000,0.000000,0.000000
cobot_dynamixel_driver/joint_states|name|J1,J2,J3,J4,J5,J6|pos|-1.188055,-1.267658,1.296275,-0.001715,-1.282556,-0.000083|vel|0.000000,-0.000000,0.000000,0.000000,0.000000,0.000000|eff|0.000000,0.000000,0.000000,0.000000,0.000000,0.000000
cobot_dynamixel_driver/joint_states|name|J1,J2,J3,J4,J5,J6|pos|-1.188055,-1.267658,1.296275,-0.001715,-1.282556,-0.000083|vel|0.000000,-0.000000,0.000000,0.000000,0.000000,0.000000|eff|0.000000,0.000000,0.000000,0.000000,0.000000,0.000000
cobot_dynamixel_driver/joint_states|name|J1,J2,J3,J4,J5,J6|pos|-1.188055,-1.267658,1.296275,-0.001715,-1.282556,-0.000083|vel|0.000000,-0.000000,0.000000,0.000000,0.000000,0.000000|eff|0.000000,0.000000,0.000000,0.000000,0.000000,0.000000
cobot_dynamixel_driver/joint_states|name|J1,J2,J3,J4,J5,J6|pos|-1.188055,-1.267658,1.296275,-0.001715,-1.282556,-0.000083|vel|0.000000,-0.000000,0.000000,0.000000,0.000000,0.000000|eff|0.000000,0.000000,0.000000,0.000000,0.000000,0.000000
cobot_dynamixel_driver/joint_states|name|J1,J2,J3,J4,J5,J6|pos|-1.188055,-1.267658,1.296275,-0.001715,-1.282556,-0.000083|vel|0.000000,-0.000000,0.000000,0.000000,0.000000,0.000000|eff|0.000000,0.000000,0.000000,0.000000,0.000000,0.000000
cobot_dynamixel_driver/joint_states|name|J1,J2,J3,J4,J5,J6|pos|-1.188055,-1.267658,1.296275,-0.001715,-1.282556,-0.000083|vel|0.000000,-0.000000,0.000000,0.000000,0.000000,0.000000|eff|0.000000,0.000000,0.000000,0.000000,0.000000,0.000000
cobot_dynamixel_driver/joint_states|name|J1,J2,J3,J4,J5,J6|pos|-1.188055,-1.267658,1.296275,-0.001715,-1.282556,-0.000083|vel|0.000000,-0.000000,0.000000,0.000000,0.000000,0.000000|eff|0.000000,0.000000,0.000000,0.000000,0.000000,0.000000
cobot_dynamixel_driver/joint_states|name|J1,J2,J3,J4,J5,J6|pos|-1.188055,-1.267658,1.296275,-0.001715,-1.282556,-0.000083|vel|0.000000,-0.000000,0.000000,0.000000,0.000000,0.000000|eff|0.000000,0.000000,0.000000,0.000000,0.000000,0.000000
cobot_dynamixel_driver/joint_states|name|J1,J2,J3,J4,J5,J6|pos|-1.188055,-1.267658,1.296275,-0.001715,-1.282556,-0.000083|vel|0.000000,-0.000000,0.000000,0.000000,0.000000,0.000000|eff|0.000000,0.000000,0.000000,0.000000,0.000000,-8.056641
cobot_dynamixel_driver/joint_states|name|J1,J2,J3,J4,J5,J6|pos|-1.188055,-1.267658,1.296275,-0.001715,-1.282556,-0.000083|vel|0.000000,-0.000000,0.000000,0.000000,0.000000,0.000000|eff|0.000000,0.000000,0.000000,0.000000,0.000000,0.000000
cobot_dynamixel_driver/joint_states|name|J1,J2,J3,J4,J5,J6|pos|-1.188055,-1.267658,1.296275,-0.001715,-1.282556,-0.000083|vel|0.000000,-0.000000,0.000000,0.000000,0.000000,0.000000|eff|0.000000,0.000000,0.000000,0.000000,0.000000,-8.056641
cobot_dynamixel_driver/joint_states|name|J1,J2,J3,J4,J5,J6|pos|-1.188055,-1.267658,1.296275,-0.001715,-1.282556,-0.000083|vel|0.000000,-0.000000,0.000000,0.000000,0.000000,0.000000|eff|0.000000,0.000000,0.000000,0.000000,0.000000,0.000000
cobot_dynamixel_driver/goal|-:J1,J2,J3,J4,J5,J6:0.000000,0.000000,0.000000,0.000000,0.000000,0.000000:0.700000,0.700000,0.700000,0.700000,0.700000,0.700000:pos_vel_
cobot_dynamixel_driver/joint_states|name|J1,J2,J3,J4,J5,J6|pos|-1.188055,-1.267658,1.296275,0.001014,-1.282556,-0.000083|vel|0.000000,-0.000000,0.000000,0.000000,0.000000,0.000000|eff|0.000000,0.000000,0.000000,0.000000,0.000000,0.000000
cobot_dynamixel_driver/joint_states|name|J1,J2,J3,J4,J5,J6|pos|-1.188055,-1.267658,1.296262,0.001014,-1.282494,-0.000083|vel|0.000000,-0.000000,0.000000,0.000000,0.014822,0.000000|eff|290.039062,-290.039062,-209.472656,-96.679688,100.708008,0.000000
cobot_dynamixel_driver/joint_states|name|J1,J2,J3,J4,J5,J6|pos|-1.187642,-1.267258,1.295874,0.001014,-1.281335,-0.000083|vel|0.036930,0.042147,-0.040686,0.000000,0.110649,0.000000|eff|708.984375,-596.191406,-547.851562,-96.679688,132.934570,0.000000
cobot_dynamixel_driver/joint_states|name|J1,J2,J3,J4,J5,J6|pos|-1.186189,-1.265893,1.294572,0.001001,-1.278398,-0.000083|vel|0.113086,0.101611,-0.101611,0.000000,0.200615,0.000000|eff|1031.250000,-1144.042969,-1047.363281,-112.792969,104.736328,0.000000
cobot_dynamixel_driver/joint_states|name|J1,J2,J3,J4,J5,J6|pos|-1.183285,-1.263314,1.292181,0.001001,-1.273909,-0.000083|vel|0.177976,0.159823,-0.175889,0.000000,0.279207,0.000000|eff|1240.722656,-1869.140625,-1546.875000,-225.585938,96.679688,0.000000
cobot_dynamixel_driver/joint_states|name|J1,J2,J3,J4,J5,J6|pos|-1.178966,-1.259459,1.287725,0.000989,-1.268221,-0.000083|vel|0.254132,0.224921,-0.283342,-0.000209,0.334014,0.000000|eff|1272.949219,-1965.820312,-1514.648438,-225.585938,68.481445,0.000000
cobot_dynamixel_driver/joint_states|name|J1,J2,J3,J4,J5,J6|pos|-1.173070,-1.253976,1.281879,0.000951,-1.261602,-0.000083|vel|0.350318,0.314013,-0.344893,-0.001461,0.299889,0.000000|eff|1385.742188,-2094.726562,-1256.835938,-209.472656,68.481445,0.000000
cobot_dynamixel_driver/joint_states|name|J1,J2,J3,J4,J5,J6|pos|-1.166048,-1.247216,1.274230,0.000864,-1.254155,-0.000083|vel|0.388709,0.373269,-0.418337,-0.004590,0.390889,0.000000|eff|1643.554688,-1595.214844,-1224.609375,-225.585938,76.538086,0.000000
cobot_dynamixel_driver/joint_states|name|J1,J2,J3,J4,J5,J6|pos|-1.158186,-1.239329,1.266469,0.000776,-1.245943,-0.000083|vel|0.406652,0.413746,-0.475714,-0.005008,0.466379,0.000000|eff|708.984375,-2400.878906,-1079.589844,-161.132812,72.509766,0.000000
cobot_dynamixel_driver/joint_states|name|J1,J2,J3,J4,J5,J6|pos|-1.149574,-1.230604,1.257155,0.000676,-1.237089,-0.000083|vel|0.465908,0.498040,-0.503256,-0.005008,0.457416,0.000000|eff|1160.156250,-1144.042969,-1546.875000,-241.699219,48.339844,0.000000
cobot_dynamixel_driver/joint_states|name|J1,J2,J3,J4,J5,J6|pos|-1.140235,-1.221266,1.248242,0.000576,-1.227636,-0.000083|vel|0.481348,0.489694,-0.432733,-0.005216,0.525322,0.000000|eff|918.457031,-1289.062500,-1611.328125,-193.359375,52.368164,0.000000
cobot_dynamixel_driver/joint_states|name|J1,J2,J3,J4,J5,J6|pos|-1.130421,-1.211226,1.237865,0.000488,-1.217707,-0.000083|vel|0.520573,0.532258,-0.461526,-0.003964,0.534974,0.000000|eff|2642.578125,-2787.597656,-999.023438,-241.699219,60.424805,0.000000
cobot_dynamixel_driver/joint_states|name|J1,J2,J3,J4,J5,J6|pos|-1.120106,-1.200636,1.228000,0.000438,-1.207302,-0.000083|vel|0.529962,0.555626,-0.609457,-0.002295,0.567031,0.000000|eff|2304.199219,-2094.726562,-934.570312,-193.359375,40.283203,8.056641
cobot_dynamixel_driver/joint_states|name|J1,J2,J3,J4,J5,J6|pos|-1.109240,-1.189732,1.216609,0.000401,-1.196567,-0.000083|vel|0.609874,0.545194,-0.575239,-0.001878,0.600467,0.000000|eff|177.246094,-1144.042969,-1353.515625,-209.472656,32.226562,12.084961
cobot_dynamixel_driver/joint_states|name|J1,J2,J3,J4,J5,J6|pos|-1.098149,-1.178391,1.205906,0.000363,-1.185541,-0.000083|vel|0.596103,0.594434,-0.598607,-0.001252,0.490852,0.000000|eff|2336.425781,-741.210938,-789.550781,-225.585938,56.396484,12.084961
cobot_dynamixel_driver/joint_states|name|J1,J2,J3,J4,J5,J6|pos|-1.086782,-1.166836,1.193963,0.000263,-1.174247,-0.000083|vel|0.561677,0.550619,-0.609457,-0.005842,0.619081,0.000000|eff|2143.066406,-837.890625,-854.003906,-209.472656,60.424805,12.084961
cobot_dynamixel_driver/joint_states|name|J1,J2,J3,J4,J5,J6|pos|-1.075090,-1.155069,1.182885,0.000188,-1.162643,-0.000083|vel|0.636998,0.614256,-0.605910,-0.003338,0.587024,0.000000|eff|1756.347656,-1933.593750,-1031.250000,-161.132812,44.311523,0.000000
cobot_dynamixel_driver/joint_states|name|J1,J2,J3,J4,J5,J6|pos|-1.063098,-1.143014,1.170379,0.000138,-1.150687,-0.000083|vel|0.644510,0.669756,-0.607579,-0.002504,0.629766,0.000000|eff|596.191406,-854.003906,-2819.824219,-177.246094,32.226562,12.084961
cobot_dynamixel_driver/joint_states|name|J1,J2,J3,J4,J5,J6|pos|-1.051130,-1.130671,1.158850,0.000100,-1.138627,-0.000083|vel|0.587132,0.618637,-0.634494,-0.002295,0.654585,0.000000|eff|2964.843750,-2594.238281,-1031.250000,-177.246094,48.339844,12.084961
cobot_dynamixel_driver/joint_states|name|J1,J2,J3,J4,J5,J6|pos|-1.038712,-1.118241,1.145868,0.000063,-1.126464,-0.000083|vel|0.622393,0.571900,-0.626357,-0.001878,0.629766,0.000000|eff|2658.691406,-2819.824219,-902.343750,-161.132812,64.453125,12.084961
cobot_dynamixel_driver/joint_states|name|J1,J2,J3,J4,J5,J6|pos|-1.025981,-1.105585,1.134026,0.000038,-1.114094,-0.000083|vel|0.623436,0.670590,-0.671008,-0.001461,0.624596,0.000000|eff|1482.421875,-2046.386719,-773.437500,-161.132812,60.424805,12.084961
cobot_dynamixel_driver/joint_states|name|J1,J2,J3,J4,J5,J6|pos|-1.013338,-1.092904,1.120719,0.000038,-1.101538,-0.000083|vel|0.650978,0.697506,-0.608622,-0.000835,0.688365,0.000000|eff|837.890625,-805.664062,-1144.042969,-145.019531,52.368164,12.084961
cobot_dynamixel_driver/joint_states|name|J1,J2,J3,J4,J5,J6|pos|-1.000782,-1.080035,1.108013,0.000025,-1.088796,-0.000083|vel|0.658489,0.664957,-0.691664,-0.000835,0.694915,0.000000|eff|467.285156,-1724.121094,-1611.328125,-177.246094,28.198242,12.084961
cobot_dynamixel_driver/joint_states|name|J1,J2,J3,J4,J5,J6|pos|-0.987813,-1.067129,1.095032,0.000025,-1.076219,-0.000083|vel|0.674763,0.690412,-0.680397,-0.000835,0.645278,0.000000|eff|1256.835938,-3061.523438,-1289.062500,-145.019531,64.453125,8.056641
cobot_dynamixel_driver/joint_states|name|J1,J2,J3,J4,J5,J6|pos|-0.974757,-1.054172,1.082789,0.000013,-1.063394,-0.000083|vel|0.725464,0.621558,-0.680605,-0.000835,0.698362,0.000000|eff|612.304688,-773.437500,-999.023438,-177.246094,40.283203,12.084961
cobot_dynamixel_driver/joint_states|name|J1,J2,J3,J4,J5,J6|pos|-0.961813,-1.041128,1.069107,0.000013,-1.050507,-0.000083|vel|0.664122,0.634077,-0.600276,-0.000835,0.679748,0.000000|eff|1015.136719,-3238.769531,-1820.800781,-112.792969,8.056641,20.141602
cobot_dynamixel_driver/joint_states|name|J1,J2,J3,J4,J5,J6|pos|-0.948781,-1.028097,1.056012,0.000013,-1.037579,-0.000083|vel|0.686865,0.657863,-0.674972,-0.000835,0.591849,0.000000|eff|1305.175781,-757.324219,-1047.363281,-112.792969,28.198242,20.141602
cobot_dynamixel_driver/joint_states|name|J1,J2,J3,J4,J5,J6|pos|-0.935500,-1.014978,1.042994,0.000013,-1.024630,-0.000083|vel|0.639919,0.685822,-0.675181,0.000000,0.701119,0.000000|eff|2239.746094,-2948.730469,-1724.121094,-112.792969,56.396484,20.141602
cobot_dynamixel_driver/joint_states|name|J1,J2,J3,J4,J5,J6|pos|-0.922405,-1.001658,1.029849,0.000013,-1.011639,-0.000083|vel|0.661410,0.680814,-0.704182,0.000000,0.743172,0.000000|eff|161.132812,-2271.972656,-1289.062500,-112.792969,48.339844,20.141602
cobot_dynamixel_driver/joint_states|name|J1,J2,J3,J4,J5,J6|pos|-0.909149,-0.988539,1.016618,0.000013,-0.998359,-0.000083|vel|0.691664,0.658697,-0.698340,0.000000,0.788673,0.000000|eff|1643.554688,-483.398438,-435.058594,-112.792969,52.368164,12.084961
cobot_dynamixel_driver/joint_states|name|J1,J2,J3,J4,J5,J6|pos|-0.895679,-0.975132,1.003974,0.000013,-0.985328,-0.000062|vel|0.694793,0.693959,-0.632408,0.000000,0.552898,0.000000|eff|2900.390625,-870.117188,-1981.933594,-145.019531,92.651367,20.141602
cobot_dynamixel_driver/joint_states|name|J1,J2,J3,J4,J5,J6|pos|-0.882422,-0.961875,0.990066,0.000013,-0.971965,-0.000021|vel|0.688325,0.655359,-0.698132,0.000000,0.721801,0.000000|eff|1595.214844,-3383.789062,-1804.687500,-145.019531,16.113281,20.141602
cobot_dynamixel_driver/joint_states|name|J1,J2,J3,J4,J5,J6|pos|-0.869040,-0.948393,0.977398,0.000013,-0.958747,0.000021|vel|0.700844,0.658280,-0.654942,0.000000,0.647691,0.002758|eff|435.058594,-2562.011719,-741.210938,-193.359375,96.679688,12.084961
cobot_dynamixel_driver/joint_states|name|J1,J2,J3,J4,J5,J6|pos|-0.855583,-0.935036,0.963603,0.000013,-0.945488,0.000021|vel|0.738818,0.701887,-0.683109,0.000000,0.695949,0.002758|eff|193.359375,-1498.535156,-1127.929688,-112.792969,28.198242,8.056641
cobot_dynamixel_driver/joint_states|name|J1,J2,J3,J4,J5,J6|pos|-0.842351,-0.921579,0.950759,0.000013,-0.931980,0.000021|vel|0.660575,0.659949,-0.720666,0.000000,0.785915,0.002758|eff|1417.968750,-789.550781,-1724.121094,-128.906250,-20.141602,8.056641
cobot_dynamixel_driver/joint_states|name|J1,J2,J3,J4,J5,J6|pos|-0.828794,-0.908097,0.936576,0.000013,-0.918534,0.000021|vel|0.662453,0.669338,-0.709399,0.000000,0.584955,0.002758|eff|1917.480469,-660.644531,-1708.007812,-177.246094,0.000000,0.000000
cobot_dynamixel_driver/joint_states|name|J1,J2,J3,J4,J5,J6|pos|-0.815249,-0.894690,0.923720,0.000013,-0.905503,0.000021|vel|0.694793,0.661201,-0.724004,0.000000,0.731108,0.002758|eff|1869.140625,-531.738281,-2126.953125,-145.019531,76.538086,0.000000
cobot_dynamixel_driver/joint_states|name|J1,J2,J3,J4,J5,J6|pos|-0.801792,-0.881308,0.910263,0.000013,-0.892388,0.000021|vel|0.661827,0.676224,-0.663496,0.000000,0.695604,0.002758|eff|2997.070312,-1353.515625,-1369.628906,-112.792969,84.594727,-12.084961
cobot_dynamixel_driver/joint_states|name|J1,J2,J3,J4,J5,J6|pos|-0.788373,-0.867964,0.896155,0.000013,-0.879294,0.000021|vel|0.706895,0.687908,-0.719414,0.000000,0.695949,0.002758|eff|2997.070312,-1369.628906,-1933.593750,-145.019531,124.877930,-12.084961
cobot_dynamixel_driver/joint_states|name|J1,J2,J3,J4,J5,J6|pos|-0.774841,-0.854519,0.882785,0.000013,-0.865725,0.000021|vel|0.696671,0.733602,-0.689577,0.000000,0.669062,0.000000|eff|2320.312500,-3077.636719,-1240.722656,-128.906250,44.311523,-12.084961
cobot_dynamixel_driver/joint_states|name|J1,J2,J3,J4,J5,J6|pos|-0.761333,-0.840937,0.870179,0.000013,-0.852238,0.000021|vel|0.683318,0.666000,-0.685404,0.000000,0.740415,0.000000|eff|2078.613281,-2497.558594,-902.343750,-145.019531,48.339844,-12.084961
cobot_dynamixel_driver/joint_states|name|J1,J2,J3,J4,J5,J6|pos|-0.747864,-0.827292,0.856835,0.000013,-0.838772,0.000021|vel|0.687491,0.728177,-0.646387,0.000000,0.692846,0.000000|eff|1434.082031,-3367.675781,-1337.402344,-112.792969,0.000000,-12.084961
cobot_dynamixel_driver/joint_states|name|J1,J2,J3,J4,J5,J6|pos|-0.734257,-0.813672,0.842514,0.000013,-0.825388,0.000021|vel|0.660575,0.666209,-0.693541,0.000000,0.728350,0.000000|eff|1659.667969,-3158.203125,-692.871094,-112.792969,28.198242,-12.084961
cobot_dynamixel_driver/joint_states|name|J1,J2,J3,J4,J5,J6|pos|-0.720712,-0.800065,0.829470,0.000013,-0.812067,0.000021|vel|0.700010,0.814974,-0.733184,0.000000,0.752824,0.000000|eff|1208.496094,-2852.050781,-467.285156,-177.246094,20.141602,-12.084961
cobot_dynamixel_driver/joint_states|name|J1,J2,J3,J4,J5,J6|pos|-0.707367,-0.786620,0.815838,0.000013,-0.798745,0.000021|vel|0.726299,0.653064,-0.718370,0.000000,0.730763,0.000000|eff|515.625000,-2819.824219,-451.171875,-112.792969,0.000000,-12.084961
cobot_dynamixel_driver/joint_states|name|J1,J2,J3,J4,J5,J6|pos|-0.693873,-0.773113,0.802268,0.000013,-0.785217,0.000021|vel|0.750502,0.688117,-0.734854,0.000000,0.625285,0.000000|eff|225.585938,-2755.371094,-628.417969,-112.792969,124.877930,-12.084961
cobot_dynamixel_driver/joint_states|name|J1,J2,J3,J4,J5,J6|pos|-0.680453,-0.759531,0.788298,0.000000,-0.771689,0.000021|vel|0.681649,0.703974,-0.689160,0.000000,0.828313,0.000000|eff|338.378906,-2868.164062,-692.871094,-177.246094,88.623047,-12.084961
cobot_dynamixel_driver/joint_states|name|J1,J2,J3,J4,J5,J6|pos|-0.666833,-0.746011,0.775003,0.000000,-0.758450,0.000021|vel|0.726925,0.706895,-0.709399,0.000000,0.692157,0.000000|eff|161.132812,-2868.164062,-2449.218750,-112.792969,52.368164,-12.084961
cobot_dynamixel_driver/joint_states|name|J1,J2,J3,J4,J5,J6|pos|-0.653176,-0.732441,0.762059,0.000000,-0.744963,0.000021|vel|0.679979,0.732767,-0.707521,0.000000,0.742483,0.000000|eff|257.812500,-2481.445312,-1176.269531,-145.019531,8.056641,-12.084961
cobot_dynamixel_driver/joint_states|name|J1,J2,J3,J4,J5,J6|pos|-0.639644,-0.718859,0.747588,0.000000,-0.731311,0.000021|vel|0.663914,0.731515,-0.708147,0.000000,0.621838,0.000000|eff|338.378906,-2932.617188,-886.230469,-177.246094,48.339844,-12.084961
cobot_dynamixel_driver/joint_states|name|J1,J2,J3,J4,J5,J6|pos|-0.626074,-0.705202,0.734857,0.000000,-0.717845,0.000021|vel|0.715658,0.723587,-0.679771,0.000000,0.686986,0.000000|eff|177.246094,-1933.593750,-2014.160156,-112.792969,-12.084961,-12.084961
cobot_dynamixel_driver/joint_states|name|J1,J2,J3,J4,J5,J6|pos|-0.612392,-0.691607,0.720599,0.000000,-0.704772,0.000021|vel|0.667252,0.664748,-0.602154,0.000000,0.650793,0.000000|eff|515.625000,-3351.562500,-1305.175781,-161.132812,-28.198242,-12.084961
cobot_dynamixel_driver/joint_states|name|J1,J2,J3,J4,J5,J6|pos|-0.598847,-0.678000,0.707543,0.000000,-0.691450,0.000021|vel|0.674137,0.686030,-0.717327,0.000000,0.672164,0.000000|eff|531.738281,-1901.367188,-741.210938,-112.792969,36.254883,-12.084961
cobot_dynamixel_driver/joint_states|name|J1,J2,J3,J4,J5,J6|pos|-0.585290,-0.664492,0.693159,0.000000,-0.677715,0.000021|vel|0.684570,0.677476,-0.698340,0.000000,0.633903,0.000000|eff|596.191406,-2739.257812,-692.871094,-112.792969,20.141602,-12.084961
cobot_dynamixel_driver/joint_states|name|J1,J2,J3,J4,J5,J6|pos|-0.571670,-0.651123,0.679577,0.000000,-0.664208,0.000021|vel|0.686030,0.699592,-0.618011,0.000000,0.707668,0.000000|eff|854.003906,-2400.878906,-773.437500,-161.132812,12.084961,-12.084961
cobot_dynamixel_driver/joint_states|name|J1,J2,J3,J4,J5,J6|pos|-0.558275,-0.637528,0.666646,0.000000,-0.650700,0.000021|vel|0.698966,0.684778,-0.704182,0.000000,0.767991,0.000000|eff|306.152344,-2062.500000,-660.644531,-193.359375,60.424805,-16.113281
cobot_dynamixel_driver/joint_states|name|J1,J2,J3,J4,J5,J6|pos|-0.544681,-0.623946,0.652350,0.000000,-0.637151,0.000021|vel|0.708564,0.713989,-0.725882,0.000000,0.587368,0.000000|eff|273.925781,-2320.312500,-999.023438,-112.792969,64.453125,-16.113281
cobot_dynamixel_driver/joint_states|name|J1,J2,J3,J4,J5,J6|pos|-0.531098,-0.610664,0.639431,0.000000,-0.623602,0.000021|vel|0.703765,0.676850,-0.720457,0.000000,0.599088,0.000000|eff|306.152344,-999.023438,-870.117188,-112.792969,68.481445,-16.113281
cobot_dynamixel_driver/joint_states|name|J1,J2,J3,J4,J5,J6|pos|-0.517604,-0.597132,0.625060,0.000000,-0.610074,0.000021|vel|0.744869,0.685822,-0.697088,0.000000,0.672509,0.000000|eff|0.000000,-628.417969,-1272.949219,-145.019531,12.084961,-12.084961
cobot_dynamixel_driver/joint_states|name|J1,J2,J3,J4,J5,J6|pos|-0.504197,-0.583412,0.612404,0.000000,-0.596587,0.000021|vel|0.702513,0.727342,-0.701470,0.000000,0.741104,0.000000|eff|209.472656,-1546.875000,-692.871094,-145.019531,52.368164,0.000000
cobot_dynamixel_driver/joint_states|name|J1,J2,J3,J4,J5,J6|pos|-0.490552,-0.569679,0.598421,0.000000,-0.583142,0.000021|vel|0.738818,0.710025,-0.586506,0.000000,0.720078,0.000000|eff|-96.679688,-2384.765625,-837.890625,-128.906250,48.339844,-12.084961
cobot_dynamixel_driver/joint_states|name|J1,J2,J3,J4,J5,J6|pos|-0.477007,-0.555997,0.585502,0.000000,-0.569613,0.000021|vel|0.681231,0.718788,-0.731307,0.000000,0.699051,0.000000|eff|64.453125,-3206.542969,-580.078125,-161.132812,120.849609,-16.113281
cobot_dynamixel_driver/joint_states|name|J1,J2,J3,J4,J5,J6|pos|-0.463525,-0.542340,0.571119,0.000000,-0.556085,0.000021|vel|0.722752,0.721500,-0.683318,0.000000,0.590126,0.000000|eff|725.097656,-1708.007812,-563.964844,-112.792969,60.424805,-16.113281
cobot_dynamixel_driver/joint_states|name|J1,J2,J3,J4,J5,J6|pos|-0.449742,-0.528820,0.558238,0.000000,-0.542619,0.000021|vel|0.665583,0.721709,-0.709816,0.000000,0.627009,0.000000|eff|290.039062,-2852.050781,-612.304688,-112.792969,48.339844,-16.113281
cobot_dynamixel_driver/joint_states|name|J1,J2,J3,J4,J5,J6|pos|-0.436160,-0.515238,0.544042,0.000000,-0.529132,0.000021|vel|0.676432,0.706895,-0.685822,0.000000,0.679748,0.000000|eff|322.265625,-2062.500000,-547.851562,-112.792969,52.368164,-16.113281
cobot_dynamixel_driver/joint_states|name|J1,J2,J3,J4,J5,J6|pos|-0.422715,-0.501693,0.531011,0.000000,-0.515873,0.000021|vel|0.652647,0.705643,-0.718788,0.000000,0.686986,0.000000|eff|435.058594,-1675.781250,-628.417969,-177.246094,68.481445,0.000000
cobot_dynamixel_driver/joint_states|name|J1,J2,J3,J4,J5,J6|pos|-0.408958,-0.488111,0.516815,0.000000,-0.502345,0.000021|vel|0.708355,0.674346,-0.585045,0.000000,0.613910,0.000000|eff|483.398438,-1981.933594,-741.210938,-112.792969,-36.254883,-16.113281
cobot_dynamixel_driver/joint_states|name|J1,J2,J3,J4,J5,J6|pos|-0.395438,-0.474566,0.503859,0.000000,-0.488878,0.000021|vel|0.670590,0.733602,-0.747790,0.000000,0.576338,0.000000|eff|596.191406,-837.890625,-596.191406,-145.019531,96.679688,-12.084961
cobot_dynamixel_driver/joint_states|name|J1,J2,J3,J4,J5,J6|pos|-0.382031,-0.460996,0.489663,0.000000,-0.475371,0.000021|vel|0.677684,0.701679,-0.685613,0.000000,0.721456,0.000000|eff|128.906250,-2078.613281,-563.964844,-177.246094,16.113281,-16.113281
cobot_dynamixel_driver/joint_states|name|J1,J2,J3,J4,J5,J6|pos|-0.362816,-0.441956,0.470698,0.000000,-0.456464,0.000021|vel|0.683735,0.687491,-0.710859,0.000000,0.692846,0.000000|eff|1498.535156,-757.324219,-1756.347656,-193.359375,64.453125,-16.113281
cobot_dynamixel_driver/joint_states|name|J1,J2,J3,J4,J5,J6|pos|-0.351399,-0.430402,0.459031,0.000000,-0.444984,0.000021|vel|0.699592,0.701053,-0.706478,0.000000,0.770748,0.000000|eff|2465.332031,-950.683594,-1579.101562,-112.792969,88.623047,0.000000
cobot_dynamixel_driver/joint_states|name|J1,J2,J3,J4,J5,J6|pos|-0.339932,-0.418910,0.447364,0.000000,-0.433504,0.000021|vel|0.693750,0.664748,-0.616134,0.000000,0.701464,0.000000|eff|3270.996094,-805.664062,-660.644531,-145.019531,28.198242,-16.113281
cobot_dynamixel_driver/joint_states|name|J1,J2,J3,J4,J5,J6|pos|-0.327602,-0.406680,0.435847,0.000000,-0.421465,0.000021|vel|0.705017,0.681857,-0.733184,0.000000,0.776953,0.000000|eff|193.359375,-1595.214844,-1369.628906,-161.132812,12.084961,-12.084961
cobot_dynamixel_driver/joint_states|name|J1,J2,J3,J4,J5,J6|pos|-0.314157,-0.393085,0.422453,-0.000013,-0.408454,0.000021|vel|0.650560,0.718579,-0.708355,0.000000,0.664236,0.000000|eff|306.152344,-563.964844,-837.890625,-128.906250,68.481445,0.000000
cobot_dynamixel_driver/joint_states|name|J1,J2,J3,J4,J5,J6|pos|-0.300800,-0.379415,0.408370,-0.000013,-0.394925,0.000021|vel|0.685613,0.740278,-0.669964,0.000000,0.698362,0.000000|eff|725.097656,80.566406,-596.191406,-193.359375,20.141602,-12.084961
cobot_dynamixel_driver/joint_states|name|J1,J2,J3,J4,J5,J6|pos|-0.287193,-0.365933,0.395664,-0.000013,-0.381376,0.000021|vel|0.703348,0.674972,-0.624897,0.000000,0.660100,0.000000|eff|-32.226562,-257.812500,-692.871094,-112.792969,52.368164,-16.113281
cobot_dynamixel_driver/joint_states|name|J1,J2,J3,J4,J5,J6|pos|-0.273598,-0.352363,0.381493,-0.000013,-0.367993,0.000021|vel|0.686030,0.702096,-0.655776,0.000000,0.705255,0.000000|eff|145.019531,112.792969,-1095.703125,-145.019531,0.000000,-16.113281
cobot_dynamixel_driver/joint_states|name|J1,J2,J3,J4,J5,J6|pos|-0.260154,-0.338781,0.368824,-0.000013,-0.354568,0.000021|vel|0.696045,0.696671,-0.681440,0.000000,0.699396,0.000000|eff|821.777344,64.453125,-1256.835938,-145.019531,80.566406,-16.113281
cobot_dynamixel_driver/joint_states|name|J1,J2,J3,J4,J5,J6|pos|-0.246421,-0.325236,0.354566,-0.000013,-0.341454,0.000021|vel|0.696880,0.698132,-0.582541,0.000000,0.701119,0.000000|eff|-48.339844,-515.625000,-1659.667969,-112.792969,145.019531,-12.084961
cobot_dynamixel_driver/joint_states|name|J1,J2,J3,J4,J5,J6|pos|-0.232826,-0.311716,0.341572,-0.000013,-0.327822,0.000021|vel|0.678936,0.701053,-0.580455,0.000000,0.698706,0.000000|eff|161.132812,-1176.269531,-2110.839844,-145.019531,68.481445,-16.113281
cobot_dynamixel_driver/joint_states|name|J1,J2,J3,J4,J5,J6|pos|-0.219457,-0.298184,0.327752,-0.000013,-0.314273,0.000021|vel|0.709190,0.726508,-0.687073,0.000000,0.598743,0.000000|eff|596.191406,-1079.589844,-418.945312,-112.792969,92.651367,-16.113281
cobot_dynamixel_driver/joint_states|name|J1,J2,J3,J4,J5,J6|pos|-0.205712,-0.284602,0.314145,-0.000013,-0.300703,0.000021|vel|0.713989,0.715032,-0.707729,0.000000,0.767301,0.000000|eff|-145.019531,-676.757812,-741.210938,-145.019531,96.679688,-12.084961
cobot_dynamixel_driver/joint_states|name|J1,J2,J3,J4,J5,J6|pos|-0.192155,-0.271032,0.299874,-0.000013,-0.287196,0.000021|vel|0.718788,0.664748,-0.708981,0.000000,0.596675,0.000000|eff|0.000000,-483.398438,-563.964844,-145.019531,64.453125,-12.084961
cobot_dynamixel_driver/joint_states|name|J1,J2,J3,J4,J5,J6|pos|-0.178723,-0.257475,0.286893,-0.000013,-0.273792,0.000021|vel|0.706269,0.708147,-0.671842,0.000000,0.605982,0.000000|eff|145.019531,-1256.835938,-660.644531,-145.019531,72.509766,-12.084961
cobot_dynamixel_driver/joint_states|name|J1,J2,J3,J4,J5,J6|pos|-0.165053,-0.243880,0.272609,-0.000013,-0.260305,0.000021|vel|0.696671,0.670590,-0.721291,0.000000,0.774195,0.000000|eff|-225.585938,-48.339844,-902.343750,-193.359375,108.764648,-12.084961
cobot_dynamixel_driver/joint_states|name|J1,J2,J3,J4,J5,J6|pos|-0.151558,-0.230285,0.259741,-0.000013,-0.247087,0.000021|vel|0.713989,0.700844,-0.729220,0.000000,0.631145,0.000000|eff|-32.226562,-370.605469,-805.664062,-112.792969,56.396484,-12.084961
cobot_dynamixel_driver/joint_states|name|J1,J2,J3,J4,J5,J6|pos|-0.138164,-0.216678,0.245658,-0.000013,-0.233621,0.000021|vel|0.690203,0.742573,-0.673511,0.000000,0.707668,0.000000|eff|1337.402344,483.398438,-660.644531,-112.792969,32.226562,-12.084961
cobot_dynamixel_driver/joint_states|name|J1,J2,J3,J4,J5,J6|pos|-0.124469,-0.203133,0.232714,-0.000013,-0.219886,0.000021|vel|0.724004,0.708981,-0.733184,0.000000,0.744551,0.000000|eff|0.000000,145.019531,-708.984375,-112.792969,12.084961,-16.113281
cobot_dynamixel_driver/joint_states|name|J1,J2,J3,J4,J5,J6|pos|-0.110811,-0.189676,0.219094,-0.000013,-0.206502,0.000021|vel|0.713154,0.699592,-0.698758,-0.003130,0.761442,0.000000|eff|-48.339844,-757.324219,-660.644531,-112.792969,-8.056641,-16.113281
cobot_dynamixel_driver/joint_states|name|J1,J2,J3,J4,J5,J6|pos|-0.097392,-0.176294,0.205399,-0.000013,-0.193388,0.000021|vel|0.686865,0.712320,-0.738401,-0.001252,0.671475,0.000000|eff|483.398438,-2690.917969,-886.230469,-112.792969,108.764648,-12.084961
cobot_dynamixel_driver/joint_states|name|J1,J2,J3,J4,J5,J6|pos|-0.084460,-0.162925,0.191041,-0.000013,-0.179901,0.000021|vel|0.671842,0.702931,-0.677684,-0.001252,0.769714,0.000000|eff|338.378906,-1224.609375,-1289.062500,-128.906250,60.424805,0.000000
cobot_dynamixel_driver/joint_states|name|J1,J2,J3,J4,J5,J6|pos|-0.073157,-0.149255,0.178209,-0.000013,-0.166455,0.000021|vel|0.557087,0.686656,-0.692081,-0.001252,0.726972,0.000000|eff|-161.132812,-1901.367188,-1047.363281,-177.246094,12.084961,-16.113281
cobot_dynamixel_driver/joint_states|name|J1,J2,J3,J4,J5,J6|pos|-0.063455,-0.135685,0.164652,-0.000013,-0.153423,0.000021|vel|0.469038,0.655985,-0.711068,0.001252,0.718354,0.000000|eff|870.117188,-1917.480469,-1321.289062,-112.792969,92.651367,-12.084961
cobot_dynamixel_driver/joint_states|name|J1,J2,J3,J4,J5,J6|pos|-0.054980,-0.122178,0.151120,-0.000013,-0.140164,0.000021|vel|0.409782,0.682692,-0.715867,0.002712,0.755582,0.000000|eff|1063.476562,-2094.726562,-1224.609375,-193.359375,120.849609,0.000000
cobot_dynamixel_driver/joint_states|name|J1,J2,J3,J4,J5,J6|pos|-0.047632,-0.108621,0.136837,-0.000013,-0.126967,0.000021|vel|0.339468,0.703765,-0.715449,0.002295,0.683539,0.000000|eff|918.457031,-1659.667969,-1240.722656,-193.359375,213.500977,-16.113281
cobot_dynamixel_driver/joint_states|name|J1,J2,J3,J4,J5,J6|pos|-0.041410,-0.095164,0.124043,-0.000013,-0.113294,0.000021|vel|0.333626,0.640545,-0.705434,0.002504,0.615289,0.000000|eff|708.984375,-725.097656,-1111.816406,-112.792969,72.509766,-16.113281
cobot_dynamixel_driver/joint_states|name|J1,J2,J3,J4,J5,J6|pos|-0.036040,-0.082533,0.110348,-0.000013,-0.099704,0.000021|vel|0.257053,0.626566,-0.707938,-0.002295,0.714907,0.000000|eff|435.058594,-725.097656,-1401.855469,-128.906250,52.368164,-16.113281
cobot_dynamixel_driver/joint_states|name|J1,J2,J3,J4,J5,J6|pos|-0.031346,-0.071366,0.097079,-0.000013,-0.086548,0.000021|vel|0.229929,0.555417,-0.638667,-0.001252,0.604258,0.000000|eff|193.359375,854.003906,-531.738281,-161.132812,-80.566406,-16.113281
cobot_dynamixel_driver/joint_states|name|J1,J2,J3,J4,J5,J6|pos|-0.027252,-0.061715,0.084022,-0.000013,-0.075253,0.000021|vel|0.191746,0.462570,-0.628652,0.001252,0.432943,0.000000|eff|257.812500,-32.226562,-338.378906,-112.792969,-16.113281,-16.113281
cobot_dynamixel_driver/joint_states|name|J1,J2,J3,J4,J5,J6|pos|-0.023697,-0.053503,0.073419,-0.000013,-0.065966,0.000021|vel|0.173385,0.380571,-0.524538,-0.000835,0.392613,0.000000|eff|306.152344,402.832031,-1337.402344,-128.906250,0.000000,-16.113281
cobot_dynamixel_driver/joint_states|name|J1,J2,J3,J4,J5,J6|pos|-0.020643,-0.046555,0.063367,-0.000013,-0.057733,0.000021|vel|0.128109,0.339885,-0.451511,-0.000835,0.423636,0.000000|eff|306.152344,628.417969,-531.738281,-112.792969,12.084961,-16.113281
cobot_dynamixel_driver/joint_states|name|J1,J2,J3,J4,J5,J6|pos|-0.017989,-0.040597,0.055593,-0.000013,-0.050472,0.000021|vel|0.126857,0.257053,-0.393299,0.001878,0.358832,0.000000|eff|257.812500,-451.171875,-1160.156250,-193.359375,0.000000,-16.113281
cobot_dynamixel_driver/joint_states|name|J1,J2,J3,J4,J5,J6|pos|-0.015673,-0.035326,0.048208,-0.000013,-0.044246,0.000021|vel|0.111835,0.273953,-0.343224,-0.001252,0.302991,0.000000|eff|225.585938,0.000000,-821.777344,-128.906250,48.339844,-12.084961
cobot_dynamixel_driver/joint_states|name|J1,J2,J3,J4,J5,J6|pos|-0.013695,-0.030745,0.042449,-0.000013,-0.038764,0.000021|vel|0.095352,0.227842,-0.288767,-0.001252,0.260248,0.000000|eff|257.812500,386.718750,-725.097656,-161.132812,20.141602,-12.084961
cobot_dynamixel_driver/joint_states|name|J1,J2,J3,J4,J5,J6|pos|-0.011955,-0.026827,0.036866,-0.000013,-0.033903,0.000021|vel|0.083041,0.186947,-0.254132,0.001252,0.241290,0.000000|eff|241.699219,435.058594,-773.437500,-145.019531,32.226562,-16.113281
cobot_dynamixel_driver/joint_states|name|J1,J2,J3,J4,J5,J6|pos|-0.010390,-0.023447,0.032522,-0.000013,-0.029725,0.000021|vel|0.080329,0.163996,-0.242447,0.001043,0.193721,0.000000|eff|241.699219,257.812500,-628.417969,-112.792969,52.368164,0.000000
cobot_dynamixel_driver/joint_states|name|J1,J2,J3,J4,J5,J6|pos|-0.009051,-0.020555,0.028216,-0.000013,-0.026064,0.000021|vel|0.062803,0.129361,-0.196337,-0.000835,0.171316,0.000000|eff|225.585938,257.812500,-805.664062,-128.906250,48.339844,-12.084961
cobot_dynamixel_driver/joint_states|name|J1,J2,J3,J4,J5,J6|pos|-0.007886,-0.018026,0.024799,-0.000013,-0.022857,0.000021|vel|0.057169,0.117259,-0.175889,0.000835,0.163388,0.000000|eff|241.699219,225.585938,-708.984375,-128.906250,56.396484,-16.113281
cobot_dynamixel_driver/joint_states|name|J1,J2,J3,J4,J5,J6|pos|-0.006847,-0.015798,0.021581,-0.000013,-0.020023,0.000021|vel|0.048615,0.107453,-0.126023,-0.000626,0.141672,0.000000|eff|128.906250,241.699219,-741.210938,-161.132812,48.339844,-20.141602
cobot_dynamixel_driver/joint_states|name|J1,J2,J3,J4,J5,J6|pos|-0.005959,-0.013808,0.019115,-0.000013,-0.017521,0.000021|vel|0.042355,0.097647,-0.131447,0.000626,0.125471,0.000000|eff|193.359375,273.925781,-886.230469,-128.906250,68.481445,-20.141602
cobot_dynamixel_driver/joint_states|name|J1,J2,J3,J4,J5,J6|pos|-0.005195,-0.012055,0.016637,-0.000013,-0.015328,0.000021|vel|0.037139,0.083459,-0.120389,-0.000417,0.104444,0.000000|eff|193.359375,241.699219,-854.003906,-96.679688,60.424805,0.000000
cobot_dynamixel_driver/joint_states|name|J1,J2,J3,J4,J5,J6|pos|-0.004519,-0.010590,0.014721,-0.000013,-0.013383,0.000021|vel|0.030462,0.066558,-0.101402,-0.000417,0.096516,0.000000|eff|177.246094,145.019531,-886.230469,-112.792969,52.368164,-20.141602
cobot_dynamixel_driver/joint_states|name|J1,J2,J3,J4,J5,J6|pos|-0.003906,-0.009326,0.012806,-0.000013,-0.011708,0.000021|vel|0.029836,0.062594,-0.089927,0.000417,0.082728,0.000000|eff|161.132812,145.019531,-854.003906,-112.792969,76.538086,-16.113281
cobot_dynamixel_driver/joint_states|name|J1,J2,J3,J4,J5,J6|pos|-0.003405,-0.008162,0.011229,-0.000013,-0.010239,0.000021|vel|0.022534,0.059256,-0.075113,-0.000209,0.073076,0.000000|eff|177.246094,193.359375,-805.664062,-177.246094,52.368164,-20.141602
cobot_dynamixel_driver/joint_states|name|J1,J2,J3,J4,J5,J6|pos|-0.003004,-0.007123,0.009802,-0.000013,-0.008977,0.000021|vel|0.018778,0.050910,-0.065098,-0.000209,0.064459,0.000000|eff|225.585938,241.699219,-886.230469,-112.792969,64.453125,-16.113281
cobot_dynamixel_driver/joint_states|name|J1,J2,J3,J4,J5,J6|pos|-0.002666,-0.006209,0.008725,-0.000013,-0.007902,0.000021|vel|0.016274,0.043399,-0.053831,-0.000209,0.048603,0.000000|eff|209.472656,209.472656,-950.683594,-128.906250,72.509766,-20.141602
cobot_dynamixel_driver/joint_states|name|J1,J2,J3,J4,J5,J6|pos|-0.002341,-0.005420,0.007736,-0.000013,-0.006930,0.000021|vel|0.016483,0.038182,-0.051744,-0.000209,0.048947,0.000000|eff|193.359375,209.472656,-934.570312,-112.792969,72.509766,0.000000
cobot_dynamixel_driver/joint_states|name|J1,J2,J3,J4,J5,J6|pos|-0.002053,-0.004757,0.006760,-0.000013,-0.006061,0.000021|vel|0.015857,0.033175,-0.046737,0.000209,0.040675,0.000000|eff|193.359375,241.699219,-902.343750,-112.792969,76.538086,-16.113281
cobot_dynamixel_driver/joint_states|name|J1,J2,J3,J4,J5,J6|pos|-0.001765,-0.004194,0.005884,-0.000013,-0.005337,0.000021|vel|0.013562,0.027333,-0.038391,0.000209,0.033436,0.000000|eff|209.472656,161.132812,-902.343750,-112.792969,80.566406,-12.084961
cobot_dynamixel_driver/joint_states|name|J1,J2,J3,J4,J5,J6|pos|-0.001515,-0.003680,0.005095,-0.000013,-0.004696,0.000021|vel|0.011893,0.025246,-0.029628,-0.000209,0.025163,0.000000|eff|128.906250,225.585938,-902.343750,-112.792969,88.623047,-20.141602
cobot_dynamixel_driver/joint_states|name|J1,J2,J3,J4,J5,J6|pos|-0.001289,-0.003242,0.004482,-0.000013,-0.004137,0.000021|vel|0.011058,0.022325,-0.032966,-0.000209,0.027921,0.000000|eff|145.019531,161.132812,-918.457031,-112.792969,60.424805,-20.141602
cobot_dynamixel_driver/joint_states|name|J1,J2,J3,J4,J5,J6|pos|-0.001077,-0.002854,0.003918,-0.000013,-0.003661,0.000021|vel|0.010015,0.019613,-0.024620,-0.000209,0.024474,0.000000|eff|96.679688,225.585938,-870.117188,-112.792969,80.566406,-20.141602
cobot_dynamixel_driver/joint_states|name|J1,J2,J3,J4,J5,J6|pos|-0.000914,-0.002466,0.003455,-0.000013,-0.003144,0.000021|vel|0.008137,0.016692,-0.027541,-0.000209,0.022405,0.000000|eff|128.906250,209.472656,-902.343750,-177.246094,76.538086,-12.084961
cobot_dynamixel_driver/joint_states|name|J1,J2,J3,J4,J5,J6|pos|-0.000764,-0.002153,0.002979,-0.000013,-0.002772,0.000021|vel|0.006677,0.016066,-0.015440,-0.000209,0.018614,0.000000|eff|145.019531,193.359375,-934.570312,-177.246094,88.623047,-16.113281
cobot_dynamixel_driver/joint_states|name|J1,J2,J3,J4,J5,J6|pos|-0.000663,-0.001853,0.002679,-0.000013,-0.002441,0.000021|vel|0.004799,0.016274,-0.015857,-0.000209,0.017235,0.000000|eff|193.359375,209.472656,-902.343750,-112.792969,68.481445,-16.113281
cobot_dynamixel_driver/joint_states|name|J1,J2,J3,J4,J5,J6|pos|-0.000601,-0.001565,0.002291,-0.000013,-0.002131,0.000021|vel|0.002921,0.011476,-0.020865,0.000000,0.016201,0.000000|eff|96.679688,386.718750,-870.117188,-112.792969,76.538086,0.000000
cobot_dynamixel_driver/joint_states|name|J1,J2,J3,J4,J5,J6|pos|-0.000551,-0.001390,0.002015,-0.000013,-0.001841,0.000021|vel|0.002504,0.007720,-0.010015,0.000000,0.016201,0.000000|eff|161.132812,322.265625,-918.457031,-112.792969,80.566406,0.000000
cobot_dynamixel_driver/joint_states|name|J1,J2,J3,J4,J5,J6|pos|-0.000501,-0.001264,0.001890,-0.000013,-0.001613,0.000021|vel|0.002712,0.006677,-0.007094,0.000000,0.011030,0.000000|eff|96.679688,273.925781,-982.910156,-112.792969,52.368164,0.000000
cobot_dynamixel_driver/joint_states|name|J1,J2,J3,J4,J5,J6|pos|-0.000426,-0.001139,0.001665,-0.000013,-0.001448,0.000021|vel|0.003756,0.006259,-0.013353,0.000000,0.007928,0.000000|eff|241.699219,161.132812,-934.570312,-112.792969,84.594727,-20.141602
cobot_dynamixel_driver/joint_states|name|J1,J2,J3,J4,J5,J6|pos|-0.000351,-0.001014,0.001327,-0.000013,-0.001282,0.000021|vel|0.003756,0.006885,-0.021073,0.000000,0.008617,0.000000|eff|80.566406,273.925781,-805.664062,-112.792969,84.594727,-20.141602
cobot_dynamixel_driver/joint_states|name|J1,J2,J3,J4,J5,J6|pos|-0.000313,-0.000864,0.001026,-0.000013,-0.001158,0.000021|vel|0.002086,0.007929,-0.010015,0.000000,0.006205,0.000000|eff|225.585938,145.019531,-821.777344,-112.792969,64.453125,-12.084961
cobot_dynamixel_driver/joint_states|name|J1,J2,J3,J4,J5,J6|pos|-0.000263,-0.000714,0.000951,-0.000013,-0.000993,0.000021|vel|0.002295,0.006468,-0.004799,0.000000,0.008962,0.000000|eff|145.019531,257.812500,-902.343750,-112.792969,76.538086,-20.141602
cobot_dynamixel_driver/joint_states|name|J1,J2,J3,J4,J5,J6|pos|-0.000225,-0.000626,0.000914,-0.000013,-0.000848,0.000021|vel|0.002295,0.004382,-0.001461,0.000000,0.006549,0.000000|eff|145.019531,209.472656,-918.457031,-112.792969,76.538086,-12.084961
cobot_dynamixel_driver/joint_states|name|J1,J2,J3,J4,J5,J6|pos|-0.000175,-0.000538,0.000839,-0.000013,-0.000765,0.000021|vel|0.002295,0.004590,-0.005008,0.000000,0.004481,0.000000|eff|96.679688,225.585938,-902.343750,-112.792969,80.566406,-16.113281
cobot_dynamixel_driver/joint_states|name|J1,J2,J3,J4,J5,J6|pos|-0.000138,-0.000476,0.000714,-0.000013,-0.000703,0.000021|vel|0.002295,0.003338,-0.006677,0.000000,0.003102,0.000000|eff|128.906250,193.359375,-934.570312,-193.359375,88.623047,0.000000
cobot_dynamixel_driver/joint_states|name|J1,J2,J3,J4,J5,J6|pos|-0.000138,-0.000401,0.000538,-0.000013,-0.000600,0.000021|vel|0.001043,0.003547,-0.011476,0.000000,0.004826,0.000000|eff|161.132812,225.585938,-837.890625,-112.792969,88.623047,-20.141602
cobot_dynamixel_driver/joint_states|name|J1,J2,J3,J4,J5,J6|pos|-0.000113,-0.000338,0.000313,-0.000013,-0.000496,0.000021|vel|0.001043,0.003338,-0.008972,0.000000,0.005515,0.000000|eff|161.132812,241.699219,-757.324219,-128.906250,88.623047,0.000000
cobot_dynamixel_driver/joint_states|name|J1,J2,J3,J4,J5,J6|pos|-0.000113,-0.000263,0.000225,-0.000013,-0.000455,0.000021|vel|0.000417,0.003547,-0.003756,0.000000,0.005515,0.000000|eff|161.132812,241.699219,-805.664062,-112.792969,72.509766,0.000000
cobot_dynamixel_driver/joint_states|name|J1,J2,J3,J4,J5,J6|pos|-0.000100,-0.000188,0.000200,-0.000013,-0.000455,0.000021|vel|0.000417,0.003338,-0.001669,0.000000,0.005515,0.000000|eff|177.246094,193.359375,-757.324219,-177.246094,64.453125,-16.113281
cobot_dynamixel_driver/joint_states|name|J1,J2,J3,J4,J5,J6|pos|-0.000100,-0.000100,0.000175,-0.000013,-0.000455,0.000021|vel|0.000417,0.005008,-0.001669,0.000000,0.005515,0.000000|eff|32.226562,161.132812,-757.324219,-145.019531,64.453125,-16.113281
cobot_dynamixel_driver/joint_states|name|J1,J2,J3,J4,J5,J6|pos|-0.000088,-0.000088,0.000175,-0.000013,-0.000455,0.000021|vel|0.000417,0.002921,-0.000417,0.000000,0.005515,0.000000|eff|112.792969,273.925781,-757.324219,-145.019531,56.396484,-20.141602
cobot_dynamixel_driver/joint_states|name|J1,J2,J3,J4,J5,J6|pos|-0.000088,-0.000088,0.000175,-0.000013,-0.000455,0.000021|vel|0.000417,0.002921,-0.000417,0.000000,0.005515,0.000000|eff|161.132812,290.039062,-773.437500,-112.792969,56.396484,0.000000
cobot_dynamixel_driver/joint_states|name|J1,J2,J3,J4,J5,J6|pos|-0.000088,-0.000088,0.000175,-0.000013,-0.000455,0.000021|vel|0.000209,0.002921,-0.000417,0.000000,0.005515,0.000000|eff|32.226562,257.812500,-821.777344,-128.906250,48.339844,-20.141602
cobot_dynamixel_driver/joint_states|name|J1,J2,J3,J4,J5,J6|pos|-0.000088,-0.000088,0.000163,-0.000013,-0.000455,0.000021|vel|0.000209,0.000209,-0.000417,0.000000,0.000000,0.000000|eff|32.226562,257.812500,-854.003906,-145.019531,64.453125,-16.113281
cobot_dynamixel_driver/joint_states|name|J1,J2,J3,J4,J5,J6|pos|-0.000075,-0.000088,0.000163,-0.000013,-0.000455,0.000021|vel|0.000209,0.000209,-0.000417,0.000000,0.000000,0.000000|eff|193.359375,257.812500,-837.890625,-112.792969,68.481445,-20.141602
cobot_dynamixel_driver/joint_states|name|J1,J2,J3,J4,J5,J6|pos|-0.000075,-0.000088,0.000150,-0.000013,-0.000455,0.000021|vel|0.000209,0.000209,-0.000417,0.000000,0.000000,0.000000|eff|193.359375,290.039062,-821.777344,-145.019531,72.509766,0.000000
cobot_dynamixel_driver/joint_states|name|J1,J2,J3,J4,J5,J6|pos|-0.000075,-0.000075,0.000150,-0.000013,-0.000455,0.000021|vel|0.000209,0.000209,-0.000209,0.000000,0.000000,0.000000|eff|32.226562,273.925781,-789.550781,-177.246094,84.594727,-20.141602
cobot_dynamixel_driver/joint_states|name|J1,J2,J3,J4,J5,J6|pos|-0.000063,-0.000063,0.000138,-0.000013,-0.000414,0.000021|vel|0.000209,0.000209,-0.000209,0.000000,0.001723,0.000000|eff|177.246094,273.925781,-837.890625,-112.792969,96.679688,0.000000
cobot_dynamixel_driver/joint_states|name|J1,J2,J3,J4,J5,J6|pos|-0.000063,-0.000063,0.000125,-0.000013,-0.000310,0.000021|vel|0.000000,0.000209,-0.000209,0.000000,0.005515,0.000000|eff|177.246094,257.812500,-837.890625,-112.792969,84.594727,-16.113281
cobot_dynamixel_driver/joint_states|name|J1,J2,J3,J4,J5,J6|pos|-0.000050,-0.000063,0.000125,-0.000013,-0.000248,0.000021|vel|0.000000,0.000209,-0.000209,0.000000,0.003447,0.000000|eff|177.246094,257.812500,-854.003906,-112.792969,76.538086,-20.141602
cobot_dynamixel_driver/joint_states|name|J1,J2,J3,J4,J5,J6|pos|-0.000038,-0.000063,0.000125,-0.000013,-0.000248,0.000021|vel|0.000000,0.000209,-0.000209,0.000000,0.003447,0.000000|eff|177.246094,290.039062,-854.003906,-128.906250,68.481445,0.000000
cobot_dynamixel_driver/joint_states|name|J1,J2,J3,J4,J5,J6|pos|-0.000025,-0.000063,0.000113,-0.000013,-0.000248,0.000021|vel|0.000417,0.000209,-0.000209,0.000000,0.003447,0.000000|eff|177.246094,338.378906,-870.117188,-112.792969,64.453125,-16.113281
cobot_dynamixel_driver/joint_states|name|J1,J2,J3,J4,J5,J6|pos|-0.000013,-0.000050,0.000100,-0.000013,-0.000248,0.000021|vel|0.000417,0.000209,-0.000209,0.000000,0.003447,0.000000|eff|177.246094,257.812500,-854.003906,-145.019531,64.453125,-20.141602
cobot_dynamixel_driver/joint_states|name|J1,J2,J3,J4,J5,J6|pos|-0.000013,-0.000050,0.000100,-0.000013,-0.000248,0.000021|vel|0.000417,-0.000000,-0.000209,0.000000,0.003447,0.000000|eff|161.132812,257.812500,-854.003906,-112.792969,56.396484,0.000000
cobot_dynamixel_driver/joint_states|name|J1,J2,J3,J4,J5,J6|pos|-0.000013,-0.000050,0.000100,-0.000013,-0.000248,0.000021|vel|0.000417,-0.000000,-0.000209,0.000000,0.003447,0.000000|eff|112.792969,290.039062,-854.003906,-177.246094,48.339844,-16.113281
cobot_dynamixel_driver/joint_states|name|J1,J2,J3,J4,J5,J6|pos|-0.000013,-0.000050,0.000088,-0.000013,-0.000248,0.000021|vel|0.000209,-0.000000,-0.000209,0.000000,0.000000,0.000000|eff|193.359375,128.906250,-854.003906,-112.792969,48.339844,-16.113281
cobot_dynamixel_driver/joint_states|name|J1,J2,J3,J4,J5,J6|pos|-0.000013,-0.000038,0.000088,-0.000013,-0.000248,0.000021|vel|0.000209,-0.000000,-0.000209,0.000000,0.000000,0.000000|eff|48.339844,273.925781,-854.003906,-128.906250,64.453125,-20.141602
cobot_dynamixel_driver/joint_states|name|J1,J2,J3,J4,J5,J6|pos|-0.000013,-0.000025,0.000075,-0.000013,-0.000248,0.000021|vel|0.000209,-0.000000,-0.000209,0.000000,0.000000,0.000000|eff|193.359375,273.925781,-854.003906,-193.359375,64.453125,-16.113281
cobot_dynamixel_driver/joint_states|name|J1,J2,J3,J4,J5,J6|pos|-0.000013,-0.000013,0.000075,-0.000013,-0.000248,0.000021|vel|0.000209,0.000417,-0.000209,0.000000,0.000000,0.000000|eff|0.000000,225.585938,-854.003906,-112.792969,68.481445,-16.113281
cobot_dynamixel_driver/joint_states|name|J1,J2,J3,J4,J5,J6|pos|-0.000013,-0.000000,0.000075,-0.000013,-0.000248,0.000021|vel|0.000209,0.000417,-0.000209,0.000000,0.000000,0.000000|eff|112.792969,273.925781,-870.117188,-112.792969,72.509766,-20.141602
cobot_dynamixel_driver/joint_states|name|J1,J2,J3,J4,J5,J6|pos|-0.000013,-0.000000,0.000075,-0.000013,-0.000248,0.000021|vel|0.000209,0.000417,-0.000209,0.000000,0.000000,0.000000|eff|48.339844,257.812500,-918.457031,-112.792969,76.538086,0.000000
cobot_dynamixel_driver/joint_states|name|J1,J2,J3,J4,J5,J6|pos|-0.000013,-0.000000,0.000063,-0.000013,-0.000228,0.000021|vel|0.000000,0.000209,-0.000209,0.000000,0.000000,0.000000|eff|193.359375,257.812500,-854.003906,-112.792969,76.538086,0.000000
cobot_dynamixel_driver/joint_states|name|J1,J2,J3,J4,J5,J6|pos|0.000000,-0.000000,0.000063,-0.000013,-0.000207,0.000021|vel|0.000000,0.000209,-0.000209,0.000000,0.000000,0.000000|eff|112.792969,338.378906,-854.003906,-112.792969,76.538086,-12.084961
cobot_dynamixel_driver/joint_states|name|J1,J2,J3,J4,J5,J6|pos|0.000000,-0.000000,0.000063,-0.000013,-0.000186,0.000021|vel|0.000000,0.000209,-0.000209,0.000000,0.000000,0.000000|eff|193.359375,322.265625,-886.230469,-112.792969,84.594727,-16.113281
cobot_dynamixel_driver/joint_states|name|J1,J2,J3,J4,J5,J6|pos|0.000000,-0.000000,0.000050,-0.000013,-0.000145,0.000021|vel|0.000000,0.000209,0.000000,0.000000,0.001723,0.000000|eff|80.566406,257.812500,-854.003906,-112.792969,76.538086,-8.056641
cobot_dynamixel_driver/joint_states|name|J1,J2,J3,J4,J5,J6|pos|0.000000,0.000013,0.000050,-0.000013,-0.000083,0.000021|vel|0.000000,0.000209,0.000000,0.000000,0.003102,0.000000|eff|48.339844,257.812500,-934.570312,-128.906250,72.509766,-20.141602
cobot_dynamixel_driver/joint_states|name|J1,J2,J3,J4,J5,J6|pos|0.000000,0.000013,0.000050,-0.000013,-0.000083,0.000021|vel|0.000000,0.000209,0.000000,0.000000,0.003102,0.000000|eff|80.566406,257.812500,-902.343750,-161.132812,68.481445,0.000000
cobot_dynamixel_driver/joint_states|name|J1,J2,J3,J4,J5,J6|pos|0.000000,0.000013,0.000050,-0.000013,-0.000083,0.000021|vel|0.000000,-0.000000,0.000000,0.000000,0.003102,0.000000|eff|193.359375,322.265625,-870.117188,-145.019531,60.424805,-20.141602
cobot_dynamixel_driver/joint_states|name|J1,J2,J3,J4,J5,J6|pos|0.000000,0.000013,0.000050,-0.000013,-0.000083,0.000021|vel|0.000000,-0.000000,0.000000,0.000000,0.003102,0.000000|eff|0.000000,257.812500,-886.230469,-112.792969,60.424805,0.000000
cobot_dynamixel_driver/joint_states|name|J1,J2,J3,J4,J5,J6|pos|0.000000,0.000013,0.000050,-0.000013,-0.000083,0.000021|vel|0.000000,-0.000000,0.000000,0.000000,0.003102,0.000000|eff|193.359375,338.378906,-886.230469,-112.792969,52.368164,-20.141602
cobot_dynamixel_driver/joint_states|name|J1,J2,J3,J4,J5,J6|pos|0.000000,0.000013,0.000038,-0.000013,-0.000083,0.000021|vel|0.000000,-0.000000,0.000000,0.000000,0.003102,0.000000|eff|48.339844,257.812500,-886.230469,-112.792969,44.311523,-16.113281
cobot_dynamixel_driver/joint_states|name|J1,J2,J3,J4,J5,J6|pos|0.000000,0.000013,0.000038,-0.000013,-0.000083,0.000021|vel|0.000000,-0.000000,0.000000,0.000000,0.000000,0.000000|eff|80.566406,257.812500,-902.343750,-112.792969,40.283203,-20.141602
cobot_dynamixel_driver/joint_states|name|J1,J2,J3,J4,J5,J6|pos|0.000000,0.000013,0.000038,-0.000013,-0.000083,0.000021|vel|0.000000,-0.000000,0.000000,0.000000,0.000000,0.000000|eff|177.246094,273.925781,-918.457031,-112.792969,44.311523,-12.084961
cobot_dynamixel_driver/joint_states|name|J1,J2,J3,J4,J5,J6|pos|0.000000,0.000013,0.000038,-0.000013,-0.000083,0.000021|vel|0.000000,-0.000000,0.000000,0.000000,0.000000,0.000000|eff|48.339844,257.812500,-870.117188,-112.792969,44.311523,-16.113281
cobot_dynamixel_driver/joint_states|name|J1,J2,J3,J4,J5,J6|pos|0.000000,0.000025,0.000038,-0.000013,-0.000083,0.000021|vel|0.000000,-0.000000,0.000000,0.000000,0.000000,0.000000|eff|112.792969,257.812500,-918.457031,-112.792969,44.311523,-16.113281
cobot_dynamixel_driver/joint_states|name|J1,J2,J3,J4,J5,J6|pos|0.000000,0.000025,0.000038,-0.000013,-0.000083,0.000021|vel|0.000000,-0.000000,0.000000,0.000000,0.000000,0.000000|eff|0.000000,257.812500,-918.457031,-112.792969,44.311523,0.000000
cobot_dynamixel_driver/joint_states|name|J1,J2,J3,J4,J5,J6|pos|0.000000,0.000025,0.000038,-0.000013,-0.000083,0.000021|vel|0.000000,-0.000000,0.000000,0.000000,0.000000,0.000000|eff|80.566406,257.812500,-886.230469,-112.792969,44.311523,0.000000
cobot_dynamixel_driver/joint_states|name|J1,J2,J3,J4,J5,J6|pos|0.000000,0.000025,0.000038,-0.000013,-0.000083,0.000021|vel|0.000000,-0.000000,0.000000,0.000000,0.000000,0.000000|eff|193.359375,257.812500,-902.343750,-177.246094,48.339844,-20.141602
cobot_dynamixel_driver/joint_states|name|J1,J2,J3,J4,J5,J6|pos|0.000000,0.000025,0.000038,-0.000013,-0.000083,0.000021|vel|0.000000,-0.000000,0.000000,0.000000,0.000000,0.000000|eff|161.132812,257.812500,-870.117188,-112.792969,48.339844,-8.056641
cobot_dynamixel_driver/joint_states|name|J1,J2,J3,J4,J5,J6|pos|0.000000,0.000025,0.000038,-0.000013,-0.000083,0.000021|vel|0.000000,-0.000000,0.000000,0.000000,0.000000,0.000000|eff|161.132812,354.492188,-934.570312,-193.359375,52.368164,-12.084961
cobot_dynamixel_driver/joint_states|name|J1,J2,J3,J4,J5,J6|pos|0.000000,0.000025,0.000038,-0.000013,-0.000083,0.000021|vel|0.000000,-0.000000,0.000000,0.000000,0.000000,0.000000|eff|193.359375,257.812500,-918.457031,-112.792969,48.339844,-16.113281
cobot_dynamixel_driver/joint_states|name|J1,J2,J3,J4,J5,J6|pos|0.000000,0.000025,0.000025,-0.000013,-0.000083,0.000021|vel|0.000000,-0.000000,0.000000,0.000000,0.000000,0.000000|eff|193.359375,322.265625,-918.457031,-145.019531,44.311523,-16.113281
cobot_dynamixel_driver/joint_states|name|J1,J2,J3,J4,J5,J6|pos|0.000000,0.000038,0.000025,-0.000013,-0.000083,0.000021|vel|0.000000,-0.000000,0.000000,0.000000,0.000000,0.000000|eff|193.359375,257.812500,-870.117188,-128.906250,48.339844,-16.113281
cobot_dynamixel_driver/joint_states|name|J1,J2,J3,J4,J5,J6|pos|0.000013,0.000038,0.000025,-0.000013,-0.000083,0.000021|vel|0.000000,-0.000000,0.000000,0.000000,0.000000,0.000000|eff|193.359375,322.265625,-934.570312,-112.792969,52.368164,0.000000
cobot_dynamixel_driver/joint_states|name|J1,J2,J3,J4,J5,J6|pos|0.000013,0.000038,0.000025,-0.000013,-0.000083,0.000021|vel|0.000000,-0.000000,0.000000,0.000000,0.000000,0.000000|eff|145.019531,257.812500,-886.230469,-177.246094,52.368164,-16.113281
cobot_dynamixel_driver/joint_states|name|J1,J2,J3,J4,J5,J6|pos|0.000013,0.000038,0.000025,-0.000013,-0.000083,0.000021|vel|0.000000,-0.000000,0.000000,0.000000,0.000000,0.000000|eff|193.359375,257.812500,-886.230469,-145.019531,48.339844,-12.084961
cobot_dynamixel_driver/joint_states|name|J1,J2,J3,J4,J5,J6|pos|0.000013,0.000038,0.000025,-0.000013,-0.000083,0.000021|vel|0.000000,-0.000000,0.000000,0.000000,0.000000,0.000000|eff|96.679688,257.812500,-886.230469,-112.792969,48.339844,-8.056641
cobot_dynamixel_driver/joint_states|name|J1,J2,J3,J4,J5,J6|pos|0.000013,0.000038,0.000025,-0.000013,-0.000083,0.000021|vel|0.000000,-0.000000,0.000000,0.000000,0.000000,0.000000|eff|161.132812,273.925781,-918.457031,-145.019531,52.368164,-20.141602
cobot_dynamixel_driver/joint_states|name|J1,J2,J3,J4,J5,J6|pos|0.000013,0.000038,0.000025,-0.000013,-0.000083,0.000021|vel|0.000000,-0.000000,0.000000,0.000000,0.000000,0.000000|eff|193.359375,257.812500,-886.230469,-112.792969,56.396484,-20.141602
cobot_dynamixel_driver/joint_states|name|J1,J2,J3,J4,J5,J6|pos|0.000013,0.000038,0.000025,-0.000013,-0.000083,0.000021|vel|0.000000,-0.000000,0.000000,0.000000,0.000000,0.000000|eff|193.359375,257.812500,-902.343750,-112.792969,56.396484,0.000000
cobot_dynamixel_driver/joint_states|name|J1,J2,J3,J4,J5,J6|pos|0.000013,0.000038,0.000025,-0.000013,-0.000083,0.000021|vel|0.000000,-0.000000,0.000000,0.000000,0.000000,0.000000|eff|128.906250,290.039062,-934.570312,-112.792969,56.396484,0.000000
cobot_dynamixel_driver/joint_states|name|J1,J2,J3,J4,J5,J6|pos|0.000013,0.000050,0.000025,-0.000013,-0.000083,0.000021|vel|0.000000,-0.000000,0.000000,0.000000,0.000000,0.000000|eff|177.246094,257.812500,-870.117188,-161.132812,56.396484,0.000000
cobot_dynamixel_driver/joint_states|name|J1,J2,J3,J4,J5,J6|pos|0.000013,0.000050,0.000025,-0.000013,-0.000083,0.000021|vel|0.000000,-0.000000,0.000000,0.000000,0.000000,0.000000|eff|193.359375,290.039062,-918.457031,-112.792969,56.396484,-16.113281
cobot_dynamixel_driver/joint_states|name|J1,J2,J3,J4,J5,J6|pos|0.000013,0.000050,0.000025,-0.000013,-0.000083,0.000021|vel|0.000000,-0.000000,0.000000,0.000000,0.000000,0.000000|eff|145.019531,273.925781,-886.230469,-112.792969,56.396484,-16.113281
cobot_dynamixel_driver/joint_states|name|J1,J2,J3,J4,J5,J6|pos|0.000013,0.000050,0.000025,-0.000013,-0.000083,0.000021|vel|0.000000,-0.000000,0.000000,0.000000,0.000000,0.000000|eff|145.019531,257.812500,-934.570312,-112.792969,60.424805,-16.113281
cobot_dynamixel_driver/joint_states|name|J1,J2,J3,J4,J5,J6|pos|0.000013,0.000050,0.000025,-0.000013,-0.000083,0.000021|vel|0.000000,-0.000000,0.000000,0.000000,0.000000,0.000000|eff|177.246094,257.812500,-918.457031,-112.792969,64.453125,-12.084961
cobot_dynamixel_driver/joint_states|name|J1,J2,J3,J4,J5,J6|pos|0.000013,0.000050,0.000025,-0.000013,-0.000083,0.000021|vel|0.000000,-0.000000,0.000000,0.000000,0.000000,0.000000|eff|145.019531,338.378906,-902.343750,-112.792969,56.396484,-8.056641
cobot_dynamixel_driver/joint_states|name|J1,J2,J3,J4,J5,J6|pos|0.000013,0.000050,0.000025,-0.000013,-0.000083,0.000021|vel|0.000000,-0.000000,0.000000,0.000000,0.000000,0.000000|eff|48.339844,257.812500,-886.230469,-112.792969,60.424805,0.000000
cobot_dynamixel_driver/joint_states|name|J1,J2,J3,J4,J5,J6|pos|0.000013,0.000050,0.000025,-0.000013,-0.000083,0.000021|vel|0.000000,-0.000000,0.000000,0.000000,0.000000,0.000000|eff|177.246094,257.812500,-870.117188,-177.246094,64.453125,0.000000
cobot_dynamixel_driver/joint_states|name|J1,J2,J3,J4,J5,J6|pos|0.000013,0.000050,0.000025,-0.000013,-0.000083,0.000021|vel|0.000000,-0.000000,0.000000,0.000000,0.000000,0.000000|eff|177.246094,257.812500,-870.117188,-112.792969,56.396484,-8.056641
cobot_dynamixel_driver/joint_states|name|J1,J2,J3,J4,J5,J6|pos|0.000013,0.000050,0.000025,-0.000013,-0.000083,0.000021|vel|0.000000,-0.000000,0.000000,0.000000,0.000000,0.000000|eff|161.132812,273.925781,-886.230469,-112.792969,64.453125,0.000000
cobot_dynamixel_driver/joint_states|name|J1,J2,J3,J4,J5,J6|pos|0.000013,0.000050,0.000025,-0.000013,-0.000083,0.000021|vel|0.000000,-0.000000,0.000000,0.000000,0.000000,0.000000|eff|177.246094,257.812500,-934.570312,-193.359375,64.453125,-16.113281
cobot_dynamixel_driver/joint_states|name|J1,J2,J3,J4,J5,J6|pos|0.000013,0.000050,0.000025,-0.000013,-0.000083,0.000021|vel|0.000000,-0.000000,0.000000,0.000000,0.000000,0.000000|eff|128.906250,338.378906,-886.230469,-112.792969,64.453125,0.000000
cobot_dynamixel_driver/joint_states|name|J1,J2,J3,J4,J5,J6|pos|0.000013,0.000050,0.000025,-0.000013,-0.000083,0.000021|vel|0.000000,-0.000000,0.000000,0.000000,0.000000,0.000000|eff|161.132812,290.039062,-918.457031,-145.019531,64.453125,-16.113281
cobot_dynamixel_driver/joint_states|name|J1,J2,J3,J4,J5,J6|pos|0.000013,0.000050,0.000025,-0.000013,-0.000083,0.000021|vel|0.000000,-0.000000,0.000000,0.000000,0.000000,0.000000|eff|193.359375,257.812500,-870.117188,-177.246094,64.453125,-20.141602
cobot_dynamixel_driver/joint_states|name|J1,J2,J3,J4,J5,J6|pos|0.000013,0.000050,0.000025,-0.000013,-0.000083,0.000021|vel|0.000000,-0.000000,0.000000,0.000000,0.000000,0.000000|eff|193.359375,257.812500,-886.230469,-112.792969,68.481445,-20.141602
cobot_dynamixel_driver/joint_states|name|J1,J2,J3,J4,J5,J6|pos|0.000013,0.000050,0.000025,-0.000013,-0.000083,0.000021|vel|0.000000,-0.000000,0.000000,0.000000,0.000000,0.000000|eff|177.246094,257.812500,-886.230469,-112.792969,68.481445,-12.084961
cobot_dynamixel_driver/joint_states|name|J1,J2,J3,J4,J5,J6|pos|0.000013,0.000050,0.000025,-0.000013,-0.000083,0.000021|vel|0.000000,-0.000000,0.000000,0.000000,0.000000,0.000000|eff|193.359375,370.605469,-934.570312,-112.792969,68.481445,-12.084961
cobot_dynamixel_driver/joint_states|name|J1,J2,J3,J4,J5,J6|pos|0.000013,0.000050,0.000025,-0.000013,-0.000083,0.000021|vel|0.000000,-0.000000,0.000000,0.000000,0.000000,0.000000|eff|177.246094,257.812500,-918.457031,-112.792969,68.481445,-20.141602
cobot_dynamixel_driver/joint_states|name|J1,J2,J3,J4,J5,J6|pos|0.000013,0.000050,0.000025,-0.000013,-0.000083,0.000021|vel|0.000000,-0.000000,0.000000,0.000000,0.000000,0.000000|eff|193.359375,338.378906,-918.457031,-177.246094,68.481445,-12.084961
cobot_dynamixel_driver/joint_states|name|J1,J2,J3,J4,J5,J6|pos|0.000013,0.000050,0.000025,-0.000013,-0.000083,0.000021|vel|0.000000,-0.000000,0.000000,0.000000,0.000000,0.000000|eff|0.000000,257.812500,-934.570312,-112.792969,68.481445,-20.141602
cobot_dynamixel_driver/joint_states|name|J1,J2,J3,J4,J5,J6|pos|0.000013,0.000050,0.000025,-0.000013,-0.000083,0.000021|vel|0.000000,-0.000000,0.000000,0.000000,0.000000,0.000000|eff|145.019531,257.812500,-934.570312,-112.792969,68.481445,0.000000
cobot_dynamixel_driver/joint_states|name|J1,J2,J3,J4,J5,J6|pos|0.000013,0.000050,0.000025,-0.000013,-0.000083,0.000021|vel|0.000000,-0.000000,0.000000,0.000000,0.000000,0.000000|eff|0.000000,257.812500,-902.343750,-112.792969,72.509766,0.000000
cobot_dynamixel_driver/joint_states|name|J1,J2,J3,J4,J5,J6|pos|0.000013,0.000050,0.000025,-0.000013,-0.000083,0.000021|vel|0.000000,-0.000000,0.000000,0.000000,0.000000,0.000000|eff|193.359375,257.812500,-870.117188,-145.019531,72.509766,-20.141602
cobot_dynamixel_driver/joint_states|name|J1,J2,J3,J4,J5,J6|pos|0.000013,0.000050,0.000025,-0.000013,-0.000062,0.000021|vel|0.000000,-0.000000,0.000000,0.000000,0.000000,0.000000|eff|193.359375,257.812500,-870.117188,-112.792969,72.509766,-16.113281
cobot_dynamixel_driver/joint_states|name|J1,J2,J3,J4,J5,J6|pos|0.000013,0.000050,0.000025,-0.000013,-0.000062,0.000021|vel|0.000000,-0.000000,0.000000,0.000000,0.000000,0.000000|eff|48.339844,257.812500,-902.343750,-161.132812,72.509766,-20.141602
cobot_dynamixel_driver/goal|-:J1,J2,J3,J4,J5,J6:1.047198,0.000000,0.000000,0.000000,0.000000,0.000000:0.500000,0.500000,0.500000,0.500000,0.500000,0.500000:pos_vel_
cobot_dynamixel_driver/goal|-:J1,J2,J3,J4,J5,J6:1.047198,0.000000,0.000000,0.000000,0.000000,0.000000:0.500000,0.500000,0.500000,0.500000,0.500000,0.500000:pos_vel_
cobot_dynamixel_driver/joint_states|name|J1,J2,J3,J4,J5,J6|pos|0.000013,0.000050,0.000025,-0.000013,-0.000062,0.000021|vel|0.000000,-0.000000,0.000000,0.000000,0.000000,0.000000|eff|80.566406,257.812500,-934.570312,-177.246094,76.538086,-16.113281
cobot_dynamixel_driver/joint_states|name|J1,J2,J3,J4,J5,J6|pos|0.000075,0.000050,0.000025,-0.000013,-0.000062,0.000021|vel|0.007720,-0.000000,0.000000,0.000000,0.000000,0.000000|eff|483.398438,273.925781,-934.570312,-177.246094,76.538086,-12.084961
cobot_dynamixel_driver/joint_states|name|J1,J2,J3,J4,J5,J6|pos|0.000714,0.000050,0.000025,-0.000013,-0.000041,0.000021|vel|0.054665,-0.000000,0.000000,0.000000,0.000000,0.000000|eff|741.210938,273.925781,-902.343750,-112.792969,72.509766,-12.084961
cobot_dynamixel_driver/joint_states|name|J1,J2,J3,J4,J5,J6|pos|0.002403,0.000050,0.000025,-0.000013,-0.000021,0.000021|vel|0.104115,-0.000000,0.000000,0.000000,0.000000,0.000000|eff|934.570312,338.378906,-902.343750,-193.359375,76.538086,-16.113281
cobot_dynamixel_driver/joint_states|name|J1,J2,J3,J4,J5,J6|pos|0.005233,0.000050,0.000025,-0.000013,0.000000,0.000021|vel|0.169630,-0.000000,0.000000,0.000000,0.000000,0.000000|eff|870.117188,418.945312,-934.570312,-112.792969,88.623047,0.000000
cobot_dynamixel_driver/joint_states|name|J1,J2,J3,J4,J5,J6|pos|0.009076,0.000050,0.000025,-0.000013,0.000021,0.000021|vel|0.221374,-0.000000,0.000000,0.000000,0.001034,0.000000|eff|741.210938,257.812500,-886.230469,-145.019531,72.509766,0.000000
cobot_dynamixel_driver/joint_states|name|J1,J2,J3,J4,J5,J6|pos|0.013745,0.000050,0.000025,-0.000013,0.000021,0.000021|vel|0.257887,-0.000000,0.000000,0.000000,0.001034,0.000000|eff|999.023438,338.378906,-918.457031,-145.019531,72.509766,-20.141602
cobot_dynamixel_driver/joint_states|name|J1,J2,J3,J4,J5,J6|pos|0.018840,0.000050,0.000025,-0.000013,0.000021,0.000021|vel|0.292940,-0.000000,0.000000,0.000000,0.001034,0.000000|eff|1256.835938,306.152344,-886.230469,-128.906250,68.481445,-16.113281
cobot_dynamixel_driver/joint_states|name|J1,J2,J3,J4,J5,J6|pos|0.024736,0.000050,0.000025,-0.000013,0.000021,0.000021|vel|0.309006,-0.000000,0.000000,0.000000,0.001034,0.000000|eff|886.230469,306.152344,-934.570312,-112.792969,72.509766,-16.113281
cobot_dynamixel_driver/joint_states|name|J1,J2,J3,J4,J5,J6|pos|0.031471,0.000050,0.000025,-0.000013,0.000021,0.000021|vel|0.334461,-0.000000,0.000000,0.000000,0.001034,0.000000|eff|1224.609375,257.812500,-902.343750,-128.906250,60.424805,-16.113281
cobot_dynamixel_driver/joint_states|name|J1,J2,J3,J4,J5,J6|pos|0.037993,0.000050,0.000025,-0.000013,0.000021,0.000021|vel|0.371391,-0.000000,0.000000,0.000000,0.001034,0.000000|eff|386.718750,273.925781,-934.570312,-112.792969,60.424805,-20.141602
cobot_dynamixel_driver/joint_states|name|J1,J2,J3,J4,J5,J6|pos|0.045554,0.000050,0.000025,-0.000013,0.000021,0.000021|vel|0.365549,-0.000000,0.000000,0.000000,0.000000,0.000000|eff|418.945312,338.378906,-934.570312,-161.132812,64.453125,-20.141602
cobot_dynamixel_driver/joint_states|name|J1,J2,J3,J4,J5,J6|pos|0.052677,0.000050,0.000025,-0.000013,0.000021,0.000021|vel|0.369096,-0.000000,0.000000,0.000000,0.000000,0.000000|eff|612.304688,257.812500,-870.117188,-112.792969,64.453125,-16.113281
cobot_dynamixel_driver/joint_states|name|J1,J2,J3,J4,J5,J6|pos|0.060513,0.000050,0.000025,-0.000013,0.000021,0.000021|vel|0.404357,-0.000000,0.000000,0.000000,0.000000,0.000000|eff|1740.234375,273.925781,-934.570312,-177.246094,64.453125,0.000000
cobot_dynamixel_driver/joint_states|name|J1,J2,J3,J4,J5,J6|pos|0.069000,0.000050,0.000025,-0.000013,0.000021,0.000021|vel|0.401436,-0.000000,0.000000,0.000000,0.000000,0.000000|eff|1224.609375,273.925781,-902.343750,-112.792969,64.453125,-20.141602
cobot_dynamixel_driver/joint_states|name|J1,J2,J3,J4,J5,J6|pos|0.077350,0.000050,0.000025,-0.000013,0.000021,0.000021|vel|0.430021,-0.000000,0.000000,0.000000,0.000000,0.000000|eff|1240.722656,257.812500,-934.570312,-112.792969,64.453125,-16.113281
cobot_dynamixel_driver/joint_states|name|J1,J2,J3,J4,J5,J6|pos|0.085299,0.000050,0.000013,-0.000013,0.000021,0.000021|vel|0.413538,-0.000000,0.000000,0.000000,0.000000,0.000000|eff|1337.402344,338.378906,-886.230469,-145.019531,64.453125,-20.141602
cobot_dynamixel_driver/joint_states|name|J1,J2,J3,J4,J5,J6|pos|0.093874,0.000050,0.000013,-0.000013,0.000021,0.000021|vel|0.442122,-0.000000,0.000000,0.000000,0.000000,0.000000|eff|2062.500000,257.812500,-934.570312,-112.792969,64.453125,-16.113281
cobot_dynamixel_driver/joint_states|name|J1,J2,J3,J4,J5,J6|pos|0.103050,0.000050,0.000013,-0.000013,0.000021,0.000021|vel|0.423344,-0.000000,0.000000,0.000000,0.000000,0.000000|eff|338.378906,354.492188,-870.117188,-145.019531,64.453125,-20.141602
cobot_dynamixel_driver/joint_states|name|J1,J2,J3,J4,J5,J6|pos|0.112814,0.000050,0.000013,-0.000013,0.000021,0.000021|vel|0.450677,-0.000000,0.000000,0.000000,0.000000,0.000000|eff|789.550781,257.812500,-918.457031,-112.792969,64.453125,-20.141602
cobot_dynamixel_driver/joint_states|name|J1,J2,J3,J4,J5,J6|pos|0.120914,0.000050,0.000013,-0.000013,0.000021,0.000021|vel|0.467994,-0.000000,0.000000,0.000000,0.000000,0.000000|eff|1047.363281,257.812500,-934.570312,-193.359375,64.453125,-20.141602
cobot_dynamixel_driver/joint_states|name|J1,J2,J3,J4,J5,J6|pos|0.129564,0.000050,0.000013,-0.000013,0.000021,0.000021|vel|0.482391,-0.000000,0.000000,0.000000,0.000000,0.000000|eff|241.699219,273.925781,-934.570312,-112.792969,64.453125,-16.113281
cobot_dynamixel_driver/joint_states|name|J1,J2,J3,J4,J5,J6|pos|0.139178,0.000050,0.000013,-0.000013,0.000021,0.000021|vel|0.462987,-0.000000,0.000000,0.000000,0.000000,0.000000|eff|1144.042969,257.812500,-870.117188,-112.792969,64.453125,0.000000
cobot_dynamixel_driver/joint_states|name|J1,J2,J3,J4,J5,J6|pos|0.148341,0.000050,0.000013,-0.000013,0.000021,0.000021|vel|0.472376,-0.000000,0.000000,0.000000,0.000000,0.000000|eff|1498.535156,273.925781,-870.117188,-161.132812,64.453125,-20.141602
cobot_dynamixel_driver/joint_states|name|J1,J2,J3,J4,J5,J6|pos|0.157141,0.000050,0.000013,-0.000013,0.000021,0.000021|vel|0.473628,-0.000000,0.000000,0.000000,0.000000,0.000000|eff|966.796875,306.152344,-950.683594,-112.792969,64.453125,-16.113281
cobot_dynamixel_driver/joint_states|name|J1,J2,J3,J4,J5,J6|pos|0.166530,0.000050,0.000013,-0.000013,0.000021,0.000021|vel|0.483643,-0.000000,0.000000,0.000000,0.000000,0.000000|eff|902.343750,451.171875,-870.117188,-193.359375,64.453125,-8.056641
cobot_dynamixel_driver/joint_states|name|J1,J2,J3,J4,J5,J6|pos|0.175919,0.000050,0.000013,-0.000013,0.000021,0.000021|vel|0.459023,-0.000000,0.000000,0.000000,0.000000,0.000000|eff|902.343750,257.812500,-886.230469,-112.792969,64.453125,-20.141602
cobot_dynamixel_driver/joint_states|name|J1,J2,J3,J4,J5,J6|pos|0.185332,0.000050,0.000013,-0.000013,0.000021,0.000021|vel|0.450468,-0.000000,0.000000,0.000000,0.000000,0.000000|eff|1047.363281,257.812500,-950.683594,-112.792969,64.453125,-12.084961
cobot_dynamixel_driver/joint_states|name|J1,J2,J3,J4,J5,J6|pos|0.194846,0.000050,0.000013,-0.000013,0.000021,0.000021|vel|0.475923,-0.000000,0.000000,0.000000,0.000000,0.000000|eff|1482.421875,257.812500,-870.117188,-112.792969,64.453125,-20.141602
cobot_dynamixel_driver/joint_states|name|J1,J2,J3,J4,J5,J6|pos|0.204848,0.000050,0.000013,-0.000013,0.000021,0.000021|vel|0.469246,-0.000000,0.000000,0.000000,0.000000,0.000000|eff|2078.613281,338.378906,-870.117188,-177.246094,64.453125,0.000000
cobot_dynamixel_driver/joint_states|name|J1,J2,J3,J4,J5,J6|pos|0.214312,0.000050,0.000013,-0.000013,0.000021,0.000021|vel|0.481974,0.000417,0.000000,0.000000,0.000000,0.000000|eff|676.757812,290.039062,-886.230469,-112.792969,64.453125,-12.084961
cobot_dynamixel_driver/joint_states|name|J1,J2,J3,J4,J5,J6|pos|0.223826,0.000050,0.000013,-0.000013,0.000021,0.000021|vel|0.493032,-0.001043,0.000000,0.000000,0.000000,0.000000|eff|1095.703125,273.925781,-918.457031,-112.792969,60.424805,-20.141602
cobot_dynamixel_driver/joint_states|name|J1,J2,J3,J4,J5,J6|pos|0.233402,0.000050,0.000013,-0.000013,0.000021,0.000021|vel|0.483643,-0.001043,0.000000,0.000000,0.000000,0.000000|eff|32.226562,338.378906,-918.457031,-112.792969,64.453125,-12.084961
cobot_dynamixel_driver/joint_states|name|J1,J2,J3,J4,J5,J6|pos|0.242528,0.000050,0.000013,-0.000013,0.000021,0.000021|vel|0.497205,-0.000626,0.000000,0.000000,0.000000,0.000000|eff|467.285156,402.832031,-950.683594,-161.132812,64.453125,-16.113281
cobot_dynamixel_driver/joint_states|name|J1,J2,J3,J4,J5,J6|pos|0.252117,0.000050,0.000013,-0.000013,0.000021,0.000021|vel|0.496996,0.000626,0.000000,0.000000,0.000000,0.000000|eff|1127.929688,257.812500,-886.230469,-112.792969,64.453125,-16.113281
cobot_dynamixel_driver/joint_states|name|J1,J2,J3,J4,J5,J6|pos|0.261668,0.000050,0.000013,-0.000013,0.000021,0.000021|vel|0.508889,0.002295,0.000000,0.000000,0.000000,0.000000|eff|1691.894531,338.378906,-886.230469,-112.792969,64.453125,-16.113281
cobot_dynamixel_driver/joint_states|name|J1,J2,J3,J4,J5,J6|pos|0.271232,0.000050,0.000013,-0.000013,0.000021,0.000021|vel|0.498457,-0.002295,0.000000,0.000000,0.000000,0.000000|eff|483.398438,338.378906,-918.457031,-161.132812,64.453125,-16.113281
cobot_dynamixel_driver/joint_states|name|J1,J2,J3,J4,J5,J6|pos|0.280859,0.000050,0.000013,-0.000013,0.000021,0.000021|vel|0.484478,-0.002086,0.000000,0.000000,0.000000,0.000000|eff|306.152344,257.812500,-918.457031,-161.132812,64.453125,-20.141602
cobot_dynamixel_driver/joint_states|name|J1,J2,J3,J4,J5,J6|pos|0.290961,0.000050,0.000013,-0.000013,0.000021,0.000021|vel|0.495327,0.001878,0.000000,0.000000,0.000000,0.000000|eff|531.738281,386.718750,-870.117188,-112.792969,64.453125,-20.141602
cobot_dynamixel_driver/joint_states|name|J1,J2,J3,J4,J5,J6|pos|0.300049,0.000050,0.000013,-0.000013,0.000021,0.000021|vel|0.481974,-0.001878,0.000000,0.000000,0.000000,0.000000|eff|999.023438,273.925781,-902.343750,-112.792969,64.453125,-20.141602
cobot_dynamixel_driver/joint_states|name|J1,J2,J3,J4,J5,J6|pos|0.309701,0.000050,0.000013,-0.000013,0.000021,0.000021|vel|0.499917,-0.002295,0.000000,0.000000,0.000000,0.000000|eff|1836.914062,306.152344,-870.117188,-112.792969,64.453125,0.000000
cobot_dynamixel_driver/joint_states|name|J1,J2,J3,J4,J5,J6|pos|0.319415,0.000050,0.000013,-0.000013,0.000021,0.000021|vel|0.484895,0.002086,0.000000,0.000000,0.000000,0.000000|eff|338.378906,257.812500,-934.570312,-161.132812,68.481445,-12.084961
cobot_dynamixel_driver/joint_states|name|J1,J2,J3,J4,J5,J6|pos|0.329655,0.000050,0.000013,-0.000013,0.000021,0.000021|vel|0.491780,0.002086,0.000000,0.000000,0.000000,0.000000|eff|660.644531,402.832031,-918.457031,-112.792969,68.481445,0.000000
cobot_dynamixel_driver/joint_states|name|J1,J2,J3,J4,J5,J6|pos|0.338768,0.000050,0.000000,-0.000013,0.000062,0.000021|vel|0.492197,0.002295,0.000000,0.000000,0.000000,0.000000|eff|1450.195312,338.378906,-934.570312,-177.246094,72.509766,-16.113281
cobot_dynamixel_driver/joint_states|name|J1,J2,J3,J4,J5,J6|pos|0.348345,0.000050,0.000000,-0.000013,0.000083,0.000021|vel|0.508263,-0.002086,0.000000,0.000000,0.000000,0.000000|eff|2126.953125,386.718750,-918.457031,-112.792969,60.424805,-12.084961
cobot_dynamixel_driver/joint_states|name|J1,J2,J3,J4,J5,J6|pos|0.358021,0.000050,0.000000,-0.000013,0.000083,0.000021|vel|0.508472,0.001669,0.000000,0.000000,0.000000,0.000000|eff|386.718750,418.945312,-934.570312,-161.132812,60.424805,-20.141602
cobot_dynamixel_driver/joint_states|name|J1,J2,J3,J4,J5,J6|pos|0.368261,0.000050,0.000000,-0.000013,0.000083,0.000021|vel|0.491989,-0.001878,0.000000,0.000000,0.000000,0.000000|eff|692.871094,354.492188,-918.457031,-112.792969,60.424805,-16.113281
cobot_dynamixel_driver/joint_states|name|J1,J2,J3,J4,J5,J6|pos|0.377988,0.000050,0.000000,-0.000013,0.000083,0.000021|vel|0.523912,-0.002504,0.000000,0.000000,0.000000,0.000000|eff|1981.933594,386.718750,-886.230469,-177.246094,60.424805,-16.113281
cobot_dynamixel_driver/joint_states|name|J1,J2,J3,J4,J5,J6|pos|0.387114,0.000050,0.000000,-0.000013,0.000083,0.000021|vel|0.483017,0.002086,0.000000,0.000000,0.000000,0.000000|eff|1095.703125,467.285156,-902.343750,-112.792969,60.424805,0.000000
cobot_dynamixel_driver/joint_states|name|J1,J2,J3,J4,J5,J6|pos|0.397266,0.000050,0.000000,-0.000013,0.000083,0.000021|vel|0.478635,0.002086,0.000000,0.000000,0.000000,0.000000|eff|580.078125,290.039062,-918.457031,-177.246094,64.453125,0.000000
cobot_dynamixel_driver/joint_states|name|J1,J2,J3,J4,J5,J6|pos|0.406454,0.000050,0.000000,-0.000013,0.000083,0.000021|vel|0.510767,-0.002086,0.000000,0.000000,0.000000,0.000000|eff|934.570312,386.718750,-870.117188,-145.019531,52.368164,-16.113281
cobot_dynamixel_driver/joint_states|name|J1,J2,J3,J4,J5,J6|pos|0.416657,0.000050,0.000000,-0.000013,0.000083,0.000021|vel|0.491572,-0.002086,0.000000,0.000000,0.000000,0.000000|eff|1659.667969,257.812500,-886.230469,-112.792969,56.396484,0.000000
cobot_dynamixel_driver/joint_states|name|J1,J2,J3,J4,J5,J6|pos|0.425770,0.000050,0.000000,-0.000013,0.000083,0.000021|vel|0.469664,0.002295,0.000000,0.000000,0.000000,0.000000|eff|821.777344,290.039062,-870.117188,-112.792969,56.396484,0.000000
cobot_dynamixel_driver/joint_states|name|J1,J2,J3,J4,J5,J6|pos|0.435459,0.000050,0.000000,-0.000013,0.000083,0.000021|vel|0.514940,0.002086,0.000000,0.000000,0.000000,0.000000|eff|273.925781,467.285156,-886.230469,-161.132812,56.396484,-20.141602
cobot_dynamixel_driver/joint_states|name|J1,J2,J3,J4,J5,J6|pos|0.445724,0.000050,0.000000,-0.000013,0.000083,0.000021|vel|0.508263,-0.002086,0.000000,0.000000,0.000000,0.000000|eff|1579.101562,273.925781,-902.343750,-145.019531,60.424805,-20.141602
cobot_dynamixel_driver/joint_states|name|J1,J2,J3,J4,J5,J6|pos|0.455012,0.000050,0.000000,-0.000013,0.000083,0.000021|vel|0.512019,0.001669,0.000000,0.000000,0.000000,0.000000|eff|193.359375,418.945312,-886.230469,-112.792969,56.396484,0.000000
cobot_dynamixel_driver/joint_states|name|J1,J2,J3,J4,J5,J6|pos|0.464614,0.000050,0.000000,-0.000013,0.000083,0.000021|vel|0.469246,-0.002086,0.000000,0.000000,0.000000,0.000000|eff|483.398438,386.718750,-918.457031,-177.246094,52.368164,-16.113281
cobot_dynamixel_driver/joint_states|name|J1,J2,J3,J4,J5,J6|pos|0.474240,0.000050,0.000000,-0.000013,0.000083,0.000021|vel|0.463196,0.001878,0.000000,0.000000,0.000000,0.000000|eff|837.890625,402.832031,-870.117188,-161.132812,56.396484,0.000000
cobot_dynamixel_driver/joint_states|name|J1,J2,J3,J4,J5,J6|pos|0.483980,0.000050,-0.000013,-0.000013,0.000083,0.000021|vel|0.544776,-0.001669,0.000000,0.000000,0.000000,0.000000|eff|2143.066406,451.171875,-934.570312,-177.246094,48.339844,-16.113281
cobot_dynamixel_driver/joint_states|name|J1,J2,J3,J4,J5,J6|pos|0.493731,0.000050,-0.000013,-0.000013,0.000083,0.000021|vel|0.478844,-0.002504,0.000000,0.000000,0.000000,0.000000|eff|225.585938,273.925781,-902.343750,-112.792969,52.368164,0.000000
cobot_dynamixel_driver/joint_states|name|J1,J2,J3,J4,J5,J6|pos|0.503471,0.000050,-0.000013,-0.000013,0.000083,0.000021|vel|0.502212,0.002086,0.000000,0.000000,0.000000,0.000000|eff|902.343750,467.285156,-918.457031,-112.792969,48.339844,-20.141602
cobot_dynamixel_driver/joint_states|name|J1,J2,J3,J4,J5,J6|pos|0.513085,0.000050,-0.000013,-0.000013,0.000083,0.000021|vel|0.490111,0.002086,0.000000,0.000000,0.000000,0.000000|eff|1788.574219,338.378906,-934.570312,-112.792969,52.368164,-16.113281
cobot_dynamixel_driver/joint_states|name|J1,J2,J3,J4,J5,J6|pos|0.522749,0.000050,-0.000013,-0.000013,0.000083,0.000021|vel|0.506385,-0.002086,0.000000,0.000000,0.000000,0.000000|eff|773.437500,290.039062,-902.343750,-112.792969,48.339844,0.000000
cobot_dynamixel_driver/joint_states|name|J1,J2,J3,J4,J5,J6|pos|0.532413,0.000050,-0.000013,-0.000013,0.000083,0.000021|vel|0.479887,-0.002086,0.000000,0.000000,0.000000,0.000000|eff|257.812500,451.171875,-934.570312,-112.792969,48.339844,0.000000
cobot_dynamixel_driver/joint_states|name|J1,J2,J3,J4,J5,J6|pos|0.542102,0.000050,-0.000013,-0.000013,0.000083,0.000021|vel|0.487190,0.002086,0.000000,0.000000,0.000000,0.000000|eff|966.796875,418.945312,-870.117188,-112.792969,48.339844,0.000000
cobot_dynamixel_driver/joint_states|name|J1,J2,J3,J4,J5,J6|pos|0.551678,0.000050,-0.000013,-0.000013,0.000083,0.000021|vel|0.489276,0.002295,0.000000,0.000000,0.000000,0.000000|eff|1691.894531,338.378906,-918.457031,-112.792969,48.339844,-16.113281
cobot_dynamixel_driver/joint_states|name|J1,J2,J3,J4,J5,J6|pos|0.561392,0.000050,-0.000013,-0.000013,0.000083,0.000021|vel|0.501378,-0.002295,0.000000,0.000000,0.000000,0.000000|eff|692.871094,418.945312,-918.457031,-112.792969,48.339844,-12.084961
cobot_dynamixel_driver/joint_states|name|J1,J2,J3,J4,J5,J6|pos|0.571182,0.000050,-0.000013,-0.000013,0.000083,0.000021|vel|0.502630,0.001669,0.000000,0.000000,0.000000,0.000000|eff|628.417969,386.718750,-870.117188,-112.792969,40.283203,-16.113281
cobot_dynamixel_driver/joint_states|name|J1,J2,J3,J4,J5,J6|pos|0.580921,0.000050,-0.000013,-0.000013,0.000083,0.000021|vel|0.514940,-0.001669,0.000000,0.000000,0.000000,0.000000|eff|1740.234375,354.492188,-870.117188,-161.132812,44.311523,-8.056641
cobot_dynamixel_driver/joint_states|name|J1,J2,J3,J4,J5,J6|pos|0.590535,0.000050,-0.000013,-0.000013,0.000083,0.000021|vel|0.493241,-0.000626,0.000000,0.000000,0.000000,0.000000|eff|918.457031,451.171875,-886.230469,-112.792969,44.311523,-16.113281
cobot_dynamixel_driver/joint_states|name|J1,J2,J3,J4,J5,J6|pos|0.600186,0.000050,-0.000013,-0.000013,0.000083,0.000021|vel|0.497622,-0.002295,0.000000,0.000000,0.000000,0.000000|eff|241.699219,386.718750,-886.230469,-128.906250,44.311523,-16.113281
cobot_dynamixel_driver/joint_states|name|J1,J2,J3,J4,J5,J6|pos|0.609938,0.000050,-0.000013,-0.000013,0.000083,0.000021|vel|0.473002,0.001669,0.000000,0.000000,0.000000,0.000000|eff|1095.703125,322.265625,-886.230469,-112.792969,44.311523,0.000000
cobot_dynamixel_driver/joint_states|name|J1,J2,J3,J4,J5,J6|pos|0.619715,0.000050,-0.000013,-0.000013,0.000083,0.000021|vel|0.515775,-0.001878,0.000000,0.000000,0.000000,0.000000|eff|1015.136719,354.492188,-918.457031,-112.792969,44.311523,-12.084961
cobot_dynamixel_driver/joint_states|name|J1,J2,J3,J4,J5,J6|pos|0.629454,0.000050,-0.000013,-0.000013,0.000083,0.000021|vel|0.489276,-0.002295,0.000000,0.000000,0.000000,0.000000|eff|273.925781,386.718750,-918.457031,-193.359375,40.283203,-16.113281
cobot_dynamixel_driver/joint_states|name|J1,J2,J3,J4,J5,J6|pos|0.639080,0.000050,-0.000013,-0.000013,0.000083,0.000021|vel|0.469664,0.002086,0.000000,0.000000,0.000000,0.000000|eff|934.570312,451.171875,-886.230469,-112.792969,36.254883,0.000000
cobot_dynamixel_driver/joint_states|name|J1,J2,J3,J4,J5,J6|pos|0.648745,0.000050,-0.000013,-0.000013,0.000083,0.000021|vel|0.494910,0.002086,0.000000,0.000000,0.000000,0.000000|eff|1901.367188,354.492188,-902.343750,-112.792969,40.283203,-16.113281
cobot_dynamixel_driver/joint_states|name|J1,J2,J3,J4,J5,J6|pos|0.658434,0.000050,-0.000013,-0.000013,0.000083,0.000021|vel|0.509098,-0.002086,0.000000,0.000000,0.000000,0.000000|eff|241.699219,483.398438,-918.457031,-112.792969,40.283203,-20.141602
cobot_dynamixel_driver/joint_states|name|J1,J2,J3,J4,J5,J6|pos|0.668085,0.000050,-0.000013,-0.000013,0.000083,0.000021|vel|0.492823,-0.002086,0.000000,0.000000,0.000000,0.000000|eff|386.718750,451.171875,-918.457031,-112.792969,44.311523,-16.113281
cobot_dynamixel_driver/joint_states|name|J1,J2,J3,J4,J5,J6|pos|0.677712,0.000050,-0.000013,-0.000013,0.000083,0.000021|vel|0.498040,0.002295,0.000000,0.000000,0.000000,0.000000|eff|966.796875,451.171875,-902.343750,-112.792969,40.283203,-16.113281
cobot_dynamixel_driver/joint_states|name|J1,J2,J3,J4,J5,J6|pos|0.687388,0.000050,-0.000013,-0.000013,0.000083,0.000021|vel|0.493449,-0.001878,0.000000,0.000000,0.000000,0.000000|eff|1965.820312,483.398438,-918.457031,-177.246094,36.254883,-16.113281
cobot_dynamixel_driver/joint_states|name|J1,J2,J3,J4,J5,J6|pos|0.697140,0.000050,-0.000013,-0.000013,0.000083,0.000021|vel|0.486773,0.001669,0.000000,0.000000,0.000000,0.000000|eff|128.906250,273.925781,-886.230469,-112.792969,36.254883,-8.056641
cobot_dynamixel_driver/joint_states|name|J1,J2,J3,J4,J5,J6|pos|0.706854,0.000050,-0.000013,-0.000013,0.000083,0.000021|vel|0.491154,-0.001461,0.000000,0.000000,0.000000,0.000000|eff|741.210938,322.265625,-870.117188,-145.019531,36.254883,-16.113281
cobot_dynamixel_driver/joint_states|name|J1,J2,J3,J4,J5,J6|pos|0.716418,0.000050,-0.000013,-0.000013,0.000083,0.000021|vel|0.491154,0.001252,0.000000,0.000000,0.000000,0.000000|eff|1530.761719,338.378906,-934.570312,-177.246094,36.254883,-12.084961
cobot_dynamixel_driver/joint_states|name|J1,J2,J3,J4,J5,J6|pos|0.726120,0.000050,-0.000013,-0.000013,0.000083,0.000021|vel|0.489276,-0.001252,0.000000,0.000000,0.000000,0.000000|eff|1160.156250,451.171875,-886.230469,-112.792969,36.254883,-16.113281
cobot_dynamixel_driver/joint_states|name|J1,J2,J3,J4,J5,J6|pos|0.735896,0.000050,-0.000013,-0.000013,0.000083,0.000021|vel|0.518070,-0.000835,0.000000,0.000000,0.000000,0.000000|eff|177.246094,483.398438,-918.457031,-128.906250,36.254883,-20.141602
cobot_dynamixel_driver/joint_states|name|J1,J2,J3,J4,J5,J6|pos|0.745673,0.000050,-0.000013,-0.000013,0.000083,0.000021|vel|0.525372,-0.000835,0.000000,0.000000,0.000000,0.000000|eff|1369.628906,322.265625,-870.117188,-193.359375,32.226562,-20.141602
cobot_dynamixel_driver/joint_states|name|J1,J2,J3,J4,J5,J6|pos|0.755375,0.000050,-0.000013,-0.000013,0.000083,0.000021|vel|0.497831,0.000626,0.000000,0.000000,0.000000,0.000000|eff|1111.816406,354.492188,-918.457031,-112.792969,36.254883,-8.056641
cobot_dynamixel_driver/joint_states|name|J1,J2,J3,J4,J5,J6|pos|0.764989,0.000050,-0.000013,-0.000013,0.000083,0.000021|vel|0.485312,0.000626,0.000000,0.000000,0.000000,0.000000|eff|257.812500,402.832031,-870.117188,-177.246094,20.141602,-20.141602
cobot_dynamixel_driver/joint_states|name|J1,J2,J3,J4,J5,J6|pos|0.774703,0.000050,-0.000013,-0.000013,0.000083,0.000021|vel|0.519947,-0.000626,0.000000,0.000000,0.000000,0.000000|eff|821.777344,354.492188,-918.457031,-128.906250,36.254883,0.000000
cobot_dynamixel_driver/joint_states|name|J1,J2,J3,J4,J5,J6|pos|0.784417,0.000050,-0.000013,-0.000013,0.000083,0.000021|vel|0.539978,-0.000209,0.000000,0.000000,0.000000,0.000000|eff|2175.292969,402.832031,-902.343750,-112.792969,36.254883,-20.141602
cobot_dynamixel_driver/joint_states|name|J1,J2,J3,J4,J5,J6|pos|0.794081,0.000050,-0.000013,-0.000013,0.000083,0.000021|vel|0.496996,-0.000209,0.000000,0.000000,0.000000,0.000000|eff|128.906250,306.152344,-886.230469,-112.792969,20.141602,0.000000
cobot_dynamixel_driver/joint_states|name|J1,J2,J3,J4,J5,J6|pos|0.803720,0.000050,-0.000013,-0.000013,0.000083,0.000021|vel|0.466325,-0.000209,0.000000,0.000000,0.000000,0.000000|eff|483.398438,483.398438,-934.570312,-112.792969,36.254883,0.000000
cobot_dynamixel_driver/joint_states|name|J1,J2,J3,J4,J5,J6|pos|0.813447,0.000050,-0.000013,-0.000013,0.000083,0.000021|vel|0.504925,-0.000209,0.000000,0.000000,0.000000,0.000000|eff|1546.875000,322.265625,-902.343750,-128.906250,20.141602,-20.141602
cobot_dynamixel_driver/joint_states|name|J1,J2,J3,J4,J5,J6|pos|0.823186,0.000050,-0.000013,-0.000013,0.000083,0.000021|vel|0.503047,-0.000209,0.000000,0.000000,0.000000,0.000000|eff|1192.382812,370.605469,-870.117188,-112.792969,28.198242,-20.141602
cobot_dynamixel_driver/joint_states|name|J1,J2,J3,J4,J5,J6|pos|0.832838,0.000050,-0.000013,-0.000013,0.000083,0.000021|vel|0.480096,-0.000209,0.000000,0.000000,0.000000,0.000000|eff|338.378906,435.058594,-886.230469,-145.019531,32.226562,-20.141602
cobot_dynamixel_driver/joint_states|name|J1,J2,J3,J4,J5,J6|pos|0.842439,0.000050,-0.000013,-0.000013,0.000083,0.000021|vel|0.502838,-0.000000,0.000000,0.000000,0.000000,0.000000|eff|757.324219,402.832031,-902.343750,-177.246094,16.113281,0.000000
cobot_dynamixel_driver/joint_states|name|J1,J2,J3,J4,J5,J6|pos|0.852166,0.000050,-0.000025,-0.000013,0.000083,0.000021|vel|0.482600,-0.000000,0.000000,0.000000,0.000000,0.000000|eff|1772.460938,402.832031,-918.457031,-112.792969,16.113281,-20.141602
cobot_dynamixel_driver/joint_states|name|J1,J2,J3,J4,J5,J6|pos|0.861930,0.000050,-0.000025,-0.000013,0.000083,0.000021|vel|0.519113,-0.000000,0.000000,0.000000,0.000000,0.000000|eff|64.453125,354.492188,-870.117188,-112.792969,32.226562,-20.141602
cobot_dynamixel_driver/joint_states|name|J1,J2,J3,J4,J5,J6|pos|0.871669,0.000050,-0.000025,-0.000013,0.000083,0.000021|vel|0.490320,-0.000000,0.000000,0.000000,0.000000,0.000000|eff|676.757812,418.945312,-886.230469,-112.792969,32.226562,-20.141602
cobot_dynamixel_driver/joint_states|name|J1,J2,J3,J4,J5,J6|pos|0.881796,0.000050,-0.000025,-0.000013,0.000083,0.000021|vel|0.479053,-0.000000,0.000000,0.000000,0.000000,0.000000|eff|1708.007812,290.039062,-870.117188,-112.792969,20.141602,0.000000
cobot_dynamixel_driver/joint_states|name|J1,J2,J3,J4,J5,J6|pos|0.890947,0.000050,-0.000025,-0.000013,0.000083,0.000021|vel|0.476340,-0.000000,0.000000,0.000000,0.000000,0.000000|eff|773.437500,306.152344,-918.457031,-161.132812,16.113281,-12.084961
cobot_dynamixel_driver/joint_states|name|J1,J2,J3,J4,J5,J6|pos|0.900674,0.000050,-0.000025,-0.000013,0.000083,0.000021|vel|0.498666,-0.000000,0.000000,0.000000,0.000000,0.000000|eff|306.152344,451.171875,-918.457031,-112.792969,16.113281,-16.113281
cobot_dynamixel_driver/joint_states|name|J1,J2,J3,J4,J5,J6|pos|0.910413,0.000050,-0.000025,-0.000013,0.000083,0.000021|vel|0.484895,-0.000000,0.000000,0.000000,0.000000,0.000000|eff|1176.269531,354.492188,-934.570312,-112.792969,12.084961,0.000000
cobot_dynamixel_driver/joint_states|name|J1,J2,J3,J4,J5,J6|pos|0.920027,0.000050,-0.000025,-0.000013,0.000083,0.000021|vel|0.487399,-0.000000,0.000000,0.000000,0.000000,0.000000|eff|2207.519531,306.152344,-934.570312,-128.906250,24.169922,0.000000
cobot_dynamixel_driver/joint_states|name|J1,J2,J3,J4,J5,J6|pos|0.929691,0.000050,-0.000025,-0.000013,0.000083,0.000021|vel|0.513271,-0.000000,0.000000,0.000000,0.000000,0.000000|eff|451.171875,418.945312,-918.457031,-161.132812,28.198242,-16.113281
cobot_dynamixel_driver/joint_states|name|J1,J2,J3,J4,J5,J6|pos|0.939418,0.000050,-0.000025,-0.000013,0.000083,0.000021|vel|0.473419,-0.000000,0.000000,0.000000,0.000000,0.000000|eff|547.851562,483.398438,-870.117188,-112.792969,24.169922,-20.141602
cobot_dynamixel_driver/joint_states|name|J1,J2,J3,J4,J5,J6|pos|0.949144,0.000050,-0.000025,-0.000013,0.000083,0.000021|vel|0.497622,-0.000000,0.000000,0.000000,0.000000,0.000000|eff|1869.140625,402.832031,-934.570312,-128.906250,12.084961,0.000000
cobot_dynamixel_driver/joint_states|name|J1,J2,J3,J4,J5,J6|pos|0.958758,0.000050,-0.000025,-0.000013,0.000083,0.000021|vel|0.499917,-0.000000,0.000000,0.000000,0.000000,0.000000|eff|1482.421875,402.832031,-918.457031,-145.019531,16.113281,0.000000
cobot_dynamixel_driver/joint_states|name|J1,J2,J3,J4,J5,J6|pos|0.968372,0.000050,-0.000025,-0.000013,0.000083,0.000021|vel|0.502421,-0.000000,0.000000,0.000000,0.000000,0.000000|eff|145.019531,451.171875,-870.117188,-112.792969,12.084961,-16.113281
cobot_dynamixel_driver/joint_states|name|J1,J2,J3,J4,J5,J6|pos|0.978087,0.000050,-0.000025,-0.000013,0.000083,0.000021|vel|0.478635,-0.000000,0.000000,0.000000,0.000000,0.000000|eff|515.625000,467.285156,-870.117188,-145.019531,24.169922,-20.141602
cobot_dynamixel_driver/joint_states|name|J1,J2,J3,J4,J5,J6|pos|0.987287,0.000050,-0.000025,-0.000013,0.000083,0.000021|vel|0.438784,-0.000000,0.000000,0.000000,0.000000,0.000000|eff|-241.699219,483.398438,-902.343750,-112.792969,28.198242,-20.141602
cobot_dynamixel_driver/joint_states|name|J1,J2,J3,J4,J5,J6|pos|0.995349,0.000050,-0.000025,-0.000013,0.000083,0.000021|vel|0.383701,-0.000000,0.000000,0.000000,0.000000,0.000000|eff|370.605469,483.398438,-934.570312,-112.792969,16.113281,-8.056641
cobot_dynamixel_driver/joint_states|name|J1,J2,J3,J4,J5,J6|pos|1.002284,0.000050,-0.000025,-0.000013,0.000083,0.000021|vel|0.316517,-0.000000,0.000000,0.000000,0.000000,0.000000|eff|418.945312,370.605469,-934.570312,-145.019531,28.198242,0.000000
cobot_dynamixel_driver/joint_states|name|J1,J2,J3,J4,J5,J6|pos|1.008230,0.000050,-0.000025,-0.000013,0.000083,0.000021|vel|0.276040,-0.000000,0.000000,0.000000,0.000000,0.000000|eff|-32.226562,354.492188,-870.117188,-112.792969,16.113281,0.000000
cobot_dynamixel_driver/joint_states|name|J1,J2,J3,J4,J5,J6|pos|1.013375,0.000050,-0.000025,-0.000013,0.000083,0.000021|vel|0.249750,-0.000000,0.000000,0.000000,0.000000,0.000000|eff|-80.566406,370.605469,-902.343750,-112.792969,12.084961,-20.141602
cobot_dynamixel_driver/joint_states|name|J1,J2,J3,J4,J5,J6|pos|1.017807,0.000050,-0.000025,-0.000013,0.000083,0.000021|vel|0.204891,-0.000000,0.000000,0.000000,0.000000,0.000000|eff|161.132812,451.171875,-870.117188,-177.246094,12.084961,0.000000
cobot_dynamixel_driver/joint_states|name|J1,J2,J3,J4,J5,J6|pos|1.021625,0.000050,-0.000025,-0.000013,0.000083,0.000021|vel|0.189451,-0.000000,0.000000,0.000000,0.000000,0.000000|eff|161.132812,467.285156,-934.570312,-112.792969,12.084961,-16.113281
cobot_dynamixel_driver/joint_states|name|J1,J2,J3,J4,J5,J6|pos|1.024942,0.000050,-0.000025,-0.000013,0.000083,0.000021|vel|0.158363,-0.000000,0.000000,0.000000,0.000000,0.000000|eff|161.132812,322.265625,-918.457031,-112.792969,12.084961,-16.113281
cobot_dynamixel_driver/joint_states|name|J1,J2,J3,J4,J5,J6|pos|1.027834,0.000050,-0.000025,-0.000013,0.000083,0.000021|vel|0.136038,-0.000000,0.000000,0.000000,0.000000,0.000000|eff|177.246094,418.945312,-902.343750,-112.792969,12.084961,-8.056641
cobot_dynamixel_driver/joint_states|name|J1,J2,J3,J4,J5,J6|pos|1.030350,0.000050,-0.000025,-0.000013,0.000083,0.000021|vel|0.115382,-0.000000,0.000000,0.000000,0.000000,0.000000|eff|225.585938,306.152344,-886.230469,-193.359375,12.084961,-16.113281
cobot_dynamixel_driver/joint_states|name|J1,J2,J3,J4,J5,J6|pos|1.032491,0.000050,-0.000025,-0.000013,0.000083,0.000021|vel|0.104741,-0.000000,0.000000,0.000000,0.000000,0.000000|eff|193.359375,290.039062,-918.457031,-112.792969,12.084961,-16.113281
cobot_dynamixel_driver/joint_states|name|J1,J2,J3,J4,J5,J6|pos|1.034393,0.000050,-0.000025,-0.000013,0.000083,0.000021|vel|0.094934,-0.000000,0.000000,0.000000,0.000000,0.000000|eff|193.359375,306.152344,-934.570312,-112.792969,8.056641,0.000000
cobot_dynamixel_driver/joint_states|name|J1,J2,J3,J4,J5,J6|pos|1.036033,0.000050,-0.000025,-0.000013,0.000083,0.000021|vel|0.078868,-0.000000,0.000000,0.000000,0.000000,0.000000|eff|209.472656,418.945312,-886.230469,-112.792969,12.084961,-16.113281
cobot_dynamixel_driver/joint_states|name|J1,J2,J3,J4,J5,J6|pos|1.037460,0.000050,-0.000025,-0.000013,0.000083,0.000021|vel|0.069062,-0.000000,0.000000,0.000000,0.000000,0.000000|eff|161.132812,290.039062,-902.343750,-161.132812,12.084961,-20.141602
cobot_dynamixel_driver/joint_states|name|J1,J2,J3,J4,J5,J6|pos|1.038737,0.000050,-0.000025,-0.000013,0.000083,0.000021|vel|0.060925,-0.000000,0.000000,0.000000,0.000000,0.000000|eff|177.246094,354.492188,-934.570312,-112.792969,0.000000,-8.056641
cobot_dynamixel_driver/joint_states|name|J1,J2,J3,J4,J5,J6|pos|1.039801,0.000050,-0.000025,-0.000013,0.000083,0.000021|vel|0.049241,-0.000000,0.000000,0.000000,0.000000,0.000000|eff|209.472656,467.285156,-870.117188,-112.792969,8.056641,-20.141602
cobot_dynamixel_driver/goal|-:J1,J2,J3,J4,J5,J6:1.047198,0.000000,0.000000,0.000000,0.000000,0.000000:0.500000,0.500000,0.500000,0.500000,0.500000,0.500000:pos_vel_
cobot_dynamixel_driver/joint_states|name|J1,J2,J3,J4,J5,J6|pos|1.040703,0.000050,-0.000025,-0.000013,0.000083,0.000021|vel|0.044233,-0.000000,0.000000,0.000000,0.000000,0.000000|eff|225.585938,435.058594,-918.457031,-112.792969,0.000000,-8.056641
cobot_dynamixel_driver/joint_states|name|J1,J2,J3,J4,J5,J6|pos|1.041541,0.000050,-0.000025,-0.000013,0.000083,0.000021|vel|0.040477,-0.000000,0.000000,0.000000,0.000000,0.000000|eff|241.699219,499.511719,-902.343750,-128.906250,0.000000,-20.141602
cobot_dynamixel_driver/joint_states|name|J1,J2,J3,J4,J5,J6|pos|1.042280,0.000050,-0.000025,-0.000013,0.000083,0.000021|vel|0.034635,-0.000000,0.000000,0.000000,0.000000,0.000000|eff|177.246094,370.605469,-934.570312,-145.019531,0.000000,0.000000
cobot_dynamixel_driver/joint_states|name|J1,J2,J3,J4,J5,J6|pos|1.042893,0.000050,-0.000025,-0.000013,0.000083,0.000021|vel|0.028167,-0.000000,0.000000,0.000000,0.000000,0.000000|eff|241.699219,370.605469,-870.117188,-112.792969,8.056641,-20.141602
cobot_dynamixel_driver/joint_states|name|J1,J2,J3,J4,J5,J6|pos|1.043419,0.000050,-0.000025,-0.000013,0.000083,0.000021|vel|0.024829,-0.000000,0.000000,0.000000,0.000000,0.000000|eff|225.585938,483.398438,-918.457031,-128.906250,0.000000,-20.141602
cobot_dynamixel_driver/joint_states|name|J1,J2,J3,J4,J5,J6|pos|1.043895,0.000050,-0.000025,-0.000013,0.000083,0.000021|vel|0.026707,-0.000000,0.000000,0.000000,0.000000,0.000000|eff|145.019531,451.171875,-870.117188,-112.792969,8.056641,-12.084961
cobot_dynamixel_driver/joint_states|name|J1,J2,J3,J4,J5,J6|pos|1.044358,0.000050,-0.000025,-0.000013,0.000083,0.000021|vel|0.022117,-0.000000,0.000000,0.000000,0.000000,0.000000|eff|161.132812,499.511719,-870.117188,-145.019531,0.000000,0.000000
cobot_dynamixel_driver/joint_states|name|J1,J2,J3,J4,J5,J6|pos|1.044734,0.000050,-0.000025,-0.000013,0.000083,0.000021|vel|0.017109,-0.000000,0.000000,0.000000,0.000000,0.000000|eff|177.246094,435.058594,-886.230469,-128.906250,0.000000,-12.084961
cobot_dynamixel_driver/joint_states|name|J1,J2,J3,J4,J5,J6|pos|1.045059,0.000050,-0.000025,-0.000013,0.000083,0.000021|vel|0.015648,-0.000000,0.000000,0.000000,0.000000,0.000000|eff|161.132812,483.398438,-870.117188,-112.792969,0.000000,-12.084961
cobot_dynamixel_driver/joint_states|name|J1,J2,J3,J4,J5,J6|pos|1.045359,0.000050,-0.000025,-0.000013,0.000083,0.000021|vel|0.013771,-0.000000,0.000000,0.000000,0.000000,0.000000|eff|128.906250,499.511719,-870.117188,-112.792969,0.000000,0.000000
cobot_dynamixel_driver/joint_states|name|J1,J2,J3,J4,J5,J6|pos|1.045585,0.000050,-0.000025,-0.000013,0.000083,0.000021|vel|0.011267,-0.000000,0.000000,0.000000,0.000000,0.000000|eff|193.359375,402.832031,-918.457031,-128.906250,0.000000,-20.141602
cobot_dynamixel_driver/joint_states|name|J1,J2,J3,J4,J5,J6|pos|1.045773,0.000050,-0.000025,-0.000013,0.000062,0.000021|vel|0.007303,-0.000000,0.000000,0.000000,0.000000,0.000000|eff|161.132812,451.171875,-870.117188,-112.792969,0.000000,-20.141602
cobot_dynamixel_driver/joint_states|name|J1,J2,J3,J4,J5,J6|pos|1.045910,0.000050,-0.000025,-0.000013,0.000062,0.000021|vel|0.007303,-0.000000,0.000000,0.000000,0.000000,0.000000|eff|161.132812,322.265625,-886.230469,-112.792969,0.000000,0.000000
cobot_dynamixel_driver/joint_states|name|J1,J2,J3,J4,J5,J6|pos|1.046060,0.000050,-0.000025,-0.000013,0.000062,0.000021|vel|0.007511,-0.000000,0.000000,0.000000,0.000000,0.000000|eff|241.699219,499.511719,-918.457031,-112.792969,0.000000,-20.141602
cobot_dynamixel_driver/joint_states|name|J1,J2,J3,J4,J5,J6|pos|1.046211,0.000050,-0.000025,-0.000013,0.000062,0.000021|vel|0.007303,-0.000000,0.000000,0.000000,0.000000,0.000000|eff|193.359375,467.285156,-934.570312,-128.906250,0.000000,0.000000
cobot_dynamixel_driver/joint_states|name|J1,J2,J3,J4,J5,J6|pos|1.046348,0.000050,-0.000025,-0.000013,0.000062,0.000021|vel|0.006677,-0.000000,0.000000,0.000000,0.000000,0.000000|eff|161.132812,370.605469,-918.457031,-128.906250,0.000000,-8.056641
cobot_dynamixel_driver/joint_states|name|J1,J2,J3,J4,J5,J6|pos|1.046461,0.000050,-0.000025,-0.000013,0.000062,0.000021|vel|0.005633,-0.000000,0.000000,0.000000,0.000000,0.000000|eff|209.472656,370.605469,-886.230469,-112.792969,0.000000,0.000000
cobot_dynamixel_driver/joint_states|name|J1,J2,J3,J4,J5,J6|pos|1.046549,0.000050,-0.000025,-0.000013,0.000062,0.000021|vel|0.004173,-0.000000,0.000000,0.000000,0.000000,0.000000|eff|241.699219,370.605469,-870.117188,-112.792969,0.000000,0.000000
cobot_dynamixel_driver/joint_states|name|J1,J2,J3,J4,J5,J6|pos|1.046611,0.000050,-0.000025,-0.000013,0.000062,0.000021|vel|0.003130,-0.000000,0.000000,0.000000,0.000000,0.000000|eff|225.585938,467.285156,-934.570312,-112.792969,0.000000,-20.141602
cobot_dynamixel_driver/joint_states|name|J1,J2,J3,J4,J5,J6|pos|1.046674,0.000050,-0.000025,-0.000013,0.000062,0.000021|vel|0.002712,-0.000000,0.000000,0.000000,0.000000,0.000000|eff|128.906250,499.511719,-902.343750,-128.906250,0.000000,0.000000
