surachairobotic/cobot/cobot_dynamixel_driver/log/2018-12-19T11:10:42.443088_driver_log.txt
cobot_dynamixel_driver/joint_states|name|J1,J2,J3,J4,J5,J6|pos|-0.111850,-1.267658,1.294485,0.002216,-1.194788,-0.000083|vel|0.000000,-0.000000,0.000000,0.000000,0.000000,0.000000|eff|0.000000,0.000000,0.000000,0.000000,0.000000,0.000000
cobot_dynamixel_driver/joint_states|name|J1,J2,J3,J4,J5,J6|pos|-0.111850,-1.267658,1.294485,0.002216,-1.194788,-0.000083|vel|0.000000,-0.000000,0.000000,0.000000,0.000000,0.000000|eff|0.000000,0.000000,-32.226562,0.000000,0.000000,0.000000
cobot_dynamixel_driver/joint_states|name|J1,J2,J3,J4,J5,J6|pos|-0.111850,-1.267658,1.294485,0.002216,-1.194788,-0.000083|vel|0.000000,-0.000000,0.000000,0.000000,0.000000,0.000000|eff|0.000000,0.000000,-32.226562,0.000000,0.000000,0.000000
cobot_dynamixel_driver/joint_states|name|J1,J2,J3,J4,J5,J6|pos|-0.111850,-1.267658,1.294485,0.002216,-1.194788,-0.000083|vel|0.000000,-0.000000,0.000000,0.000000,0.000000,0.000000|eff|0.000000,0.000000,-48.339844,0.000000,0.000000,0.000000
cobot_dynamixel_driver/joint_states|name|J1,J2,J3,J4,J5,J6|pos|-0.111850,-1.267658,1.294485,0.002216,-1.194788,-0.000083|vel|0.000000,-0.000000,0.000000,0.000000,0.000000,0.000000|eff|0.000000,0.000000,0.000000,0.000000,0.000000,0.000000
cobot_dynamixel_driver/joint_states|name|J1,J2,J3,J4,J5,J6|pos|-0.111850,-1.267658,1.294485,0.002216,-1.194788,-0.000083|vel|0.000000,-0.000000,0.000000,0.000000,0.000000,0.000000|eff|0.000000,0.000000,0.000000,0.000000,0.000000,0.000000
cobot_dynamixel_driver/joint_states|name|J1,J2,J3,J4,J5,J6|pos|-0.111850,-1.267658,1.294485,0.002216,-1.194788,-0.000083|vel|0.000000,-0.000000,0.000000,0.000000,0.000000,0.000000|eff|0.000000,0.000000,0.000000,0.000000,0.000000,0.000000
cobot_dynamixel_driver/joint_states|name|J1,J2,J3,J4,J5,J6|pos|-0.111850,-1.267658,1.294485,0.002216,-1.194788,-0.000083|vel|0.000000,-0.000000,0.000000,0.000000,0.000000,0.000000|eff|0.000000,0.000000,-48.339844,0.000000,0.000000,0.000000
cobot_dynamixel_driver/joint_states|name|J1,J2,J3,J4,J5,J6|pos|-0.111850,-1.267658,1.294485,0.002216,-1.194788,-0.000083|vel|0.000000,-0.000000,0.000000,0.000000,0.000000,0.000000|eff|0.000000,0.000000,0.000000,0.000000,0.000000,0.000000
cobot_dynamixel_driver/joint_states|name|J1,J2,J3,J4,J5,J6|pos|-0.111850,-1.267658,1.294485,0.002216,-1.194788,-0.000083|vel|0.000000,-0.000000,0.000000,0.000000,0.000000,0.000000|eff|0.000000,0.000000,-32.226562,0.000000,0.000000,0.000000
cobot_dynamixel_driver/joint_states|name|J1,J2,J3,J4,J5,J6|pos|-0.111850,-1.267658,1.294485,0.002216,-1.194788,-0.000083|vel|0.000000,-0.000000,0.000000,0.000000,0.000000,0.000000|eff|0.000000,0.000000,0.000000,0.000000,0.000000,0.000000
cobot_dynamixel_driver/joint_states|name|J1,J2,J3,J4,J5,J6|pos|-0.111850,-1.267658,1.294485,0.002216,-1.194788,-0.000083|vel|0.000000,-0.000000,0.000000,0.000000,0.000000,0.000000|eff|0.000000,0.000000,0.000000,0.000000,0.000000,0.000000
cobot_dynamixel_driver/joint_states|name|J1,J2,J3,J4,J5,J6|pos|-0.111850,-1.267658,1.294485,0.002216,-1.194788,-0.000083|vel|0.000000,-0.000000,0.000000,0.000000,0.000000,0.000000|eff|0.000000,0.000000,-48.339844,0.000000,0.000000,0.000000
cobot_dynamixel_driver/joint_states|name|J1,J2,J3,J4,J5,J6|pos|-0.111850,-1.267658,1.294485,0.002216,-1.194788,-0.000083|vel|0.000000,-0.000000,0.000000,0.000000,0.000000,0.000000|eff|0.000000,0.000000,0.000000,0.000000,0.000000,0.000000
cobot_dynamixel_driver/joint_states|name|J1,J2,J3,J4,J5,J6|pos|-0.111850,-1.267658,1.294485,0.002216,-1.194788,-0.000083|vel|0.000000,-0.000000,0.000000,0.000000,0.000000,0.000000|eff|0.000000,0.000000,0.000000,0.000000,0.000000,0.000000
cobot_dynamixel_driver/joint_states|name|J1,J2,J3,J4,J5,J6|pos|-0.111850,-1.267658,1.294485,0.002216,-1.194788,-0.000083|vel|0.000000,-0.000000,0.000000,0.000000,0.000000,0.000000|eff|0.000000,0.000000,0.000000,0.000000,0.000000,0.000000
cobot_dynamixel_driver/joint_states|name|J1,J2,J3,J4,J5,J6|pos|-0.111850,-1.267658,1.294485,0.002216,-1.194788,-0.000083|vel|0.000000,-0.000000,0.000000,0.000000,0.000000,0.000000|eff|0.000000,0.000000,0.000000,0.000000,0.000000,0.000000
cobot_dynamixel_driver/joint_states|name|J1,J2,J3,J4,J5,J6|pos|-0.111850,-1.267658,1.294485,0.002216,-1.194788,-0.000083|vel|0.000000,-0.000000,0.000000,0.000000,0.000000,0.000000|eff|0.000000,0.000000,-64.453125,0.000000,0.000000,0.000000
cobot_dynamixel_driver/joint_states|name|J1,J2,J3,J4,J5,J6|pos|-0.111850,-1.267658,1.294485,0.002216,-1.194788,-0.000083|vel|0.000000,-0.000000,0.000000,0.000000,0.000000,0.000000|eff|0.000000,0.000000,0.000000,0.000000,0.000000,0.000000
cobot_dynamixel_driver/joint_states|name|J1,J2,J3,J4,J5,J6|pos|-0.111850,-1.267658,1.294485,0.002216,-1.194788,-0.000083|vel|0.000000,-0.000000,0.000000,0.000000,0.000000,0.000000|eff|0.000000,0.000000,0.000000,0.000000,0.000000,0.000000
cobot_dynamixel_driver/joint_states|name|J1,J2,J3,J4,J5,J6|pos|-0.111850,-1.267658,1.294485,0.002216,-1.194788,-0.000083|vel|0.000000,-0.000000,0.000000,0.000000,0.000000,0.000000|eff|0.000000,0.000000,0.000000,0.000000,0.000000,0.000000
cobot_dynamixel_driver/joint_states|name|J1,J2,J3,J4,J5,J6|pos|-0.111850,-1.267658,1.294485,0.002216,-1.194788,-0.000083|vel|0.000000,-0.000000,0.000000,0.000000,0.000000,0.000000|eff|0.000000,0.000000,-64.453125,0.000000,0.000000,0.000000
cobot_dynamixel_driver/joint_states|name|J1,J2,J3,J4,J5,J6|pos|-0.111850,-1.267658,1.294485,0.002216,-1.194788,-0.000083|vel|0.000000,-0.000000,0.000000,0.000000,0.000000,0.000000|eff|0.000000,0.000000,0.000000,0.000000,0.000000,0.000000
cobot_dynamixel_driver/joint_states|name|J1,J2,J3,J4,J5,J6|pos|-0.111850,-1.267658,1.294485,0.002216,-1.194788,-0.000083|vel|0.000000,-0.000000,0.000000,0.000000,0.000000,0.000000|eff|0.000000,0.000000,0.000000,0.000000,0.000000,0.000000
cobot_dynamixel_driver/joint_states|name|J1,J2,J3,J4,J5,J6|pos|-0.111850,-1.267658,1.294485,0.002216,-1.194788,-0.000083|vel|0.000000,-0.000000,0.000000,0.000000,0.000000,0.000000|eff|0.000000,0.000000,0.000000,0.000000,0.000000,0.000000
cobot_dynamixel_driver/joint_states|name|J1,J2,J3,J4,J5,J6|pos|-0.111850,-1.267658,1.294485,0.002216,-1.194788,-0.000083|vel|0.000000,-0.000000,0.000000,0.000000,0.000000,0.000000|eff|0.000000,0.000000,-32.226562,0.000000,0.000000,0.000000
cobot_dynamixel_driver/joint_states|name|J1,J2,J3,J4,J5,J6|pos|-0.111850,-1.267658,1.294485,0.002216,-1.194788,-0.000083|vel|0.000000,-0.000000,0.000000,0.000000,0.000000,0.000000|eff|0.000000,0.000000,0.000000,0.000000,0.000000,0.000000
cobot_dynamixel_driver/joint_states|name|J1,J2,J3,J4,J5,J6|pos|-0.111850,-1.267658,1.294485,0.002216,-1.194788,-0.000083|vel|0.000000,-0.000000,0.000000,0.000000,0.000000,0.000000|eff|0.000000,0.000000,-32.226562,0.000000,0.000000,0.000000
cobot_dynamixel_driver/joint_states|name|J1,J2,J3,J4,J5,J6|pos|-0.111850,-1.267658,1.294485,0.002216,-1.194788,-0.000083|vel|0.000000,-0.000000,0.000000,0.000000,0.000000,0.000000|eff|0.000000,0.000000,0.000000,0.000000,0.000000,0.000000
cobot_dynamixel_driver/joint_states|name|J1,J2,J3,J4,J5,J6|pos|-0.111850,-1.267658,1.294485,0.002216,-1.194788,-0.000083|vel|0.000000,-0.000000,0.000000,0.000000,0.000000,0.000000|eff|0.000000,0.000000,0.000000,0.000000,0.000000,0.000000
cobot_dynamixel_driver/joint_states|name|J1,J2,J3,J4,J5,J6|pos|-0.111850,-1.267658,1.294485,0.002216,-1.194788,-0.000083|vel|0.000000,-0.000000,0.000000,0.000000,0.000000,0.000000|eff|0.000000,0.000000,0.000000,0.000000,0.000000,0.000000
cobot_dynamixel_driver/joint_states|name|J1,J2,J3,J4,J5,J6|pos|-0.111850,-1.267658,1.294485,0.002216,-1.194788,-0.000083|vel|0.000000,-0.000000,0.000000,0.000000,0.000000,0.000000|eff|0.000000,0.000000,0.000000,0.000000,0.000000,0.000000
cobot_dynamixel_driver/joint_states|name|J1,J2,J3,J4,J5,J6|pos|-0.111850,-1.267658,1.294485,0.002216,-1.194788,-0.000083|vel|0.000000,-0.000000,0.000000,0.000000,0.000000,0.000000|eff|0.000000,0.000000,-48.339844,0.000000,0.000000,0.000000
cobot_dynamixel_driver/joint_states|name|J1,J2,J3,J4,J5,J6|pos|-0.111850,-1.267658,1.294485,0.002216,-1.194788,-0.000083|vel|0.000000,-0.000000,0.000000,0.000000,0.000000,0.000000|eff|0.000000,0.000000,-64.453125,0.000000,0.000000,0.000000
cobot_dynamixel_driver/joint_states|name|J1,J2,J3,J4,J5,J6|pos|-0.111850,-1.267658,1.294485,0.002216,-1.194788,-0.000083|vel|0.000000,-0.000000,0.000000,0.000000,0.000000,0.000000|eff|0.000000,0.000000,-48.339844,0.000000,0.000000,0.000000
cobot_dynamixel_driver/joint_states|name|J1,J2,J3,J4,J5,J6|pos|-0.111850,-1.267658,1.294485,0.002216,-1.194788,-0.000083|vel|0.000000,-0.000000,0.000000,0.000000,0.000000,0.000000|eff|0.000000,0.000000,-32.226562,0.000000,0.000000,0.000000
cobot_dynamixel_driver/joint_states|name|J1,J2,J3,J4,J5,J6|pos|-0.111850,-1.267658,1.294485,0.002216,-1.194788,-0.000083|vel|0.000000,-0.000000,0.000000,0.000000,0.000000,0.000000|eff|0.000000,0.000000,-32.226562,0.000000,0.000000,0.000000
cobot_dynamixel_driver/joint_states|name|J1,J2,J3,J4,J5,J6|pos|-0.111850,-1.267658,1.294485,0.002216,-1.194788,-0.000083|vel|0.000000,-0.000000,0.000000,0.000000,0.000000,0.000000|eff|0.000000,0.000000,0.000000,0.000000,0.000000,0.000000
cobot_dynamixel_driver/joint_states|name|J1,J2,J3,J4,J5,J6|pos|-0.111850,-1.267658,1.294485,0.002216,-1.194788,-0.000083|vel|0.000000,-0.000000,0.000000,0.000000,0.000000,0.000000|eff|0.000000,0.000000,0.000000,0.000000,0.000000,0.000000
cobot_dynamixel_driver/joint_states|name|J1,J2,J3,J4,J5,J6|pos|-0.111850,-1.267658,1.294485,0.002216,-1.194788,-0.000083|vel|0.000000,-0.000000,0.000000,0.000000,0.000000,0.000000|eff|0.000000,0.000000,0.000000,0.000000,0.000000,0.000000
cobot_dynamixel_driver/joint_states|name|J1,J2,J3,J4,J5,J6|pos|-0.111850,-1.267658,1.294485,0.002216,-1.194788,-0.000083|vel|0.000000,-0.000000,0.000000,0.000000,0.000000,0.000000|eff|0.000000,0.000000,-32.226562,0.000000,0.000000,0.000000
cobot_dynamixel_driver/joint_states|name|J1,J2,J3,J4,J5,J6|pos|-0.111850,-1.267658,1.294485,0.002216,-1.194788,-0.000083|vel|0.000000,-0.000000,0.000000,0.000000,0.000000,0.000000|eff|0.000000,0.000000,0.000000,0.000000,0.000000,0.000000
cobot_dynamixel_driver/joint_states|name|J1,J2,J3,J4,J5,J6|pos|-0.111850,-1.267658,1.294485,0.002216,-1.194788,-0.000083|vel|0.000000,-0.000000,0.000000,0.000000,0.000000,0.000000|eff|0.000000,0.000000,0.000000,0.000000,0.000000,0.000000
cobot_dynamixel_driver/joint_states|name|J1,J2,J3,J4,J5,J6|pos|-0.111850,-1.267658,1.294485,0.002216,-1.194788,-0.000083|vel|0.000000,-0.000000,0.000000,0.000000,0.000000,0.000000|eff|0.000000,0.000000,0.000000,0.000000,0.000000,0.000000
cobot_dynamixel_driver/joint_states|name|J1,J2,J3,J4,J5,J6|pos|-0.111850,-1.267658,1.294485,0.002216,-1.194788,-0.000083|vel|0.000000,-0.000000,0.000000,0.000000,0.000000,0.000000|eff|0.000000,0.000000,-32.226562,0.000000,0.000000,0.000000
cobot_dynamixel_driver/joint_states|name|J1,J2,J3,J4,J5,J6|pos|-0.111850,-1.267658,1.294485,0.002216,-1.194788,-0.000083|vel|0.000000,-0.000000,0.000000,0.000000,0.000000,0.000000|eff|0.000000,0.000000,0.000000,0.000000,0.000000,0.000000
cobot_dynamixel_driver/joint_states|name|J1,J2,J3,J4,J5,J6|pos|-0.111850,-1.267658,1.294485,0.002216,-1.194788,-0.000083|vel|0.000000,-0.000000,0.000000,0.000000,0.000000,0.000000|eff|0.000000,0.000000,0.000000,0.000000,0.000000,0.000000
cobot_dynamixel_driver/joint_states|name|J1,J2,J3,J4,J5,J6|pos|-0.111850,-1.267658,1.294485,0.002216,-1.194788,-0.000083|vel|0.000000,-0.000000,0.000000,0.000000,0.000000,0.000000|eff|0.000000,0.000000,0.000000,0.000000,0.000000,0.000000
cobot_dynamixel_driver/joint_states|name|J1,J2,J3,J4,J5,J6|pos|-0.111850,-1.267658,1.294485,0.002216,-1.194788,-0.000083|vel|0.000000,-0.000000,0.000000,0.000000,0.000000,0.000000|eff|0.000000,0.000000,0.000000,0.000000,0.000000,0.000000
cobot_dynamixel_driver/joint_states|name|J1,J2,J3,J4,J5,J6|pos|-0.111850,-1.267658,1.294485,0.002216,-1.194788,-0.000083|vel|0.000000,-0.000000,0.000000,0.000000,0.000000,0.000000|eff|0.000000,0.000000,0.000000,0.000000,0.000000,0.000000
cobot_dynamixel_driver/joint_states|name|J1,J2,J3,J4,J5,J6|pos|-0.111850,-1.267658,1.294485,0.002216,-1.194788,-0.000083|vel|0.000000,-0.000000,0.000000,0.000000,0.000000,0.000000|eff|0.000000,0.000000,-32.226562,0.000000,0.000000,0.000000
cobot_dynamixel_driver/joint_states|name|J1,J2,J3,J4,J5,J6|pos|-0.111850,-1.267658,1.294485,0.002216,-1.194788,-0.000083|vel|0.000000,-0.000000,0.000000,0.000000,0.000000,0.000000|eff|0.000000,0.000000,-64.453125,0.000000,0.000000,0.000000
cobot_dynamixel_driver/joint_states|name|J1,J2,J3,J4,J5,J6|pos|-0.111850,-1.267658,1.294485,0.002216,-1.194788,-0.000083|vel|0.000000,-0.000000,0.000000,0.000000,0.000000,0.000000|eff|0.000000,0.000000,0.000000,0.000000,0.000000,0.000000
cobot_dynamixel_driver/joint_states|name|J1,J2,J3,J4,J5,J6|pos|-0.111850,-1.267658,1.294485,0.002216,-1.194788,-0.000083|vel|0.000000,-0.000000,0.000000,0.000000,0.000000,0.000000|eff|0.000000,0.000000,-48.339844,0.000000,0.000000,0.000000
cobot_dynamixel_driver/joint_states|name|J1,J2,J3,J4,J5,J6|pos|-0.111850,-1.267658,1.294485,0.002216,-1.194788,-0.000083|vel|0.000000,-0.000000,0.000000,0.000000,0.000000,0.000000|eff|0.000000,0.000000,-64.453125,0.000000,0.000000,0.000000
cobot_dynamixel_driver/joint_states|name|J1,J2,J3,J4,J5,J6|pos|-0.111850,-1.267658,1.294485,0.002216,-1.194788,-0.000083|vel|0.000000,-0.000000,0.000000,0.000000,0.000000,0.000000|eff|0.000000,0.000000,0.000000,0.000000,0.000000,0.000000
cobot_dynamixel_driver/joint_states|name|J1,J2,J3,J4,J5,J6|pos|-0.111850,-1.267658,1.294485,0.002216,-1.194788,-0.000083|vel|0.000000,-0.000000,0.000000,0.000000,0.000000,0.000000|eff|0.000000,0.000000,0.000000,0.000000,0.000000,0.000000
cobot_dynamixel_driver/joint_states|name|J1,J2,J3,J4,J5,J6|pos|-0.111850,-1.267658,1.294485,0.002216,-1.194788,-0.000083|vel|0.000000,-0.000000,0.000000,0.000000,0.000000,0.000000|eff|0.000000,0.000000,0.000000,0.000000,0.000000,0.000000
cobot_dynamixel_driver/joint_states|name|J1,J2,J3,J4,J5,J6|pos|-0.111850,-1.267658,1.294485,0.002216,-1.194788,-0.000083|vel|0.000000,-0.000000,0.000000,0.000000,0.000000,0.000000|eff|0.000000,0.000000,0.000000,0.000000,0.000000,0.000000
cobot_dynamixel_driver/joint_states|name|J1,J2,J3,J4,J5,J6|pos|-0.111850,-1.267658,1.294485,0.002216,-1.194788,-0.000083|vel|0.000000,-0.000000,0.000000,0.000000,0.000000,0.000000|eff|0.000000,0.000000,0.000000,0.000000,0.000000,0.000000
cobot_dynamixel_driver/joint_states|name|J1,J2,J3,J4,J5,J6|pos|-0.111850,-1.267658,1.294485,0.002216,-1.194788,-0.000083|vel|0.000000,-0.000000,0.000000,0.000000,0.000000,0.000000|eff|0.000000,0.000000,0.000000,0.000000,0.000000,0.000000
cobot_dynamixel_driver/joint_states|name|J1,J2,J3,J4,J5,J6|pos|-0.111850,-1.267658,1.294485,0.002216,-1.194788,-0.000083|vel|0.000000,-0.000000,0.000000,0.000000,0.000000,0.000000|eff|0.000000,0.000000,0.000000,0.000000,0.000000,0.000000
cobot_dynamixel_driver/joint_states|name|J1,J2,J3,J4,J5,J6|pos|-0.111850,-1.267658,1.294485,0.002216,-1.194788,-0.000083|vel|0.000000,-0.000000,0.000000,0.000000,0.000000,0.000000|eff|0.000000,0.000000,-48.339844,0.000000,0.000000,0.000000
cobot_dynamixel_driver/joint_states|name|J1,J2,J3,J4,J5,J6|pos|-0.111850,-1.267658,1.294485,0.002216,-1.194788,-0.000083|vel|0.000000,-0.000000,0.000000,0.000000,0.000000,0.000000|eff|0.000000,0.000000,-32.226562,0.000000,0.000000,0.000000
cobot_dynamixel_driver/joint_states|name|J1,J2,J3,J4,J5,J6|pos|-0.111850,-1.267658,1.294485,0.002216,-1.194788,-0.000083|vel|0.000000,-0.000000,0.000000,0.000000,0.000000,0.000000|eff|0.000000,0.000000,0.000000,0.000000,0.000000,0.000000
cobot_dynamixel_driver/joint_states|name|J1,J2,J3,J4,J5,J6|pos|-0.111850,-1.267658,1.294485,0.002216,-1.194788,-0.000083|vel|0.000000,-0.000000,0.000000,0.000000,0.000000,0.000000|eff|0.000000,0.000000,-48.339844,0.000000,0.000000,0.000000
cobot_dynamixel_driver/joint_states|name|J1,J2,J3,J4,J5,J6|pos|-0.111850,-1.267658,1.294485,0.002216,-1.194788,-0.000083|vel|0.000000,-0.000000,0.000000,0.000000,0.000000,0.000000|eff|0.000000,0.000000,0.000000,0.000000,0.000000,0.000000
cobot_dynamixel_driver/joint_states|name|J1,J2,J3,J4,J5,J6|pos|-0.111850,-1.267658,1.294485,0.002216,-1.194788,-0.000083|vel|0.000000,-0.000000,0.000000,0.000000,0.000000,0.000000|eff|0.000000,0.000000,0.000000,0.000000,0.000000,0.000000
cobot_dynamixel_driver/joint_states|name|J1,J2,J3,J4,J5,J6|pos|-0.111850,-1.267658,1.294485,0.002216,-1.194788,-0.000083|vel|0.000000,-0.000000,0.000000,0.000000,0.000000,0.000000|eff|0.000000,0.000000,-48.339844,0.000000,0.000000,0.000000
cobot_dynamixel_driver/joint_states|name|J1,J2,J3,J4,J5,J6|pos|-0.111850,-1.267658,1.294485,0.002216,-1.194788,-0.000083|vel|0.000000,-0.000000,0.000000,0.000000,0.000000,0.000000|eff|0.000000,0.000000,0.000000,0.000000,0.000000,0.000000
cobot_dynamixel_driver/joint_states|name|J1,J2,J3,J4,J5,J6|pos|-0.111850,-1.267658,1.294485,0.002216,-1.194788,-0.000083|vel|0.000000,-0.000000,0.000000,0.000000,0.000000,0.000000|eff|0.000000,0.000000,-48.339844,0.000000,0.000000,0.000000
cobot_dynamixel_driver/joint_states|name|J1,J2,J3,J4,J5,J6|pos|-0.111850,-1.267658,1.294485,0.002216,-1.194788,-0.000083|vel|0.000000,-0.000000,0.000000,0.000000,0.000000,0.000000|eff|0.000000,0.000000,-48.339844,0.000000,0.000000,0.000000
cobot_dynamixel_driver/joint_states|name|J1,J2,J3,J4,J5,J6|pos|-0.111850,-1.267658,1.294485,0.002216,-1.194788,-0.000083|vel|0.000000,-0.000000,0.000000,0.000000,0.000000,0.000000|eff|0.000000,0.000000,0.000000,0.000000,0.000000,0.000000
cobot_dynamixel_driver/joint_states|name|J1,J2,J3,J4,J5,J6|pos|-0.111850,-1.267658,1.294485,0.002216,-1.194788,-0.000083|vel|0.000000,-0.000000,0.000000,0.000000,0.000000,0.000000|eff|0.000000,0.000000,-48.339844,0.000000,0.000000,0.000000
cobot_dynamixel_driver/joint_states|name|J1,J2,J3,J4,J5,J6|pos|-0.111850,-1.267658,1.294485,0.002216,-1.194788,-0.000083|vel|0.000000,-0.000000,0.000000,0.000000,0.000000,0.000000|eff|0.000000,0.000000,-32.226562,0.000000,0.000000,0.000000
cobot_dynamixel_driver/goal|-:J1,J2,J3,J4,J5,J6:0.000000,0.000000,0.000000,0.000000,0.000000,0.000000:0.250000,0.250000,0.250000,0.250000,0.250000,0.250000:pos_vel_
cobot_dynamixel_driver/joint_states|name|J1,J2,J3,J4,J5,J6|pos|-0.111850,-1.267658,1.296275,0.002216,-1.194788,-0.000083|vel|0.000000,-0.000000,0.000000,0.000000,0.000000,0.000000|eff|0.000000,0.000000,0.000000,0.000000,0.000000,0.000000
cobot_dynamixel_driver/goal|-:J1,J2,J3,J4,J5,J6:0.000000,0.000000,0.000000,0.000000,0.000000,0.000000:0.250000,0.250000,0.250000,0.250000,0.250000,0.250000:pos_vel_
cobot_dynamixel_driver/goal|-:J1,J2,J3,J4,J5,J6:0.000000,0.000000,0.000000,0.000000,0.000000,0.000000:0.250000,0.250000,0.250000,0.250000,0.250000,0.250000:pos_vel_
cobot_dynamixel_driver/goal|-:J1,J2,J3,J4,J5,J6:0.000000,0.000000,0.000000,0.000000,0.000000,0.000000:0.250000,0.250000,0.250000,0.250000,0.250000,0.250000:pos_vel_
cobot_dynamixel_driver/goal|-:J1,J2,J3,J4,J5,J6:0.000000,0.000000,0.000000,0.000000,0.000000,0.000000:0.250000,0.250000,0.250000,0.250000,0.250000,0.250000:pos_vel_
cobot_dynamixel_driver/goal|-:J1,J2,J3,J4,J5,J6:0.000000,0.000000,0.000000,0.000000,0.000000,0.000000:0.250000,0.250000,0.250000,0.250000,0.250000,0.250000:pos_vel_
cobot_dynamixel_driver/goal|-:J1,J2,J3,J4,J5,J6:0.000000,0.000000,0.000000,0.000000,0.000000,0.000000:0.250000,0.250000,0.250000,0.250000,0.250000,0.250000:pos_vel_
cobot_dynamixel_driver/goal|-:J1,J2,J3,J4,J5,J6:0.000000,0.000000,0.000000,0.000000,0.000000,0.000000:0.250000,0.250000,0.250000,0.250000,0.250000,0.250000:pos_vel_
cobot_dynamixel_driver/goal|-:J1,J2,J3,J4,J5,J6:0.000000,0.000000,0.000000,0.000000,0.000000,0.000000:0.250000,0.250000,0.250000,0.250000,0.250000,0.250000:pos_vel_
cobot_dynamixel_driver/goal|-:J1,J2,J3,J4,J5,J6:0.000000,0.000000,0.000000,0.000000,0.000000,0.000000:0.250000,0.250000,0.250000,0.250000,0.250000,0.250000:pos_vel_
cobot_dynamixel_driver/goal|-:J1,J2,J3,J4,J5,J6:0.000000,0.000000,0.000000,0.000000,0.000000,0.000000:0.250000,0.250000,0.250000,0.250000,0.250000,0.250000:pos_vel_
cobot_dynamixel_driver/goal|-:J1,J2,J3,J4,J5,J6:0.000000,0.000000,0.000000,0.000000,0.000000,0.000000:0.250000,0.250000,0.250000,0.250000,0.250000,0.250000:pos_vel_
cobot_dynamixel_driver/goal|-:J1,J2,J3,J4,J5,J6:0.000000,0.000000,0.000000,0.000000,0.000000,0.000000:0.250000,0.250000,0.250000,0.250000,0.250000,0.250000:pos_vel_
cobot_dynamixel_driver/goal|-:J1,J2,J3,J4,J5,J6:0.000000,0.000000,0.000000,0.000000,0.000000,0.000000:0.250000,0.250000,0.250000,0.250000,0.250000,0.250000:pos_vel_
cobot_dynamixel_driver/goal|-:J1,J2,J3,J4,J5,J6:0.000000,0.000000,0.000000,0.000000,0.000000,0.000000:0.250000,0.250000,0.250000,0.250000,0.250000,0.250000:pos_vel_
cobot_dynamixel_driver/goal|-:J1,J2,J3,J4,J5,J6:0.000000,0.000000,0.000000,0.000000,0.000000,0.000000:0.250000,0.250000,0.250000,0.250000,0.250000,0.250000:pos_vel_
cobot_dynamixel_driver/goal|-:J1,J2,J3,J4,J5,J6:0.000000,0.000000,0.000000,0.000000,0.000000,0.000000:0.250000,0.250000,0.250000,0.250000,0.250000,0.250000:pos_vel_
cobot_dynamixel_driver/goal|-:J1,J2,J3,J4,J5,J6:0.000000,0.000000,0.000000,0.000000,0.000000,0.000000:0.250000,0.250000,0.250000,0.250000,0.250000,0.250000:pos_vel_
cobot_dynamixel_driver/goal|-:J1,J2,J3,J4,J5,J6:0.000000,0.000000,0.000000,0.000000,0.000000,0.000000:0.250000,0.250000,0.250000,0.250000,0.250000,0.250000:pos_vel_
cobot_dynamixel_driver/goal|-:J1,J2,J3,J4,J5,J6:0.000000,0.000000,0.000000,0.000000,0.000000,0.000000:0.250000,0.250000,0.250000,0.250000,0.250000,0.250000:pos_vel_
cobot_dynamixel_driver/goal|-:J1,J2,J3,J4,J5,J6:0.000000,0.000000,0.000000,0.000000,0.000000,0.000000:0.250000,0.250000,0.250000,0.250000,0.250000,0.250000:pos_vel_
cobot_dynamixel_driver/goal|-:J1,J2,J3,J4,J5,J6:0.000000,0.000000,0.000000,0.000000,0.000000,0.000000:0.250000,0.250000,0.250000,0.250000,0.250000,0.250000:pos_vel_
cobot_dynamixel_driver/goal|-:J1,J2,J3,J4,J5,J6:0.000000,0.000000,0.000000,0.000000,0.000000,0.000000:0.250000,0.250000,0.250000,0.250000,0.250000,0.250000:pos_vel_
cobot_dynamixel_driver/goal|-:J1,J2,J3,J4,J5,J6:0.000000,0.000000,0.000000,0.000000,0.000000,0.000000:0.250000,0.250000,0.250000,0.250000,0.250000,0.250000:pos_vel_
cobot_dynamixel_driver/goal|-:J1,J2,J3,J4,J5,J6:0.000000,0.000000,0.000000,0.000000,0.000000,0.000000:0.250000,0.250000,0.250000,0.250000,0.250000,0.250000:pos_vel_
cobot_dynamixel_driver/goal|-:J1,J2,J3,J4,J5,J6:0.000000,0.000000,0.000000,0.000000,0.000000,0.000000:0.250000,0.250000,0.250000,0.250000,0.250000,0.250000:pos_vel_
cobot_dynamixel_driver/goal|-:J1,J2,J3,J4,J5,J6:0.000000,0.000000,0.000000,0.000000,0.000000,0.000000:0.250000,0.250000,0.250000,0.250000,0.250000,0.250000:pos_vel_
cobot_dynamixel_driver/goal|-:J1,J2,J3,J4,J5,J6:0.000000,0.000000,0.000000,0.000000,0.000000,0.000000:0.250000,0.250000,0.250000,0.250000,0.250000,0.250000:pos_vel_
cobot_dynamixel_driver/goal|-:J1,J2,J3,J4,J5,J6:0.000000,0.000000,0.000000,0.000000,0.000000,0.000000:0.250000,0.250000,0.250000,0.250000,0.250000,0.250000:pos_vel_
cobot_dynamixel_driver/joint_states|name|J1,J2,J3,J4,J5,J6|pos|-0.111800,-1.267596,1.296187,0.002128,-1.194560,-0.000083|vel|0.011058,0.012102,-0.015023,-0.015023,0.032057,0.000000|eff|322.265625,-435.058594,-273.925781,-96.679688,68.481445,0.000000
cobot_dynamixel_driver/joint_states|name|J1,J2,J3,J4,J5,J6|pos|-0.111387,-1.267157,1.295711,0.002015,-1.193733,-0.000083|vel|0.033383,0.031506,-0.041312,-0.003964,0.058599,0.000000|eff|531.738281,-483.398438,-370.605469,-177.246094,60.424805,0.000000
cobot_dynamixel_driver/joint_states|name|J1,J2,J3,J4,J5,J6|pos|-0.110636,-1.266306,1.294848,0.001915,-1.192533,-0.000083|vel|0.057795,0.060508,-0.059464,-0.007720,0.080315,0.000000|eff|596.191406,-547.851562,-467.285156,-161.132812,48.339844,0.000000
cobot_dynamixel_driver/joint_states|name|J1,J2,J3,J4,J5,J6|pos|-0.109247,-1.265104,1.293696,0.001740,-1.190775,-0.000083|vel|0.088049,0.071566,-0.055500,-0.008346,0.106512,0.000000|eff|692.871094,-773.437500,-821.777344,-177.246094,52.368164,0.000000
cobot_dynamixel_driver/joint_states|name|J1,J2,J3,J4,J5,J6|pos|-0.107369,-1.263577,1.292344,0.001577,-1.188499,-0.000083|vel|0.108705,0.090344,-0.076991,-0.008346,0.129607,0.000000|eff|676.757812,-1095.703125,-1127.929688,-145.019531,52.368164,0.000000
cobot_dynamixel_driver/joint_states|name|J1,J2,J3,J4,J5,J6|pos|-0.105078,-1.261674,1.290416,0.001415,-1.185893,-0.000083|vel|0.133951,0.102654,-0.118303,-0.008555,0.143740,0.000000|eff|725.097656,-1289.062500,-1176.269531,-193.359375,52.368164,0.000000
cobot_dynamixel_driver/joint_states|name|J1,J2,J3,J4,J5,J6|pos|-0.102349,-1.259283,1.287725,0.001239,-1.183018,-0.000083|vel|0.151060,0.131447,-0.142297,-0.009389,0.133743,0.000000|eff|596.191406,-1240.722656,-1144.042969,-225.585938,48.339844,0.000000
cobot_dynamixel_driver/joint_states|name|J1,J2,J3,J4,J5,J6|pos|-0.099295,-1.256529,1.284470,0.001064,-1.179874,-0.000083|vel|0.153981,0.148348,-0.181105,-0.008346,0.139948,0.000000|eff|563.964844,-1417.968750,-1272.949219,-128.906250,44.311523,0.000000
cobot_dynamixel_driver/joint_states|name|J1,J2,J3,J4,J5,J6|pos|-0.095990,-1.253412,1.280977,0.000926,-1.176523,-0.000083|vel|0.179227,0.178184,-0.196545,-0.006677,0.161664,0.000000|eff|563.964844,-1498.535156,-966.796875,-128.906250,36.254883,12.084961
cobot_dynamixel_driver/joint_states|name|J1,J2,J3,J4,J5,J6|pos|-0.092485,-1.249970,1.277272,0.000839,-1.172965,-0.000083|vel|0.189243,0.186113,-0.206977,-0.004590,0.193032,0.000000|eff|821.777344,-1595.214844,-1063.476562,-145.019531,36.254883,0.000000
cobot_dynamixel_driver/joint_states|name|J1,J2,J3,J4,J5,J6|pos|-0.088829,-1.246252,1.273429,0.000764,-1.169221,-0.000083|vel|0.193833,0.186321,-0.200509,-0.003547,0.192342,0.000000|eff|596.191406,-1321.289062,-966.796875,-193.359375,20.141602,0.000000
cobot_dynamixel_driver/joint_states|name|J1,J2,J3,J4,J5,J6|pos|-0.085011,-1.242296,1.269561,0.000676,-1.165352,-0.000083|vel|0.201553,0.204682,-0.204265,-0.004590,0.198892,0.000000|eff|580.078125,-1289.062500,-966.796875,-145.019531,36.254883,20.141602
cobot_dynamixel_driver/joint_states|name|J1,J2,J3,J4,J5,J6|pos|-0.081005,-1.238240,1.265643,0.000576,-1.161381,-0.000083|vel|0.235979,0.200301,-0.208855,-0.005216,0.208888,0.000000|eff|821.777344,-1272.949219,-1192.382812,-145.019531,44.311523,0.000000
cobot_dynamixel_driver/joint_states|name|J1,J2,J3,J4,J5,J6|pos|-0.076924,-1.234022,1.261499,0.000476,-1.157264,-0.000083|vel|0.214280,0.222626,-0.220957,-0.004799,0.223021,0.000000|eff|757.324219,-1240.722656,-1079.589844,-145.019531,24.169922,0.000000
cobot_dynamixel_driver/joint_states|name|J1,J2,J3,J4,J5,J6|pos|-0.072768,-1.229690,1.257280,0.000413,-1.153024,-0.000083|vel|0.207186,0.185487,-0.214489,-0.002921,0.240256,0.000000|eff|757.324219,-1272.949219,-1031.250000,-161.132812,24.169922,28.198242
cobot_dynamixel_driver/joint_states|name|J1,J2,J3,J4,J5,J6|pos|-0.068525,-1.225384,1.253037,0.000351,-1.148763,-0.000083|vel|0.223461,0.232641,-0.223669,-0.003130,0.238187,0.000000|eff|821.777344,-1385.742188,-950.683594,-161.132812,32.226562,28.198242
cobot_dynamixel_driver/joint_states|name|J1,J2,J3,J4,J5,J6|pos|-0.064244,-1.221015,1.248706,0.000288,-1.144419,-0.000083|vel|0.232015,0.229511,-0.205934,-0.003130,0.241634,0.000000|eff|676.757812,-1417.968750,-966.796875,-161.132812,32.226562,0.000000
cobot_dynamixel_driver/joint_states|name|J1,J2,J3,J4,J5,J6|pos|-0.059925,-1.216496,1.244312,0.000225,-1.139971,-0.000083|vel|0.241196,0.234936,-0.227216,-0.003130,0.229225,0.000000|eff|499.511719,-1208.496094,-982.910156,-96.679688,40.283203,32.226562
cobot_dynamixel_driver/joint_states|name|J1,J2,J3,J4,J5,J6|pos|-0.055481,-1.211965,1.239868,0.000200,-1.135441,-0.000083|vel|0.235562,0.235771,-0.219496,-0.002295,0.228191,0.000000|eff|547.851562,-1289.062500,-1079.589844,-112.792969,16.113281,0.000000
cobot_dynamixel_driver/joint_states|name|J1,J2,J3,J4,J5,J6|pos|-0.050999,-1.207370,1.235436,0.000200,-1.130891,-0.000083|vel|0.228885,0.241404,-0.232224,-0.001043,0.237498,0.000000|eff|708.984375,-1434.082031,-1176.269531,-209.472656,32.226562,20.141602
cobot_dynamixel_driver/joint_states|name|J1,J2,J3,J4,J5,J6|pos|-0.046530,-1.202751,1.230880,0.000188,-1.126319,-0.000083|vel|0.239318,0.238066,-0.240570,-0.001043,0.249218,0.000000|eff|483.398438,-1192.382812,-999.023438,-177.246094,32.226562,28.198242
cobot_dynamixel_driver/joint_states|name|J1,J2,J3,J4,J5,J6|pos|-0.041360,-1.197431,1.225609,0.000188,-1.121024,-0.000083|vel|0.230555,0.238900,-0.222417,-0.001043,0.230604,0.000000|eff|918.457031,-1160.156250,-950.683594,-112.792969,40.283203,32.226562
cobot_dynamixel_driver/joint_states|name|J1,J2,J3,J4,J5,J6|pos|-0.037455,-1.193475,1.221691,0.000175,-1.117031,-0.000083|vel|0.241196,0.273118,-0.203639,-0.001043,0.213714,0.000000|eff|789.550781,-1176.269531,-950.683594,-145.019531,28.198242,20.141602
cobot_dynamixel_driver/joint_states|name|J1,J2,J3,J4,J5,J6|pos|-0.032823,-1.188831,1.217047,0.000175,-1.112129,-0.000083|vel|0.240987,0.247455,-0.251419,-0.000209,0.241979,0.000000|eff|257.812500,-1353.515625,-982.910156,-193.359375,28.198242,12.084961
cobot_dynamixel_driver/joint_states|name|J1,J2,J3,J4,J5,J6|pos|-0.028454,-1.184199,1.212365,0.000175,-1.107599,-0.000083|vel|0.216575,0.245160,-0.238483,-0.000209,0.266798,0.000000|eff|257.812500,-1224.609375,-918.457031,-209.472656,24.169922,32.226562
cobot_dynamixel_driver/joint_states|name|J1,J2,J3,J4,J5,J6|pos|-0.024623,-1.179492,1.207708,0.000150,-1.102655,-0.000083|vel|0.175889,0.236188,-0.251211,-0.000209,0.233362,0.000000|eff|386.718750,-1256.835938,-950.683594,-193.359375,44.311523,32.226562
cobot_dynamixel_driver/joint_states|name|J1,J2,J3,J4,J5,J6|pos|-0.021281,-1.174810,1.203089,0.000138,-1.098104,-0.000083|vel|0.160241,0.242239,-0.235771,-0.000417,0.215437,0.000000|eff|128.906250,-1208.496094,-1047.363281,-161.132812,28.198242,12.084961
cobot_dynamixel_driver/joint_states|name|J1,J2,J3,J4,J5,J6|pos|-0.018427,-1.170116,1.198445,0.000113,-1.093057,-0.000083|vel|0.137289,0.226590,-0.249124,-0.001043,0.240256,0.000000|eff|306.152344,-1321.289062,-982.910156,-112.792969,28.198242,28.198242
cobot_dynamixel_driver/joint_states|name|J1,J2,J3,J4,J5,J6|pos|-0.015986,-1.165397,1.193801,0.000088,-1.088506,-0.000083|vel|0.119137,0.243699,-0.242656,-0.001043,0.256457,0.000000|eff|225.585938,-1127.929688,-982.910156,-177.246094,28.198242,20.141602
cobot_dynamixel_driver/joint_states|name|J1,J2,J3,J4,J5,J6|pos|-0.013845,-1.160690,1.189119,0.000063,-1.083438,-0.000083|vel|0.102028,0.225964,-0.239944,-0.001252,0.288514,0.000000|eff|225.585938,-1289.062500,-1015.136719,-161.132812,40.283203,40.283203
cobot_dynamixel_driver/joint_states|name|J1,J2,J3,J4,J5,J6|pos|-0.012043,-1.155983,1.184399,0.000038,-1.078867,-0.000083|vel|0.083667,0.242239,-0.242656,-0.001043,0.217850,0.000000|eff|290.039062,-1144.042969,-1289.062500,-193.359375,28.198242,0.000000
cobot_dynamixel_driver/joint_states|name|J1,J2,J3,J4,J5,J6|pos|-0.010490,-1.151264,1.179655,0.000025,-1.073778,-0.000083|vel|0.074904,0.236397,-0.223878,-0.000835,0.264385,0.000000|eff|209.472656,-1289.062500,-966.796875,-112.792969,28.198242,0.000000
cobot_dynamixel_driver/joint_states|name|J1,J2,J3,J4,J5,J6|pos|-0.009101,-1.146494,1.174948,0.000013,-1.069145,-0.000083|vel|0.066767,0.238692,-0.251628,-0.000835,0.218195,0.000000|eff|193.359375,-1111.816406,-1047.363281,-128.906250,24.169922,40.283203
cobot_dynamixel_driver/joint_states|name|J1,J2,J3,J4,J5,J6|pos|-0.007849,-1.141700,1.170254,0.000013,-1.064035,-0.000083|vel|0.058212,0.253923,-0.242030,-0.000835,0.243358,0.000000|eff|145.019531,-1353.515625,-1015.136719,-112.792969,20.141602,40.283203
cobot_dynamixel_driver/joint_states|name|J1,J2,J3,J4,J5,J6|pos|-0.006822,-1.136918,1.165459,0.000000,-1.059195,-0.000083|vel|0.050284,0.244117,-0.255175,-0.000835,0.257835,0.000000|eff|209.472656,-1160.156250,-982.910156,-161.132812,28.198242,0.000000
cobot_dynamixel_driver/joint_states|name|J1,J2,J3,J4,J5,J6|pos|-0.005934,-1.132198,1.160640,0.000000,-1.054355,-0.000083|vel|0.049449,0.243908,-0.225756,-0.000835,0.245771,0.000000|eff|209.472656,-1530.761719,-1015.136719,-177.246094,28.198242,8.056641
cobot_dynamixel_driver/joint_states|name|J1,J2,J3,J4,J5,J6|pos|-0.005145,-1.127492,1.155833,0.000000,-1.049473,-0.000083|vel|0.037139,0.242030,-0.254549,-0.000835,0.277483,0.000000|eff|177.246094,-1208.496094,-902.343750,-112.792969,36.254883,0.000000
cobot_dynamixel_driver/joint_states|name|J1,J2,J3,J4,J5,J6|pos|-0.004469,-1.122747,1.151051,0.000000,-1.044591,-0.000083|vel|0.031506,0.239944,-0.236605,0.000000,0.257835,0.000000|eff|209.472656,-1337.402344,-1047.363281,-112.792969,32.226562,24.169922
cobot_dynamixel_driver/joint_states|name|J1,J2,J3,J4,J5,J6|pos|-0.003893,-1.117765,1.146306,0.000000,-1.039709,-0.000083|vel|0.028376,0.234310,-0.244117,0.000000,0.254044,0.000000|eff|177.246094,-1272.949219,-982.910156,-112.792969,32.226562,36.254883
cobot_dynamixel_driver/joint_states|name|J1,J2,J3,J4,J5,J6|pos|-0.003380,-1.113020,1.141625,0.000000,-1.034848,-0.000083|vel|0.025246,0.237023,-0.250376,0.000000,0.242324,0.000000|eff|209.472656,-1079.589844,-1047.363281,-161.132812,24.169922,16.113281
cobot_dynamixel_driver/joint_states|name|J1,J2,J3,J4,J5,J6|pos|-0.002879,-1.108188,1.136617,0.000000,-1.029967,-0.000083|vel|0.023160,0.250793,-0.249541,0.000000,0.223021,0.000000|eff|161.132812,-1417.968750,-999.023438,-112.792969,24.169922,40.283203
cobot_dynamixel_driver/joint_states|name|J1,J2,J3,J4,J5,J6|pos|-0.002504,-1.103406,1.132123,0.000000,-1.025085,-0.000083|vel|0.017526,0.223461,-0.219496,0.000000,0.224399,0.000000|eff|241.699219,-1160.156250,-982.910156,-145.019531,28.198242,0.000000
cobot_dynamixel_driver/joint_states|name|J1,J2,J3,J4,J5,J6|pos|-0.002178,-1.098700,1.127416,0.000000,-1.020224,-0.000083|vel|0.015857,0.245994,-0.266024,-0.001043,0.243013,0.000000|eff|161.132812,-1482.421875,-1063.476562,-128.906250,28.198242,0.000000
cobot_dynamixel_driver/joint_states|name|J1,J2,J3,J4,J5,J6|pos|-0.001865,-1.093667,1.122171,0.000000,-1.015115,-0.000083|vel|0.012936,0.246620,-0.248915,0.001043,0.244392,0.000000|eff|145.019531,-1385.742188,-999.023438,-161.132812,32.226562,0.000000
cobot_dynamixel_driver/joint_states|name|J1,J2,J3,J4,J5,J6|pos|-0.001665,-1.089336,1.117878,0.000000,-1.010460,-0.000083|vel|0.010224,0.248290,-0.258096,-0.001043,0.248873,0.000000|eff|225.585938,-1208.496094,-1031.250000,-161.132812,32.226562,32.226562
cobot_dynamixel_driver/joint_states|name|J1,J2,J3,J4,J5,J6|pos|-0.001490,-1.084291,1.113183,0.000000,-1.005579,-0.000083|vel|0.008555,0.242447,-0.256844,-0.001043,0.243703,0.000000|eff|177.246094,-1305.175781,-999.023438,-112.792969,24.169922,16.113281
cobot_dynamixel_driver/joint_states|name|J1,J2,J3,J4,J5,J6|pos|-0.001314,-1.079472,1.108351,0.000000,-1.000759,-0.000083|vel|0.008346,0.232641,-0.250376,-0.001043,0.262316,0.000000|eff|273.925781,-1063.476562,-1079.589844,-112.792969,32.226562,36.254883
cobot_dynamixel_driver/joint_states|name|J1,J2,J3,J4,J5,J6|pos|-0.001139,-1.074677,1.103519,0.000000,-0.995856,-0.000083|vel|0.009389,0.249333,-0.229720,-0.001043,0.252665,0.000000|eff|209.472656,-1385.742188,-950.683594,-112.792969,32.226562,40.283203
cobot_dynamixel_driver/joint_states|name|J1,J2,J3,J4,J5,J6|pos|-0.000976,-1.069883,1.098725,0.000000,-0.990975,-0.000083|vel|0.007720,0.226382,-0.251211,-0.001043,0.228191,0.000000|eff|273.925781,-1047.363281,-982.910156,-112.792969,32.226562,40.283203
cobot_dynamixel_driver/joint_states|name|J1,J2,J3,J4,J5,J6|pos|-0.000826,-1.065126,1.093943,0.000000,-0.986072,-0.000083|vel|0.006051,0.242239,-0.256218,-0.001043,0.225089,0.000000|eff|145.019531,-1192.382812,-999.023438,-112.792969,32.226562,24.169922
cobot_dynamixel_driver/joint_states|name|J1,J2,J3,J4,J5,J6|pos|-0.000739,-1.060369,1.089098,0.000000,-0.981211,-0.000083|vel|0.005008,0.229303,-0.210107,0.000000,0.260248,0.000000|eff|128.906250,-1160.156250,-902.343750,-112.792969,28.198242,28.198242
cobot_dynamixel_driver/joint_states|name|J1,J2,J3,J4,J5,J6|pos|-0.000651,-1.055562,1.084291,0.000000,-0.976329,-0.000083|vel|0.003547,0.256009,-0.249750,0.000000,0.215437,0.000000|eff|96.679688,-982.910156,-1111.816406,-112.792969,24.169922,32.226562
cobot_dynamixel_driver/joint_states|name|J1,J2,J3,J4,J5,J6|pos|-0.000588,-1.050830,1.079534,0.000000,-0.971468,-0.000083|vel|0.003964,0.230137,-0.206560,0.000000,0.263006,0.000000|eff|177.246094,-1289.062500,-966.796875,-112.792969,24.169922,40.283203
cobot_dynamixel_driver/joint_states|name|J1,J2,J3,J4,J5,J6|pos|-0.000501,-1.046060,1.074539,0.000000,-0.966359,-0.000062|vel|0.003756,0.250793,-0.220957,0.000000,0.216127,0.000000|eff|241.699219,-1144.042969,-902.343750,-112.792969,32.226562,28.198242
cobot_dynamixel_driver/joint_states|name|J1,J2,J3,J4,J5,J6|pos|-0.000426,-1.041253,1.070020,0.000000,-0.961684,-0.000062|vel|0.004173,0.254549,-0.245368,0.000000,0.249218,0.000000|eff|161.132812,-1385.742188,-999.023438,-112.792969,24.169922,40.283203
cobot_dynamixel_driver/joint_states|name|J1,J2,J3,J4,J5,J6|pos|-0.000351,-1.036497,1.065276,0.000000,-0.956823,-0.000041|vel|0.003130,0.257887,-0.238483,0.000000,0.260248,0.000000|eff|257.812500,-1176.269531,-934.570312,-112.792969,24.169922,40.283203
cobot_dynamixel_driver/joint_states|name|J1,J2,J3,J4,J5,J6|pos|-0.000288,-1.031777,1.060494,0.000000,-0.952003,-0.000041|vel|0.003547,0.238483,-0.246620,0.000000,0.259559,0.000000|eff|112.792969,-1208.496094,-1063.476562,-112.792969,40.283203,32.226562
cobot_dynamixel_driver/joint_states|name|J1,J2,J3,J4,J5,J6|pos|-0.000225,-1.027020,1.055737,0.000000,-0.947142,-0.000041|vel|0.003338,0.244325,-0.252254,0.000000,0.241290,0.000000|eff|128.906250,-1208.496094,-934.570312,-112.792969,32.226562,40.283203
cobot_dynamixel_driver/joint_states|name|J1,J2,J3,J4,J5,J6|pos|-0.000188,-1.022238,1.050792,0.000000,-0.942261,-0.000041|vel|0.002712,0.236188,-0.232850,0.000000,0.253010,0.000000|eff|128.906250,-1031.250000,-1063.476562,-80.566406,36.254883,28.198242
cobot_dynamixel_driver/joint_states|name|J1,J2,J3,J4,J5,J6|pos|-0.000175,-1.017406,1.046286,0.000000,-0.937379,-0.000041|vel|0.001252,0.244743,-0.238900,0.000000,0.230604,0.000000|eff|128.906250,-1305.175781,-1015.136719,-112.792969,36.254883,40.283203
cobot_dynamixel_driver/joint_states|name|J1,J2,J3,J4,J5,J6|pos|-0.000138,-1.012624,1.041466,0.000000,-0.932456,-0.000021|vel|0.001669,0.235771,-0.248498,0.000000,0.211646,0.000000|eff|209.472656,-1063.476562,-1047.363281,-96.679688,28.198242,40.283203
cobot_dynamixel_driver/joint_states|name|J1,J2,J3,J4,J5,J6|pos|-0.000088,-1.007867,1.036384,0.000000,-0.927595,-0.000021|vel|0.002295,0.245786,-0.224295,0.000000,0.214748,0.000000|eff|128.906250,-1321.289062,-982.910156,-64.453125,24.169922,32.226562
cobot_dynamixel_driver/joint_states|name|J1,J2,J3,J4,J5,J6|pos|-0.000075,-1.003123,1.031790,0.000000,-0.922713,-0.000021|vel|0.001461,0.242239,-0.262269,0.000000,0.267487,0.000000|eff|145.019531,-1111.816406,-902.343750,-96.679688,24.169922,40.283203
cobot_dynamixel_driver/joint_states|name|J1,J2,J3,J4,J5,J6|pos|-0.000063,-0.998328,1.026945,0.000000,-0.917852,-0.000021|vel|0.000835,0.235353,-0.247664,0.000000,0.247494,0.000000|eff|145.019531,-1031.250000,-1127.929688,-112.792969,36.254883,40.283203
cobot_dynamixel_driver/joint_states|name|J1,J2,J3,J4,J5,J6|pos|-0.000050,-0.993572,1.022163,0.000000,-0.912991,-0.000021|vel|0.000835,0.235979,-0.235353,0.000000,0.247839,0.000000|eff|177.246094,-1192.382812,-950.683594,-32.226562,32.226562,16.113281
cobot_dynamixel_driver/joint_states|name|J1,J2,J3,J4,J5,J6|pos|-0.000038,-0.988815,1.017218,0.000000,-0.908130,0.000000|vel|0.000835,0.224921,-0.231389,0.000000,0.257835,0.000000|eff|161.132812,-982.910156,-999.023438,-112.792969,36.254883,24.169922
cobot_dynamixel_driver/joint_states|name|J1,J2,J3,J4,J5,J6|pos|-0.000038,-0.983995,1.012662,0.000000,-0.903227,0.000000|vel|0.000835,0.253297,-0.242239,0.000000,0.261627,0.000000|eff|0.000000,-1305.175781,-1015.136719,-96.679688,28.198242,40.283203
cobot_dynamixel_driver/joint_states|name|J1,J2,J3,J4,J5,J6|pos|-0.000038,-0.979213,1.007655,0.000000,-0.898325,0.000000|vel|0.000209,0.248498,-0.247455,0.000000,0.256801,0.000000|eff|0.000000,-1160.156250,-950.683594,-64.453125,36.254883,32.226562
cobot_dynamixel_driver/joint_states|name|J1,J2,J3,J4,J5,J6|pos|-0.000025,-0.974469,1.003148,0.000000,-0.893443,0.000000|vel|0.000209,0.247664,-0.243491,0.000000,0.215782,0.000000|eff|112.792969,-1289.062500,-1047.363281,-112.792969,32.226562,16.113281
cobot_dynamixel_driver/joint_states|name|J1,J2,J3,J4,J5,J6|pos|-0.000025,-0.969637,0.998153,0.000000,-0.888561,0.000000|vel|0.000209,0.247038,-0.248290,0.000000,0.267142,0.000000|eff|161.132812,-1176.269531,-982.910156,-32.226562,32.226562,40.283203
cobot_dynamixel_driver/joint_states|name|J1,J2,J3,J4,J5,J6|pos|-0.000025,-0.964817,0.993396,0.000000,-0.883659,0.000000|vel|0.000209,0.249124,-0.244743,0.000000,0.213714,0.000000|eff|177.246094,-934.570312,-1289.062500,-112.792969,32.226562,36.254883
cobot_dynamixel_driver/joint_states|name|J1,J2,J3,J4,J5,J6|pos|-0.000013,-0.960023,0.988702,0.000000,-0.878798,0.000000|vel|0.000209,0.244534,-0.246829,0.000000,0.239911,0.000000|eff|32.226562,-1272.949219,-999.023438,-64.453125,24.169922,44.311523
cobot_dynamixel_driver/joint_states|name|J1,J2,J3,J4,J5,J6|pos|-0.000013,-0.955216,0.983857,0.000000,-0.873978,0.000000|vel|0.000209,0.253923,-0.252880,0.000000,0.266108,0.000000|eff|177.246094,-1015.136719,-966.796875,-112.792969,24.169922,44.311523
cobot_dynamixel_driver/joint_states|name|J1,J2,J3,J4,J5,J6|pos|0.000000,-0.950421,0.979013,0.000000,-0.869096,0.000000|vel|0.000209,0.259139,-0.289184,0.000000,0.249218,0.000000|eff|177.246094,-1047.363281,-1031.250000,-96.679688,32.226562,40.283203
cobot_dynamixel_driver/joint_states|name|J1,J2,J3,J4,J5,J6|pos|0.000000,-0.945614,0.974206,0.000000,-0.864215,0.000000|vel|0.000209,0.240778,-0.251628,0.000000,0.261282,0.000000|eff|177.246094,-1160.156250,-918.457031,-112.792969,32.226562,40.283203
cobot_dynamixel_driver/joint_states|name|J1,J2,J3,J4,J5,J6|pos|0.000000,-0.940832,0.969386,0.000000,-0.859354,0.000000|vel|0.000209,0.230346,-0.247664,0.000000,0.275070,0.000000|eff|0.000000,-950.683594,-1079.589844,-112.792969,32.226562,40.283203
cobot_dynamixel_driver/joint_states|name|J1,J2,J3,J4,J5,J6|pos|0.000000,-0.936075,0.964579,0.000000,-0.854493,0.000000|vel|0.000209,0.235353,-0.251628,0.000000,0.256457,0.000000|eff|112.792969,-1256.835938,-966.796875,-112.792969,44.311523,44.311523
cobot_dynamixel_driver/joint_states|name|J1,J2,J3,J4,J5,J6|pos|0.000013,-0.931268,0.959785,0.000000,-0.849383,0.000000|vel|0.000209,0.255801,-0.244951,0.000000,0.248184,0.000000|eff|0.000000,-1031.250000,-934.570312,-112.792969,32.226562,8.056641
cobot_dynamixel_driver/joint_states|name|J1,J2,J3,J4,J5,J6|pos|0.000013,-0.926511,0.955028,0.000000,-0.844750,0.000000|vel|0.000209,0.244951,-0.256218,0.000000,0.224399,0.000000|eff|96.679688,-1160.156250,-982.910156,-80.566406,36.254883,40.283203
cobot_dynamixel_driver/joint_states|name|J1,J2,J3,J4,J5,J6|pos|0.000013,-0.921754,0.950271,0.000000,-0.839868,0.000000|vel|0.000000,0.250376,-0.229720,0.000000,0.221987,0.000000|eff|80.566406,-1095.703125,-918.457031,-112.792969,32.226562,44.311523
cobot_dynamixel_driver/joint_states|name|J1,J2,J3,J4,J5,J6|pos|0.000013,-0.916973,0.945514,0.000000,-0.835007,0.000000|vel|0.000000,0.260808,-0.247872,0.000000,0.262661,0.000000|eff|145.019531,-918.457031,-1063.476562,-112.792969,32.226562,28.198242
cobot_dynamixel_driver/joint_states|name|J1,J2,J3,J4,J5,J6|pos|0.000025,-0.912203,0.940757,0.000000,-0.830125,0.000000|vel|0.000000,0.239735,-0.195502,0.000000,0.266108,0.000000|eff|32.226562,-1176.269531,-950.683594,-96.679688,20.141602,44.311523
cobot_dynamixel_driver/joint_states|name|J1,J2,J3,J4,J5,J6|pos|0.000025,-0.907208,0.935988,0.000000,-0.825016,0.000000|vel|0.000000,0.230555,-0.249750,0.000000,0.266798,0.000000|eff|96.679688,-982.910156,-982.910156,-80.566406,28.198242,44.311523
cobot_dynamixel_driver/joint_states|name|J1,J2,J3,J4,J5,J6|pos|0.000025,-0.902677,0.931256,0.000000,-0.820362,0.000000|vel|0.000000,0.251002,-0.256844,0.000000,0.264385,0.000000|eff|112.792969,-1272.949219,-982.910156,-112.792969,28.198242,28.198242
cobot_dynamixel_driver/joint_states|name|J1,J2,J3,J4,J5,J6|pos|0.000025,-0.897907,0.926549,0.000000,-0.815480,0.000000|vel|0.000000,0.258930,-0.250585,0.000000,0.265419,0.000000|eff|32.226562,-1031.250000,-1015.136719,-80.566406,28.198242,20.141602
cobot_dynamixel_driver/joint_states|name|J1,J2,J3,J4,J5,J6|pos|0.000025,-0.893063,0.921754,0.000000,-0.810598,0.000000|vel|0.000000,0.249124,-0.215115,0.000000,0.260938,0.000000|eff|0.000000,-837.890625,-1015.136719,-96.679688,32.226562,20.141602
cobot_dynamixel_driver/joint_states|name|J1,J2,J3,J4,J5,J6|pos|0.000038,-0.888043,0.916935,0.000000,-0.805530,0.000000|vel|0.000000,0.254549,-0.251002,0.000000,0.256112,0.000000|eff|0.000000,-1176.269531,-966.796875,-112.792969,32.226562,44.311523
cobot_dynamixel_driver/joint_states|name|J1,J2,J3,J4,J5,J6|pos|0.000038,-0.883524,0.912090,0.000000,-0.800897,0.000000|vel|0.000000,0.243699,-0.257053,0.000000,0.244737,0.000000|eff|161.132812,-934.570312,-1160.156250,-80.566406,36.254883,28.198242
cobot_dynamixel_driver/joint_states|name|J1,J2,J3,J4,J5,J6|pos|0.000038,-0.878767,0.907258,0.000000,-0.795994,0.000000|vel|0.000000,0.245368,-0.233058,0.000000,0.229225,0.000000|eff|161.132812,-1208.496094,-966.796875,-112.792969,32.226562,40.283203
cobot_dynamixel_driver/joint_states|name|J1,J2,J3,J4,J5,J6|pos|0.000038,-0.873985,0.902414,0.000000,-0.791113,0.000000|vel|0.000000,0.245577,-0.250376,0.000000,0.220608,0.000000|eff|32.226562,-950.683594,-902.343750,-112.792969,28.198242,40.283203
cobot_dynamixel_driver/joint_states|name|J1,J2,J3,J4,J5,J6|pos|0.000038,-0.869241,0.897657,0.000000,-0.786045,0.000000|vel|0.000000,0.232850,-0.247038,0.000000,0.243703,0.000000|eff|0.000000,-1127.929688,-1031.250000,-64.453125,36.254883,28.198242
cobot_dynamixel_driver/joint_states|name|J1,J2,J3,J4,J5,J6|pos|0.000038,-0.864471,0.892913,0.000000,-0.781473,0.000000|vel|0.000000,0.249541,-0.243491,0.000000,0.245771,0.000000|eff|96.679688,-1015.136719,-902.343750,-112.792969,44.311523,40.283203
cobot_dynamixel_driver/joint_states|name|J1,J2,J3,J4,J5,J6|pos|0.000038,-0.859652,0.888143,0.000000,-0.776633,0.000000|vel|0.000000,0.240152,-0.249750,0.000000,0.274036,0.000000|eff|32.226562,-854.003906,-1079.589844,-112.792969,48.339844,32.226562
cobot_dynamixel_driver/joint_states|name|J1,J2,J3,J4,J5,J6|pos|0.000038,-0.854882,0.883349,0.000000,-0.771730,0.000000|vel|0.000000,0.249750,-0.237231,0.000000,0.268866,0.000000|eff|177.246094,-1144.042969,-950.683594,-96.679688,48.339844,36.254883
cobot_dynamixel_driver/joint_states|name|J1,J2,J3,J4,J5,J6|pos|0.000038,-0.850113,0.878554,0.000000,-0.766807,0.000000|vel|0.000000,0.256009,-0.251002,0.000000,0.250941,0.000000|eff|161.132812,-837.890625,-966.796875,-112.792969,36.254883,40.283203
cobot_dynamixel_driver/joint_states|name|J1,J2,J3,J4,J5,J6|pos|0.000038,-0.845268,0.873785,0.000000,-0.761905,0.000021|vel|0.000000,0.253714,-0.249959,0.000000,0.255767,0.000000|eff|80.566406,-1144.042969,-999.023438,-112.792969,32.226562,40.283203
cobot_dynamixel_driver/joint_states|name|J1,J2,J3,J4,J5,J6|pos|0.000038,-0.840474,0.869103,0.000000,-0.757002,0.000021|vel|0.000000,0.236814,-0.238692,0.000000,0.229225,0.000000|eff|80.566406,-966.796875,-1031.250000,-112.792969,28.198242,40.283203
cobot_dynamixel_driver/joint_states|name|J1,J2,J3,J4,J5,J6|pos|0.000038,-0.835704,0.864371,0.000000,-0.752100,0.000021|vel|0.000000,0.236605,-0.241821,0.000000,0.261972,0.000000|eff|0.000000,-854.003906,-1047.363281,-112.792969,40.283203,40.283203
cobot_dynamixel_driver/joint_states|name|J1,J2,J3,J4,J5,J6|pos|0.000038,-0.830910,0.859564,0.000000,-0.747239,0.000021|vel|0.000000,0.240361,-0.236814,0.000000,0.217850,0.000000|eff|96.679688,-1111.816406,-950.683594,-64.453125,24.169922,40.283203
cobot_dynamixel_driver/joint_states|name|J1,J2,J3,J4,J5,J6|pos|0.000038,-0.826090,0.854732,0.000000,-0.742398,0.000021|vel|0.000000,0.253714,-0.255592,0.000000,0.264385,0.000000|eff|145.019531,-870.117188,-1031.250000,-64.453125,32.226562,40.283203
cobot_dynamixel_driver/joint_states|name|J1,J2,J3,J4,J5,J6|pos|0.000038,-0.821296,0.849950,0.000000,-0.737248,0.000021|vel|0.000000,0.240361,-0.258305,0.000000,0.260938,0.000000|eff|80.566406,-1047.363281,-950.683594,-112.792969,28.198242,8.056641
cobot_dynamixel_driver/joint_states|name|J1,J2,J3,J4,J5,J6|pos|0.000038,-0.816526,0.845118,0.000000,-0.732366,0.000021|vel|0.000000,0.239109,-0.247246,0.000000,0.252320,0.000000|eff|0.000000,-934.570312,-918.457031,-64.453125,24.169922,40.283203
cobot_dynamixel_driver/joint_states|name|J1,J2,J3,J4,J5,J6|pos|0.000038,-0.811719,0.840273,0.000000,-0.727526,0.000021|vel|0.000000,0.254758,-0.247664,0.000000,0.245771,0.000000|eff|0.000000,-692.871094,-999.023438,-112.792969,36.254883,40.283203
cobot_dynamixel_driver/joint_states|name|J1,J2,J3,J4,J5,J6|pos|0.000038,-0.806950,0.835491,0.000000,-0.722644,0.000021|vel|0.000000,0.246829,-0.256635,0.000000,0.279551,0.000000|eff|161.132812,-1079.589844,-902.343750,-112.792969,28.198242,40.283203
cobot_dynamixel_driver/joint_states|name|J1,J2,J3,J4,J5,J6|pos|0.000038,-0.802205,0.830709,0.000000,-0.717762,0.000021|vel|0.000000,0.244117,-0.228259,0.000000,0.259904,0.000000|eff|128.906250,-821.777344,-1031.250000,-96.679688,28.198242,44.311523
cobot_dynamixel_driver/joint_states|name|J1,J2,J3,J4,J5,J6|pos|0.000038,-0.797449,0.825953,0.000000,-0.712880,0.000021|vel|0.000000,0.249124,-0.248915,0.000000,0.251286,0.000000|eff|96.679688,-1127.929688,-966.796875,-64.453125,40.283203,24.169922
cobot_dynamixel_driver/joint_states|name|J1,J2,J3,J4,J5,J6|pos|0.000038,-0.792642,0.821183,0.000000,-0.708019,0.000021|vel|0.000000,0.220540,-0.216367,0.000000,0.242669,0.000000|eff|96.679688,-837.890625,-934.570312,-64.453125,40.283203,44.311523
cobot_dynamixel_driver/joint_states|name|J1,J2,J3,J4,J5,J6|pos|0.000038,-0.787897,0.816451,0.000000,-0.703200,0.000021|vel|0.000000,0.237649,-0.254340,0.000000,0.205441,0.000000|eff|0.000000,-982.910156,-1015.136719,-80.566406,44.311523,40.283203
cobot_dynamixel_driver/joint_states|name|J1,J2,J3,J4,J5,J6|pos|0.000038,-0.783153,0.811682,0.000000,-0.698318,0.000021|vel|0.000000,0.224712,-0.226799,0.000000,0.248528,0.000000|eff|145.019531,-982.910156,-886.230469,-112.792969,24.169922,36.254883
cobot_dynamixel_driver/joint_states|name|J1,J2,J3,J4,J5,J6|pos|0.000038,-0.778358,0.806962,0.000000,-0.693436,0.000021|vel|0.000000,0.256635,-0.249750,0.000000,0.248184,0.000000|eff|161.132812,-741.210938,-1079.589844,-112.792969,36.254883,40.283203
cobot_dynamixel_driver/joint_states|name|J1,J2,J3,J4,J5,J6|pos|0.000038,-0.773526,0.802243,0.000000,-0.688534,0.000021|vel|0.000000,0.256218,-0.238066,0.000000,0.275070,0.000000|eff|177.246094,-1063.476562,-999.023438,-80.566406,24.169922,36.254883
cobot_dynamixel_driver/joint_states|name|J1,J2,J3,J4,J5,J6|pos|0.000038,-0.768481,0.797461,0.000000,-0.683673,0.000021|vel|0.000000,0.246203,-0.256009,0.000000,0.243013,0.000000|eff|145.019531,-821.777344,-1095.703125,-112.792969,44.311523,32.226562
cobot_dynamixel_driver/joint_states|name|J1,J2,J3,J4,J5,J6|pos|0.000038,-0.763950,0.792629,0.000000,-0.678832,0.000041|vel|0.000000,0.239526,-0.221791,0.000000,0.284722,0.000000|eff|177.246094,-1095.703125,-950.683594,-112.792969,40.283203,36.254883
cobot_dynamixel_driver/joint_states|name|J1,J2,J3,J4,J5,J6|pos|0.000038,-0.759205,0.787797,0.000000,-0.673950,0.000041|vel|0.000000,0.236814,-0.255384,0.000000,0.251286,0.000000|eff|161.132812,-950.683594,-934.570312,-32.226562,36.254883,40.283203
cobot_dynamixel_driver/joint_states|name|J1,J2,J3,J4,J5,J6|pos|0.000038,-0.754411,0.782952,0.000000,-0.669089,0.000041|vel|0.000000,0.250376,-0.256009,0.000000,0.251286,0.000000|eff|96.679688,-692.871094,-1015.136719,-112.792969,40.283203,40.283203
cobot_dynamixel_driver/joint_states|name|J1,J2,J3,J4,J5,J6|pos|0.000038,-0.749379,0.778095,0.000000,-0.664208,0.000041|vel|0.000000,0.239526,-0.196962,0.000000,0.263695,0.000000|eff|0.000000,-982.910156,-886.230469,-112.792969,40.283203,40.283203
cobot_dynamixel_driver/joint_states|name|J1,J2,J3,J4,J5,J6|pos|0.000038,-0.744634,0.773388,0.000000,-0.659367,0.000041|vel|0.000000,0.242865,-0.254340,0.000000,0.227157,0.000000|eff|161.132812,-741.210938,-1144.042969,-32.226562,36.254883,40.283203
cobot_dynamixel_driver/joint_states|name|J1,J2,J3,J4,J5,J6|pos|0.000038,-0.739840,0.768632,0.000000,-0.654465,0.000041|vel|0.000000,0.243699,-0.227425,0.000000,0.223365,0.000000|eff|0.000000,-1127.929688,-950.683594,-112.792969,32.226562,40.283203
cobot_dynamixel_driver/joint_states|name|J1,J2,J3,J4,J5,J6|pos|0.000038,-0.735045,0.763862,0.000000,-0.649583,0.000041|vel|0.000000,0.256218,-0.252045,0.000000,0.241290,0.000000|eff|0.000000,-870.117188,-966.796875,-32.226562,32.226562,40.283203
cobot_dynamixel_driver/joint_states|name|J1,J2,J3,J4,J5,J6|pos|0.000038,-0.730301,0.759068,0.000000,-0.644722,0.000041|vel|0.000000,0.252671,-0.247246,0.000000,0.308506,0.000000|eff|112.792969,-950.683594,-1015.136719,-96.679688,40.283203,36.254883
cobot_dynamixel_driver/joint_states|name|J1,J2,J3,J4,J5,J6|pos|0.000038,-0.725481,0.754298,0.000000,-0.639861,0.000041|vel|0.000000,0.250793,-0.252254,0.000000,0.248184,0.000000|eff|145.019531,-886.230469,-902.343750,-112.792969,36.254883,40.283203
cobot_dynamixel_driver/joint_states|name|J1,J2,J3,J4,J5,J6|pos|0.000038,-0.720674,0.749541,0.000000,-0.634959,0.000041|vel|0.000000,0.246412,-0.248290,0.000000,0.261282,0.000000|eff|32.226562,-628.417969,-1063.476562,-32.226562,40.283203,36.254883
cobot_dynamixel_driver/joint_states|name|J1,J2,J3,J4,J5,J6|pos|0.000038,-0.715905,0.744872,0.000000,-0.630077,0.000041|vel|0.000000,0.244951,-0.250585,0.000000,0.274726,0.000000|eff|0.000000,-999.023438,-1031.250000,-112.792969,44.311523,36.254883
cobot_dynamixel_driver/joint_states|name|J1,J2,J3,J4,J5,J6|pos|0.000038,-0.711160,0.740077,0.000000,-0.625216,0.000041|vel|0.000000,0.247038,-0.222626,0.000000,0.244392,0.000000|eff|0.000000,-741.210938,-1144.042969,-112.792969,40.283203,24.169922
cobot_dynamixel_driver/joint_states|name|J1,J2,J3,J4,J5,J6|pos|0.000038,-0.706116,0.735008,0.000000,-0.620086,0.000041|vel|0.000000,0.241196,-0.251419,0.000000,0.282309,0.000000|eff|0.000000,-628.417969,-1079.589844,-112.792969,44.311523,40.283203
cobot_dynamixel_driver/joint_states|name|J1,J2,J3,J4,J5,J6|pos|0.000038,-0.701534,0.730413,0.000000,-0.615473,0.000041|vel|0.000000,0.244951,-0.261226,0.000000,0.260248,0.000000|eff|145.019531,-805.664062,-902.343750,-64.453125,36.254883,32.226562
cobot_dynamixel_driver/joint_states|name|J1,J2,J3,J4,J5,J6|pos|0.000038,-0.696777,0.725594,0.000000,-0.610633,0.000041|vel|0.000000,0.252671,-0.215532,0.000000,0.223710,0.000000|eff|0.000000,-660.644531,-1031.250000,-96.679688,56.396484,40.283203
cobot_dynamixel_driver/joint_states|name|J1,J2,J3,J4,J5,J6|pos|0.000038,-0.692008,0.720762,0.000000,-0.605792,0.000041|vel|0.000000,0.248915,-0.250585,0.000000,0.246805,0.000000|eff|161.132812,-982.910156,-934.570312,-112.792969,48.339844,40.283203
cobot_dynamixel_driver/joint_states|name|J1,J2,J3,J4,J5,J6|pos|0.000038,-0.687213,0.715942,0.000000,-0.600931,0.000041|vel|0.000000,0.254966,-0.249333,0.000000,0.274381,0.000000|eff|0.000000,-628.417969,-966.796875,-112.792969,52.368164,40.283203
cobot_dynamixel_driver/joint_states|name|J1,J2,J3,J4,J5,J6|pos|0.000038,-0.682456,0.711185,0.000000,-0.596029,0.000041|vel|0.000000,0.256844,-0.252254,0.000000,0.245771,0.000000|eff|145.019531,-1111.816406,-966.796875,-112.792969,52.368164,40.283203
cobot_dynamixel_driver/joint_states|name|J1,J2,J3,J4,J5,J6|pos|0.000038,-0.677674,0.706403,0.000000,-0.591106,0.000041|vel|0.000000,0.235771,-0.248915,0.000000,0.261627,0.000000|eff|80.566406,-789.550781,-902.343750,-96.679688,44.311523,40.283203
cobot_dynamixel_driver/joint_states|name|J1,J2,J3,J4,J5,J6|pos|0.000038,-0.672880,0.701622,0.000000,-0.586224,0.000041|vel|0.000000,0.243282,-0.251628,0.000000,0.267487,0.000000|eff|0.000000,-628.417969,-1015.136719,-112.792969,44.311523,28.198242
cobot_dynamixel_driver/joint_states|name|J1,J2,J3,J4,J5,J6|pos|0.000038,-0.668110,0.696877,0.000000,-0.581363,0.000041|vel|0.000000,0.238066,-0.246620,0.000000,0.256457,0.000000|eff|0.000000,-918.457031,-902.343750,-112.792969,44.311523,40.283203
cobot_dynamixel_driver/joint_states|name|J1,J2,J3,J4,J5,J6|pos|0.000038,-0.663341,0.691895,0.000000,-0.576481,0.000041|vel|0.000000,0.223043,-0.260808,0.000000,0.256112,0.000000|eff|161.132812,-628.417969,-1063.476562,-112.792969,44.311523,40.283203
cobot_dynamixel_driver/joint_states|name|J1,J2,J3,J4,J5,J6|pos|0.000038,-0.658609,0.687401,0.000000,-0.571579,0.000041|vel|0.000000,0.246203,-0.248081,0.000000,0.241290,0.000000|eff|112.792969,-1047.363281,-966.796875,-112.792969,40.283203,40.283203
cobot_dynamixel_driver/joint_states|name|J1,J2,J3,J4,J5,J6|pos|0.000038,-0.653802,0.682444,0.000000,-0.566697,0.000041|vel|0.000000,0.208438,-0.236605,0.000000,0.266108,0.000000|eff|0.000000,-692.871094,-1063.476562,-96.679688,44.311523,40.283203
cobot_dynamixel_driver/joint_states|name|J1,J2,J3,J4,J5,J6|pos|0.000038,-0.648970,0.677925,0.000000,-0.561815,0.000041|vel|0.000000,0.261226,-0.240570,0.000000,0.227846,0.000000|eff|145.019531,-854.003906,-999.023438,-112.792969,32.226562,40.283203
cobot_dynamixel_driver/joint_states|name|J1,J2,J3,J4,J5,J6|pos|0.000038,-0.644188,0.672905,0.000000,-0.556975,0.000062|vel|0.000000,0.236397,-0.256844,0.000000,0.259214,0.000000|eff|0.000000,-757.324219,-982.910156,-112.792969,36.254883,40.283203
cobot_dynamixel_driver/joint_states|name|J1,J2,J3,J4,J5,J6|pos|0.000038,-0.639418,0.668085,0.000000,-0.552114,0.000062|vel|0.000000,0.245786,-0.248707,0.000000,0.269210,0.000000|eff|0.000000,-580.078125,-1063.476562,-112.792969,36.254883,32.226562
cobot_dynamixel_driver/joint_states|name|J1,J2,J3,J4,J5,J6|pos|0.000038,-0.634674,0.663241,0.000000,-0.547211,0.000062|vel|0.000000,0.235145,-0.249541,0.000000,0.249563,0.000000|eff|80.566406,-950.683594,-950.683594,-112.792969,48.339844,16.113281
cobot_dynamixel_driver/joint_states|name|J1,J2,J3,J4,J5,J6|pos|0.000038,-0.629855,0.658371,0.000000,-0.542350,0.000062|vel|0.000000,0.246412,-0.255801,0.000000,0.259559,0.000000|eff|0.000000,-563.964844,-934.570312,-64.453125,44.311523,36.254883
cobot_dynamixel_driver/joint_states|name|J1,J2,J3,J4,J5,J6|pos|0.000038,-0.624860,0.653301,0.000000,-0.537261,0.000062|vel|0.000000,0.234102,-0.202387,0.000000,0.281275,0.000000|eff|0.000000,-499.511719,-1111.816406,-64.453125,40.283203,36.254883
cobot_dynamixel_driver/joint_states|name|J1,J2,J3,J4,J5,J6|pos|0.000038,-0.620366,0.648820,0.000000,-0.532628,0.000062|vel|0.000000,0.230555,-0.228468,0.000000,0.256112,0.000000|eff|128.906250,-757.324219,-886.230469,-96.679688,44.311523,32.226562
cobot_dynamixel_driver/joint_states|name|J1,J2,J3,J4,J5,J6|pos|0.000038,-0.615559,0.644025,0.000000,-0.527788,0.000062|vel|0.000000,0.249124,-0.261017,0.000000,0.246805,0.000000|eff|0.000000,-531.738281,-1031.250000,-112.792969,48.339844,36.254883
cobot_dynamixel_driver/joint_states|name|J1,J2,J3,J4,J5,J6|pos|0.000038,-0.610789,0.639256,0.000000,-0.522864,0.000062|vel|0.000000,0.247664,-0.224712,0.000000,0.266453,0.000000|eff|0.000000,-837.890625,-934.570312,-64.453125,44.311523,16.113281
cobot_dynamixel_driver/joint_states|name|J1,J2,J3,J4,J5,J6|pos|0.000038,-0.606057,0.634511,0.000000,-0.517962,0.000062|vel|0.000000,0.249750,-0.259348,0.000000,0.210611,0.000000|eff|0.000000,-483.398438,-1095.703125,-112.792969,44.311523,40.283203
cobot_dynamixel_driver/joint_states|name|J1,J2,J3,J4,J5,J6|pos|0.000038,-0.601200,0.629767,0.000000,-0.513080,0.000062|vel|0.000000,0.245368,-0.218662,0.000000,0.244047,0.000000|eff|0.000000,-918.457031,-966.796875,-64.453125,40.283203,24.169922
cobot_dynamixel_driver/joint_states|name|J1,J2,J3,J4,J5,J6|pos|0.000038,-0.596381,0.625010,0.000000,-0.508219,0.000062|vel|0.000000,0.236188,-0.257053,0.000000,0.246116,0.000000|eff|0.000000,-725.097656,-999.023438,-112.792969,44.311523,8.056641
cobot_dynamixel_driver/joint_states|name|J1,J2,J3,J4,J5,J6|pos|0.000038,-0.591611,0.620328,0.000000,-0.503358,0.000062|vel|0.000000,0.239318,-0.250167,0.000000,0.256457,0.000000|eff|145.019531,-612.304688,-1063.476562,-112.792969,44.311523,36.254883
cobot_dynamixel_driver/joint_states|name|J1,J2,J3,J4,J5,J6|pos|0.000038,-0.586842,0.615484,0.000000,-0.498497,0.000062|vel|0.000000,0.232432,-0.238692,0.000000,0.247494,0.000000|eff|0.000000,-757.324219,-918.457031,-112.792969,36.254883,36.254883
cobot_dynamixel_driver/joint_states|name|J1,J2,J3,J4,J5,J6|pos|0.000038,-0.582035,0.610652,0.000000,-0.493636,0.000062|vel|0.000000,0.249333,-0.251002,0.000000,0.259904,0.000000|eff|0.000000,-354.492188,-1047.363281,-112.792969,44.311523,40.283203
cobot_dynamixel_driver/joint_states|name|J1,J2,J3,J4,J5,J6|pos|0.000038,-0.577228,0.605820,0.000000,-0.488754,0.000062|vel|0.000000,0.229511,-0.245994,0.000000,0.250252,0.000000|eff|0.000000,-934.570312,-934.570312,-96.679688,48.339844,8.056641
cobot_dynamixel_driver/joint_states|name|J1,J2,J3,J4,J5,J6|pos|0.000038,-0.572471,0.601025,0.000000,-0.483935,0.000062|vel|0.000000,0.237440,-0.254966,0.000000,0.243358,0.000000|eff|112.792969,-580.078125,-950.683594,-112.792969,56.396484,28.198242
cobot_dynamixel_driver/joint_states|name|J1,J2,J3,J4,J5,J6|pos|0.000038,-0.567702,0.596218,0.000000,-0.479053,0.000062|vel|0.000000,0.257261,-0.249750,0.000000,0.265074,0.000000|eff|0.000000,-644.531250,-982.910156,-64.453125,32.226562,36.254883
cobot_dynamixel_driver/joint_states|name|J1,J2,J3,J4,J5,J6|pos|0.000038,-0.562907,0.591399,0.000000,-0.474171,0.000062|vel|0.000000,0.256427,-0.251419,0.000000,0.219918,0.000000|eff|0.000000,-741.210938,-854.003906,-112.792969,44.311523,0.000000
cobot_dynamixel_driver/joint_states|name|J1,J2,J3,J4,J5,J6|pos|0.000038,-0.558150,0.586579,0.000000,-0.469269,0.000062|vel|0.000000,0.240570,-0.255592,0.000000,0.261627,0.000000|eff|80.566406,-418.945312,-999.023438,-80.566406,36.254883,8.056641
cobot_dynamixel_driver/joint_states|name|J1,J2,J3,J4,J5,J6|pos|0.000038,-0.553343,0.581797,0.000000,-0.464449,0.000062|vel|0.000000,0.259974,-0.246203,0.000000,0.243703,0.000000|eff|112.792969,-854.003906,-918.457031,-112.792969,48.339844,36.254883
cobot_dynamixel_driver/joint_states|name|J1,J2,J3,J4,J5,J6|pos|0.000038,-0.548549,0.577015,0.000000,-0.459588,0.000062|vel|0.000000,0.234102,-0.247664,0.000000,0.248184,0.000000|eff|112.792969,-596.191406,-918.457031,-64.453125,48.339844,28.198242
cobot_dynamixel_driver/joint_states|name|J1,J2,J3,J4,J5,J6|pos|0.000038,-0.543804,0.572271,0.000000,-0.454727,0.000062|vel|0.000000,0.235562,-0.249333,0.000000,0.281620,0.000000|eff|0.000000,-982.910156,-934.570312,-32.226562,64.453125,36.254883
cobot_dynamixel_driver/joint_states|name|J1,J2,J3,J4,J5,J6|pos|0.000038,-0.539035,0.567564,0.000000,-0.449824,0.000062|vel|0.000000,0.244117,-0.251837,0.000000,0.281620,0.000000|eff|0.000000,-676.757812,-886.230469,-96.679688,48.339844,32.226562
cobot_dynamixel_driver/joint_states|name|J1,J2,J3,J4,J5,J6|pos|0.000038,-0.534278,0.562844,0.000000,-0.444984,0.000062|vel|0.000000,0.248290,-0.248290,0.000000,0.252665,0.000000|eff|80.566406,-515.625000,-1031.250000,-112.792969,60.424805,0.000000
cobot_dynamixel_driver/joint_states|name|J1,J2,J3,J4,J5,J6|pos|0.000038,-0.529458,0.558125,0.000000,-0.440144,0.000062|vel|0.000000,0.248498,-0.242030,0.000000,0.244047,0.000000|eff|0.000000,-660.644531,-966.796875,-112.792969,56.396484,0.000000
cobot_dynamixel_driver/joint_states|name|J1,J2,J3,J4,J5,J6|pos|0.000038,-0.524614,0.553381,0.000000,-0.435262,0.000062|vel|0.000000,0.256844,-0.249541,0.000000,0.210267,0.000000|eff|0.000000,-386.718750,-1063.476562,-112.792969,56.396484,20.141602
cobot_dynamixel_driver/joint_states|name|J1,J2,J3,J4,J5,J6|pos|0.000038,-0.519844,0.548599,0.000000,-0.430401,0.000062|vel|0.000000,0.245577,-0.238066,0.000000,0.245081,0.000000|eff|0.000000,-886.230469,-918.457031,-112.792969,48.339844,20.141602
cobot_dynamixel_driver/joint_states|name|J1,J2,J3,J4,J5,J6|pos|0.000038,-0.514850,0.543541,0.000000,-0.425271,0.000062|vel|0.000000,0.253506,-0.235979,0.000000,0.225089,0.000000|eff|0.000000,-725.097656,-950.683594,-32.226562,56.396484,12.084961
cobot_dynamixel_driver/joint_states|name|J1,J2,J3,J4,J5,J6|pos|0.000038,-0.510330,0.538947,0.000000,-0.420637,0.000062|vel|0.000000,0.260391,-0.270406,0.000000,0.256801,0.000000|eff|0.000000,-660.644531,-982.910156,-96.679688,56.396484,0.000000
cobot_dynamixel_driver/joint_states|name|J1,J2,J3,J4,J5,J6|pos|0.000038,-0.505511,0.534115,0.000000,-0.415735,0.000062|vel|0.000000,0.236397,-0.249124,0.000000,0.249218,0.000000|eff|0.000000,-660.644531,-934.570312,-112.792969,44.311523,0.000000
cobot_dynamixel_driver/joint_states|name|J1,J2,J3,J4,J5,J6|pos|0.000038,-0.500729,0.529296,0.000000,-0.410853,0.000062|vel|0.000000,0.244325,-0.246829,0.000000,0.263006,0.000000|eff|0.000000,-370.605469,-1047.363281,-112.792969,56.396484,32.226562
cobot_dynamixel_driver/joint_states|name|J1,J2,J3,J4,J5,J6|pos|0.000038,-0.495972,0.524526,0.000000,-0.405951,0.000062|vel|0.000000,0.248707,-0.250793,0.000000,0.282309,0.000000|eff|0.000000,-821.777344,-950.683594,-96.679688,44.311523,20.141602
cobot_dynamixel_driver/joint_states|name|J1,J2,J3,J4,J5,J6|pos|0.000038,-0.491153,0.519732,0.000000,-0.401069,0.000062|vel|0.000000,0.217827,-0.251419,0.000000,0.249563,0.000000|eff|80.566406,-451.171875,-934.570312,-112.792969,56.396484,0.000000
cobot_dynamixel_driver/joint_states|name|J1,J2,J3,J4,J5,J6|pos|0.000038,-0.486408,0.514962,0.000000,-0.396166,0.000062|vel|0.000000,0.246203,-0.252462,0.000000,0.252665,0.000000|eff|0.000000,-725.097656,-966.796875,-112.792969,52.368164,24.169922
cobot_dynamixel_driver/joint_states|name|J1,J2,J3,J4,J5,J6|pos|0.000038,-0.481651,0.510205,0.000000,-0.391305,0.000062|vel|0.000000,0.228051,-0.259139,0.000000,0.244047,0.000000|eff|0.000000,-580.078125,-950.683594,-112.792969,52.368164,0.000000
cobot_dynamixel_driver/joint_states|name|J1,J2,J3,J4,J5,J6|pos|0.000025,-0.476819,0.505486,0.000000,-0.386196,0.000062|vel|0.000000,0.240778,-0.252671,0.000000,0.265419,0.000000|eff|0.000000,-161.132812,-1015.136719,-64.453125,52.368164,28.198242
cobot_dynamixel_driver/joint_states|name|J1,J2,J3,J4,J5,J6|pos|0.000025,-0.472012,0.500729,0.000000,-0.381583,0.000062|vel|0.000000,0.236814,-0.235771,0.000000,0.244047,0.000000|eff|0.000000,-805.664062,-966.796875,-112.792969,48.339844,32.226562
cobot_dynamixel_driver/joint_states|name|J1,J2,J3,J4,J5,J6|pos|0.000025,-0.467255,0.495997,0.000000,-0.376453,0.000062|vel|0.000000,0.232432,-0.251628,0.000000,0.245081,0.000000|eff|0.000000,-402.832031,-1079.589844,-80.566406,40.283203,32.226562
cobot_dynamixel_driver/joint_states|name|J1,J2,J3,J4,J5,J6|pos|0.000025,-0.462461,0.491153,0.000000,-0.371572,0.000062|vel|0.000000,0.250793,-0.227633,0.000000,0.248528,0.000000|eff|0.000000,-805.664062,-934.570312,-112.792969,48.339844,0.000000
cobot_dynamixel_driver/joint_states|name|J1,J2,J3,J4,J5,J6|pos|0.000025,-0.457654,0.486308,0.000000,-0.366690,0.000062|vel|0.000000,0.225964,-0.247246,0.000000,0.247150,0.000000|eff|0.000000,-467.285156,-886.230469,-96.679688,48.339844,8.056641
cobot_dynamixel_driver/joint_states|name|J1,J2,J3,J4,J5,J6|pos|0.000025,-0.452859,0.481514,0.000000,-0.362118,0.000062|vel|0.000000,0.245577,-0.242656,0.000000,0.274036,0.000000|eff|80.566406,-145.019531,-999.023438,-112.792969,68.481445,16.113281
cobot_dynamixel_driver/joint_states|name|J1,J2,J3,J4,J5,J6|pos|0.000025,-0.448140,0.476719,0.000000,-0.357009,0.000062|vel|0.000000,0.223461,-0.257679,0.000000,0.260248,0.000000|eff|112.792969,-628.417969,-902.343750,-112.792969,60.424805,0.000000
cobot_dynamixel_driver/joint_states|name|J1,J2,J3,J4,J5,J6|pos|0.000025,-0.443396,0.471912,0.000000,-0.352127,0.000062|vel|0.000000,0.238274,-0.262895,0.000000,0.255078,0.000000|eff|112.792969,-290.039062,-1031.250000,-112.792969,60.424805,0.000000
cobot_dynamixel_driver/joint_states|name|J1,J2,J3,J4,J5,J6|pos|0.000025,-0.438626,0.467118,0.000000,-0.347246,0.000062|vel|0.000000,0.237649,-0.229929,0.000000,0.221642,0.000000|eff|0.000000,-741.210938,-934.570312,-112.792969,60.424805,0.000000
cobot_dynamixel_driver/joint_states|name|J1,J2,J3,J4,J5,J6|pos|0.000025,-0.433619,0.462298,0.000000,-0.342364,0.000062|vel|0.000000,0.250793,-0.249333,0.000000,0.261627,0.000000|eff|0.000000,-451.171875,-870.117188,-112.792969,56.396484,24.169922
cobot_dynamixel_driver/joint_states|name|J1,J2,J3,J4,J5,J6|pos|0.000025,-0.429050,0.457504,0.000000,-0.337503,0.000062|vel|0.000000,0.259348,-0.253714,0.000000,0.217850,0.000000|eff|0.000000,-596.191406,-982.910156,-112.792969,56.396484,0.000000
cobot_dynamixel_driver/joint_states|name|J1,J2,J3,J4,J5,J6|pos|0.000025,-0.424255,0.452697,0.000000,-0.332600,0.000062|vel|0.000000,0.240987,-0.257887,0.000000,0.245426,0.000000|eff|0.000000,-531.738281,-837.890625,-112.792969,56.396484,0.000000
cobot_dynamixel_driver/joint_states|name|J1,J2,J3,J4,J5,J6|pos|0.000025,-0.419285,0.447752,0.000000,-0.327532,0.000062|vel|0.000000,0.250793,-0.255175,0.000000,0.206475,0.000000|eff|0.000000,-370.605469,-950.683594,-96.679688,56.396484,0.000000
cobot_dynamixel_driver/joint_states|name|J1,J2,J3,J4,J5,J6|pos|0.000025,-0.414741,0.443283,0.000000,-0.322899,0.000062|vel|0.000000,0.241821,-0.248915,0.000000,0.245081,0.000000|eff|0.000000,-676.757812,-934.570312,-112.792969,52.368164,0.000000
cobot_dynamixel_driver/joint_states|name|J1,J2,J3,J4,J5,J6|pos|0.000025,-0.409684,0.438538,0.000000,-0.318058,0.000062|vel|0.000000,0.249333,-0.245994,0.000000,0.263695,0.000000|eff|0.000000,-354.492188,-1047.363281,-112.792969,64.453125,0.000000
cobot_dynamixel_driver/joint_states|name|J1,J2,J3,J4,J5,J6|pos|0.000025,-0.405102,0.433819,0.000000,-0.313218,0.000062|vel|0.000000,0.236814,-0.238066,0.000000,0.252320,0.000000|eff|0.000000,-821.777344,-966.796875,-64.453125,64.453125,0.000000
cobot_dynamixel_driver/joint_states|name|J1,J2,J3,J4,J5,J6|pos|0.000025,-0.400270,0.429087,0.000000,-0.308316,0.000062|vel|0.000000,0.249333,-0.205517,0.000000,0.248184,0.000000|eff|0.000000,-435.058594,-1127.929688,-96.679688,64.453125,0.000000
cobot_dynamixel_driver/joint_states|name|J1,J2,J3,J4,J5,J6|pos|0.000025,-0.395476,0.424293,0.000000,-0.303372,0.000062|vel|0.000000,0.255592,-0.239944,0.000000,0.223710,0.000000|eff|48.339844,-128.906250,-982.910156,-64.453125,56.396484,0.000000
cobot_dynamixel_driver/joint_states|name|J1,J2,J3,J4,J5,J6|pos|0.000025,-0.390481,0.419486,0.000000,-0.298511,0.000062|vel|0.000000,0.235979,-0.234102,0.000000,0.244737,0.000000|eff|48.339844,-660.644531,-934.570312,-96.679688,60.424805,0.000000
cobot_dynamixel_driver/joint_states|name|J1,J2,J3,J4,J5,J6|pos|0.000025,-0.385762,0.414654,0.000000,-0.293650,0.000062|vel|0.000000,0.221791,-0.253714,0.000000,0.204407,0.000000|eff|0.000000,-322.265625,-1031.250000,-112.792969,52.368164,0.000000
cobot_dynamixel_driver/joint_states|name|J1,J2,J3,J4,J5,J6|pos|0.000025,-0.380980,0.409822,0.000000,-0.288747,0.000062|vel|0.000000,0.247246,-0.273536,0.000000,0.221642,0.000000|eff|0.000000,-467.285156,-934.570312,-112.792969,60.424805,0.000000
cobot_dynamixel_driver/joint_states|name|J1,J2,J3,J4,J5,J6|pos|0.000025,-0.376198,0.405027,0.000000,-0.283886,0.000062|vel|0.000000,0.237023,-0.227008,0.000000,0.232328,0.000000|eff|0.000000,-467.285156,-934.570312,-112.792969,56.396484,0.000000
cobot_dynamixel_driver/joint_states|name|J1,J2,J3,J4,J5,J6|pos|0.000025,-0.371428,0.400233,0.000000,-0.279067,0.000062|vel|0.000000,0.248498,-0.245786,0.000000,0.246116,0.000000|eff|0.000000,-209.472656,-966.796875,-32.226562,64.453125,0.000000
cobot_dynamixel_driver/joint_states|name|J1,J2,J3,J4,J5,J6|pos|0.000025,-0.366621,0.395438,0.000000,-0.274185,0.000062|vel|0.000000,0.247246,-0.232641,0.000000,0.282654,0.000000|eff|112.792969,-515.625000,-886.230469,-112.792969,56.396484,0.000000
cobot_dynamixel_driver/joint_states|name|J1,J2,J3,J4,J5,J6|pos|0.000025,-0.361827,0.390719,0.000000,-0.269344,0.000062|vel|0.000000,0.237231,-0.250793,0.000000,0.288169,0.000000|eff|0.000000,-193.359375,-1047.363281,-80.566406,60.424805,0.000000
cobot_dynamixel_driver/joint_states|name|J1,J2,J3,J4,J5,J6|pos|0.000025,-0.357057,0.385962,0.000000,-0.264442,0.000062|vel|0.000000,0.251837,-0.249959,0.000000,0.251631,0.000000|eff|0.000000,-676.757812,-902.343750,-112.792969,64.453125,0.000000
cobot_dynamixel_driver/joint_states|name|J1,J2,J3,J4,J5,J6|pos|0.000025,-0.352250,0.381218,0.000000,-0.259540,0.000062|vel|0.000000,0.254132,-0.247664,0.000000,0.233706,0.000000|eff|0.000000,-354.492188,-1111.816406,-64.453125,64.453125,0.000000
cobot_dynamixel_driver/joint_states|name|J1,J2,J3,J4,J5,J6|pos|0.000025,-0.347456,0.376473,0.000000,-0.254699,0.000062|vel|0.000000,0.252045,-0.231806,0.000000,0.264385,0.000000|eff|0.000000,-402.832031,-1015.136719,-64.453125,64.453125,0.000000
cobot_dynamixel_driver/joint_states|name|J1,J2,J3,J4,J5,J6|pos|0.000025,-0.342661,0.371704,0.000000,-0.249838,0.000062|vel|0.000000,0.235353,-0.259556,0.000000,0.208888,0.000000|eff|112.792969,-451.171875,-1031.250000,-112.792969,72.509766,0.000000
cobot_dynamixel_driver/joint_states|name|J1,J2,J3,J4,J5,J6|pos|0.000025,-0.337879,0.366847,0.000000,-0.244956,0.000062|vel|0.000000,0.245577,-0.264355,0.000000,0.245081,0.000000|eff|0.000000,-32.226562,-966.796875,-112.792969,60.424805,0.000000
cobot_dynamixel_driver/joint_states|name|J1,J2,J3,J4,J5,J6|pos|0.000025,-0.333110,0.361977,0.000000,-0.240054,0.000062|vel|0.000000,0.246412,-0.250376,0.000000,0.264040,0.000000|eff|0.000000,-580.078125,-902.343750,-80.566406,56.396484,-12.084961
cobot_dynamixel_driver/joint_states|name|J1,J2,J3,J4,J5,J6|pos|0.000025,-0.328328,0.357170,0.000000,-0.235151,0.000062|vel|0.000000,0.250793,-0.239109,0.000000,0.271279,0.000000|eff|0.000000,-257.812500,-999.023438,-112.792969,56.396484,-8.056641
cobot_dynamixel_driver/joint_states|name|J1,J2,J3,J4,J5,J6|pos|0.000025,-0.323571,0.352376,0.000000,-0.230249,0.000062|vel|0.000000,0.246829,-0.252880,0.000000,0.249563,0.000000|eff|0.000000,-660.644531,-934.570312,-112.792969,52.368164,-16.113281
cobot_dynamixel_driver/joint_states|name|J1,J2,J3,J4,J5,J6|pos|0.000025,-0.318814,0.347581,0.000000,-0.225367,0.000062|vel|0.000000,0.247664,-0.260808,0.000000,0.248528,0.000000|eff|0.000000,-338.378906,-934.570312,-112.792969,52.368164,0.000000
cobot_dynamixel_driver/joint_states|name|J1,J2,J3,J4,J5,J6|pos|0.000025,-0.314070,0.342561,0.000000,-0.220486,0.000062|vel|0.000000,0.256009,-0.244325,0.000000,0.262661,0.000000|eff|0.000000,-177.246094,-999.023438,-112.792969,52.368164,0.000000
cobot_dynamixel_driver/joint_states|name|J1,J2,J3,J4,J5,J6|pos|0.000025,-0.309313,0.337980,0.000000,-0.215666,0.000062|vel|0.000000,0.244325,-0.224504,0.000000,0.255078,0.000000|eff|0.000000,-418.945312,-886.230469,-112.792969,76.538086,0.000000
cobot_dynamixel_driver/joint_states|name|J1,J2,J3,J4,J5,J6|pos|0.000025,-0.304543,0.333185,0.000000,-0.210784,0.000062|vel|0.000000,0.256844,-0.250793,0.000000,0.234051,0.000000|eff|0.000000,-80.566406,-934.570312,-112.792969,60.424805,0.000000
cobot_dynamixel_driver/joint_states|name|J1,J2,J3,J4,J5,J6|pos|0.000025,-0.299736,0.328403,0.000000,-0.205923,0.000062|vel|0.000000,0.233058,-0.234102,0.000000,0.224055,0.000000|eff|48.339844,-531.738281,-934.570312,-96.679688,64.453125,0.000000
cobot_dynamixel_driver/joint_states|name|J1,J2,J3,J4,J5,J6|pos|0.000025,-0.294942,0.323433,0.000000,-0.201041,0.000062|vel|0.000000,0.239318,-0.245994,0.000000,0.227846,0.000000|eff|0.000000,-225.585938,-870.117188,-112.792969,72.509766,-16.113281
cobot_dynamixel_driver/joint_states|name|J1,J2,J3,J4,J5,J6|pos|0.000025,-0.290147,0.318939,0.000000,-0.196180,0.000062|vel|0.000000,0.238900,-0.244534,0.000000,0.263351,0.000000|eff|0.000000,-306.152344,-934.570312,-112.792969,64.453125,-20.141602
cobot_dynamixel_driver/joint_states|name|J1,J2,J3,J4,J5,J6|pos|0.000025,-0.285128,0.313957,0.000000,-0.191092,0.000062|vel|0.000000,0.251837,-0.222000,0.000000,0.213369,0.000000|eff|0.000000,-515.625000,-934.570312,-64.453125,60.424805,0.000000
cobot_dynamixel_driver/joint_states|name|J1,J2,J3,J4,J5,J6|pos|0.000025,-0.280634,0.309463,0.000000,-0.186479,0.000062|vel|0.000000,0.239318,-0.212402,0.000000,0.264729,0.000000|eff|48.339844,64.453125,-982.910156,-80.566406,72.509766,-24.169922
cobot_dynamixel_driver/joint_states|name|J1,J2,J3,J4,J5,J6|pos|0.000025,-0.275852,0.304506,0.000000,-0.181597,0.000062|vel|0.000000,0.234936,-0.240778,0.000000,0.262661,0.000000|eff|0.000000,-515.625000,-902.343750,-112.792969,64.453125,0.000000
cobot_dynamixel_driver/joint_states|name|J1,J2,J3,J4,J5,J6|pos|0.000025,-0.271057,0.299962,0.000000,-0.176736,0.000062|vel|0.000000,0.247872,-0.213446,0.000000,0.252320,0.000000|eff|0.000000,-112.792969,-1047.363281,-112.792969,76.538086,0.000000
cobot_dynamixel_driver/joint_states|name|J1,J2,J3,J4,J5,J6|pos|0.000025,-0.266250,0.294942,0.000000,-0.171896,0.000062|vel|0.000000,0.221165,-0.251211,0.000000,0.260593,0.000000|eff|0.000000,-596.191406,-982.910156,-112.792969,84.594727,-32.226562
cobot_dynamixel_driver/joint_states|name|J1,J2,J3,J4,J5,J6|pos|0.000025,-0.261456,0.290122,0.000000,-0.167014,0.000062|vel|0.000000,0.250585,-0.257470,0.000000,0.244737,0.000000|eff|0.000000,-322.265625,-950.683594,-112.792969,64.453125,-20.141602
cobot_dynamixel_driver/joint_states|name|J1,J2,J3,J4,J5,J6|pos|0.000025,-0.256661,0.285303,0.000000,-0.162111,0.000062|vel|0.000000,0.259765,-0.262686,0.000000,0.265419,0.000000|eff|0.000000,80.566406,-966.796875,-112.792969,76.538086,-8.056641
cobot_dynamixel_driver/joint_states|name|J1,J2,J3,J4,J5,J6|pos|0.000025,-0.251879,0.280558,0.000000,-0.157230,0.000062|vel|0.000000,0.240152,-0.256844,0.000000,0.213024,0.000000|eff|0.000000,-418.945312,-966.796875,-80.566406,56.396484,0.000000
cobot_dynamixel_driver/joint_states|name|J1,J2,J3,J4,J5,J6|pos|0.000025,-0.247085,0.275714,0.000000,-0.152389,0.000062|vel|0.000000,0.239944,-0.227216,0.000000,0.262316,0.000000|eff|0.000000,-80.566406,-1031.250000,-96.679688,68.481445,0.000000
cobot_dynamixel_driver/joint_states|name|J1,J2,J3,J4,J5,J6|pos|0.000025,-0.241790,0.270419,0.000000,-0.147032,0.000062|vel|0.000000,0.246620,-0.249959,0.000000,0.252320,0.000000|eff|0.000000,-128.906250,-999.023438,-80.566406,76.538086,-24.169922
cobot_dynamixel_driver/joint_states|name|J1,J2,J3,J4,J5,J6|pos|0.000025,-0.237483,0.266150,0.000000,-0.142646,0.000062|vel|0.000000,0.251628,-0.245994,0.000000,0.270589,0.000000|eff|0.000000,-290.039062,-966.796875,-96.679688,68.481445,-32.226562
cobot_dynamixel_driver/joint_states|name|J1,J2,J3,J4,J5,J6|pos|0.000025,-0.232714,0.261393,0.000000,-0.137765,0.000041|vel|0.000000,0.229511,-0.249124,0.000000,0.266108,0.000000|eff|0.000000,80.566406,-999.023438,-112.792969,68.481445,-28.198242
cobot_dynamixel_driver/joint_states|name|J1,J2,J3,J4,J5,J6|pos|0.000025,-0.227957,0.256636,0.000000,-0.132821,0.000021|vel|0.000000,0.294818,-0.232850,0.000000,0.288858,0.000000|eff|112.792969,-354.492188,-934.570312,-64.453125,60.424805,-16.113281
cobot_dynamixel_driver/joint_states|name|J1,J2,J3,J4,J5,J6|pos|0.000025,-0.223175,0.251917,0.000000,-0.127939,0.000000|vel|0.000000,0.200718,-0.233267,0.000000,0.261627,-0.001379|eff|0.000000,0.000000,-1079.589844,-32.226562,64.453125,-20.141602
cobot_dynamixel_driver/joint_states|name|J1,J2,J3,J4,J5,J6|pos|0.000025,-0.218393,0.247122,0.000000,-0.123140,0.000000|vel|0.000000,0.251837,-0.232224,0.000000,0.216127,-0.001379|eff|0.000000,-499.511719,-902.343750,-112.792969,80.566406,0.000000
cobot_dynamixel_driver/joint_states|name|J1,J2,J3,J4,J5,J6|pos|0.000025,-0.213598,0.242278,0.000000,-0.118279,0.000000|vel|0.000000,0.253297,-0.260182,0.000000,0.225778,-0.001379|eff|0.000000,-209.472656,-1031.250000,-112.792969,76.538086,-12.084961
cobot_dynamixel_driver/joint_states|name|J1,J2,J3,J4,J5,J6|pos|0.000025,-0.208817,0.237446,0.000000,-0.113439,0.000000|vel|0.000000,0.241613,-0.267694,0.000000,0.244047,-0.001379|eff|0.000000,-128.906250,-950.683594,-112.792969,64.453125,-8.056641
cobot_dynamixel_driver/joint_states|name|J1,J2,J3,J4,J5,J6|pos|0.000025,-0.204060,0.232614,0.000000,-0.108578,0.000000|vel|0.000000,0.232850,-0.245994,0.000000,0.246116,-0.001379|eff|0.000000,-257.812500,-902.343750,-112.792969,68.481445,-28.198242
cobot_dynamixel_driver/joint_states|name|J1,J2,J3,J4,J5,J6|pos|0.000025,-0.199328,0.227782,0.000000,-0.103717,0.000000|vel|0.000000,0.255384,-0.245994,0.000000,0.272657,-0.001379|eff|0.000000,145.019531,-999.023438,-112.792969,72.509766,-12.084961
cobot_dynamixel_driver/joint_states|name|J1,J2,J3,J4,J5,J6|pos|0.000025,-0.194596,0.223000,0.000000,-0.098876,0.000000|vel|0.000000,0.232641,-0.254758,0.000000,0.261627,0.000000|eff|112.792969,-322.265625,-918.457031,-96.679688,80.566406,0.000000
cobot_dynamixel_driver/joint_states|name|J1,J2,J3,J4,J5,J6|pos|0.000025,-0.189814,0.218243,0.000000,-0.093994,0.000000|vel|0.000000,0.242656,-0.254966,0.000000,0.274381,0.000000|eff|0.000000,80.566406,-934.570312,-64.453125,84.594727,0.000000
cobot_dynamixel_driver/joint_states|name|J1,J2,J3,J4,J5,J6|pos|0.000025,-0.185007,0.213448,0.000000,-0.089133,0.000000|vel|0.000000,0.250585,-0.242447,0.000000,0.265763,0.000000|eff|0.000000,-467.285156,-934.570312,-112.792969,80.566406,0.000000
cobot_dynamixel_driver/joint_states|name|J1,J2,J3,J4,J5,J6|pos|0.000025,-0.180187,0.208654,0.000000,-0.084252,0.000000|vel|0.000000,0.235979,-0.216993,0.000000,0.241634,0.000000|eff|0.000000,-96.679688,-854.003906,-64.453125,76.538086,-28.198242
cobot_dynamixel_driver/joint_states|name|J1,J2,J3,J4,J5,J6|pos|0.000025,-0.175393,0.203872,0.000000,-0.079370,0.000000|vel|0.000000,0.252880,-0.254549,0.000000,0.241634,0.000000|eff|80.566406,161.132812,-966.796875,-96.679688,76.538086,0.000000
cobot_dynamixel_driver/joint_states|name|J1,J2,J3,J4,J5,J6|pos|0.000025,-0.170648,0.199115,0.000000,-0.074509,0.000000|vel|0.000000,0.238066,-0.237023,0.000000,0.226123,0.000000|eff|0.000000,-370.605469,-854.003906,-112.792969,72.509766,-28.198242
cobot_dynamixel_driver/joint_states|name|J1,J2,J3,J4,J5,J6|pos|0.000025,-0.165879,0.194333,0.000000,-0.069399,0.000000|vel|0.000000,0.248915,-0.251419,0.000000,0.214748,0.000000|eff|80.566406,64.453125,-918.457031,-112.792969,76.538086,-8.056641
cobot_dynamixel_driver/joint_states|name|J1,J2,J3,J4,J5,J6|pos|0.000025,-0.161085,0.189601,0.000000,-0.064725,0.000000|vel|0.000000,0.254340,-0.238066,0.000000,0.247494,0.000000|eff|0.000000,-418.945312,-934.570312,-96.679688,68.481445,-24.169922
cobot_dynamixel_driver/joint_states|name|J1,J2,J3,J4,J5,J6|pos|0.000025,-0.156315,0.184882,0.000000,-0.059801,0.000000|vel|0.000000,0.256218,-0.239109,0.000000,0.246460,0.000000|eff|0.000000,-64.453125,-1063.476562,-96.679688,64.453125,0.000000
cobot_dynamixel_driver/joint_states|name|J1,J2,J3,J4,J5,J6|pos|0.000025,-0.151521,0.180150,0.000000,-0.054878,0.000000|vel|0.000000,0.252462,-0.226173,0.000000,0.290237,0.000000|eff|0.000000,-48.339844,-950.683594,-112.792969,64.453125,0.000000
cobot_dynamixel_driver/joint_states|name|J1,J2,J3,J4,J5,J6|pos|0.000025,-0.146726,0.175380,0.000000,-0.050017,0.000000|vel|0.000000,0.233684,-0.241821,0.000000,0.248528,0.000000|eff|0.000000,-193.359375,-950.683594,-32.226562,60.424805,-12.084961
cobot_dynamixel_driver/joint_states|name|J1,J2,J3,J4,J5,J6|pos|0.000025,-0.141944,0.170611,0.000000,-0.045198,0.000000|vel|0.000000,0.247664,-0.249333,0.000000,0.286101,0.000000|eff|0.000000,225.585938,-999.023438,-32.226562,76.538086,0.000000
cobot_dynamixel_driver/joint_states|name|J1,J2,J3,J4,J5,J6|pos|0.000025,-0.137187,0.165766,0.000000,-0.040357,0.000000|vel|0.000000,0.229929,-0.250585,0.000000,0.255078,0.000000|eff|0.000000,-338.378906,-902.343750,-112.792969,80.566406,0.000000
cobot_dynamixel_driver/joint_states|name|J1,J2,J3,J4,J5,J6|pos|0.000025,-0.132405,0.160984,0.000000,-0.035413,0.000000|vel|0.000000,0.248290,-0.256218,0.000000,0.256457,0.000000|eff|0.000000,0.000000,-1031.250000,-112.792969,68.481445,-8.056641
cobot_dynamixel_driver/joint_states|name|J1,J2,J3,J4,J5,J6|pos|0.000025,-0.127586,0.156227,0.000000,-0.030759,0.000000|vel|0.000000,0.254549,-0.248498,0.000000,0.212335,0.000000|eff|80.566406,-612.304688,-966.796875,-112.792969,20.141602,-28.198242
cobot_dynamixel_driver/joint_states|name|J1,J2,J3,J4,J5,J6|pos|0.000025,-0.122829,0.151383,0.000000,-0.026891,0.000000|vel|0.000000,0.258722,-0.266650,0.000000,0.198202,0.000000|eff|0.000000,-64.453125,-918.457031,-64.453125,44.311523,-28.198242
cobot_dynamixel_driver/joint_states|name|J1,J2,J3,J4,J5,J6|pos|0.000025,-0.118022,0.146563,0.000000,-0.023561,0.000000|vel|0.000000,0.244117,-0.250167,0.000000,0.163388,0.000000|eff|0.000000,338.378906,-966.796875,-112.792969,56.396484,-16.113281
cobot_dynamixel_driver/joint_states|name|J1,J2,J3,J4,J5,J6|pos|0.000025,-0.113227,0.141857,0.000000,-0.020541,0.000000|vel|0.000000,0.246620,-0.242447,0.000000,0.122368,0.000000|eff|0.000000,-241.699219,-934.570312,-96.679688,64.453125,0.000000
cobot_dynamixel_driver/joint_states|name|J1,J2,J3,J4,J5,J6|pos|0.000025,-0.108470,0.137087,0.000000,-0.018100,0.000000|vel|0.000000,0.232432,-0.226173,0.000000,0.131331,0.000000|eff|0.000000,112.792969,-1047.363281,-112.792969,64.453125,-16.113281
cobot_dynamixel_driver/goal|-:J1,J2,J3,J4,J5,J6:0.261799,0.174533,0.000000,0.000000,-0.261799,0.000000:vel_
cobot_dynamixel_driver/goal|-:J1,J2,J3,J4,J5,J6:0.261799,0.174533,0.000000,0.000000,-0.261799,0.000000:vel_
cobot_dynamixel_driver/joint_states|name|J1,J2,J3,J4,J5,J6|pos|0.000025,-0.082570,0.106530,0.000013,-0.004427,0.000000|vel|0.000000,-0.000417,0.002712,0.000000,-0.002758,0.000000|eff|0.000000,435.058594,-435.058594,0.000000,0.000000,0.000000
cobot_dynamixel_driver/goal|-:J1,J2,J3,J4,J5,J6:0.261799,0.174533,0.000000,0.000000,-0.261799,0.000000:vel_
cobot_dynamixel_driver/goal|-:J1,J2,J3,J4,J5,J6:0.261799,0.174533,0.000000,0.000000,-0.261799,0.000000:vel_
cobot_dynamixel_driver/goal|-:J1,J2,J3,J4,J5,J6:0.261799,0.174533,0.000000,0.000000,-0.261799,0.000000:vel_
cobot_dynamixel_driver/goal|-:J1,J2,J3,J4,J5,J6:0.261799,0.174533,0.000000,0.000000,-0.261799,0.000000:vel_
cobot_dynamixel_driver/goal|-:J1,J2,J3,J4,J5,J6:0.261799,0.174533,0.000000,0.000000,-0.261799,0.000000:vel_
cobot_dynamixel_driver/goal|-:J1,J2,J3,J4,J5,J6:0.261799,0.174533,0.000000,0.000000,-0.261799,0.000000:vel_
cobot_dynamixel_driver/goal|-:J1,J2,J3,J4,J5,J6:0.261799,0.174533,0.000000,0.000000,-0.261799,0.000000:vel_
cobot_dynamixel_driver/goal|-:J1,J2,J3,J4,J5,J6:0.261799,0.174533,0.000000,0.000000,-0.261799,0.000000:vel_
cobot_dynamixel_driver/goal|-:J1,J2,J3,J4,J5,J6:0.261799,0.174533,0.000000,0.000000,-0.261799,0.000000:vel_
cobot_dynamixel_driver/goal|-:J1,J2,J3,J4,J5,J6:0.261799,0.174533,0.000000,0.000000,-0.261799,0.000000:vel_
cobot_dynamixel_driver/goal|-:J1,J2,J3,J4,J5,J6:0.261799,0.174533,0.000000,0.000000,-0.261799,0.000000:vel_
cobot_dynamixel_driver/goal|-:J1,J2,J3,J4,J5,J6:0.261799,0.174533,0.000000,0.000000,-0.261799,0.000000:vel_
cobot_dynamixel_driver/goal|-:J1,J2,J3,J4,J5,J6:0.261799,0.174533,0.000000,0.000000,-0.261799,0.000000:vel_
cobot_dynamixel_driver/goal|-:J1,J2,J3,J4,J5,J6:0.261799,0.174533,0.000000,0.000000,-0.261799,0.000000:vel_
cobot_dynamixel_driver/goal|-:J1,J2,J3,J4,J5,J6:0.261799,0.174533,0.000000,0.000000,-0.261799,0.000000:vel_
cobot_dynamixel_driver/goal|-:J1,J2,J3,J4,J5,J6:0.261799,0.174533,0.000000,0.000000,-0.261799,0.000000:vel_
cobot_dynamixel_driver/goal|-:J1,J2,J3,J4,J5,J6:0.261799,0.174533,0.000000,0.000000,-0.261799,0.000000:vel_
cobot_dynamixel_driver/goal|-:J1,J2,J3,J4,J5,J6:0.261799,0.174533,0.000000,0.000000,-0.261799,0.000000:vel_
cobot_dynamixel_driver/goal|-:J1,J2,J3,J4,J5,J6:0.261799,0.174533,0.000000,0.000000,-0.261799,0.000000:vel_
cobot_dynamixel_driver/goal|-:J1,J2,J3,J4,J5,J6:0.261799,0.174533,0.000000,0.000000,-0.261799,0.000000:vel_
cobot_dynamixel_driver/goal|-:J1,J2,J3,J4,J5,J6:0.261799,0.174533,0.000000,0.000000,-0.261799,0.000000:vel_
cobot_dynamixel_driver/goal|-:J1,J2,J3,J4,J5,J6:0.261799,0.174533,0.000000,0.000000,-0.261799,0.000000:vel_
cobot_dynamixel_driver/goal|-:J1,J2,J3,J4,J5,J6:0.261799,0.174533,0.000000,0.000000,-0.261799,0.000000:vel_
cobot_dynamixel_driver/goal|-:J1,J2,J3,J4,J5,J6:0.261799,0.174533,0.000000,0.000000,-0.261799,0.000000:vel_
cobot_dynamixel_driver/goal|-:J1,J2,J3,J4,J5,J6:0.261799,0.174533,0.000000,0.000000,-0.261799,0.000000:vel_
cobot_dynamixel_driver/goal|-:J1,J2,J3,J4,J5,J6:0.261799,0.174533,0.000000,0.000000,-0.261799,0.000000:vel_
cobot_dynamixel_driver/goal|-:J1,J2,J3,J4,J5,J6:0.261799,0.174533,0.000000,0.000000,-0.261799,0.000000:vel_
cobot_dynamixel_driver/goal|-:J1,J2,J3,J4,J5,J6:0.261799,0.174533,0.000000,0.000000,-0.261799,0.000000:vel_
cobot_dynamixel_driver/goal|-:J1,J2,J3,J4,J5,J6:0.261799,0.174533,0.000000,0.000000,-0.261799,0.000000:vel_
cobot_dynamixel_driver/goal|-:J1,J2,J3,J4,J5,J6:0.261799,0.174533,-0.000000,0.000000,-0.261799,0.000000:vel_
cobot_dynamixel_driver/goal|-:J1,J2,J3,J4,J5,J6:0.261799,0.174533,-0.000000,0.000000,-0.261799,0.000000:vel_
cobot_dynamixel_driver/joint_states|name|J1,J2,J3,J4,J5,J6|pos|0.002416,-0.080380,0.106530,0.000013,-0.008957,0.000000|vel|0.229720,0.166709,0.002712,0.000000,-0.299199,0.000000|eff|1691.894531,-241.699219,-451.171875,0.000000,-44.311523,0.000000
cobot_dynamixel_driver/goal|-:J1,J2,J3,J4,J5,J6:0.261799,0.174533,-0.000000,0.000000,-0.261799,0.000000:vel_
cobot_dynamixel_driver/goal|-:J1,J2,J3,J4,J5,J6:0.261799,0.174533,-0.000000,0.000000,-0.261799,0.000000:vel_
cobot_dynamixel_driver/joint_states|name|J1,J2,J3,J4,J5,J6|pos|0.006772,-0.077588,0.106530,0.000013,-0.013859,0.000000|vel|0.262686,0.174846,0.000000,0.000000,-0.233362,0.000000|eff|692.871094,-354.492188,-435.058594,0.000000,-8.056641,0.000000
cobot_dynamixel_driver/goal|-:J1,J2,J3,J4,J5,J6:0.261799,0.174533,-0.000000,0.000000,-0.261799,0.000000:vel_
cobot_dynamixel_driver/goal|-:J1,J2,J3,J4,J5,J6:0.261799,0.174533,-0.000000,0.000000,-0.261799,0.000000:vel_
cobot_dynamixel_driver/joint_states|name|J1,J2,J3,J4,J5,J6|pos|0.011379,-0.074596,0.106530,0.000013,-0.018451,0.000000|vel|0.257887,0.169838,0.000000,0.000000,-0.278517,0.000000|eff|725.097656,-257.812500,-435.058594,0.000000,-60.424805,0.000000
cobot_dynamixel_driver/goal|-:J1,J2,J3,J4,J5,J6:0.261799,0.174533,-0.000000,0.000000,-0.261799,0.000000:vel_
cobot_dynamixel_driver/goal|-:J1,J2,J3,J4,J5,J6:0.261799,0.174533,-0.000000,0.000000,-0.261799,0.000000:vel_
cobot_dynamixel_driver/joint_states|name|J1,J2,J3,J4,J5,J6|pos|0.016023,-0.071341,0.106530,0.000013,-0.023002,0.000000|vel|0.266650,0.189034,0.000000,0.000000,-0.222676,0.000000|eff|612.304688,-80.566406,-435.058594,0.000000,-52.368164,0.000000
cobot_dynamixel_driver/goal|-:J1,J2,J3,J4,J5,J6:0.261799,0.174533,-0.000000,0.000000,-0.261799,0.000000:vel_
cobot_dynamixel_driver/joint_states|name|J1,J2,J3,J4,J5,J6|pos|0.021131,-0.067498,0.106530,0.000013,-0.028070,0.000000|vel|0.260391,0.188408,0.000000,0.000000,-0.263351,0.000000|eff|966.796875,257.812500,-435.058594,0.000000,-40.283203,0.000000
cobot_dynamixel_driver/goal|-:J1,J2,J3,J4,J5,J6:0.261799,0.174533,-0.000000,0.000000,-0.261799,0.000000:vel_
cobot_dynamixel_driver/goal|-:J1,J2,J3,J4,J5,J6:0.261799,0.174533,-0.000000,0.000000,-0.261799,0.000000:vel_
cobot_dynamixel_driver/joint_states|name|J1,J2,J3,J4,J5,J6|pos|0.026238,-0.063918,0.106530,0.000013,-0.033241,0.000000|vel|0.250376,0.175889,0.000000,0.000000,-0.250252,0.000000|eff|934.570312,-177.246094,-435.058594,0.000000,-52.368164,0.000000
cobot_dynamixel_driver/goal|-:J1,J2,J3,J4,J5,J6:0.261799,0.174533,-0.000000,0.000000,-0.261799,0.000000:vel_
cobot_dynamixel_driver/goal|-:J1,J2,J3,J4,J5,J6:0.261799,0.174533,-0.000000,0.000000,-0.261799,0.000000:vel_
cobot_dynamixel_driver/joint_states|name|J1,J2,J3,J4,J5,J6|pos|0.031321,-0.060451,0.106530,0.000013,-0.037937,0.000000|vel|0.236605,0.190494,0.000000,0.000000,-0.229225,0.000000|eff|837.890625,145.019531,-435.058594,0.000000,-52.368164,0.000000
cobot_dynamixel_driver/goal|-:J1,J2,J3,J4,J5,J6:0.261799,0.174533,-0.000000,0.000000,-0.261799,0.000000:vel_
cobot_dynamixel_driver/goal|-:J1,J2,J3,J4,J5,J6:0.261799,0.174533,-0.000000,0.000000,-0.261799,0.000000:vel_
cobot_dynamixel_driver/joint_states|name|J1,J2,J3,J4,J5,J6|pos|0.036466,-0.056908,0.106530,0.000013,-0.043067,0.000000|vel|0.268528,0.176306,0.000000,0.000000,-0.234740,0.000000|eff|708.984375,0.000000,-435.058594,0.000000,-44.311523,0.000000
cobot_dynamixel_driver/goal|-:J1,J2,J3,J4,J5,J6:0.261799,0.174533,-0.000000,0.000000,-0.261799,0.000000:vel_
cobot_dynamixel_driver/goal|-:J1,J2,J3,J4,J5,J6:0.261799,0.174533,-0.000000,0.000000,-0.261799,0.000000:vel_
cobot_dynamixel_driver/joint_states|name|J1,J2,J3,J4,J5,J6|pos|0.041586,-0.053340,0.106530,0.000013,-0.047763,0.000000|vel|0.274788,0.184861,0.000000,0.000000,-0.216816,0.000000|eff|612.304688,241.699219,-435.058594,0.000000,-64.453125,0.000000
cobot_dynamixel_driver/goal|-:J1,J2,J3,J4,J5,J6:0.261799,0.174533,-0.000000,0.000000,-0.261799,0.000000:vel_
cobot_dynamixel_driver/goal|-:J1,J2,J3,J4,J5,J6:0.261799,0.174533,-0.000000,0.000000,-0.261799,0.000000:vel_
cobot_dynamixel_driver/joint_states|name|J1,J2,J3,J4,J5,J6|pos|0.046655,-0.049848,0.106530,0.000013,-0.052955,0.000000|vel|0.268737,0.174637,0.000000,0.000000,-0.223021,0.000000|eff|580.078125,128.906250,-435.058594,0.000000,-48.339844,0.000000
cobot_dynamixel_driver/goal|-:J1,J2,J3,J4,J5,J6:0.261799,0.174533,-0.000000,0.000000,-0.261799,0.000000:vel_
cobot_dynamixel_driver/goal|-:J1,J2,J3,J4,J5,J6:0.261799,0.174533,-0.000000,0.000000,-0.261799,0.000000:vel_
cobot_dynamixel_driver/joint_states|name|J1,J2,J3,J4,J5,J6|pos|0.051738,-0.046267,0.106530,0.000013,-0.057692,0.000000|vel|0.263312,0.185278,0.000000,0.000000,-0.213024,0.000000|eff|322.265625,-96.679688,-435.058594,0.000000,-52.368164,0.000000
cobot_dynamixel_driver/goal|-:J1,J2,J3,J4,J5,J6:0.261799,0.174533,-0.000000,0.000000,-0.261799,0.000000:vel_
cobot_dynamixel_driver/joint_states|name|J1,J2,J3,J4,J5,J6|pos|0.056845,-0.042612,0.106530,0.000013,-0.062863,0.000000|vel|0.258096,0.187782,0.000000,0.000000,-0.216816,0.000000|eff|386.718750,209.472656,-435.058594,0.000000,-48.339844,0.000000
cobot_dynamixel_driver/goal|-:J1,J2,J3,J4,J5,J6:0.261799,0.174533,-0.000000,0.000000,-0.261799,0.000000:vel_
cobot_dynamixel_driver/goal|-:J1,J2,J3,J4,J5,J6:0.261799,0.174533,-0.000000,0.000000,-0.261799,0.000000:vel_
cobot_dynamixel_driver/joint_states|name|J1,J2,J3,J4,J5,J6|pos|0.061953,-0.039082,0.106530,0.000013,-0.067807,0.000000|vel|0.262477,0.168586,0.000000,0.000000,-0.214748,0.000000|eff|612.304688,0.000000,-435.058594,0.000000,-48.339844,0.000000
cobot_dynamixel_driver/goal|-:J1,J2,J3,J4,J5,J6:0.261799,0.174533,-0.000000,0.000000,-0.261799,0.000000:vel_
cobot_dynamixel_driver/goal|-:J1,J2,J3,J4,J5,J6:0.261799,0.174533,-0.000000,0.000000,-0.261799,0.000000:vel_
cobot_dynamixel_driver/joint_states|name|J1,J2,J3,J4,J5,J6|pos|0.067073,-0.035627,0.106530,0.000013,-0.072771,0.000000|vel|0.284385,0.180062,0.000000,0.000000,-0.226123,0.000000|eff|982.910156,96.679688,-435.058594,0.000000,-56.396484,0.000000
cobot_dynamixel_driver/goal|-:J1,J2,J3,J4,J5,J6:0.261799,0.174533,-0.000000,0.000000,-0.261799,0.000000:vel_
cobot_dynamixel_driver/goal|-:J1,J2,J3,J4,J5,J6:0.261799,0.174533,-0.000000,0.000000,-0.261799,0.000000:vel_
cobot_dynamixel_driver/joint_states|name|J1,J2,J3,J4,J5,J6|pos|0.072405,-0.031771,0.106530,0.000013,-0.077943,0.000000|vel|0.250167,0.190494,0.000000,0.000000,-0.266798,0.000000|eff|483.398438,-128.906250,-435.058594,0.000000,-76.538086,0.000000
cobot_dynamixel_driver/goal|-:J1,J2,J3,J4,J5,J6:0.261799,0.174533,-0.000000,0.000000,-0.261799,0.000000:vel_
cobot_dynamixel_driver/goal|-:J1,J2,J3,J4,J5,J6:0.261799,0.174533,-0.000000,0.000000,-0.261799,0.000000:vel_
cobot_dynamixel_driver/joint_states|name|J1,J2,J3,J4,J5,J6|pos|0.077200,-0.028304,0.106530,0.000013,-0.082638,0.000000|vel|0.267276,0.182149,0.000000,0.000000,-0.209577,0.000000|eff|757.324219,80.566406,-435.058594,0.000000,-56.396484,0.000000
cobot_dynamixel_driver/goal|-:J1,J2,J3,J4,J5,J6:0.261799,0.174533,-0.000000,0.000000,-0.261799,0.000000:vel_
cobot_dynamixel_driver/goal|-:J1,J2,J3,J4,J5,J6:0.261799,0.174533,-0.000000,0.000000,-0.261799,0.000000:vel_
cobot_dynamixel_driver/joint_states|name|J1,J2,J3,J4,J5,J6|pos|0.082282,-0.024886,0.106530,0.000013,-0.087603,0.000000|vel|0.265399,0.185904,0.000000,0.000000,-0.251975,0.000000|eff|628.417969,209.472656,-435.058594,0.000000,-44.311523,0.000000
cobot_dynamixel_driver/goal|-:J1,J2,J3,J4,J5,J6:0.261799,0.174533,-0.000000,0.000000,-0.261799,0.000000:vel_
cobot_dynamixel_driver/joint_states|name|J1,J2,J3,J4,J5,J6|pos|0.087390,-0.021431,0.106530,0.000025,-0.092546,0.000000|vel|0.256427,0.170256,0.000000,0.000000,-0.266798,0.000000|eff|596.191406,0.000000,-435.058594,0.000000,-48.339844,0.000000
cobot_dynamixel_driver/goal|-:J1,J2,J3,J4,J5,J6:0.261799,0.174533,-0.000000,0.000000,-0.261799,0.000000:vel_
cobot_dynamixel_driver/goal|-:J1,J2,J3,J4,J5,J6:0.261799,0.174533,-0.000000,0.000000,-0.261799,0.000000:vel_
cobot_dynamixel_driver/joint_states|name|J1,J2,J3,J4,J5,J6|pos|0.092748,-0.017788,0.106530,0.000025,-0.097490,0.000000|vel|0.258513,0.178184,0.000000,0.000000,-0.214403,0.000000|eff|531.738281,177.246094,-435.058594,0.000000,-80.566406,0.000000
cobot_dynamixel_driver/goal|-:J1,J2,J3,J4,J5,J6:0.261799,0.174533,-0.000000,0.000000,-0.261799,0.000000:vel_
cobot_dynamixel_driver/goal|-:J1,J2,J3,J4,J5,J6:0.261799,0.174533,-0.000000,0.000000,-0.261799,0.000000:vel_
cobot_dynamixel_driver/joint_states|name|J1,J2,J3,J4,J5,J6|pos|0.097555,-0.014408,0.106530,0.000025,-0.102455,0.000000|vel|0.267068,0.189243,0.000000,0.000000,-0.230604,0.000000|eff|290.039062,209.472656,-435.058594,0.000000,-40.283203,0.000000
cobot_dynamixel_driver/goal|-:J1,J2,J3,J4,J5,J6:0.261799,0.174533,-0.000000,0.000000,-0.261799,0.000000:vel_
cobot_dynamixel_driver/goal|-:J1,J2,J3,J4,J5,J6:0.261799,0.174533,-0.000000,0.000000,-0.261799,0.000000:vel_
cobot_dynamixel_driver/joint_states|name|J1,J2,J3,J4,J5,J6|pos|0.102612,-0.010828,0.106530,0.000025,-0.107440,0.000000|vel|0.272910,0.187573,0.000000,0.000000,-0.268176,0.000000|eff|676.757812,0.000000,-435.058594,0.000000,-24.169922,0.000000
cobot_dynamixel_driver/goal|-:J1,J2,J3,J4,J5,J6:0.261799,0.174533,-0.000000,0.000000,-0.261799,0.000000:vel_
cobot_dynamixel_driver/goal|-:J1,J2,J3,J4,J5,J6:0.261799,0.174533,-0.000000,0.000000,-0.261799,0.000000:vel_
cobot_dynamixel_driver/joint_states|name|J1,J2,J3,J4,J5,J6|pos|0.107707,-0.007286,0.106530,0.000025,-0.112342,0.000000|vel|0.258722,0.177767,0.000000,0.000000,-0.241290,0.000000|eff|950.683594,209.472656,-435.058594,0.000000,-44.311523,0.000000
cobot_dynamixel_driver/goal|-:J1,J2,J3,J4,J5,J6:0.261799,0.174533,-0.000000,0.000000,-0.261799,0.000000:vel_
cobot_dynamixel_driver/goal|-:J1,J2,J3,J4,J5,J6:0.261799,0.174533,-0.000000,0.000000,-0.261799,0.000000:vel_
cobot_dynamixel_driver/joint_states|name|J1,J2,J3,J4,J5,J6|pos|0.112802,-0.003781,0.106530,0.000025,-0.117307,0.000000|vel|0.268946,0.172759,0.000000,0.000000,-0.237498,0.000000|eff|918.457031,32.226562,-435.058594,0.000000,-36.254883,0.000000
cobot_dynamixel_driver/goal|-:J1,J2,J3,J4,J5,J6:0.261799,0.174533,-0.000000,0.000000,-0.261799,0.000000:vel_
cobot_dynamixel_driver/goal|-:J1,J2,J3,J4,J5,J6:0.261799,0.174533,-0.000000,0.000000,-0.261799,0.000000:vel_
cobot_dynamixel_driver/joint_states|name|J1,J2,J3,J4,J5,J6|pos|0.117909,-0.000075,0.106530,0.000025,-0.122251,0.000000|vel|0.252671,0.185904,0.000000,0.000000,-0.266798,0.000000|eff|741.210938,386.718750,-435.058594,0.000000,-52.368164,0.000000
cobot_dynamixel_driver/goal|-:J1,J2,J3,J4,J5,J6:0.261799,0.174533,-0.000000,0.000000,-0.261799,0.000000:vel_
cobot_dynamixel_driver/goal|-:J1,J2,J3,J4,J5,J6:0.261799,0.174533,-0.000000,0.000000,-0.261799,0.000000:vel_
cobot_dynamixel_driver/joint_states|name|J1,J2,J3,J4,J5,J6|pos|0.122979,0.003330,0.106530,0.000025,-0.127215,0.000000|vel|0.252671,0.190494,0.000000,0.000000,-0.227846,0.000000|eff|644.531250,225.585938,-435.058594,0.000000,-40.283203,0.000000
