surachairobotic/cobot/cobot_dynamixel_driver/log/2018-12-25T04:28:24.075035_driver_log.txt
cobot_dynamixel_driver/joint_states|name|J1,J2,J3,J4,J5,J6|pos|0.018227,-1.263152,1.294497,0.001014,-1.429484,-0.000083|vel|0.000000,-0.000000,0.000000,0.000000,0.000000,0.000000|eff|0.000000,0.000000,0.000000,0.000000,0.000000,0.000000
cobot_dynamixel_driver/joint_states|name|J1,J2,J3,J4,J5,J6|pos|0.018227,-1.263152,1.294497,0.001014,-1.429484,-0.000083|vel|0.000000,-0.000000,0.000000,0.000000,0.000000,0.000000|eff|0.000000,0.000000,0.000000,0.000000,0.000000,0.000000
cobot_dynamixel_driver/joint_states|name|J1,J2,J3,J4,J5,J6|pos|0.018227,-1.263152,1.294497,0.001014,-1.429484,-0.000083|vel|0.000000,-0.000000,0.000000,0.000000,0.000000,0.000000|eff|0.000000,0.000000,0.000000,0.000000,0.000000,0.000000
cobot_dynamixel_driver/joint_states|name|J1,J2,J3,J4,J5,J6|pos|0.018227,-1.263152,1.294497,0.001014,-1.429484,-0.000083|vel|0.000000,-0.000000,0.000000,0.000000,0.000000,0.000000|eff|0.000000,0.000000,0.000000,0.000000,0.000000,0.000000
cobot_dynamixel_driver/joint_states|name|J1,J2,J3,J4,J5,J6|pos|0.018227,-1.263152,1.294497,0.001014,-1.429484,-0.000083|vel|0.000000,-0.000000,0.000000,0.000000,0.000000,0.000000|eff|0.000000,0.000000,0.000000,0.000000,0.000000,0.000000
cobot_dynamixel_driver/joint_states|name|J1,J2,J3,J4,J5,J6|pos|0.018227,-1.263152,1.294497,0.001014,-1.429484,-0.000083|vel|0.000000,-0.000000,0.000000,0.000000,0.000000,0.000000|eff|0.000000,0.000000,0.000000,0.000000,0.000000,0.000000
cobot_dynamixel_driver/joint_states|name|J1,J2,J3,J4,J5,J6|pos|0.018227,-1.263152,1.294497,0.001014,-1.429484,-0.000083|vel|0.000000,-0.000000,0.000000,0.000000,0.000000,0.000000|eff|0.000000,0.000000,0.000000,0.000000,0.000000,0.000000
cobot_dynamixel_driver/joint_states|name|J1,J2,J3,J4,J5,J6|pos|0.018227,-1.263152,1.294497,0.001014,-1.429484,-0.000083|vel|0.000000,-0.000000,0.000000,0.000000,0.000000,0.000000|eff|0.000000,0.000000,0.000000,0.000000,0.000000,0.000000
cobot_dynamixel_driver/joint_states|name|J1,J2,J3,J4,J5,J6|pos|0.018227,-1.263152,1.294497,0.001014,-1.429484,-0.000083|vel|0.000000,-0.000000,0.000000,0.000000,0.000000,0.000000|eff|0.000000,0.000000,0.000000,0.000000,0.000000,0.000000
cobot_dynamixel_driver/joint_states|name|J1,J2,J3,J4,J5,J6|pos|0.018227,-1.263152,1.294497,0.001014,-1.429484,-0.000083|vel|0.000000,-0.000000,0.000000,0.000000,0.000000,0.000000|eff|0.000000,0.000000,0.000000,0.000000,0.000000,0.000000
cobot_dynamixel_driver/joint_states|name|J1,J2,J3,J4,J5,J6|pos|0.018227,-1.263152,1.294497,0.001014,-1.429484,-0.000083|vel|0.000000,-0.000000,0.000000,0.000000,0.000000,0.000000|eff|0.000000,0.000000,0.000000,0.000000,0.000000,0.000000
cobot_dynamixel_driver/joint_states|name|J1,J2,J3,J4,J5,J6|pos|0.018227,-1.263152,1.294497,0.001014,-1.429484,-0.000083|vel|0.000000,-0.000000,0.000000,0.000000,0.000000,0.000000|eff|0.000000,0.000000,0.000000,0.000000,0.000000,0.000000
cobot_dynamixel_driver/joint_states|name|J1,J2,J3,J4,J5,J6|pos|0.018227,-1.263152,1.294497,0.001014,-1.429484,-0.000083|vel|0.000000,-0.000000,0.000000,0.000000,0.000000,0.000000|eff|0.000000,0.000000,0.000000,0.000000,0.000000,0.000000
cobot_dynamixel_driver/joint_states|name|J1,J2,J3,J4,J5,J6|pos|0.018227,-1.263152,1.294497,0.001014,-1.429484,-0.000083|vel|0.000000,-0.000000,0.000000,0.000000,0.000000,0.000000|eff|0.000000,0.000000,0.000000,0.000000,0.000000,0.000000
cobot_dynamixel_driver/joint_states|name|J1,J2,J3,J4,J5,J6|pos|0.018227,-1.263152,1.294497,0.001014,-1.429484,-0.000083|vel|0.000000,-0.000000,0.000000,0.000000,0.000000,0.000000|eff|0.000000,0.000000,0.000000,0.000000,0.000000,0.000000
cobot_dynamixel_driver/joint_states|name|J1,J2,J3,J4,J5,J6|pos|0.018227,-1.263152,1.294497,0.001014,-1.429484,-0.000083|vel|0.000000,-0.000000,0.000000,0.000000,0.000000,0.000000|eff|0.000000,0.000000,0.000000,0.000000,0.000000,0.000000
cobot_dynamixel_driver/joint_states|name|J1,J2,J3,J4,J5,J6|pos|0.018227,-1.263152,1.294497,0.001014,-1.429484,-0.000083|vel|0.000000,-0.000000,0.000000,0.000000,0.000000,0.000000|eff|0.000000,0.000000,0.000000,0.000000,0.000000,0.000000
cobot_dynamixel_driver/joint_states|name|J1,J2,J3,J4,J5,J6|pos|0.018227,-1.263152,1.294497,0.001014,-1.429484,-0.000083|vel|0.000000,-0.000000,0.000000,0.000000,0.000000,0.000000|eff|0.000000,0.000000,0.000000,0.000000,0.000000,0.000000
cobot_dynamixel_driver/joint_states|name|J1,J2,J3,J4,J5,J6|pos|0.018227,-1.263152,1.294497,0.001014,-1.429484,-0.000083|vel|0.000000,-0.000000,0.000000,0.000000,0.000000,0.000000|eff|0.000000,0.000000,0.000000,0.000000,0.000000,0.000000
cobot_dynamixel_driver/joint_states|name|J1,J2,J3,J4,J5,J6|pos|0.018227,-1.263152,1.294497,0.001014,-1.429484,-0.000083|vel|0.000000,-0.000000,0.000000,0.000000,0.000000,0.000000|eff|0.000000,0.000000,0.000000,0.000000,0.000000,0.000000
cobot_dynamixel_driver/joint_states|name|J1,J2,J3,J4,J5,J6|pos|0.018227,-1.263152,1.294497,0.001014,-1.429484,-0.000083|vel|0.000000,-0.000000,0.000000,0.000000,0.000000,0.000000|eff|0.000000,0.000000,0.000000,0.000000,0.000000,0.000000
cobot_dynamixel_driver/joint_states|name|J1,J2,J3,J4,J5,J6|pos|0.018227,-1.263152,1.294497,0.001014,-1.429484,-0.000083|vel|0.000000,-0.000000,0.000000,0.000000,0.000000,0.000000|eff|0.000000,0.000000,0.000000,0.000000,0.000000,0.000000
cobot_dynamixel_driver/joint_states|name|J1,J2,J3,J4,J5,J6|pos|0.018227,-1.263152,1.294497,0.001014,-1.429484,-0.000083|vel|0.000000,-0.000000,0.000000,0.000000,0.000000,0.000000|eff|0.000000,0.000000,0.000000,0.000000,0.000000,8.056641
cobot_dynamixel_driver/joint_states|name|J1,J2,J3,J4,J5,J6|pos|0.018227,-1.263152,1.294497,0.001014,-1.429484,-0.000083|vel|0.000000,-0.000000,0.000000,0.000000,0.000000,0.000000|eff|0.000000,0.000000,0.000000,0.000000,0.000000,0.000000
cobot_dynamixel_driver/joint_states|name|J1,J2,J3,J4,J5,J6|pos|0.018227,-1.263152,1.294497,0.001014,-1.429484,-0.000083|vel|0.000000,-0.000000,0.000000,0.000000,0.000000,0.000000|eff|0.000000,0.000000,0.000000,0.000000,0.000000,8.056641
cobot_dynamixel_driver/joint_states|name|J1,J2,J3,J4,J5,J6|pos|0.018227,-1.263152,1.294497,0.001014,-1.429484,-0.000083|vel|0.000000,-0.000000,0.000000,0.000000,0.000000,0.000000|eff|0.000000,0.000000,0.000000,0.000000,0.000000,0.000000
cobot_dynamixel_driver/joint_states|name|J1,J2,J3,J4,J5,J6|pos|0.018227,-1.263152,1.294497,0.001014,-1.429484,-0.000083|vel|0.000000,-0.000000,0.000000,0.000000,0.000000,0.000000|eff|0.000000,0.000000,0.000000,0.000000,0.000000,0.000000
cobot_dynamixel_driver/joint_states|name|J1,J2,J3,J4,J5,J6|pos|0.018227,-1.263152,1.294497,0.001014,-1.429484,-0.000083|vel|0.000000,-0.000000,0.000000,0.000000,0.000000,0.000000|eff|0.000000,0.000000,0.000000,0.000000,0.000000,0.000000
cobot_dynamixel_driver/joint_states|name|J1,J2,J3,J4,J5,J6|pos|0.018227,-1.263152,1.294497,0.001014,-1.429484,-0.000083|vel|0.000000,-0.000000,0.000000,0.000000,0.000000,0.000000|eff|0.000000,0.000000,0.000000,0.000000,0.000000,0.000000
cobot_dynamixel_driver/joint_states|name|J1,J2,J3,J4,J5,J6|pos|0.018227,-1.263152,1.294497,0.001014,-1.429484,-0.000083|vel|0.000000,-0.000000,0.000000,0.000000,0.000000,0.000000|eff|0.000000,0.000000,0.000000,0.000000,0.000000,0.000000
cobot_dynamixel_driver/joint_states|name|J1,J2,J3,J4,J5,J6|pos|0.018227,-1.263152,1.294497,0.001014,-1.429484,-0.000083|vel|0.000000,-0.000000,0.000000,0.000000,0.000000,0.000000|eff|0.000000,0.000000,0.000000,0.000000,0.000000,0.000000
cobot_dynamixel_driver/joint_states|name|J1,J2,J3,J4,J5,J6|pos|0.018227,-1.263152,1.294497,0.001014,-1.429484,-0.000083|vel|0.000000,-0.000000,0.000000,0.000000,0.000000,0.000000|eff|0.000000,0.000000,0.000000,0.000000,0.000000,0.000000
cobot_dynamixel_driver/joint_states|name|J1,J2,J3,J4,J5,J6|pos|0.018227,-1.263152,1.294497,0.001014,-1.429484,-0.000083|vel|0.000000,-0.000000,0.000000,0.000000,0.000000,0.000000|eff|0.000000,0.000000,0.000000,0.000000,0.000000,0.000000
cobot_dynamixel_driver/joint_states|name|J1,J2,J3,J4,J5,J6|pos|0.018227,-1.263152,1.294497,0.001014,-1.429484,-0.000083|vel|0.000000,-0.000000,0.000000,0.000000,0.000000,0.000000|eff|0.000000,0.000000,0.000000,0.000000,0.000000,0.000000
cobot_dynamixel_driver/joint_states|name|J1,J2,J3,J4,J5,J6|pos|0.018227,-1.263152,1.294497,0.001014,-1.429484,-0.000083|vel|0.000000,-0.000000,0.000000,0.000000,0.000000,0.000000|eff|0.000000,0.000000,0.000000,0.000000,0.000000,0.000000
cobot_dynamixel_driver/joint_states|name|J1,J2,J3,J4,J5,J6|pos|0.018227,-1.263152,1.294497,0.001014,-1.429484,-0.000083|vel|0.000000,-0.000000,0.000000,0.000000,0.000000,0.000000|eff|0.000000,0.000000,0.000000,0.000000,0.000000,0.000000
cobot_dynamixel_driver/joint_states|name|J1,J2,J3,J4,J5,J6|pos|0.018227,-1.263152,1.294497,0.001014,-1.429484,-0.000083|vel|0.000000,-0.000000,0.000000,0.000000,0.000000,0.000000|eff|0.000000,0.000000,0.000000,0.000000,0.000000,0.000000
cobot_dynamixel_driver/joint_states|name|J1,J2,J3,J4,J5,J6|pos|0.018227,-1.263152,1.294497,0.001014,-1.429484,-0.000083|vel|0.000000,-0.000000,0.000000,0.000000,0.000000,0.000000|eff|0.000000,0.000000,0.000000,0.000000,0.000000,0.000000
cobot_dynamixel_driver/joint_states|name|J1,J2,J3,J4,J5,J6|pos|0.018227,-1.263152,1.294497,0.001014,-1.429484,-0.000083|vel|0.000000,-0.000000,0.000000,0.000000,0.000000,0.000000|eff|0.000000,0.000000,0.000000,0.000000,0.000000,0.000000
cobot_dynamixel_driver/joint_states|name|J1,J2,J3,J4,J5,J6|pos|0.018227,-1.263152,1.294497,0.001014,-1.429484,-0.000083|vel|0.000000,-0.000000,0.000000,0.000000,0.000000,0.000000|eff|0.000000,0.000000,0.000000,0.000000,0.000000,0.000000
cobot_dynamixel_driver/joint_states|name|J1,J2,J3,J4,J5,J6|pos|0.018227,-1.263152,1.294497,0.001014,-1.429484,-0.000083|vel|0.000000,-0.000000,0.000000,0.000000,0.000000,0.000000|eff|0.000000,0.000000,0.000000,0.000000,0.000000,0.000000
cobot_dynamixel_driver/joint_states|name|J1,J2,J3,J4,J5,J6|pos|0.018227,-1.263152,1.294497,0.001014,-1.429484,-0.000083|vel|0.000000,-0.000000,0.000000,0.000000,0.000000,0.000000|eff|0.000000,0.000000,0.000000,0.000000,0.000000,0.000000
cobot_dynamixel_driver/joint_states|name|J1,J2,J3,J4,J5,J6|pos|0.018227,-1.263152,1.294497,0.001014,-1.429484,-0.000083|vel|0.000000,-0.000000,0.000000,0.000000,0.000000,0.000000|eff|0.000000,0.000000,0.000000,0.000000,0.000000,0.000000
cobot_dynamixel_driver/joint_states|name|J1,J2,J3,J4,J5,J6|pos|0.018227,-1.263152,1.294497,0.001014,-1.429484,-0.000083|vel|0.000000,-0.000000,0.000000,0.000000,0.000000,0.000000|eff|0.000000,0.000000,0.000000,0.000000,0.000000,0.000000
cobot_dynamixel_driver/joint_states|name|J1,J2,J3,J4,J5,J6|pos|0.018227,-1.263152,1.294497,0.001014,-1.429484,-0.000083|vel|0.000000,-0.000000,0.000000,0.000000,0.000000,0.000000|eff|0.000000,0.000000,0.000000,0.000000,0.000000,0.000000
cobot_dynamixel_driver/joint_states|name|J1,J2,J3,J4,J5,J6|pos|0.018227,-1.263152,1.294497,0.001014,-1.429484,-0.000083|vel|0.000000,-0.000000,0.000000,0.000000,0.000000,0.000000|eff|0.000000,0.000000,0.000000,0.000000,0.000000,0.000000
cobot_dynamixel_driver/joint_states|name|J1,J2,J3,J4,J5,J6|pos|0.018227,-1.263152,1.294497,0.001014,-1.429484,-0.000083|vel|0.000000,-0.000000,0.000000,0.000000,0.000000,0.000000|eff|0.000000,0.000000,0.000000,0.000000,0.000000,0.000000
cobot_dynamixel_driver/joint_states|name|J1,J2,J3,J4,J5,J6|pos|0.018227,-1.263152,1.294497,0.001014,-1.429484,-0.000083|vel|0.000000,-0.000000,0.000000,0.000000,0.000000,0.000000|eff|0.000000,0.000000,0.000000,0.000000,0.000000,0.000000
cobot_dynamixel_driver/joint_states|name|J1,J2,J3,J4,J5,J6|pos|0.018227,-1.263152,1.294497,0.001014,-1.429484,-0.000083|vel|0.000000,-0.000000,0.000000,0.000000,0.000000,0.000000|eff|0.000000,0.000000,0.000000,0.000000,0.000000,0.000000
cobot_dynamixel_driver/joint_states|name|J1,J2,J3,J4,J5,J6|pos|0.018227,-1.263152,1.294497,0.001014,-1.429484,-0.000083|vel|0.000000,-0.000000,0.000000,0.000000,0.000000,0.000000|eff|0.000000,0.000000,0.000000,0.000000,0.000000,0.000000
cobot_dynamixel_driver/joint_states|name|J1,J2,J3,J4,J5,J6|pos|0.018227,-1.263152,1.294497,0.001014,-1.429484,-0.000083|vel|0.000000,-0.000000,0.000000,0.000000,0.000000,0.000000|eff|0.000000,0.000000,0.000000,0.000000,0.000000,0.000000
cobot_dynamixel_driver/joint_states|name|J1,J2,J3,J4,J5,J6|pos|0.018227,-1.263152,1.294497,0.001014,-1.429484,-0.000083|vel|0.000000,-0.000000,0.000000,0.000000,0.000000,0.000000|eff|0.000000,0.000000,0.000000,0.000000,0.000000,0.000000
cobot_dynamixel_driver/joint_states|name|J1,J2,J3,J4,J5,J6|pos|0.018227,-1.263152,1.294497,0.001014,-1.429484,-0.000083|vel|0.000000,-0.000000,0.000000,0.000000,0.000000,0.000000|eff|0.000000,0.000000,0.000000,0.000000,0.000000,0.000000
cobot_dynamixel_driver/joint_states|name|J1,J2,J3,J4,J5,J6|pos|0.018227,-1.263152,1.294497,0.001014,-1.429484,-0.000083|vel|0.000000,-0.000000,0.000000,0.000000,0.000000,0.000000|eff|0.000000,0.000000,0.000000,0.000000,0.000000,0.000000
cobot_dynamixel_driver/joint_states|name|J1,J2,J3,J4,J5,J6|pos|0.018227,-1.263152,1.294497,0.001014,-1.429484,-0.000083|vel|0.000000,-0.000000,0.000000,0.000000,0.000000,0.000000|eff|0.000000,0.000000,0.000000,0.000000,0.000000,0.000000
cobot_dynamixel_driver/joint_states|name|J1,J2,J3,J4,J5,J6|pos|0.018227,-1.263152,1.294497,0.001014,-1.429484,-0.000083|vel|0.000000,-0.000000,0.000000,0.000000,0.000000,0.000000|eff|0.000000,0.000000,0.000000,0.000000,0.000000,0.000000
cobot_dynamixel_driver/joint_states|name|J1,J2,J3,J4,J5,J6|pos|0.018227,-1.263152,1.294497,0.001014,-1.429484,-0.000083|vel|0.000000,-0.000000,0.000000,0.000000,0.000000,0.000000|eff|0.000000,0.000000,0.000000,0.000000,0.000000,0.000000
cobot_dynamixel_driver/joint_states|name|J1,J2,J3,J4,J5,J6|pos|0.018227,-1.263152,1.294497,0.001014,-1.429484,-0.000083|vel|0.000000,-0.000000,0.000000,0.000000,0.000000,0.000000|eff|0.000000,0.000000,0.000000,0.000000,0.000000,0.000000
cobot_dynamixel_driver/joint_states|name|J1,J2,J3,J4,J5,J6|pos|0.018227,-1.263152,1.294497,0.001014,-1.429484,-0.000083|vel|0.000000,-0.000000,0.000000,0.000000,0.000000,0.000000|eff|0.000000,0.000000,0.000000,0.000000,0.000000,0.000000
cobot_dynamixel_driver/joint_states|name|J1,J2,J3,J4,J5,J6|pos|0.018227,-1.263152,1.294497,0.001014,-1.429484,-0.000083|vel|0.000000,-0.000000,0.000000,0.000000,0.000000,0.000000|eff|0.000000,0.000000,0.000000,0.000000,0.000000,0.000000
cobot_dynamixel_driver/joint_states|name|J1,J2,J3,J4,J5,J6|pos|0.018227,-1.263152,1.294497,0.001014,-1.429484,-0.000083|vel|0.000000,-0.000000,0.000000,0.000000,0.000000,0.000000|eff|0.000000,0.000000,0.000000,0.000000,0.000000,0.000000
cobot_dynamixel_driver/joint_states|name|J1,J2,J3,J4,J5,J6|pos|0.018227,-1.263152,1.294497,0.001014,-1.429484,-0.000083|vel|0.000000,-0.000000,0.000000,0.000000,0.000000,0.000000|eff|0.000000,0.000000,0.000000,0.000000,0.000000,0.000000
cobot_dynamixel_driver/joint_states|name|J1,J2,J3,J4,J5,J6|pos|0.018227,-1.263152,1.294497,0.001014,-1.429484,-0.000083|vel|0.000000,-0.000000,0.000000,0.000000,0.000000,0.000000|eff|0.000000,0.000000,0.000000,0.000000,0.000000,0.000000
cobot_dynamixel_driver/joint_states|name|J1,J2,J3,J4,J5,J6|pos|0.018227,-1.263152,1.294497,0.001014,-1.429484,-0.000083|vel|0.000000,-0.000000,0.000000,0.000000,0.000000,0.000000|eff|0.000000,0.000000,0.000000,0.000000,0.000000,0.000000
cobot_dynamixel_driver/joint_states|name|J1,J2,J3,J4,J5,J6|pos|0.018227,-1.263152,1.294497,0.001014,-1.429484,-0.000083|vel|0.000000,-0.000000,0.000000,0.000000,0.000000,0.000000|eff|0.000000,0.000000,0.000000,0.000000,0.000000,0.000000
cobot_dynamixel_driver/joint_states|name|J1,J2,J3,J4,J5,J6|pos|0.018227,-1.263152,1.294497,0.001014,-1.429484,-0.000083|vel|0.000000,-0.000000,0.000000,0.000000,0.000000,0.000000|eff|0.000000,0.000000,0.000000,0.000000,0.000000,0.000000
cobot_dynamixel_driver/joint_states|name|J1,J2,J3,J4,J5,J6|pos|0.018227,-1.263152,1.294497,0.001014,-1.429484,-0.000083|vel|0.000000,-0.000000,0.000000,0.000000,0.000000,0.000000|eff|0.000000,0.000000,0.000000,0.000000,0.000000,0.000000
cobot_dynamixel_driver/joint_states|name|J1,J2,J3,J4,J5,J6|pos|0.018227,-1.263152,1.294497,0.001014,-1.429484,-0.000083|vel|0.000000,-0.000000,0.000000,0.000000,0.000000,0.000000|eff|0.000000,0.000000,0.000000,0.000000,0.000000,0.000000
cobot_dynamixel_driver/joint_states|name|J1,J2,J3,J4,J5,J6|pos|0.018227,-1.263152,1.294497,0.001014,-1.429484,-0.000083|vel|0.000000,-0.000000,0.000000,0.000000,0.000000,0.000000|eff|0.000000,0.000000,0.000000,0.000000,0.000000,0.000000
cobot_dynamixel_driver/joint_states|name|J1,J2,J3,J4,J5,J6|pos|0.018227,-1.263152,1.294497,0.001014,-1.429484,-0.000083|vel|0.000000,-0.000000,0.000000,0.000000,0.000000,0.000000|eff|0.000000,0.000000,0.000000,0.000000,0.000000,0.000000
cobot_dynamixel_driver/joint_states|name|J1,J2,J3,J4,J5,J6|pos|0.018227,-1.263152,1.294497,0.001014,-1.429484,-0.000083|vel|0.000000,-0.000000,0.000000,0.000000,0.000000,0.000000|eff|0.000000,0.000000,0.000000,0.000000,0.000000,0.000000
cobot_dynamixel_driver/joint_states|name|J1,J2,J3,J4,J5,J6|pos|0.018227,-1.263152,1.294497,0.001014,-1.429484,-0.000083|vel|0.000000,-0.000000,0.000000,0.000000,0.000000,0.000000|eff|0.000000,0.000000,0.000000,0.000000,0.000000,0.000000
cobot_dynamixel_driver/joint_states|name|J1,J2,J3,J4,J5,J6|pos|0.018227,-1.263152,1.294497,0.001014,-1.429484,-0.000083|vel|0.000000,-0.000000,0.000000,0.000000,0.000000,0.000000|eff|0.000000,0.000000,0.000000,0.000000,0.000000,0.000000
cobot_dynamixel_driver/joint_states|name|J1,J2,J3,J4,J5,J6|pos|0.018227,-1.263152,1.294497,0.001014,-1.429484,-0.000083|vel|0.000000,-0.000000,0.000000,0.000000,0.000000,0.000000|eff|0.000000,0.000000,0.000000,0.000000,0.000000,0.000000
cobot_dynamixel_driver/joint_states|name|J1,J2,J3,J4,J5,J6|pos|0.018227,-1.263152,1.294497,0.001014,-1.429484,-0.000083|vel|0.000000,-0.000000,0.000000,0.000000,0.000000,0.000000|eff|0.000000,0.000000,0.000000,0.000000,0.000000,0.000000
cobot_dynamixel_driver/joint_states|name|J1,J2,J3,J4,J5,J6|pos|0.018227,-1.263152,1.294497,0.001014,-1.429484,-0.000083|vel|0.000000,-0.000000,0.000000,0.000000,0.000000,0.000000|eff|0.000000,0.000000,0.000000,0.000000,0.000000,0.000000
cobot_dynamixel_driver/joint_states|name|J1,J2,J3,J4,J5,J6|pos|0.018227,-1.263152,1.294497,0.001014,-1.429484,-0.000083|vel|0.000000,-0.000000,0.000000,0.000000,0.000000,0.000000|eff|0.000000,0.000000,0.000000,0.000000,0.000000,0.000000
cobot_dynamixel_driver/joint_states|name|J1,J2,J3,J4,J5,J6|pos|0.018227,-1.263152,1.294497,0.001014,-1.429484,-0.000083|vel|0.000000,-0.000000,0.000000,0.000000,0.000000,0.000000|eff|0.000000,0.000000,0.000000,0.000000,0.000000,0.000000
cobot_dynamixel_driver/joint_states|name|J1,J2,J3,J4,J5,J6|pos|0.018227,-1.263152,1.294497,0.001014,-1.429484,-0.000083|vel|0.000000,-0.000000,0.000000,0.000000,0.000000,0.000000|eff|0.000000,0.000000,0.000000,0.000000,0.000000,0.000000
cobot_dynamixel_driver/joint_states|name|J1,J2,J3,J4,J5,J6|pos|0.018227,-1.263152,1.294497,0.001014,-1.429484,-0.000083|vel|0.000000,-0.000000,0.000000,0.000000,0.000000,0.000000|eff|0.000000,0.000000,0.000000,0.000000,0.000000,0.000000
cobot_dynamixel_driver/joint_states|name|J1,J2,J3,J4,J5,J6|pos|0.018227,-1.263152,1.294497,0.001014,-1.429484,-0.000083|vel|0.000000,-0.000000,0.000000,0.000000,0.000000,0.000000|eff|0.000000,0.000000,0.000000,0.000000,0.000000,0.000000
cobot_dynamixel_driver/joint_states|name|J1,J2,J3,J4,J5,J6|pos|0.018227,-1.263152,1.294497,0.001014,-1.429484,-0.000083|vel|0.000000,-0.000000,0.000000,0.000000,0.000000,0.000000|eff|0.000000,0.000000,0.000000,0.000000,0.000000,0.000000
cobot_dynamixel_driver/joint_states|name|J1,J2,J3,J4,J5,J6|pos|0.018227,-1.263152,1.294497,0.001014,-1.429484,-0.000083|vel|0.000000,-0.000000,0.000000,0.000000,0.000000,0.000000|eff|0.000000,0.000000,0.000000,0.000000,0.000000,0.000000
cobot_dynamixel_driver/joint_states|name|J1,J2,J3,J4,J5,J6|pos|0.018227,-1.263152,1.294497,0.001014,-1.429484,-0.000083|vel|0.000000,-0.000000,0.000000,0.000000,0.000000,0.000000|eff|0.000000,0.000000,0.000000,0.000000,0.000000,0.000000
cobot_dynamixel_driver/joint_states|name|J1,J2,J3,J4,J5,J6|pos|0.018227,-1.263152,1.294497,0.001014,-1.429484,-0.000083|vel|0.000000,-0.000000,0.000000,0.000000,0.000000,0.000000|eff|0.000000,0.000000,0.000000,0.000000,0.000000,0.000000
cobot_dynamixel_driver/joint_states|name|J1,J2,J3,J4,J5,J6|pos|0.018227,-1.263152,1.294497,0.001014,-1.429484,-0.000083|vel|0.000000,-0.000000,0.000000,0.000000,0.000000,0.000000|eff|0.000000,0.000000,0.000000,0.000000,0.000000,0.000000
cobot_dynamixel_driver/joint_states|name|J1,J2,J3,J4,J5,J6|pos|0.018227,-1.263152,1.294497,0.001014,-1.429484,-0.000083|vel|0.000000,-0.000000,0.000000,0.000000,0.000000,0.000000|eff|0.000000,0.000000,0.000000,0.000000,0.000000,-8.056641
cobot_dynamixel_driver/joint_states|name|J1,J2,J3,J4,J5,J6|pos|0.018227,-1.263152,1.294497,0.001014,-1.429484,-0.000083|vel|0.000000,-0.000000,0.000000,0.000000,0.000000,0.000000|eff|0.000000,0.000000,0.000000,0.000000,0.000000,0.000000
cobot_dynamixel_driver/joint_states|name|J1,J2,J3,J4,J5,J6|pos|0.018227,-1.263152,1.294497,0.001014,-1.429484,-0.000083|vel|0.000000,-0.000000,0.000000,0.000000,0.000000,0.000000|eff|0.000000,0.000000,0.000000,0.000000,0.000000,0.000000
cobot_dynamixel_driver/joint_states|name|J1,J2,J3,J4,J5,J6|pos|0.018227,-1.263152,1.294497,0.001014,-1.429484,-0.000083|vel|0.000000,-0.000000,0.000000,0.000000,0.000000,0.000000|eff|0.000000,0.000000,0.000000,0.000000,0.000000,0.000000
cobot_dynamixel_driver/joint_states|name|J1,J2,J3,J4,J5,J6|pos|0.018227,-1.263152,1.294497,0.001014,-1.429484,-0.000083|vel|0.000000,-0.000000,0.000000,0.000000,0.000000,0.000000|eff|0.000000,0.000000,0.000000,0.000000,0.000000,0.000000
cobot_dynamixel_driver/joint_states|name|J1,J2,J3,J4,J5,J6|pos|0.018227,-1.263152,1.294497,0.001014,-1.429484,-0.000083|vel|0.000000,-0.000000,0.000000,0.000000,0.000000,0.000000|eff|0.000000,0.000000,0.000000,0.000000,0.000000,0.000000
cobot_dynamixel_driver/joint_states|name|J1,J2,J3,J4,J5,J6|pos|0.018227,-1.263152,1.294497,0.001014,-1.429484,-0.000083|vel|0.000000,-0.000000,0.000000,0.000000,0.000000,0.000000|eff|0.000000,0.000000,0.000000,0.000000,0.000000,0.000000
cobot_dynamixel_driver/joint_states|name|J1,J2,J3,J4,J5,J6|pos|0.018227,-1.263152,1.294497,0.001014,-1.429484,-0.000083|vel|0.000000,-0.000000,0.000000,0.000000,0.000000,0.000000|eff|0.000000,0.000000,0.000000,0.000000,0.000000,0.000000
cobot_dynamixel_driver/joint_states|name|J1,J2,J3,J4,J5,J6|pos|0.018227,-1.263152,1.294497,0.001014,-1.429484,-0.000083|vel|0.000000,-0.000000,0.000000,0.000000,0.000000,0.000000|eff|0.000000,0.000000,0.000000,0.000000,0.000000,0.000000
cobot_dynamixel_driver/joint_states|name|J1,J2,J3,J4,J5,J6|pos|0.018227,-1.263152,1.294497,0.001014,-1.429484,-0.000083|vel|0.000000,-0.000000,0.000000,0.000000,0.000000,0.000000|eff|0.000000,0.000000,0.000000,0.000000,0.000000,0.000000
cobot_dynamixel_driver/joint_states|name|J1,J2,J3,J4,J5,J6|pos|0.018227,-1.263152,1.294497,0.001014,-1.429484,-0.000083|vel|0.000000,-0.000000,0.000000,0.000000,0.000000,0.000000|eff|0.000000,0.000000,0.000000,0.000000,0.000000,0.000000
cobot_dynamixel_driver/joint_states|name|J1,J2,J3,J4,J5,J6|pos|0.018227,-1.263152,1.294497,0.001014,-1.429484,-0.000083|vel|0.000000,-0.000000,0.000000,0.000000,0.000000,0.000000|eff|0.000000,0.000000,0.000000,0.000000,0.000000,0.000000
cobot_dynamixel_driver/joint_states|name|J1,J2,J3,J4,J5,J6|pos|0.018227,-1.263152,1.294497,0.001014,-1.429484,-0.000083|vel|0.000000,-0.000000,0.000000,0.000000,0.000000,0.000000|eff|0.000000,0.000000,0.000000,0.000000,0.000000,0.000000
cobot_dynamixel_driver/joint_states|name|J1,J2,J3,J4,J5,J6|pos|0.018227,-1.263152,1.294497,0.001014,-1.429484,-0.000083|vel|0.000000,-0.000000,0.000000,0.000000,0.000000,0.000000|eff|0.000000,0.000000,0.000000,0.000000,0.000000,0.000000
cobot_dynamixel_driver/joint_states|name|J1,J2,J3,J4,J5,J6|pos|0.018227,-1.263152,1.294497,0.001014,-1.429484,-0.000083|vel|0.000000,-0.000000,0.000000,0.000000,0.000000,0.000000|eff|0.000000,0.000000,0.000000,0.000000,0.000000,0.000000
cobot_dynamixel_driver/goal|-:J1,J2,J3,J4,J5,J6:0.000000,0.000000,0.000000,0.000000,0.000000,0.000000:0.700000,0.700000,0.700000,0.700000,0.700000,0.700000:pos_vel_
cobot_dynamixel_driver/joint_states|name|J1,J2,J3,J4,J5,J6|pos|0.018227,-1.266694,1.294497,0.001014,-1.429484,-0.000083|vel|0.000000,-0.000000,0.000000,0.000000,0.000000,0.000000|eff|0.000000,0.000000,0.000000,0.000000,32.226562,0.000000
cobot_dynamixel_driver/joint_states|name|J1,J2,J3,J4,J5,J6|pos|0.017989,-1.266331,1.294172,0.001014,-1.428553,-0.000083|vel|-0.031714,0.034635,-0.031923,0.000000,0.091345,0.000000|eff|-676.757812,-531.738281,-483.398438,-145.019531,128.906250,0.000000
cobot_dynamixel_driver/joint_states|name|J1,J2,J3,J4,J5,J6|pos|0.016098,-1.264378,1.292194,0.001001,-1.424499,-0.000083|vel|-0.091805,0.111417,-0.114964,0.000000,0.214403,0.000000|eff|-580.078125,-1305.175781,-1031.250000,-96.679688,112.792969,0.000000
cobot_dynamixel_driver/joint_states|name|J1,J2,J3,J4,J5,J6|pos|0.013657,-1.260297,1.288263,0.000989,-1.417735,-0.000083|vel|-0.089509,0.204891,-0.200092,-0.000209,0.333669,0.000000|eff|-435.058594,-2062.500000,-1820.800781,-209.472656,64.453125,0.000000
cobot_dynamixel_driver/joint_states|name|J1,J2,J3,J4,J5,J6|pos|0.011329,-1.253675,1.280852,0.000926,-1.409150,-0.000083|vel|-0.083876,0.296696,-0.317560,-0.002712,0.375033,0.000000|eff|-354.492188,-837.890625,-1434.082031,-193.359375,64.453125,0.000000
cobot_dynamixel_driver/joint_states|name|J1,J2,J3,J4,J5,J6|pos|0.009401,-1.244462,1.270850,0.000814,-1.399056,-0.000083|vel|-0.069479,0.386205,-0.414164,-0.003964,0.350215,0.000000|eff|-386.718750,-2288.085938,-1434.082031,-225.585938,76.538086,0.000000
cobot_dynamixel_driver/joint_states|name|J1,J2,J3,J4,J5,J6|pos|0.007699,-1.233396,1.258895,0.000701,-1.387555,-0.000083|vel|-0.061551,0.440870,-0.480096,-0.003130,0.430185,0.000000|eff|-241.699219,-2239.746094,-1514.648438,-177.246094,52.368164,0.000000
cobot_dynamixel_driver/joint_states|name|J1,J2,J3,J4,J5,J6|pos|0.006309,-1.220940,1.246340,0.000613,-1.374564,-0.000083|vel|-0.045068,0.502004,-0.445669,-0.004173,0.545315,0.000000|eff|-290.039062,-2562.011719,-870.117188,-161.132812,84.594727,0.000000
cobot_dynamixel_driver/joint_states|name|J1,J2,J3,J4,J5,J6|pos|0.005220,-1.207145,1.232908,0.000513,-1.361140,-0.000083|vel|-0.039017,0.523077,-0.548323,-0.003756,0.557379,0.000000|eff|-225.585938,-2336.425781,-1643.554688,-209.472656,36.254883,0.000000
cobot_dynamixel_driver/joint_states|name|J1,J2,J3,J4,J5,J6|pos|0.004231,-1.192711,1.218461,0.000388,-1.346867,-0.000083|vel|-0.034218,0.568562,-0.558756,-0.004799,0.492231,0.000000|eff|-145.019531,-2755.371094,-1756.347656,-193.359375,28.198242,8.056641
cobot_dynamixel_driver/joint_states|name|J1,J2,J3,J4,J5,J6|pos|0.003468,-1.177439,1.203365,0.000288,-1.331973,-0.000083|vel|-0.026289,0.597564,-0.561677,-0.003547,0.493610,0.000000|eff|-193.359375,-1111.816406,-692.871094,-209.472656,56.396484,8.056641
cobot_dynamixel_driver/joint_states|name|J1,J2,J3,J4,J5,J6|pos|0.002879,-1.161754,1.187967,0.000200,-1.316501,-0.000083|vel|-0.022325,0.585880,-0.615299,-0.002921,0.672854,0.000000|eff|-177.246094,-1272.949219,-1337.402344,-177.246094,32.226562,8.056641
cobot_dynamixel_driver/joint_states|name|J1,J2,J3,J4,J5,J6|pos|0.002341,-1.145593,1.172006,0.000138,-1.300573,-0.000083|vel|-0.017944,0.615299,-0.628444,-0.002295,0.526356,0.000000|eff|-177.246094,-1208.496094,-773.437500,-177.246094,16.113281,8.056641
cobot_dynamixel_driver/joint_states|name|J1,J2,J3,J4,J5,J6|pos|0.001940,-1.129106,1.155708,0.000088,-1.284935,-0.000083|vel|-0.014188,0.614882,-0.640128,-0.001878,0.612187,0.000000|eff|-209.472656,-2449.218750,-1740.234375,-177.246094,36.254883,12.084961
cobot_dynamixel_driver/joint_states|name|J1,J2,J3,J4,J5,J6|pos|0.001602,-1.112357,1.139046,0.000050,-1.267724,-0.000083|vel|-0.010224,0.639502,-0.582541,-0.001878,0.638384,0.000000|eff|-209.472656,-3303.222656,-1256.835938,-112.792969,0.000000,12.084961
cobot_dynamixel_driver/joint_states|name|J1,J2,J3,J4,J5,J6|pos|0.001327,-1.095307,1.121984,0.000038,-1.251631,-0.000083|vel|-0.010850,0.639919,-0.668504,-0.001878,0.731108,0.000000|eff|-177.246094,-1579.101562,-773.437500,-193.359375,44.311523,16.113281
cobot_dynamixel_driver/joint_states|name|J1,J2,J3,J4,J5,J6|pos|0.001064,-1.077932,1.104921,0.000038,-1.234483,-0.000083|vel|-0.009180,0.671634,-0.646387,-0.000417,0.651827,0.000000|eff|-241.699219,-2271.972656,-1176.269531,-145.019531,72.509766,16.113281
cobot_dynamixel_driver/joint_states|name|J1,J2,J3,J4,J5,J6|pos|0.000889,-1.060494,1.087508,0.000038,-1.217231,-0.000083|vel|-0.005425,0.699175,-0.620724,-0.000417,0.630111,0.000000|eff|-193.359375,-1353.515625,-692.871094,-193.359375,0.000000,12.084961
cobot_dynamixel_driver/joint_states|name|J1,J2,J3,J4,J5,J6|pos|0.000726,-1.042756,1.069895,0.000038,-1.199856,-0.000083|vel|-0.006259,0.651186,-0.712111,-0.000417,0.605982,0.000000|eff|-193.359375,-563.964844,-1434.082031,-161.132812,12.084961,12.084961
cobot_dynamixel_driver/joint_states|name|J1,J2,J3,J4,J5,J6|pos|0.000626,-1.025092,1.052257,0.000025,-1.182397,-0.000083|vel|-0.003338,0.650769,-0.682900,-0.000417,0.651482,0.000000|eff|-145.019531,-580.078125,-1836.914062,-112.792969,56.396484,16.113281
cobot_dynamixel_driver/joint_states|name|J1,J2,J3,J4,J5,J6|pos|0.000526,-1.007329,1.034719,0.000025,-1.164877,-0.000083|vel|-0.004173,0.682900,-0.688951,-0.000417,0.671130,0.000000|eff|-161.132812,-499.511719,-1450.195312,-177.246094,48.339844,20.141602
cobot_dynamixel_driver/joint_states|name|J1,J2,J3,J4,J5,J6|pos|0.000413,-0.989591,1.016743,0.000025,-1.147149,-0.000083|vel|-0.003547,0.656611,-0.621767,0.000000,0.681816,0.000000|eff|-112.792969,-435.058594,-1466.308594,-112.792969,72.509766,12.084961
cobot_dynamixel_driver/joint_states|name|J1,J2,J3,J4,J5,J6|pos|0.000300,-0.971514,0.999167,0.000025,-1.129484,-0.000083|vel|-0.005216,0.704182,-0.706269,0.000000,0.704221,0.000000|eff|-145.019531,-1466.308594,-644.531250,-161.132812,40.283203,20.141602
cobot_dynamixel_driver/joint_states|name|J1,J2,J3,J4,J5,J6|pos|0.000250,-0.953501,0.981379,0.000025,-1.111529,-0.000083|vel|-0.004382,0.696671,-0.714406,0.000000,0.725937,0.000000|eff|0.000000,-2835.937500,-902.343750,-193.359375,52.368164,20.141602
cobot_dynamixel_driver/joint_states|name|J1,J2,J3,J4,J5,J6|pos|0.000225,-0.935462,0.963090,0.000025,-1.093450,-0.000083|vel|-0.000835,0.655776,-0.695419,0.000000,0.810044,0.000000|eff|-209.472656,-1514.648438,-2513.671875,-193.359375,16.113281,16.113281
cobot_dynamixel_driver/joint_states|name|J1,J2,J3,J4,J5,J6|pos|0.000175,-0.917436,0.945139,0.000025,-1.075723,-0.000083|vel|-0.003130,0.666417,-0.580455,0.000000,0.657687,0.000000|eff|-193.359375,-177.246094,-1240.722656,-128.906250,0.000000,20.141602
cobot_dynamixel_driver/joint_states|name|J1,J2,J3,J4,J5,J6|pos|0.000138,-0.899247,0.927175,0.000013,-1.057706,-0.000083|vel|-0.003130,0.710025,-0.726090,0.000000,0.698017,0.000000|eff|-161.132812,-2562.011719,-563.964844,-112.792969,28.198242,24.169922
cobot_dynamixel_driver/joint_states|name|J1,J2,J3,J4,J5,J6|pos|0.000138,-0.881070,0.909224,0.000013,-1.039565,-0.000062|vel|-0.003130,0.701887,-0.711485,0.000000,0.679058,0.000000|eff|-177.246094,-1224.609375,-789.550781,-145.019531,108.764648,24.169922
cobot_dynamixel_driver/joint_states|name|J1,J2,J3,J4,J5,J6|pos|0.000125,-0.862969,0.891210,0.000013,-1.021362,-0.000062|vel|-0.003130,0.724213,-0.700218,0.000000,0.707668,0.000000|eff|-80.566406,-580.078125,-1627.441406,-112.792969,28.198242,20.141602
cobot_dynamixel_driver/joint_states|name|J1,J2,J3,J4,J5,J6|pos|0.000125,-0.844767,0.872933,0.000013,-1.003365,-0.000062|vel|-0.003130,0.659949,-0.729011,0.000000,0.660100,0.000000|eff|-80.566406,-3254.882812,-515.625000,-128.906250,40.283203,24.169922
cobot_dynamixel_driver/joint_states|name|J1,J2,J3,J4,J5,J6|pos|0.000125,-0.826416,0.854932,0.000013,-0.985183,-0.000062|vel|0.000000,0.694793,-0.722543,0.000000,0.662513,0.000000|eff|-145.019531,-580.078125,-821.777344,-112.792969,40.283203,24.169922
cobot_dynamixel_driver/joint_states|name|J1,J2,J3,J4,J5,J6|pos|0.000125,-0.808803,0.836518,0.000013,-0.967435,-0.000021|vel|0.000000,0.697088,-0.686656,0.000000,0.711115,0.000000|eff|-161.132812,-3206.542969,-1095.703125,-96.679688,100.708008,28.198242
cobot_dynamixel_driver/joint_states|name|J1,J2,J3,J4,J5,J6|pos|0.000125,-0.790526,0.818028,0.000000,-0.949087,0.000000|vel|0.000000,0.684152,-0.689577,0.000000,0.722835,0.001379|eff|-145.019531,-370.605469,-1611.328125,-193.359375,-24.169922,28.198242
cobot_dynamixel_driver/joint_states|name|J1,J2,J3,J4,J5,J6|pos|0.000125,-0.772199,0.799564,0.000000,-0.931690,0.000021|vel|0.000000,0.703974,-0.706895,0.000000,0.699396,0.001379|eff|-145.019531,-2449.218750,-628.417969,-112.792969,48.339844,20.141602
cobot_dynamixel_driver/joint_states|name|J1,J2,J3,J4,J5,J6|pos|0.000125,-0.753823,0.781413,0.000000,-0.913425,0.000021|vel|0.000000,0.705434,-0.716910,0.000000,0.764544,0.001379|eff|-145.019531,-1047.363281,-2078.613281,-193.359375,100.708008,24.169922
cobot_dynamixel_driver/joint_states|name|J1,J2,J3,J4,J5,J6|pos|0.000125,-0.735621,0.763311,0.000000,-0.894581,0.000021|vel|0.000000,0.719622,-0.755092,0.000000,0.684574,0.001379|eff|-112.792969,-1256.835938,-563.964844,-128.906250,76.538086,24.169922
cobot_dynamixel_driver/joint_states|name|J1,J2,J3,J4,J5,J6|pos|0.000100,-0.717357,0.745335,0.000000,-0.877019,0.000021|vel|0.000000,0.679354,-0.636790,0.000000,0.705945,0.001379|eff|-161.132812,-354.492188,-692.871094,-193.359375,32.226562,24.169922
cobot_dynamixel_driver/joint_states|name|J1,J2,J3,J4,J5,J6|pos|0.000100,-0.699005,0.726933,0.000000,-0.858857,0.000021|vel|0.000000,0.683526,-0.715658,0.000000,0.683884,0.000000|eff|-161.132812,-2513.671875,-1450.195312,-145.019531,20.141602,20.141602
cobot_dynamixel_driver/joint_states|name|J1,J2,J3,J4,J5,J6|pos|0.000088,-0.680628,0.708494,0.000000,-0.840675,0.000021|vel|0.000000,0.653273,-0.699384,0.000000,0.663547,0.000000|eff|-177.246094,-789.550781,-741.210938,-112.792969,32.226562,20.141602
cobot_dynamixel_driver/joint_states|name|J1,J2,J3,J4,J5,J6|pos|0.000075,-0.662314,0.689992,0.000000,-0.822472,0.000021|vel|-0.000209,0.660158,-0.729846,0.000000,0.670096,0.000000|eff|-161.132812,-1498.535156,-418.945312,-128.906250,-8.056641,12.084961
cobot_dynamixel_driver/joint_states|name|J1,J2,J3,J4,J5,J6|pos|0.000063,-0.644063,0.671615,-0.000013,-0.804455,0.000021|vel|-0.000209,0.701679,-0.688743,0.000000,0.580819,0.000000|eff|-145.019531,-999.023438,-1981.933594,-145.019531,20.141602,0.000000
cobot_dynamixel_driver/joint_states|name|J1,J2,J3,J4,J5,J6|pos|0.000038,-0.625799,0.653226,-0.000013,-0.786396,0.000021|vel|-0.000417,0.718370,-0.592348,0.000000,0.669407,0.000000|eff|-161.132812,-1514.648438,-805.664062,-209.472656,44.311523,0.000000
cobot_dynamixel_driver/joint_states|name|J1,J2,J3,J4,J5,J6|pos|0.000025,-0.607622,0.635600,-0.000013,-0.768131,0.000021|vel|-0.000835,0.700844,-0.654107,0.000000,0.734210,0.000000|eff|-161.132812,-225.585938,-1401.855469,-112.792969,68.481445,0.000000
cobot_dynamixel_driver/joint_states|name|J1,J2,J3,J4,J5,J6|pos|0.000013,-0.589258,0.616623,-0.000013,-0.749845,0.000021|vel|-0.000835,0.715658,-0.694793,0.000000,0.623217,0.000000|eff|-177.246094,-435.058594,-1160.156250,-96.679688,-60.424805,0.000000
cobot_dynamixel_driver/joint_states|name|J1,J2,J3,J4,J5,J6|pos|0.000000,-0.570143,0.597708,-0.000013,-0.731228,0.000021|vel|-0.000835,0.684987,-0.634703,0.000000,0.668028,0.000000|eff|-161.132812,-902.343750,-1949.707031,-112.792969,-12.084961,0.000000
cobot_dynamixel_driver/joint_states|name|J1,J2,J3,J4,J5,J6|pos|0.000000,-0.551140,0.578805,-0.000013,-0.712384,0.000021|vel|-0.000209,0.727760,-0.690829,0.000000,0.756616,0.000000|eff|-177.246094,-886.230469,-1691.894531,-177.246094,28.198242,12.084961
cobot_dynamixel_driver/joint_states|name|J1,J2,J3,J4,J5,J6|pos|0.000000,-0.532826,0.560378,-0.000013,-0.694181,0.000021|vel|-0.000209,0.695628,-0.735479,-0.003338,0.640797,0.000000|eff|-177.246094,48.339844,-854.003906,-193.359375,44.311523,8.056641
cobot_dynamixel_driver/joint_states|name|J1,J2,J3,J4,J5,J6|pos|-0.000013,-0.514424,0.542703,-0.000013,-0.675998,0.000021|vel|-0.000209,0.650560,-0.705643,-0.002712,0.609429,0.000000|eff|-161.132812,-1385.742188,-1708.007812,-145.019531,20.141602,24.169922
cobot_dynamixel_driver/joint_states|name|J1,J2,J3,J4,J5,J6|pos|-0.000013,-0.496185,0.524388,-0.000013,-0.657795,0.000021|vel|-0.000209,0.712737,-0.698549,0.002712,0.589092,0.000000|eff|-145.019531,-145.019531,-999.023438,-112.792969,0.000000,0.000000
cobot_dynamixel_driver/joint_states|name|J1,J2,J3,J4,J5,J6|pos|-0.000025,-0.477821,0.505949,-0.000013,-0.639716,0.000021|vel|-0.000209,0.724838,-0.706478,0.002295,0.628387,0.000000|eff|-80.566406,-2545.898438,-692.871094,-96.679688,88.623047,0.000000
cobot_dynamixel_driver/joint_states|name|J1,J2,J3,J4,J5,J6|pos|-0.000025,-0.459419,0.487622,-0.000013,-0.621430,0.000021|vel|0.000000,0.742365,-0.721709,-0.002086,0.596330,0.000000|eff|-80.566406,0.000000,-1466.308594,-112.792969,44.311523,8.056641
cobot_dynamixel_driver/joint_states|name|J1,J2,J3,J4,J5,J6|pos|-0.000025,-0.441005,0.469171,-0.000013,-0.603517,0.000021|vel|0.000000,0.710859,-0.701053,-0.001043,0.681127,0.000000|eff|-177.246094,-854.003906,-402.832031,-112.792969,40.283203,0.000000
cobot_dynamixel_driver/joint_states|name|J1,J2,J3,J4,J5,J6|pos|-0.000038,-0.422753,0.450844,-0.000013,-0.585665,0.000021|vel|0.000000,0.676432,-0.714823,-0.002712,0.611842,0.000000|eff|-161.132812,-32.226562,-1708.007812,-112.792969,104.736328,24.169922
cobot_dynamixel_driver/joint_states|name|J1,J2,J3,J4,J5,J6|pos|-0.000038,-0.405102,0.432592,-0.000013,-0.567359,0.000021|vel|0.000000,0.630113,-0.708981,0.002504,0.726627,0.000000|eff|-177.246094,-1272.949219,-725.097656,-112.792969,20.141602,0.000000
cobot_dynamixel_driver/joint_states|name|J1,J2,J3,J4,J5,J6|pos|-0.000038,-0.386701,0.414291,-0.000013,-0.549197,0.000021|vel|0.000000,0.698132,-0.721083,-0.002921,0.629766,0.000000|eff|-145.019531,-596.191406,-1836.914062,-96.679688,76.538086,12.084961
cobot_dynamixel_driver/joint_states|name|J1,J2,J3,J4,J5,J6|pos|-0.000050,-0.368411,0.396064,-0.000013,-0.530911,0.000021|vel|0.000000,0.705226,-0.708147,-0.002295,0.684229,0.000000|eff|-177.246094,-676.757812,-628.417969,-145.019531,24.169922,24.169922
cobot_dynamixel_driver/joint_states|name|J1,J2,J3,J4,J5,J6|pos|-0.000050,-0.350122,0.377750,-0.000013,-0.513473,0.000021|vel|0.000000,0.675598,-0.799743,-0.002712,0.650104,0.000000|eff|-177.246094,-209.472656,-1530.761719,-112.792969,80.566406,24.169922
cobot_dynamixel_driver/joint_states|name|J1,J2,J3,J4,J5,J6|pos|-0.000050,-0.331846,0.359624,-0.000013,-0.495187,0.000021|vel|0.000000,0.691455,-0.717119,-0.002921,0.598399,0.000000|eff|-177.246094,-563.964844,-1192.382812,-112.792969,24.169922,20.141602
cobot_dynamixel_driver/joint_states|name|J1,J2,J3,J4,J5,J6|pos|-0.000050,-0.313557,0.341197,-0.000013,-0.477419,0.000021|vel|0.000000,0.677893,-0.793901,0.002504,0.723869,0.000000|eff|-128.906250,-322.265625,-1627.441406,-96.679688,108.764648,24.169922
cobot_dynamixel_driver/joint_states|name|J1,J2,J3,J4,J5,J6|pos|-0.000050,-0.295192,0.322820,-0.000013,-0.459091,0.000021|vel|0.000000,0.730055,-0.705226,0.002712,0.692846,0.000000|eff|-96.679688,-563.964844,-418.945312,-96.679688,12.084961,20.141602
cobot_dynamixel_driver/joint_states|name|J1,J2,J3,J4,J5,J6|pos|-0.000050,-0.274763,0.302540,-0.000013,-0.438220,0.000021|vel|0.000000,0.663288,-0.717119,-0.002921,0.676990,0.000000|eff|-177.246094,-1820.800781,-2030.273438,-112.792969,28.198242,24.169922
cobot_dynamixel_driver/joint_states|name|J1,J2,J3,J4,J5,J6|pos|-0.000050,-0.255822,0.283400,-0.000013,-0.420017,0.000021|vel|0.000000,0.690203,-0.695628,-0.002504,0.682161,0.000000|eff|-96.679688,-1369.628906,-1305.175781,-96.679688,40.283203,8.056641
cobot_dynamixel_driver/joint_states|name|J1,J2,J3,J4,J5,J6|pos|-0.000050,-0.237633,0.265036,-0.000013,-0.401793,0.000021|vel|0.000000,0.741530,-0.722543,-0.002712,0.689055,0.000000|eff|-161.132812,354.492188,-1111.816406,-112.792969,88.623047,0.000000
cobot_dynamixel_driver/joint_states|name|J1,J2,J3,J4,J5,J6|pos|-0.000050,-0.219219,0.246960,-0.000013,-0.383610,0.000021|vel|0.000000,0.727760,-0.683318,0.002504,0.676301,0.000000|eff|-32.226562,-2046.386719,-2239.746094,-96.679688,92.651367,0.000000
cobot_dynamixel_driver/joint_states|name|J1,J2,J3,J4,J5,J6|pos|-0.000050,-0.200830,0.228658,-0.000013,-0.365407,0.000021|vel|0.000000,0.678310,-0.739861,0.002712,0.689744,0.000000|eff|-112.792969,418.945312,-660.644531,-96.679688,40.283203,24.169922
cobot_dynamixel_driver/joint_states|name|J1,J2,J3,J4,J5,J6|pos|-0.000050,-0.182603,0.210794,-0.000013,-0.347266,0.000021|vel|0.000000,0.728594,-0.705226,0.002712,0.644244,0.000000|eff|-32.226562,-1691.894531,-982.910156,-112.792969,-8.056641,8.056641
cobot_dynamixel_driver/joint_states|name|J1,J2,J3,J4,J5,J6|pos|-0.000050,-0.164277,0.192343,-0.000013,-0.329187,0.000021|vel|0.000000,0.682066,-0.731307,0.002712,0.688365,0.000000|eff|-145.019531,644.531250,-1691.894531,-112.792969,0.000000,24.169922
cobot_dynamixel_driver/joint_states|name|J1,J2,J3,J4,J5,J6|pos|-0.000050,-0.145963,0.174329,-0.000013,-0.310984,0.000021|vel|0.000000,0.703557,-0.728803,0.002921,0.667683,0.000000|eff|-161.132812,-1450.195312,-1740.234375,-96.679688,40.283203,20.141602
cobot_dynamixel_driver/joint_states|name|J1,J2,J3,J4,J5,J6|pos|-0.000050,-0.127648,0.156027,-0.000013,-0.292719,0.000021|vel|0.000000,0.685404,-0.647848,0.002712,0.622872,0.000000|eff|-145.019531,402.832031,-1031.250000,-177.246094,48.339844,12.084961
cobot_dynamixel_driver/joint_states|name|J1,J2,J3,J4,J5,J6|pos|-0.000050,-0.109309,0.137650,-0.000013,-0.274909,0.000021|vel|0.000000,0.679354,-0.715658,0.002712,0.727661,0.000000|eff|-145.019531,-515.625000,-805.664062,-112.792969,96.679688,24.169922
cobot_dynamixel_driver/joint_states|name|J1,J2,J3,J4,J5,J6|pos|-0.000050,-0.091295,0.119524,-0.000013,-0.256623,0.000021|vel|0.000000,0.647848,-0.735479,-0.002504,0.695949,0.000000|eff|-177.246094,918.457031,-580.078125,-145.019531,68.481445,24.169922
cobot_dynamixel_driver/joint_states|name|J1,J2,J3,J4,J5,J6|pos|-0.000050,-0.075310,0.101686,-0.000013,-0.238813,0.000021|vel|0.000000,0.567102,-0.696880,-0.002295,0.668717,0.000000|eff|-177.246094,821.777344,-773.437500,-112.792969,124.877930,12.084961
cobot_dynamixel_driver/joint_states|name|J1,J2,J3,J4,J5,J6|pos|-0.000050,-0.062391,0.084460,-0.000013,-0.220465,0.000021|vel|0.000000,0.488859,-0.620515,0.002504,0.699396,0.000000|eff|-96.679688,1160.156250,-612.304688,-96.679688,52.368164,24.169922
cobot_dynamixel_driver/joint_states|name|J1,J2,J3,J4,J5,J6|pos|-0.000050,-0.051500,0.069814,-0.000013,-0.202324,0.000021|vel|0.000000,0.365340,-0.493449,-0.002086,0.714907,0.000000|eff|-32.226562,177.246094,-1353.515625,-96.679688,84.594727,0.000000
cobot_dynamixel_driver/joint_states|name|J1,J2,J3,J4,J5,J6|pos|-0.000050,-0.042750,0.058034,-0.000013,-0.183976,0.000021|vel|0.000000,0.289393,-0.372852,-0.001461,0.783502,0.000000|eff|-161.132812,-177.246094,-418.945312,-112.792969,157.104492,8.056641
cobot_dynamixel_driver/joint_states|name|J1,J2,J3,J4,J5,J6|pos|-0.000050,-0.035502,0.048370,-0.000013,-0.165793,0.000021|vel|0.000000,0.248081,-0.334252,0.001461,0.697672,0.000000|eff|-161.132812,64.453125,-628.417969,-112.792969,116.821289,0.000000
cobot_dynamixel_driver/joint_states|name|J1,J2,J3,J4,J5,J6|pos|-0.000050,-0.029480,0.040421,-0.000013,-0.148190,0.000021|vel|0.000000,0.203222,-0.247038,-0.001043,0.702153,0.000000|eff|-145.019531,306.152344,-870.117188,-112.792969,64.453125,12.084961
cobot_dynamixel_driver/joint_states|name|J1,J2,J3,J4,J5,J6|pos|-0.000050,-0.024598,0.033824,-0.000013,-0.129987,0.000021|vel|0.000000,0.176515,-0.236188,-0.000835,0.701808,0.000000|eff|-161.132812,338.378906,-757.324219,-96.679688,76.538086,20.141602
cobot_dynamixel_driver/joint_states|name|J1,J2,J3,J4,J5,J6|pos|-0.000050,-0.020592,0.028191,-0.000013,-0.111722,0.000021|vel|0.000000,0.148348,-0.202596,-0.000835,0.695949,0.000000|eff|-32.226562,257.812500,-773.437500,-145.019531,40.283203,0.000000
cobot_dynamixel_driver/joint_states|name|J1,J2,J3,J4,J5,J6|pos|-0.000050,-0.017225,0.023484,-0.000013,-0.093560,0.000021|vel|0.000000,0.119346,-0.165457,0.000835,0.671475,0.000000|eff|-177.246094,257.812500,-725.097656,-112.792969,-64.453125,0.000000
cobot_dynamixel_driver/joint_states|name|J1,J2,J3,J4,J5,J6|pos|-0.000050,-0.014371,0.019729,-0.000013,-0.077632,0.000021|vel|0.000000,0.100776,-0.122893,-0.000626,0.611152,0.000000|eff|-177.246094,241.699219,-902.343750,-96.679688,-36.254883,24.169922
cobot_dynamixel_driver/joint_states|name|J1,J2,J3,J4,J5,J6|pos|-0.000050,-0.012030,0.016549,-0.000013,-0.064766,0.000021|vel|0.000000,0.073652,-0.119137,0.000626,0.433287,0.000000|eff|-112.792969,241.699219,-902.343750,-112.792969,0.000000,0.000000
cobot_dynamixel_driver/joint_states|name|J1,J2,J3,J4,J5,J6|pos|-0.000050,-0.010102,0.013845,-0.000013,-0.054134,0.000021|vel|0.000000,0.069271,-0.095560,-0.000417,0.411916,0.000000|eff|-145.019531,241.699219,-837.890625,-112.792969,0.000000,8.056641
cobot_dynamixel_driver/joint_states|name|J1,J2,J3,J4,J5,J6|pos|-0.000050,-0.008450,0.011604,-0.000013,-0.045218,0.000021|vel|0.000000,0.055917,-0.083459,0.000417,0.307472,0.000000|eff|-32.226562,225.585938,-870.117188,-128.906250,12.084961,0.000000
cobot_dynamixel_driver/joint_states|name|J1,J2,J3,J4,J5,J6|pos|-0.000050,-0.007035,0.009677,-0.000013,-0.037813,0.000021|vel|0.000000,0.045694,-0.059673,-0.000209,0.239911,0.000000|eff|-161.132812,273.925781,-870.117188,-112.792969,28.198242,24.169922
cobot_dynamixel_driver/joint_states|name|J1,J2,J3,J4,J5,J6|pos|-0.000050,-0.005871,0.008137,-0.000013,-0.031607,0.000021|vel|0.000000,0.040477,-0.055291,-0.000209,0.223710,0.000000|eff|0.000000,193.359375,-918.457031,-112.792969,36.254883,0.000000
cobot_dynamixel_driver/joint_states|name|J1,J2,J3,J4,J5,J6|pos|-0.000050,-0.004932,0.006960,-0.000013,-0.026374,0.000021|vel|0.000000,0.033801,-0.041729,-0.000417,0.159251,0.000000|eff|-128.906250,209.472656,-934.570312,-112.792969,32.226562,8.056641
cobot_dynamixel_driver/joint_states|name|J1,J2,J3,J4,J5,J6|pos|-0.000050,-0.004144,0.005796,-0.000013,-0.022092,0.000021|vel|0.000000,0.028376,-0.033592,0.000417,0.137535,0.000000|eff|-80.566406,161.132812,-886.230469,-112.792969,52.368164,12.084961
cobot_dynamixel_driver/joint_states|name|J1,J2,J3,J4,J5,J6|pos|-0.000050,-0.003443,0.004782,-0.000013,-0.018493,0.000021|vel|0.000000,0.025872,-0.028167,0.000417,0.132365,0.000000|eff|-32.226562,241.699219,-886.230469,-112.792969,52.368164,0.000000
cobot_dynamixel_driver/joint_states|name|J1,J2,J3,J4,J5,J6|pos|-0.000050,-0.002892,0.003931,-0.000013,-0.015452,0.000021|vel|0.000000,0.020030,-0.030462,-0.000209,0.104444,0.000000|eff|-145.019531,225.585938,-934.570312,-112.792969,56.396484,24.169922
cobot_dynamixel_driver/joint_states|name|J1,J2,J3,J4,J5,J6|pos|-0.000050,-0.002391,0.003317,-0.000013,-0.012928,0.000021|vel|0.000000,0.016274,-0.021282,-0.002295,0.077213,0.000000|eff|-177.246094,209.472656,-902.343750,-112.792969,52.368164,24.169922
cobot_dynamixel_driver/joint_states|name|J1,J2,J3,J4,J5,J6|pos|-0.000050,-0.002003,0.002729,-0.000013,-0.010798,0.000021|vel|0.000000,0.013979,-0.013562,0.002295,0.075489,0.000000|eff|-161.132812,225.585938,-870.117188,-96.679688,60.424805,24.169922
cobot_dynamixel_driver/joint_states|name|J1,J2,J3,J4,J5,J6|pos|-0.000050,-0.001652,0.002366,-0.000013,-0.009019,0.000021|vel|0.000000,0.011267,-0.016900,-0.000626,0.061357,0.000000|eff|-128.906250,241.699219,-902.343750,-96.679688,52.368164,24.169922
cobot_dynamixel_driver/joint_states|name|J1,J2,J3,J4,J5,J6|pos|-0.000050,-0.001415,0.001840,-0.000013,-0.007529,0.000021|vel|0.000000,0.008137,-0.015648,-0.000626,0.056531,0.000000|eff|-145.019531,128.906250,-870.117188,-112.792969,52.368164,0.000000
cobot_dynamixel_driver/joint_states|name|J1,J2,J3,J4,J5,J6|pos|-0.000050,-0.001214,0.001690,-0.000013,-0.006330,0.000021|vel|0.000000,0.006468,-0.003338,-0.000626,0.040675,0.000000|eff|-32.226562,112.792969,-982.910156,-96.679688,68.481445,0.000000
cobot_dynamixel_driver/joint_states|name|J1,J2,J3,J4,J5,J6|pos|-0.000050,-0.001052,0.001477,-0.000013,-0.005275,0.000021|vel|0.000000,0.007303,-0.009180,0.000209,0.038262,0.000000|eff|-161.132812,128.906250,-870.117188,-96.679688,64.453125,8.056641
cobot_dynamixel_driver/joint_states|name|J1,J2,J3,J4,J5,J6|pos|-0.000050,-0.000839,0.001139,-0.000013,-0.004406,0.000021|vel|0.000000,0.007720,-0.015231,0.000209,0.036193,0.000000|eff|0.000000,322.265625,-854.003906,-96.679688,56.396484,24.169922
cobot_dynamixel_driver/joint_states|name|J1,J2,J3,J4,J5,J6|pos|-0.000050,-0.000663,0.000864,-0.000013,-0.003703,0.000021|vel|0.000000,0.005008,-0.005425,0.000209,0.022750,0.000000|eff|-80.566406,193.359375,-837.890625,-64.453125,56.396484,24.169922
cobot_dynamixel_driver/joint_states|name|J1,J2,J3,J4,J5,J6|pos|-0.000050,-0.000538,0.000826,-0.000013,-0.003165,0.000021|vel|0.000000,0.003964,-0.002086,0.000209,0.017235,0.000000|eff|-145.019531,209.472656,-902.343750,-96.679688,88.623047,12.084961
cobot_dynamixel_driver/joint_states|name|J1,J2,J3,J4,J5,J6|pos|-0.000050,-0.000438,0.000814,-0.000013,-0.002586,0.000021|vel|0.000000,0.003756,-0.000626,0.000000,0.017580,0.000000|eff|-32.226562,225.585938,-966.796875,-112.792969,60.424805,0.000000
cobot_dynamixel_driver/joint_states|name|J1,J2,J3,J4,J5,J6|pos|-0.000050,-0.000325,0.000776,-0.000013,-0.002193,0.000021|vel|0.000000,0.004590,-0.001252,0.000000,0.014477,0.000000|eff|-145.019531,177.246094,-966.796875,-112.792969,68.481445,24.169922
cobot_dynamixel_driver/joint_states|name|J1,J2,J3,J4,J5,J6|pos|-0.000050,-0.000288,0.000751,-0.000013,-0.001882,0.000021|vel|0.000000,0.004799,-0.001043,0.000000,0.010686,0.000000|eff|-112.792969,418.945312,-982.910156,-96.679688,76.538086,24.169922
cobot_dynamixel_driver/joint_states|name|J1,J2,J3,J4,J5,J6|pos|-0.000050,-0.000288,0.000651,-0.000013,-0.001572,0.000021|vel|0.000000,0.004799,-0.005425,0.000000,0.011375,0.000000|eff|-145.019531,257.812500,-934.570312,-96.679688,76.538086,12.084961
cobot_dynamixel_driver/joint_states|name|J1,J2,J3,J4,J5,J6|pos|-0.000050,-0.000288,0.000426,-0.000013,-0.001262,0.000021|vel|0.000000,0.004799,-0.009389,0.000000,0.011720,0.000000|eff|-80.566406,257.812500,-918.457031,-96.679688,68.481445,12.084961
cobot_dynamixel_driver/joint_states|name|J1,J2,J3,J4,J5,J6|pos|-0.000050,-0.000288,0.000138,-0.000013,-0.001034,0.000021|vel|0.000000,0.004799,-0.011684,0.000000,0.006205,0.000000|eff|-161.132812,225.585938,-789.550781,-96.679688,60.424805,20.141602
cobot_dynamixel_driver/joint_states|name|J1,J2,J3,J4,J5,J6|pos|-0.000050,-0.000288,-0.000075,-0.000013,-0.000910,0.000021|vel|0.000000,-0.000000,-0.005425,0.000000,0.005860,0.000000|eff|0.000000,386.718750,-789.550781,-32.226562,68.481445,12.084961
cobot_dynamixel_driver/joint_states|name|J1,J2,J3,J4,J5,J6|pos|-0.000050,-0.000288,-0.000113,-0.000013,-0.000765,0.000021|vel|0.000000,-0.000000,-0.003964,0.000000,0.004481,0.000000|eff|0.000000,225.585938,-789.550781,-96.679688,72.509766,0.000000
cobot_dynamixel_driver/joint_states|name|J1,J2,J3,J4,J5,J6|pos|-0.000050,-0.000288,-0.000113,-0.000013,-0.000662,0.000021|vel|0.000000,-0.000000,-0.003964,0.000000,0.003792,0.000000|eff|-145.019531,225.585938,-773.437500,-96.679688,72.509766,0.000000
cobot_dynamixel_driver/joint_states|name|J1,J2,J3,J4,J5,J6|pos|-0.000050,-0.000288,-0.000113,-0.000013,-0.000517,0.000021|vel|0.000000,-0.000000,-0.003964,0.000000,0.003447,0.000000|eff|0.000000,225.585938,-676.757812,-96.679688,60.424805,0.000000
cobot_dynamixel_driver/joint_states|name|J1,J2,J3,J4,J5,J6|pos|-0.000050,-0.000288,-0.000113,-0.000013,-0.000496,0.000021|vel|0.000000,-0.000000,-0.003964,0.000000,0.003447,0.000000|eff|-80.566406,225.585938,-692.871094,-96.679688,68.481445,0.000000
cobot_dynamixel_driver/joint_states|name|J1,J2,J3,J4,J5,J6|pos|-0.000050,-0.000288,-0.000100,-0.000013,-0.000496,0.000021|vel|0.000000,-0.000000,0.000000,0.000000,0.003447,0.000000|eff|0.000000,225.585938,-676.757812,-112.792969,68.481445,24.169922
cobot_dynamixel_driver/joint_states|name|J1,J2,J3,J4,J5,J6|pos|-0.000050,-0.000275,-0.000100,-0.000013,-0.000496,0.000021|vel|0.000000,-0.000000,0.000000,0.000000,0.003447,0.000000|eff|0.000000,225.585938,-692.871094,-96.679688,68.481445,0.000000
cobot_dynamixel_driver/joint_states|name|J1,J2,J3,J4,J5,J6|pos|-0.000050,-0.000263,-0.000113,-0.000013,-0.000496,0.000021|vel|0.000000,0.000209,0.000000,0.000000,0.003447,0.000000|eff|0.000000,225.585938,-676.757812,-96.679688,68.481445,0.000000
cobot_dynamixel_driver/joint_states|name|J1,J2,J3,J4,J5,J6|pos|-0.000050,-0.000238,-0.000100,-0.000013,-0.000496,0.000021|vel|0.000000,0.000209,0.000000,0.000000,0.000000,0.000000|eff|-112.792969,225.585938,-676.757812,-96.679688,80.566406,0.000000
cobot_dynamixel_driver/joint_states|name|J1,J2,J3,J4,J5,J6|pos|-0.000050,-0.000213,-0.000100,-0.000013,-0.000331,0.000021|vel|0.000000,0.001043,0.000000,0.000000,0.007239,0.000000|eff|0.000000,241.699219,-660.644531,-32.226562,64.453125,20.141602
cobot_dynamixel_driver/joint_states|name|J1,J2,J3,J4,J5,J6|pos|-0.000050,-0.000200,-0.000100,-0.000013,-0.000290,0.000021|vel|0.000000,0.001043,0.000000,0.000000,0.005515,0.000000|eff|-145.019531,241.699219,-676.757812,-96.679688,48.339844,24.169922
cobot_dynamixel_driver/joint_states|name|J1,J2,J3,J4,J5,J6|pos|-0.000050,-0.000188,-0.000100,-0.000013,-0.000290,0.000021|vel|0.000000,0.000417,0.000000,0.000000,0.005515,0.000000|eff|-112.792969,145.019531,-676.757812,-96.679688,44.311523,20.141602
cobot_dynamixel_driver/joint_states|name|J1,J2,J3,J4,J5,J6|pos|-0.000050,-0.000163,-0.000100,-0.000013,-0.000290,0.000021|vel|0.000000,0.000835,0.000000,0.000000,0.005515,0.000000|eff|0.000000,145.019531,-660.644531,-112.792969,24.169922,24.169922
cobot_dynamixel_driver/joint_states|name|J1,J2,J3,J4,J5,J6|pos|-0.000050,-0.000100,-0.000100,-0.000013,-0.000290,0.000021|vel|0.000000,0.002295,0.000000,0.000000,0.005515,0.000000|eff|-145.019531,257.812500,-644.531250,-96.679688,24.169922,0.000000
cobot_dynamixel_driver/joint_states|name|J1,J2,J3,J4,J5,J6|pos|-0.000050,-0.000063,-0.000100,-0.000013,-0.000290,0.000021|vel|0.000000,0.001461,0.000000,0.000000,0.000000,0.000000|eff|0.000000,257.812500,-660.644531,-112.792969,40.283203,24.169922
cobot_dynamixel_driver/joint_states|name|J1,J2,J3,J4,J5,J6|pos|-0.000050,-0.000025,-0.000100,-0.000013,-0.000290,0.000021|vel|0.000000,0.000835,0.000000,0.000000,0.000000,0.000000|eff|-80.566406,193.359375,-676.757812,-112.792969,28.198242,12.084961
cobot_dynamixel_driver/joint_states|name|J1,J2,J3,J4,J5,J6|pos|-0.000050,-0.000000,-0.000100,-0.000013,-0.000290,0.000021|vel|0.000000,0.001461,0.000000,0.000000,0.000000,0.000000|eff|0.000000,225.585938,-628.417969,-96.679688,24.169922,8.056641
cobot_dynamixel_driver/joint_states|name|J1,J2,J3,J4,J5,J6|pos|-0.000050,-0.000000,-0.000100,-0.000013,-0.000290,0.000021|vel|0.000000,0.001461,0.000000,0.000000,0.000000,0.000000|eff|-145.019531,257.812500,-596.191406,-96.679688,44.311523,12.084961
cobot_dynamixel_driver/joint_states|name|J1,J2,J3,J4,J5,J6|pos|-0.000050,-0.000000,-0.000100,-0.000013,-0.000290,0.000021|vel|0.000000,0.001461,0.000000,0.000000,0.000000,0.000000|eff|0.000000,306.152344,-644.531250,-112.792969,28.198242,20.141602
cobot_dynamixel_driver/joint_states|name|J1,J2,J3,J4,J5,J6|pos|-0.000050,-0.000000,-0.000100,-0.000013,-0.000290,0.000021|vel|0.000000,0.001461,0.000000,0.000000,0.000000,0.000000|eff|0.000000,322.265625,-612.304688,-112.792969,56.396484,0.000000
cobot_dynamixel_driver/joint_states|name|J1,J2,J3,J4,J5,J6|pos|-0.000050,-0.000000,-0.000100,-0.000013,-0.000290,0.000021|vel|0.000000,-0.000000,0.000000,0.000000,0.000000,0.000000|eff|-64.453125,241.699219,-628.417969,-96.679688,56.396484,24.169922
cobot_dynamixel_driver/joint_states|name|J1,J2,J3,J4,J5,J6|pos|-0.000050,-0.000000,-0.000100,-0.000013,-0.000290,0.000021|vel|0.000000,-0.000000,0.000000,0.000000,0.000000,0.000000|eff|0.000000,225.585938,-644.531250,-64.453125,56.396484,0.000000
cobot_dynamixel_driver/joint_states|name|J1,J2,J3,J4,J5,J6|pos|-0.000050,-0.000000,-0.000100,-0.000013,-0.000290,0.000021|vel|0.000000,-0.000000,0.000000,0.000000,0.000000,0.000000|eff|0.000000,257.812500,-596.191406,-64.453125,64.453125,24.169922
cobot_dynamixel_driver/joint_states|name|J1,J2,J3,J4,J5,J6|pos|-0.000050,-0.000000,-0.000088,-0.000013,-0.000290,0.000021|vel|0.000000,-0.000000,0.000000,0.000000,0.000000,0.000000|eff|-112.792969,225.585938,-580.078125,-96.679688,68.481445,0.000000
cobot_dynamixel_driver/joint_states|name|J1,J2,J3,J4,J5,J6|pos|-0.000050,-0.000000,-0.000088,-0.000013,-0.000269,0.000021|vel|0.000000,-0.000000,0.000000,0.000000,0.000000,0.000000|eff|0.000000,290.039062,-580.078125,-96.679688,72.509766,0.000000
cobot_dynamixel_driver/joint_states|name|J1,J2,J3,J4,J5,J6|pos|-0.000050,-0.000000,-0.000088,-0.000013,-0.000165,0.000021|vel|0.000000,-0.000000,0.000000,0.000000,0.004136,0.000000|eff|0.000000,273.925781,-596.191406,-32.226562,64.453125,24.169922
cobot_dynamixel_driver/joint_states|name|J1,J2,J3,J4,J5,J6|pos|-0.000038,-0.000000,-0.000088,-0.000013,-0.000165,0.000021|vel|0.000000,-0.000000,0.000000,0.000000,0.004136,0.000000|eff|0.000000,290.039062,-612.304688,-96.679688,52.368164,0.000000
cobot_dynamixel_driver/joint_states|name|J1,J2,J3,J4,J5,J6|pos|-0.000038,-0.000000,-0.000088,-0.000013,-0.000165,0.000021|vel|0.000000,-0.000000,0.000000,0.000000,0.004136,0.000000|eff|0.000000,241.699219,-628.417969,-112.792969,48.339844,24.169922
cobot_dynamixel_driver/joint_states|name|J1,J2,J3,J4,J5,J6|pos|-0.000038,-0.000000,-0.000088,-0.000013,-0.000165,0.000021|vel|0.000000,-0.000000,0.000000,0.000000,0.004136,0.000000|eff|0.000000,257.812500,-580.078125,-96.679688,48.339844,24.169922
cobot_dynamixel_driver/joint_states|name|J1,J2,J3,J4,J5,J6|pos|-0.000038,-0.000000,-0.000088,-0.000013,-0.000165,0.000021|vel|0.000000,-0.000000,0.000000,0.000000,0.004136,0.000000|eff|-64.453125,225.585938,-580.078125,-96.679688,32.226562,0.000000
cobot_dynamixel_driver/joint_states|name|J1,J2,J3,J4,J5,J6|pos|-0.000038,-0.000000,-0.000088,-0.000013,-0.000165,0.000021|vel|0.000000,-0.000000,0.000000,0.000000,0.000000,0.000000|eff|0.000000,225.585938,-580.078125,-32.226562,32.226562,24.169922
cobot_dynamixel_driver/joint_states|name|J1,J2,J3,J4,J5,J6|pos|-0.000038,-0.000000,-0.000088,-0.000013,-0.000165,0.000021|vel|0.000000,-0.000000,0.000000,0.000000,0.000000,0.000000|eff|0.000000,225.585938,-580.078125,-96.679688,48.339844,0.000000
cobot_dynamixel_driver/joint_states|name|J1,J2,J3,J4,J5,J6|pos|-0.000038,-0.000000,-0.000088,-0.000013,-0.000165,0.000021|vel|0.000000,-0.000000,0.000000,0.000000,0.000000,0.000000|eff|0.000000,225.585938,-612.304688,-112.792969,36.254883,24.169922
cobot_dynamixel_driver/joint_states|name|J1,J2,J3,J4,J5,J6|pos|-0.000038,-0.000000,-0.000088,-0.000013,-0.000165,0.000021|vel|0.000000,-0.000000,0.000000,0.000000,0.000000,0.000000|eff|0.000000,225.585938,-580.078125,-112.792969,44.311523,20.141602
cobot_dynamixel_driver/joint_states|name|J1,J2,J3,J4,J5,J6|pos|-0.000038,-0.000000,-0.000075,-0.000013,-0.000165,0.000021|vel|0.000000,-0.000000,0.000000,0.000000,0.000000,0.000000|eff|0.000000,225.585938,-580.078125,-112.792969,40.283203,8.056641
cobot_dynamixel_driver/joint_states|name|J1,J2,J3,J4,J5,J6|pos|-0.000038,-0.000000,-0.000075,-0.000013,-0.000165,0.000021|vel|0.000000,-0.000000,0.000000,0.000000,0.000000,0.000000|eff|-80.566406,370.605469,-580.078125,-96.679688,48.339844,8.056641
cobot_dynamixel_driver/joint_states|name|J1,J2,J3,J4,J5,J6|pos|-0.000038,-0.000000,-0.000075,-0.000013,-0.000165,0.000021|vel|0.000000,-0.000000,0.000000,0.000000,0.000000,0.000000|eff|0.000000,370.605469,-580.078125,-112.792969,52.368164,24.169922
cobot_dynamixel_driver/joint_states|name|J1,J2,J3,J4,J5,J6|pos|-0.000038,-0.000000,-0.000075,-0.000013,-0.000165,0.000021|vel|0.000000,-0.000000,0.000000,0.000000,0.000000,0.000000|eff|0.000000,257.812500,-580.078125,-96.679688,52.368164,24.169922
cobot_dynamixel_driver/joint_states|name|J1,J2,J3,J4,J5,J6|pos|-0.000038,-0.000000,-0.000075,-0.000013,-0.000165,0.000021|vel|0.000000,-0.000000,0.000000,0.000000,0.000000,0.000000|eff|0.000000,225.585938,-580.078125,-96.679688,56.396484,20.141602
cobot_dynamixel_driver/joint_states|name|J1,J2,J3,J4,J5,J6|pos|-0.000038,-0.000000,-0.000063,-0.000013,-0.000165,0.000021|vel|0.000000,-0.000000,0.000000,0.000000,0.000000,0.000000|eff|0.000000,290.039062,-563.964844,-96.679688,60.424805,24.169922
cobot_dynamixel_driver/joint_states|name|J1,J2,J3,J4,J5,J6|pos|-0.000038,-0.000000,-0.000063,-0.000013,-0.000165,0.000021|vel|0.000000,-0.000000,0.000000,0.000000,0.000000,0.000000|eff|0.000000,225.585938,-515.625000,-96.679688,60.424805,8.056641
cobot_dynamixel_driver/joint_states|name|J1,J2,J3,J4,J5,J6|pos|-0.000038,-0.000000,-0.000063,-0.000013,-0.000165,0.000021|vel|0.000000,-0.000000,0.000000,0.000000,0.000000,0.000000|eff|0.000000,225.585938,-531.738281,-64.453125,60.424805,24.169922
cobot_dynamixel_driver/joint_states|name|J1,J2,J3,J4,J5,J6|pos|-0.000038,-0.000000,-0.000063,-0.000013,-0.000165,0.000021|vel|0.000000,-0.000000,0.000000,0.000000,0.000000,0.000000|eff|0.000000,225.585938,-531.738281,-112.792969,68.481445,24.169922
cobot_dynamixel_driver/joint_states|name|J1,J2,J3,J4,J5,J6|pos|-0.000038,-0.000000,-0.000063,-0.000013,-0.000165,0.000021|vel|0.000000,-0.000000,0.000000,0.000000,0.000000,0.000000|eff|-80.566406,306.152344,-563.964844,-96.679688,72.509766,8.056641
cobot_dynamixel_driver/joint_states|name|J1,J2,J3,J4,J5,J6|pos|-0.000038,-0.000000,-0.000063,-0.000013,-0.000145,0.000021|vel|0.000000,-0.000000,0.000000,0.000000,0.000000,0.000000|eff|0.000000,225.585938,-563.964844,-96.679688,76.538086,0.000000
cobot_dynamixel_driver/joint_states|name|J1,J2,J3,J4,J5,J6|pos|-0.000038,-0.000000,-0.000063,-0.000013,-0.000062,0.000021|vel|0.000000,-0.000000,0.000000,0.000000,0.002413,0.000000|eff|-80.566406,225.585938,-580.078125,-96.679688,60.424805,0.000000
cobot_dynamixel_driver/joint_states|name|J1,J2,J3,J4,J5,J6|pos|-0.000038,-0.000000,-0.000063,-0.000013,-0.000062,0.000021|vel|0.000000,-0.000000,0.000000,0.000000,0.002413,0.000000|eff|0.000000,241.699219,-547.851562,-96.679688,60.424805,20.141602
cobot_dynamixel_driver/joint_states|name|J1,J2,J3,J4,J5,J6|pos|-0.000038,-0.000000,-0.000063,-0.000013,-0.000062,0.000021|vel|0.000000,-0.000000,0.000000,0.000000,0.002413,0.000000|eff|0.000000,241.699219,-563.964844,-96.679688,52.368164,24.169922
cobot_dynamixel_driver/joint_states|name|J1,J2,J3,J4,J5,J6|pos|-0.000038,-0.000000,-0.000050,-0.000013,-0.000062,0.000021|vel|0.000000,-0.000000,0.000000,0.000000,0.002413,0.000000|eff|0.000000,241.699219,-515.625000,-96.679688,44.311523,8.056641
cobot_dynamixel_driver/joint_states|name|J1,J2,J3,J4,J5,J6|pos|-0.000025,-0.000000,-0.000050,-0.000013,-0.000062,0.000021|vel|0.000000,-0.000000,0.000000,0.000000,0.002413,0.000000|eff|0.000000,225.585938,-580.078125,-96.679688,44.311523,8.056641
cobot_dynamixel_driver/joint_states|name|J1,J2,J3,J4,J5,J6|pos|-0.000025,-0.000000,-0.000050,-0.000013,-0.000062,0.000021|vel|0.000000,-0.000000,0.000000,0.000000,0.000000,0.000000|eff|0.000000,225.585938,-515.625000,-96.679688,40.283203,0.000000
cobot_dynamixel_driver/joint_states|name|J1,J2,J3,J4,J5,J6|pos|-0.000025,-0.000000,-0.000050,-0.000013,-0.000062,0.000021|vel|0.000000,-0.000000,0.000000,0.000000,0.000000,0.000000|eff|0.000000,225.585938,-515.625000,-96.679688,48.339844,24.169922
cobot_dynamixel_driver/joint_states|name|J1,J2,J3,J4,J5,J6|pos|-0.000013,-0.000000,-0.000050,-0.000013,-0.000062,0.000021|vel|0.000000,-0.000000,0.000000,0.000000,0.000000,0.000000|eff|0.000000,225.585938,-531.738281,-96.679688,48.339844,8.056641
cobot_dynamixel_driver/joint_states|name|J1,J2,J3,J4,J5,J6|pos|-0.000013,-0.000000,-0.000050,-0.000013,-0.000062,0.000021|vel|0.000000,-0.000000,0.000000,0.000000,0.000000,0.000000|eff|0.000000,225.585938,-515.625000,-96.679688,48.339844,0.000000
cobot_dynamixel_driver/joint_states|name|J1,J2,J3,J4,J5,J6|pos|-0.000013,-0.000000,-0.000050,-0.000013,-0.000062,0.000021|vel|0.000000,-0.000000,0.000000,0.000000,0.000000,0.000000|eff|0.000000,257.812500,-483.398438,-112.792969,48.339844,0.000000
cobot_dynamixel_driver/joint_states|name|J1,J2,J3,J4,J5,J6|pos|-0.000013,-0.000000,-0.000050,-0.000013,-0.000062,0.000021|vel|0.000000,-0.000000,0.000000,0.000000,0.000000,0.000000|eff|0.000000,225.585938,-547.851562,-112.792969,48.339844,0.000000
cobot_dynamixel_driver/joint_states|name|J1,J2,J3,J4,J5,J6|pos|0.000000,-0.000000,-0.000050,-0.000013,-0.000062,0.000021|vel|0.000000,-0.000000,0.000000,0.000000,0.000000,0.000000|eff|0.000000,225.585938,-531.738281,-96.679688,52.368164,0.000000
cobot_dynamixel_driver/joint_states|name|J1,J2,J3,J4,J5,J6|pos|0.000000,-0.000000,-0.000050,-0.000013,-0.000062,0.000021|vel|0.000000,-0.000000,0.000000,0.000000,0.000000,0.000000|eff|0.000000,322.265625,-531.738281,-112.792969,52.368164,16.113281
cobot_dynamixel_driver/joint_states|name|J1,J2,J3,J4,J5,J6|pos|0.000000,-0.000000,-0.000050,-0.000013,-0.000062,0.000021|vel|0.000000,-0.000000,0.000000,0.000000,0.000000,0.000000|eff|0.000000,241.699219,-515.625000,-112.792969,48.339844,0.000000
cobot_dynamixel_driver/joint_states|name|J1,J2,J3,J4,J5,J6|pos|0.000013,-0.000000,-0.000050,-0.000013,-0.000062,0.000021|vel|0.000000,-0.000000,0.000000,0.000000,0.000000,0.000000|eff|0.000000,306.152344,-499.511719,-96.679688,52.368164,20.141602
cobot_dynamixel_driver/joint_states|name|J1,J2,J3,J4,J5,J6|pos|0.000013,-0.000000,-0.000050,-0.000013,-0.000062,0.000021|vel|0.000000,-0.000000,0.000000,0.000000,0.000000,0.000000|eff|0.000000,370.605469,-531.738281,-112.792969,48.339844,0.000000
cobot_dynamixel_driver/joint_states|name|J1,J2,J3,J4,J5,J6|pos|0.000013,-0.000000,-0.000050,-0.000013,-0.000062,0.000021|vel|0.000000,-0.000000,0.000000,0.000000,0.000000,0.000000|eff|0.000000,241.699219,-483.398438,-112.792969,56.396484,24.169922
cobot_dynamixel_driver/joint_states|name|J1,J2,J3,J4,J5,J6|pos|0.000013,-0.000000,-0.000038,-0.000013,-0.000062,0.000021|vel|0.000000,-0.000000,0.000000,0.000000,0.000000,0.000000|eff|0.000000,290.039062,-547.851562,-96.679688,52.368164,20.141602
cobot_dynamixel_driver/joint_states|name|J1,J2,J3,J4,J5,J6|pos|0.000013,-0.000000,-0.000038,-0.000013,-0.000062,0.000021|vel|0.000000,-0.000000,0.000000,0.000000,0.000000,0.000000|eff|0.000000,225.585938,-467.285156,-96.679688,60.424805,24.169922
cobot_dynamixel_driver/joint_states|name|J1,J2,J3,J4,J5,J6|pos|0.000013,-0.000000,-0.000038,-0.000013,-0.000062,0.000021|vel|0.000000,-0.000000,0.000000,0.000000,0.000000,0.000000|eff|0.000000,241.699219,-515.625000,-96.679688,56.396484,0.000000
cobot_dynamixel_driver/joint_states|name|J1,J2,J3,J4,J5,J6|pos|0.000013,-0.000000,-0.000038,-0.000013,-0.000062,0.000021|vel|0.000000,-0.000000,0.000000,0.000000,0.000000,0.000000|eff|0.000000,241.699219,-547.851562,-96.679688,60.424805,0.000000
cobot_dynamixel_driver/joint_states|name|J1,J2,J3,J4,J5,J6|pos|0.000013,-0.000000,-0.000038,-0.000013,-0.000062,0.000021|vel|0.000000,-0.000000,0.000000,0.000000,0.000000,0.000000|eff|0.000000,306.152344,-547.851562,-96.679688,60.424805,24.169922
cobot_dynamixel_driver/joint_states|name|J1,J2,J3,J4,J5,J6|pos|0.000013,-0.000000,-0.000038,-0.000013,-0.000062,0.000021|vel|0.000000,-0.000000,0.000000,0.000000,0.000000,0.000000|eff|0.000000,225.585938,-499.511719,-96.679688,60.424805,20.141602
cobot_dynamixel_driver/joint_states|name|J1,J2,J3,J4,J5,J6|pos|0.000013,-0.000000,-0.000038,-0.000013,-0.000062,0.000021|vel|0.000000,-0.000000,0.000000,0.000000,0.000000,0.000000|eff|0.000000,290.039062,-563.964844,-96.679688,60.424805,24.169922
cobot_dynamixel_driver/joint_states|name|J1,J2,J3,J4,J5,J6|pos|0.000013,-0.000000,-0.000038,-0.000013,-0.000062,0.000021|vel|0.000000,-0.000000,0.000000,0.000000,0.000000,0.000000|eff|0.000000,322.265625,-547.851562,-96.679688,64.453125,24.169922
cobot_dynamixel_driver/joint_states|name|J1,J2,J3,J4,J5,J6|pos|0.000013,-0.000000,-0.000038,-0.000013,-0.000062,0.000021|vel|0.000000,-0.000000,0.000000,0.000000,0.000000,0.000000|eff|0.000000,225.585938,-467.285156,-32.226562,64.453125,20.141602
cobot_dynamixel_driver/joint_states|name|J1,J2,J3,J4,J5,J6|pos|0.000013,-0.000000,-0.000038,-0.000013,-0.000062,0.000021|vel|0.000000,-0.000000,0.000000,0.000000,0.000000,0.000000|eff|0.000000,225.585938,-483.398438,-96.679688,64.453125,24.169922
cobot_dynamixel_driver/joint_states|name|J1,J2,J3,J4,J5,J6|pos|0.000013,-0.000000,-0.000038,-0.000013,-0.000062,0.000021|vel|0.000000,-0.000000,0.000000,0.000000,0.000000,0.000000|eff|0.000000,225.585938,-531.738281,-48.339844,64.453125,8.056641
cobot_dynamixel_driver/joint_states|name|J1,J2,J3,J4,J5,J6|pos|0.000013,-0.000000,-0.000025,-0.000013,-0.000062,0.000021|vel|0.000000,-0.000000,0.000000,0.000000,0.000000,0.000000|eff|0.000000,370.605469,-467.285156,-96.679688,64.453125,0.000000
cobot_dynamixel_driver/joint_states|name|J1,J2,J3,J4,J5,J6|pos|0.000025,-0.000000,-0.000025,-0.000013,-0.000062,0.000021|vel|0.000000,-0.000000,0.000000,0.000000,0.000000,0.000000|eff|0.000000,370.605469,-499.511719,-112.792969,64.453125,0.000000
cobot_dynamixel_driver/joint_states|name|J1,J2,J3,J4,J5,J6|pos|0.000025,-0.000000,-0.000025,-0.000013,-0.000062,0.000021|vel|0.000000,-0.000000,0.000000,0.000000,0.000000,0.000000|eff|0.000000,370.605469,-467.285156,-96.679688,72.509766,24.169922
cobot_dynamixel_driver/joint_states|name|J1,J2,J3,J4,J5,J6|pos|0.000025,-0.000000,-0.000025,-0.000013,-0.000062,0.000021|vel|0.000000,-0.000000,0.000000,0.000000,0.000000,0.000000|eff|0.000000,257.812500,-499.511719,-96.679688,64.453125,24.169922
cobot_dynamixel_driver/joint_states|name|J1,J2,J3,J4,J5,J6|pos|0.000025,-0.000000,-0.000025,-0.000013,-0.000062,0.000021|vel|0.000000,-0.000000,0.000000,0.000000,0.000000,0.000000|eff|0.000000,370.605469,-499.511719,-96.679688,64.453125,24.169922
cobot_dynamixel_driver/joint_states|name|J1,J2,J3,J4,J5,J6|pos|0.000025,-0.000000,-0.000025,-0.000013,-0.000041,0.000021|vel|0.000000,-0.000000,0.000000,0.000000,0.000000,0.000000|eff|0.000000,290.039062,-499.511719,-112.792969,80.566406,24.169922
cobot_dynamixel_driver/joint_states|name|J1,J2,J3,J4,J5,J6|pos|0.000025,-0.000000,-0.000025,-0.000013,0.000021,0.000021|vel|0.000000,-0.000000,0.000000,0.000000,0.000000,0.000000|eff|0.000000,225.585938,-547.851562,-48.339844,72.509766,24.169922
cobot_dynamixel_driver/joint_states|name|J1,J2,J3,J4,J5,J6|pos|0.000025,-0.000000,-0.000025,-0.000013,0.000041,0.000021|vel|0.000000,-0.000000,0.000000,0.000000,0.002413,0.000000|eff|0.000000,225.585938,-483.398438,-96.679688,60.424805,8.056641
cobot_dynamixel_driver/joint_states|name|J1,J2,J3,J4,J5,J6|pos|0.000025,-0.000000,-0.000025,-0.000013,0.000041,0.000021|vel|0.000000,-0.000000,0.000000,0.000000,0.002413,0.000000|eff|0.000000,225.585938,-467.285156,-96.679688,60.424805,0.000000
cobot_dynamixel_driver/joint_states|name|J1,J2,J3,J4,J5,J6|pos|0.000025,-0.000000,-0.000025,-0.000013,0.000041,0.000021|vel|0.000000,-0.000000,0.000000,0.000000,0.002413,0.000000|eff|0.000000,241.699219,-467.285156,-96.679688,48.339844,12.084961
cobot_dynamixel_driver/joint_states|name|J1,J2,J3,J4,J5,J6|pos|0.000025,-0.000000,-0.000025,-0.000013,0.000041,0.000021|vel|0.000000,-0.000000,0.000000,0.000000,0.002413,0.000000|eff|0.000000,241.699219,-531.738281,-32.226562,44.311523,8.056641
cobot_dynamixel_driver/joint_states|name|J1,J2,J3,J4,J5,J6|pos|0.000025,-0.000000,-0.000025,-0.000013,0.000041,0.000021|vel|0.000000,-0.000000,0.000000,0.000000,0.000000,0.000000|eff|0.000000,370.605469,-531.738281,-96.679688,40.283203,24.169922
cobot_dynamixel_driver/joint_states|name|J1,J2,J3,J4,J5,J6|pos|0.000025,-0.000000,-0.000025,-0.000013,0.000041,0.000021|vel|0.000000,-0.000000,0.000000,0.000000,0.000000,0.000000|eff|0.000000,290.039062,-499.511719,-64.453125,40.283203,20.141602
cobot_dynamixel_driver/joint_states|name|J1,J2,J3,J4,J5,J6|pos|0.000025,-0.000000,-0.000025,-0.000013,0.000041,0.000021|vel|0.000000,-0.000000,0.000000,0.000000,0.000000,0.000000|eff|0.000000,225.585938,-515.625000,-32.226562,40.283203,12.084961
cobot_dynamixel_driver/joint_states|name|J1,J2,J3,J4,J5,J6|pos|0.000025,-0.000000,-0.000025,-0.000013,0.000041,0.000021|vel|0.000000,-0.000000,0.000000,0.000000,0.000000,0.000000|eff|0.000000,257.812500,-499.511719,-96.679688,44.311523,0.000000
cobot_dynamixel_driver/joint_states|name|J1,J2,J3,J4,J5,J6|pos|0.000025,-0.000000,-0.000025,-0.000013,0.000041,0.000021|vel|0.000000,-0.000000,0.000000,0.000000,0.000000,0.000000|eff|0.000000,322.265625,-499.511719,-112.792969,40.283203,0.000000
cobot_dynamixel_driver/joint_states|name|J1,J2,J3,J4,J5,J6|pos|0.000025,-0.000000,-0.000025,-0.000013,0.000041,0.000021|vel|0.000000,-0.000000,0.000000,0.000000,0.000000,0.000000|eff|0.000000,225.585938,-531.738281,-96.679688,36.254883,20.141602
cobot_dynamixel_driver/joint_states|name|J1,J2,J3,J4,J5,J6|pos|0.000025,-0.000000,-0.000025,-0.000013,0.000041,0.000021|vel|0.000000,-0.000000,0.000000,0.000000,0.000000,0.000000|eff|0.000000,225.585938,-467.285156,-112.792969,36.254883,20.141602
cobot_dynamixel_driver/joint_states|name|J1,J2,J3,J4,J5,J6|pos|0.000025,-0.000000,-0.000025,-0.000013,0.000041,0.000021|vel|0.000000,-0.000000,0.000000,0.000000,0.000000,0.000000|eff|0.000000,241.699219,-467.285156,-96.679688,40.283203,12.084961
cobot_dynamixel_driver/joint_states|name|J1,J2,J3,J4,J5,J6|pos|0.000025,-0.000000,-0.000025,-0.000013,0.000041,0.000021|vel|0.000000,-0.000000,0.000000,0.000000,0.000000,0.000000|eff|0.000000,225.585938,-467.285156,-96.679688,36.254883,20.141602
cobot_dynamixel_driver/joint_states|name|J1,J2,J3,J4,J5,J6|pos|0.000025,-0.000000,-0.000025,-0.000013,0.000041,0.000021|vel|0.000000,-0.000000,0.000000,0.000000,0.000000,0.000000|eff|0.000000,225.585938,-483.398438,-96.679688,44.311523,24.169922
cobot_dynamixel_driver/joint_states|name|J1,J2,J3,J4,J5,J6|pos|0.000025,-0.000000,-0.000025,-0.000013,0.000041,0.000021|vel|0.000000,-0.000000,0.000000,0.000000,0.000000,0.000000|eff|0.000000,225.585938,-467.285156,-48.339844,40.283203,0.000000
cobot_dynamixel_driver/joint_states|name|J1,J2,J3,J4,J5,J6|pos|0.000025,-0.000000,-0.000025,-0.000013,0.000041,0.000021|vel|0.000000,-0.000000,0.000000,0.000000,0.000000,0.000000|eff|0.000000,257.812500,-499.511719,-32.226562,40.283203,16.113281
cobot_dynamixel_driver/joint_states|name|J1,J2,J3,J4,J5,J6|pos|0.000025,-0.000000,-0.000025,-0.000013,0.000041,0.000021|vel|0.000000,-0.000000,0.000000,0.000000,0.000000,0.000000|eff|0.000000,225.585938,-531.738281,-112.792969,40.283203,12.084961
cobot_dynamixel_driver/joint_states|name|J1,J2,J3,J4,J5,J6|pos|0.000025,-0.000000,-0.000025,-0.000013,0.000041,0.000021|vel|0.000000,-0.000000,0.000000,0.000000,0.000000,0.000000|eff|0.000000,370.605469,-467.285156,-96.679688,40.283203,0.000000
cobot_dynamixel_driver/joint_states|name|J1,J2,J3,J4,J5,J6|pos|0.000025,-0.000000,-0.000025,-0.000013,0.000041,0.000021|vel|0.000000,-0.000000,0.000000,0.000000,0.000000,0.000000|eff|0.000000,225.585938,-499.511719,-64.453125,40.283203,24.169922
cobot_dynamixel_driver/joint_states|name|J1,J2,J3,J4,J5,J6|pos|0.000025,-0.000000,-0.000025,-0.000013,0.000041,0.000021|vel|0.000000,-0.000000,0.000000,0.000000,0.000000,0.000000|eff|0.000000,273.925781,-515.625000,-96.679688,40.283203,0.000000
cobot_dynamixel_driver/joint_states|name|J1,J2,J3,J4,J5,J6|pos|0.000025,-0.000000,-0.000025,-0.000013,0.000041,0.000021|vel|0.000000,-0.000000,0.000000,0.000000,0.000000,0.000000|eff|0.000000,225.585938,-499.511719,-96.679688,40.283203,12.084961
cobot_dynamixel_driver/joint_states|name|J1,J2,J3,J4,J5,J6|pos|0.000025,-0.000000,-0.000025,-0.000013,0.000041,0.000021|vel|0.000000,-0.000000,0.000000,0.000000,0.000000,0.000000|eff|0.000000,225.585938,-547.851562,-96.679688,40.283203,8.056641
cobot_dynamixel_driver/joint_states|name|J1,J2,J3,J4,J5,J6|pos|0.000025,-0.000000,-0.000025,-0.000013,0.000041,0.000021|vel|0.000000,-0.000000,0.000000,0.000000,0.000000,0.000000|eff|0.000000,225.585938,-547.851562,-96.679688,40.283203,0.000000
cobot_dynamixel_driver/joint_states|name|J1,J2,J3,J4,J5,J6|pos|0.000025,-0.000000,-0.000025,-0.000013,0.000041,0.000021|vel|0.000000,-0.000000,0.000000,0.000000,0.000000,0.000000|eff|0.000000,257.812500,-499.511719,-112.792969,40.283203,0.000000
cobot_dynamixel_driver/joint_states|name|J1,J2,J3,J4,J5,J6|pos|0.000025,-0.000000,-0.000025,-0.000013,0.000041,0.000021|vel|0.000000,-0.000000,0.000000,0.000000,0.000000,0.000000|eff|0.000000,225.585938,-499.511719,-96.679688,40.283203,20.141602
cobot_dynamixel_driver/joint_states|name|J1,J2,J3,J4,J5,J6|pos|0.000025,-0.000000,-0.000025,-0.000013,0.000041,0.000021|vel|0.000000,-0.000000,0.000000,0.000000,0.000000,0.000000|eff|0.000000,273.925781,-563.964844,-112.792969,40.283203,0.000000
cobot_dynamixel_driver/joint_states|name|J1,J2,J3,J4,J5,J6|pos|0.000025,-0.000000,-0.000025,-0.000013,0.000041,0.000021|vel|0.000000,-0.000000,0.000000,0.000000,0.000000,0.000000|eff|0.000000,322.265625,-547.851562,-112.792969,40.283203,12.084961
cobot_dynamixel_driver/joint_states|name|J1,J2,J3,J4,J5,J6|pos|0.000025,-0.000000,-0.000025,-0.000013,0.000041,0.000021|vel|0.000000,-0.000000,0.000000,0.000000,0.000000,0.000000|eff|0.000000,257.812500,-483.398438,-96.679688,40.283203,24.169922
cobot_dynamixel_driver/joint_states|name|J1,J2,J3,J4,J5,J6|pos|0.000025,-0.000000,-0.000025,-0.000013,0.000041,0.000021|vel|0.000000,-0.000000,0.000000,0.000000,0.000000,0.000000|eff|0.000000,241.699219,-483.398438,-96.679688,40.283203,8.056641
cobot_dynamixel_driver/joint_states|name|J1,J2,J3,J4,J5,J6|pos|0.000025,-0.000000,-0.000025,-0.000013,0.000041,0.000021|vel|0.000000,-0.000000,0.000000,0.000000,0.000000,0.000000|eff|0.000000,241.699219,-467.285156,-96.679688,40.283203,24.169922
cobot_dynamixel_driver/joint_states|name|J1,J2,J3,J4,J5,J6|pos|0.000025,-0.000000,-0.000025,-0.000013,0.000041,0.000021|vel|0.000000,-0.000000,0.000000,0.000000,0.000000,0.000000|eff|0.000000,257.812500,-499.511719,-112.792969,40.283203,20.141602
cobot_dynamixel_driver/joint_states|name|J1,J2,J3,J4,J5,J6|pos|0.000025,-0.000000,-0.000025,-0.000013,0.000041,0.000021|vel|0.000000,-0.000000,0.000000,0.000000,0.000000,0.000000|eff|0.000000,257.812500,-467.285156,-96.679688,40.283203,12.084961
cobot_dynamixel_driver/joint_states|name|J1,J2,J3,J4,J5,J6|pos|0.000025,-0.000000,-0.000013,-0.000013,0.000041,0.000021|vel|0.000000,-0.000000,0.000000,0.000000,0.000000,0.000000|eff|0.000000,225.585938,-531.738281,-96.679688,40.283203,0.000000
cobot_dynamixel_driver/joint_states|name|J1,J2,J3,J4,J5,J6|pos|0.000025,-0.000000,-0.000013,-0.000013,0.000041,0.000021|vel|0.000000,-0.000000,0.000000,0.000000,0.000000,0.000000|eff|0.000000,225.585938,-483.398438,-96.679688,40.283203,20.141602
cobot_dynamixel_driver/joint_states|name|J1,J2,J3,J4,J5,J6|pos|0.000025,-0.000000,-0.000013,-0.000013,0.000041,0.000021|vel|0.000000,-0.000000,0.000000,0.000000,0.000000,0.000000|eff|0.000000,225.585938,-499.511719,-96.679688,40.283203,8.056641
cobot_dynamixel_driver/joint_states|name|J1,J2,J3,J4,J5,J6|pos|0.000025,-0.000000,-0.000013,-0.000013,0.000041,0.000021|vel|0.000000,-0.000000,0.000000,0.000000,0.000000,0.000000|eff|0.000000,225.585938,-467.285156,-96.679688,40.283203,0.000000
cobot_dynamixel_driver/joint_states|name|J1,J2,J3,J4,J5,J6|pos|0.000025,-0.000000,-0.000013,-0.000013,0.000041,0.000021|vel|0.000000,-0.000000,0.000000,0.000000,0.000000,0.000000|eff|0.000000,225.585938,-531.738281,-96.679688,40.283203,0.000000
cobot_dynamixel_driver/joint_states|name|J1,J2,J3,J4,J5,J6|pos|0.000025,-0.000000,-0.000013,-0.000013,0.000041,0.000021|vel|0.000000,-0.000000,0.000000,0.000000,0.000000,0.000000|eff|0.000000,225.585938,-467.285156,-96.679688,40.283203,8.056641
cobot_dynamixel_driver/joint_states|name|J1,J2,J3,J4,J5,J6|pos|0.000025,-0.000000,-0.000013,-0.000013,0.000041,0.000021|vel|0.000000,-0.000000,0.000000,0.000000,0.000000,0.000000|eff|0.000000,306.152344,-467.285156,-112.792969,40.283203,0.000000
cobot_dynamixel_driver/joint_states|name|J1,J2,J3,J4,J5,J6|pos|0.000025,-0.000000,-0.000013,-0.000013,0.000041,0.000021|vel|0.000000,-0.000000,0.000000,0.000000,0.000000,0.000000|eff|0.000000,402.832031,-467.285156,-96.679688,40.283203,20.141602
cobot_dynamixel_driver/joint_states|name|J1,J2,J3,J4,J5,J6|pos|0.000025,-0.000000,-0.000013,-0.000013,0.000041,0.000021|vel|0.000000,-0.000000,0.000000,0.000000,0.000000,0.000000|eff|0.000000,370.605469,-547.851562,-112.792969,40.283203,20.141602
cobot_dynamixel_driver/joint_states|name|J1,J2,J3,J4,J5,J6|pos|0.000025,-0.000000,-0.000013,-0.000013,0.000041,0.000021|vel|0.000000,-0.000000,0.000000,0.000000,0.000000,0.000000|eff|0.000000,225.585938,-515.625000,-96.679688,40.283203,20.141602
cobot_dynamixel_driver/joint_states|name|J1,J2,J3,J4,J5,J6|pos|0.000025,-0.000000,-0.000013,-0.000013,0.000041,0.000021|vel|0.000000,-0.000000,0.000000,0.000000,0.000000,0.000000|eff|0.000000,225.585938,-467.285156,-96.679688,40.283203,24.169922
cobot_dynamixel_driver/joint_states|name|J1,J2,J3,J4,J5,J6|pos|0.000025,-0.000000,-0.000013,-0.000013,0.000041,0.000021|vel|0.000000,-0.000000,0.000000,0.000000,0.000000,0.000000|eff|0.000000,225.585938,-499.511719,-96.679688,40.283203,0.000000
cobot_dynamixel_driver/joint_states|name|J1,J2,J3,J4,J5,J6|pos|0.000025,-0.000000,-0.000013,-0.000013,0.000041,0.000021|vel|0.000000,-0.000000,0.000000,0.000000,0.000000,0.000000|eff|0.000000,225.585938,-547.851562,-96.679688,40.283203,20.141602
cobot_dynamixel_driver/joint_states|name|J1,J2,J3,J4,J5,J6|pos|0.000025,-0.000000,-0.000013,-0.000013,0.000041,0.000021|vel|0.000000,-0.000000,0.000000,0.000000,0.000000,0.000000|eff|0.000000,273.925781,-499.511719,-96.679688,40.283203,8.056641
cobot_dynamixel_driver/joint_states|name|J1,J2,J3,J4,J5,J6|pos|0.000025,-0.000000,-0.000013,-0.000013,0.000041,0.000021|vel|0.000000,-0.000000,0.000000,0.000000,0.000000,0.000000|eff|0.000000,306.152344,-547.851562,-96.679688,40.283203,24.169922
cobot_dynamixel_driver/joint_states|name|J1,J2,J3,J4,J5,J6|pos|0.000025,-0.000000,-0.000013,-0.000013,0.000041,0.000021|vel|0.000000,-0.000000,0.000000,0.000000,0.000000,0.000000|eff|0.000000,225.585938,-499.511719,-96.679688,40.283203,24.169922
cobot_dynamixel_driver/joint_states|name|J1,J2,J3,J4,J5,J6|pos|0.000025,-0.000000,-0.000013,-0.000013,0.000041,0.000021|vel|0.000000,-0.000000,0.000000,0.000000,0.000000,0.000000|eff|0.000000,257.812500,-483.398438,-112.792969,40.283203,0.000000
cobot_dynamixel_driver/joint_states|name|J1,J2,J3,J4,J5,J6|pos|0.000025,-0.000000,-0.000013,-0.000013,0.000041,0.000021|vel|0.000000,-0.000000,0.000000,0.000000,0.000000,0.000000|eff|0.000000,225.585938,-483.398438,-32.226562,40.283203,0.000000
cobot_dynamixel_driver/joint_states|name|J1,J2,J3,J4,J5,J6|pos|0.000025,-0.000000,-0.000013,-0.000013,0.000041,0.000021|vel|0.000000,-0.000000,0.000000,0.000000,0.000000,0.000000|eff|0.000000,225.585938,-515.625000,-96.679688,40.283203,0.000000
cobot_dynamixel_driver/joint_states|name|J1,J2,J3,J4,J5,J6|pos|0.000025,-0.000000,-0.000013,-0.000013,0.000041,0.000021|vel|0.000000,-0.000000,0.000000,0.000000,0.000000,0.000000|eff|0.000000,225.585938,-499.511719,-80.566406,40.283203,20.141602
cobot_dynamixel_driver/joint_states|name|J1,J2,J3,J4,J5,J6|pos|0.000025,-0.000000,-0.000013,-0.000013,0.000041,0.000021|vel|0.000000,-0.000000,0.000000,0.000000,0.000000,0.000000|eff|0.000000,241.699219,-467.285156,-96.679688,40.283203,8.056641
cobot_dynamixel_driver/joint_states|name|J1,J2,J3,J4,J5,J6|pos|0.000025,-0.000000,-0.000013,-0.000013,0.000041,0.000021|vel|0.000000,-0.000000,0.000000,0.000000,0.000000,0.000000|eff|0.000000,225.585938,-483.398438,-112.792969,40.283203,0.000000
cobot_dynamixel_driver/joint_states|name|J1,J2,J3,J4,J5,J6|pos|0.000025,-0.000000,-0.000013,-0.000013,0.000041,0.000021|vel|0.000000,-0.000000,0.000000,0.000000,0.000000,0.000000|eff|0.000000,225.585938,-499.511719,-112.792969,40.283203,0.000000
cobot_dynamixel_driver/joint_states|name|J1,J2,J3,J4,J5,J6|pos|0.000025,-0.000000,-0.000013,-0.000013,0.000041,0.000021|vel|0.000000,-0.000000,0.000000,0.000000,0.000000,0.000000|eff|0.000000,225.585938,-467.285156,-96.679688,40.283203,0.000000
cobot_dynamixel_driver/joint_states|name|J1,J2,J3,J4,J5,J6|pos|0.000025,-0.000000,-0.000013,-0.000013,0.000041,0.000021|vel|0.000000,-0.000000,0.000000,0.000000,0.000000,0.000000|eff|0.000000,225.585938,-467.285156,-96.679688,40.283203,8.056641
cobot_dynamixel_driver/joint_states|name|J1,J2,J3,J4,J5,J6|pos|0.000025,-0.000000,-0.000013,-0.000013,0.000041,0.000021|vel|0.000000,-0.000000,0.000000,0.000000,0.000000,0.000000|eff|0.000000,225.585938,-467.285156,-96.679688,40.283203,24.169922
cobot_dynamixel_driver/joint_states|name|J1,J2,J3,J4,J5,J6|pos|0.000025,-0.000000,-0.000013,-0.000013,0.000041,0.000021|vel|0.000000,-0.000000,0.000000,0.000000,0.000000,0.000000|eff|0.000000,225.585938,-547.851562,-96.679688,40.283203,0.000000
cobot_dynamixel_driver/joint_states|name|J1,J2,J3,J4,J5,J6|pos|0.000025,-0.000000,-0.000013,-0.000013,0.000041,0.000021|vel|0.000000,-0.000000,0.000000,0.000000,0.000000,0.000000|eff|0.000000,225.585938,-467.285156,-96.679688,40.283203,24.169922
cobot_dynamixel_driver/joint_states|name|J1,J2,J3,J4,J5,J6|pos|0.000025,-0.000000,-0.000013,-0.000013,0.000041,0.000021|vel|0.000000,-0.000000,0.000000,0.000000,0.000000,0.000000|eff|0.000000,306.152344,-467.285156,-96.679688,40.283203,24.169922
cobot_dynamixel_driver/joint_states|name|J1,J2,J3,J4,J5,J6|pos|0.000025,-0.000000,-0.000013,-0.000013,0.000041,0.000021|vel|0.000000,-0.000000,0.000000,0.000000,0.000000,0.000000|eff|0.000000,257.812500,-531.738281,-96.679688,40.283203,12.084961
cobot_dynamixel_driver/joint_states|name|J1,J2,J3,J4,J5,J6|pos|0.000025,-0.000000,-0.000013,-0.000013,0.000041,0.000021|vel|0.000000,-0.000000,0.000000,0.000000,0.000000,0.000000|eff|0.000000,257.812500,-563.964844,-96.679688,40.283203,24.169922
cobot_dynamixel_driver/joint_states|name|J1,J2,J3,J4,J5,J6|pos|0.000025,-0.000000,-0.000013,-0.000013,0.000041,0.000021|vel|0.000000,-0.000000,0.000000,0.000000,0.000000,0.000000|eff|0.000000,225.585938,-563.964844,-96.679688,40.283203,24.169922
cobot_dynamixel_driver/joint_states|name|J1,J2,J3,J4,J5,J6|pos|0.000025,-0.000000,-0.000013,-0.000013,0.000041,0.000021|vel|0.000000,-0.000000,0.000000,0.000000,0.000000,0.000000|eff|0.000000,225.585938,-467.285156,-96.679688,40.283203,0.000000
cobot_dynamixel_driver/joint_states|name|J1,J2,J3,J4,J5,J6|pos|0.000025,-0.000000,-0.000013,-0.000013,0.000041,0.000021|vel|0.000000,-0.000000,0.000000,0.000000,0.000000,0.000000|eff|0.000000,225.585938,-499.511719,-96.679688,40.283203,20.141602
cobot_dynamixel_driver/joint_states|name|J1,J2,J3,J4,J5,J6|pos|0.000025,-0.000000,-0.000013,-0.000013,0.000041,0.000021|vel|0.000000,-0.000000,0.000000,0.000000,0.000000,0.000000|eff|0.000000,225.585938,-531.738281,-96.679688,40.283203,24.169922
cobot_dynamixel_driver/joint_states|name|J1,J2,J3,J4,J5,J6|pos|0.000025,-0.000000,-0.000013,-0.000013,0.000041,0.000021|vel|0.000000,-0.000000,0.000000,0.000000,0.000000,0.000000|eff|0.000000,306.152344,-483.398438,-96.679688,40.283203,8.056641
cobot_dynamixel_driver/joint_states|name|J1,J2,J3,J4,J5,J6|pos|0.000025,-0.000000,-0.000013,-0.000013,0.000041,0.000021|vel|0.000000,-0.000000,0.000000,0.000000,0.000000,0.000000|eff|0.000000,225.585938,-547.851562,-96.679688,40.283203,0.000000
cobot_dynamixel_driver/joint_states|name|J1,J2,J3,J4,J5,J6|pos|0.000025,-0.000000,-0.000013,-0.000013,0.000041,0.000021|vel|0.000000,-0.000000,0.000000,0.000000,0.000000,0.000000|eff|0.000000,290.039062,-483.398438,-96.679688,40.283203,0.000000
cobot_dynamixel_driver/joint_states|name|J1,J2,J3,J4,J5,J6|pos|0.000025,-0.000000,-0.000013,-0.000013,0.000041,0.000021|vel|0.000000,-0.000000,0.000000,0.000000,0.000000,0.000000|eff|0.000000,257.812500,-467.285156,-96.679688,40.283203,12.084961
cobot_dynamixel_driver/joint_states|name|J1,J2,J3,J4,J5,J6|pos|0.000025,-0.000000,-0.000013,-0.000013,0.000041,0.000021|vel|0.000000,-0.000000,0.000000,0.000000,0.000000,0.000000|eff|0.000000,225.585938,-483.398438,-96.679688,40.283203,24.169922
cobot_dynamixel_driver/joint_states|name|J1,J2,J3,J4,J5,J6|pos|0.000025,-0.000000,-0.000013,-0.000013,0.000041,0.000021|vel|0.000000,-0.000000,0.000000,0.000000,0.000000,0.000000|eff|0.000000,225.585938,-515.625000,-96.679688,40.283203,12.084961
cobot_dynamixel_driver/joint_states|name|J1,J2,J3,J4,J5,J6|pos|0.000025,-0.000000,-0.000013,-0.000013,0.000041,0.000021|vel|0.000000,-0.000000,0.000000,0.000000,0.000000,0.000000|eff|0.000000,225.585938,-467.285156,-96.679688,40.283203,24.169922
cobot_dynamixel_driver/joint_states|name|J1,J2,J3,J4,J5,J6|pos|0.000025,-0.000000,-0.000013,-0.000013,0.000041,0.000021|vel|0.000000,-0.000000,0.000000,0.000000,0.000000,0.000000|eff|0.000000,225.585938,-467.285156,-96.679688,40.283203,0.000000
cobot_dynamixel_driver/joint_states|name|J1,J2,J3,J4,J5,J6|pos|0.000025,-0.000000,-0.000013,-0.000013,0.000041,0.000021|vel|0.000000,-0.000000,0.000000,0.000000,0.000000,0.000000|eff|0.000000,225.585938,-467.285156,-96.679688,40.283203,12.084961
cobot_dynamixel_driver/joint_states|name|J1,J2,J3,J4,J5,J6|pos|0.000025,-0.000000,-0.000013,-0.000013,0.000041,0.000021|vel|0.000000,-0.000000,0.000000,0.000000,0.000000,0.000000|eff|0.000000,225.585938,-531.738281,-80.566406,40.283203,28.198242
cobot_dynamixel_driver/joint_states|name|J1,J2,J3,J4,J5,J6|pos|0.000025,-0.000000,-0.000013,-0.000013,0.000041,0.000021|vel|0.000000,-0.000000,0.000000,0.000000,0.000000,0.000000|eff|0.000000,225.585938,-483.398438,-96.679688,40.283203,20.141602
cobot_dynamixel_driver/joint_states|name|J1,J2,J3,J4,J5,J6|pos|0.000025,-0.000000,-0.000013,-0.000013,0.000041,0.000021|vel|0.000000,-0.000000,0.000000,0.000000,0.000000,0.000000|eff|0.000000,225.585938,-467.285156,-112.792969,40.283203,24.169922
cobot_dynamixel_driver/joint_states|name|J1,J2,J3,J4,J5,J6|pos|0.000025,-0.000000,-0.000013,-0.000013,0.000041,0.000021|vel|0.000000,-0.000000,0.000000,0.000000,0.000000,0.000000|eff|0.000000,273.925781,-499.511719,-96.679688,40.283203,24.169922
cobot_dynamixel_driver/joint_states|name|J1,J2,J3,J4,J5,J6|pos|0.000025,-0.000000,-0.000013,-0.000013,0.000041,0.000021|vel|0.000000,-0.000000,0.000000,0.000000,0.000000,0.000000|eff|0.000000,257.812500,-515.625000,-96.679688,40.283203,8.056641
cobot_dynamixel_driver/joint_states|name|J1,J2,J3,J4,J5,J6|pos|0.000025,-0.000000,-0.000013,-0.000013,0.000041,0.000021|vel|0.000000,-0.000000,0.000000,0.000000,0.000000,0.000000|eff|0.000000,257.812500,-499.511719,-64.453125,40.283203,0.000000
cobot_dynamixel_driver/joint_states|name|J1,J2,J3,J4,J5,J6|pos|0.000025,-0.000000,-0.000013,-0.000013,0.000041,0.000021|vel|0.000000,-0.000000,0.000000,0.000000,0.000000,0.000000|eff|0.000000,225.585938,-531.738281,-32.226562,40.283203,0.000000
cobot_dynamixel_driver/joint_states|name|J1,J2,J3,J4,J5,J6|pos|0.000025,-0.000000,-0.000013,-0.000013,0.000041,0.000021|vel|0.000000,-0.000000,0.000000,0.000000,0.000000,0.000000|eff|0.000000,225.585938,-531.738281,-96.679688,40.283203,0.000000
cobot_dynamixel_driver/joint_states|name|J1,J2,J3,J4,J5,J6|pos|0.000025,-0.000000,-0.000013,-0.000013,0.000041,0.000021|vel|0.000000,-0.000000,0.000000,0.000000,0.000000,0.000000|eff|0.000000,225.585938,-467.285156,-96.679688,40.283203,16.113281
cobot_dynamixel_driver/joint_states|name|J1,J2,J3,J4,J5,J6|pos|0.000025,-0.000000,-0.000013,-0.000013,0.000041,0.000021|vel|0.000000,-0.000000,0.000000,0.000000,0.000000,0.000000|eff|0.000000,257.812500,-467.285156,-96.679688,40.283203,0.000000
cobot_dynamixel_driver/joint_states|name|J1,J2,J3,J4,J5,J6|pos|0.000025,-0.000000,-0.000013,-0.000013,0.000041,0.000021|vel|0.000000,-0.000000,0.000000,0.000000,0.000000,0.000000|eff|0.000000,225.585938,-499.511719,-96.679688,40.283203,12.084961
cobot_dynamixel_driver/joint_states|name|J1,J2,J3,J4,J5,J6|pos|0.000025,-0.000000,-0.000013,-0.000013,0.000041,0.000021|vel|0.000000,-0.000000,0.000000,0.000000,0.000000,0.000000|eff|0.000000,225.585938,-467.285156,-96.679688,40.283203,24.169922
cobot_dynamixel_driver/joint_states|name|J1,J2,J3,J4,J5,J6|pos|0.000025,-0.000000,-0.000013,-0.000013,0.000041,0.000021|vel|0.000000,-0.000000,0.000000,0.000000,0.000000,0.000000|eff|0.000000,290.039062,-515.625000,-96.679688,40.283203,24.169922
cobot_dynamixel_driver/joint_states|name|J1,J2,J3,J4,J5,J6|pos|0.000025,-0.000000,-0.000013,-0.000013,0.000041,0.000021|vel|0.000000,-0.000000,0.000000,0.000000,0.000000,0.000000|eff|0.000000,225.585938,-483.398438,-96.679688,40.283203,12.084961
cobot_dynamixel_driver/joint_states|name|J1,J2,J3,J4,J5,J6|pos|0.000025,-0.000000,-0.000013,-0.000013,0.000041,0.000021|vel|0.000000,-0.000000,0.000000,0.000000,0.000000,0.000000|eff|0.000000,225.585938,-515.625000,-96.679688,40.283203,0.000000
cobot_dynamixel_driver/joint_states|name|J1,J2,J3,J4,J5,J6|pos|0.000025,-0.000000,-0.000013,-0.000013,0.000041,0.000021|vel|0.000000,-0.000000,0.000000,0.000000,0.000000,0.000000|eff|0.000000,225.585938,-483.398438,-96.679688,40.283203,24.169922
cobot_dynamixel_driver/joint_states|name|J1,J2,J3,J4,J5,J6|pos|0.000025,-0.000000,-0.000013,-0.000013,0.000041,0.000021|vel|0.000000,-0.000000,0.000000,0.000000,0.000000,0.000000|eff|0.000000,225.585938,-531.738281,-96.679688,40.283203,24.169922
cobot_dynamixel_driver/joint_states|name|J1,J2,J3,J4,J5,J6|pos|0.000025,-0.000000,-0.000013,-0.000013,0.000041,0.000021|vel|0.000000,-0.000000,0.000000,0.000000,0.000000,0.000000|eff|0.000000,306.152344,-467.285156,-112.792969,40.283203,24.169922
cobot_dynamixel_driver/joint_states|name|J1,J2,J3,J4,J5,J6|pos|0.000025,-0.000000,-0.000013,-0.000013,0.000041,0.000021|vel|0.000000,-0.000000,0.000000,0.000000,0.000000,0.000000|eff|0.000000,225.585938,-483.398438,-32.226562,40.283203,12.084961
cobot_dynamixel_driver/joint_states|name|J1,J2,J3,J4,J5,J6|pos|0.000025,-0.000000,-0.000013,-0.000013,0.000041,0.000021|vel|0.000000,-0.000000,0.000000,0.000000,0.000000,0.000000|eff|0.000000,209.472656,-483.398438,-96.679688,40.283203,12.084961
cobot_dynamixel_driver/joint_states|name|J1,J2,J3,J4,J5,J6|pos|0.000025,-0.000000,-0.000013,-0.000013,0.000041,0.000021|vel|0.000000,-0.000000,0.000000,0.000000,0.000000,0.000000|eff|0.000000,370.605469,-467.285156,-96.679688,40.283203,24.169922
cobot_dynamixel_driver/joint_states|name|J1,J2,J3,J4,J5,J6|pos|0.000025,-0.000000,-0.000013,-0.000013,0.000041,0.000021|vel|0.000000,-0.000000,0.000000,0.000000,0.000000,0.000000|eff|0.000000,370.605469,-467.285156,-112.792969,40.283203,0.000000
cobot_dynamixel_driver/joint_states|name|J1,J2,J3,J4,J5,J6|pos|0.000025,-0.000000,-0.000013,-0.000013,0.000041,0.000021|vel|0.000000,-0.000000,0.000000,0.000000,0.000000,0.000000|eff|0.000000,306.152344,-563.964844,-96.679688,40.283203,20.141602
cobot_dynamixel_driver/joint_states|name|J1,J2,J3,J4,J5,J6|pos|0.000025,-0.000000,-0.000013,-0.000013,0.000041,0.000021|vel|0.000000,-0.000000,0.000000,0.000000,0.000000,0.000000|eff|0.000000,225.585938,-467.285156,-112.792969,40.283203,24.169922
cobot_dynamixel_driver/joint_states|name|J1,J2,J3,J4,J5,J6|pos|0.000025,-0.000000,-0.000013,-0.000013,0.000041,0.000021|vel|0.000000,-0.000000,0.000000,0.000000,0.000000,0.000000|eff|0.000000,290.039062,-467.285156,-96.679688,40.283203,8.056641
cobot_dynamixel_driver/goal|-:J1,J2,J3,J4,J5,J6:0.000000,0.000000,1.047198,0.000000,-3.000000,0.000000:0.500000,0.500000,0.500000,0.500000,0.500000,0.500000:pos_vel_
cobot_dynamixel_driver/goal|-:J1,J2,J3,J4,J5,J6:0.000000,0.000000,1.047198,0.000000,-3.000000,0.000000:0.500000,0.500000,0.500000,0.500000,0.500000,0.500000:pos_vel_
cobot_dynamixel_driver/goal|-:J1,J2,J3,J4,J5,J6:0.000000,0.000000,1.047198,0.000000,-3.000000,0.000000:0.500000,0.500000,0.500000,0.500000,0.500000,0.500000:pos_vel_
cobot_dynamixel_driver/goal|-:J1,J2,J3,J4,J5,J6:0.000000,0.000000,1.047198,0.000000,-3.000000,0.000000:0.500000,0.500000,0.500000,0.500000,0.500000,0.500000:pos_vel_
cobot_dynamixel_driver/goal|-:J1,J2,J3,J4,J5,J6:0.000000,0.000000,1.047198,0.000000,-3.000000,0.000000:0.500000,0.500000,0.500000,0.500000,0.500000,0.500000:pos_vel_
cobot_dynamixel_driver/goal|-:J1,J2,J3,J4,J5,J6:0.000000,0.000000,1.047198,0.000000,-3.000000,0.000000:0.500000,0.500000,0.500000,0.500000,0.500000,0.500000:pos_vel_
cobot_dynamixel_driver/goal|-:J1,J2,J3,J4,J5,J6:0.000000,0.000000,1.047198,0.000000,-3.000000,0.000000:0.500000,0.500000,0.500000,0.500000,0.500000,0.500000:pos_vel_
cobot_dynamixel_driver/goal|-:J1,J2,J3,J4,J5,J6:0.000000,0.000000,1.047198,0.000000,-3.000000,0.000000:0.500000,0.500000,0.500000,0.500000,0.500000,0.500000:pos_vel_
cobot_dynamixel_driver/goal|-:J1,J2,J3,J4,J5,J6:0.000000,0.000000,1.047198,0.000000,-3.000000,0.000000:0.500000,0.500000,0.500000,0.500000,0.500000,0.500000:pos_vel_
cobot_dynamixel_driver/goal|-:J1,J2,J3,J4,J5,J6:0.000000,0.000000,1.047198,0.000000,-3.000000,0.000000:0.500000,0.500000,0.500000,0.500000,0.500000,0.500000:pos_vel_
cobot_dynamixel_driver/goal|-:J1,J2,J3,J4,J5,J6:0.000000,0.000000,1.047198,0.000000,-3.000000,0.000000:0.500000,0.500000,0.500000,0.500000,0.500000,0.500000:pos_vel_
cobot_dynamixel_driver/goal|-:J1,J2,J3,J4,J5,J6:0.000000,0.000000,1.047198,0.000000,-3.000000,0.000000:0.500000,0.500000,0.500000,0.500000,0.500000,0.500000:pos_vel_
cobot_dynamixel_driver/goal|-:J1,J2,J3,J4,J5,J6:0.000000,0.000000,1.047198,0.000000,-3.000000,0.000000:0.500000,0.500000,0.500000,0.500000,0.500000,0.500000:pos_vel_
cobot_dynamixel_driver/goal|-:J1,J2,J3,J4,J5,J6:0.000000,0.000000,1.047198,0.000000,-3.000000,0.000000:0.500000,0.500000,0.500000,0.500000,0.500000,0.500000:pos_vel_
cobot_dynamixel_driver/goal|-:J1,J2,J3,J4,J5,J6:0.000000,0.000000,1.047198,0.000000,-3.000000,0.000000:0.500000,0.500000,0.500000,0.500000,0.500000,0.500000:pos_vel_
cobot_dynamixel_driver/goal|-:J1,J2,J3,J4,J5,J6:0.000000,0.000000,1.047198,0.000000,-3.000000,0.000000:0.500000,0.500000,0.500000,0.500000,0.500000,0.500000:pos_vel_
cobot_dynamixel_driver/goal|-:J1,J2,J3,J4,J5,J6:0.000000,0.000000,1.047198,0.000000,-3.000000,0.000000:0.500000,0.500000,0.500000,0.500000,0.500000,0.500000:pos_vel_
cobot_dynamixel_driver/goal|-:J1,J2,J3,J4,J5,J6:0.000000,0.000000,1.047198,0.000000,-3.000000,0.000000:0.500000,0.500000,0.500000,0.500000,0.500000,0.500000:pos_vel_
cobot_dynamixel_driver/goal|-:J1,J2,J3,J4,J5,J6:0.000000,0.000000,1.047198,0.000000,-3.000000,0.000000:0.500000,0.500000,0.500000,0.500000,0.500000,0.500000:pos_vel_
cobot_dynamixel_driver/goal|-:J1,J2,J3,J4,J5,J6:0.000000,0.000000,1.047198,0.000000,-3.000000,0.000000:0.500000,0.500000,0.500000,0.500000,0.500000,0.500000:pos_vel_
cobot_dynamixel_driver/goal|-:J1,J2,J3,J4,J5,J6:0.000000,0.000000,1.047198,0.000000,-3.000000,0.000000:0.500000,0.500000,0.500000,0.500000,0.500000,0.500000:pos_vel_
cobot_dynamixel_driver/goal|-:J1,J2,J3,J4,J5,J6:0.000000,0.000000,1.047198,0.000000,-3.000000,0.000000:0.500000,0.500000,0.500000,0.500000,0.500000,0.500000:pos_vel_
cobot_dynamixel_driver/goal|-:J1,J2,J3,J4,J5,J6:0.000000,0.000000,1.047198,0.000000,-3.000000,0.000000:0.500000,0.500000,0.500000,0.500000,0.500000,0.500000:pos_vel_
cobot_dynamixel_driver/goal|-:J1,J2,J3,J4,J5,J6:0.000000,0.000000,1.047198,0.000000,-3.000000,0.000000:0.500000,0.500000,0.500000,0.500000,0.500000,0.500000:pos_vel_
cobot_dynamixel_driver/goal|-:J1,J2,J3,J4,J5,J6:0.000000,0.000000,1.047198,0.000000,-3.000000,0.000000:0.500000,0.500000,0.500000,0.500000,0.500000,0.500000:pos_vel_
cobot_dynamixel_driver/goal|-:J1,J2,J3,J4,J5,J6:0.000000,0.000000,1.047198,0.000000,-3.000000,0.000000:0.500000,0.500000,0.500000,0.500000,0.500000,0.500000:pos_vel_
cobot_dynamixel_driver/goal|-:J1,J2,J3,J4,J5,J6:0.000000,0.000000,1.047198,0.000000,-3.000000,0.000000:0.500000,0.500000,0.500000,0.500000,0.500000,0.500000:pos_vel_
cobot_dynamixel_driver/goal|-:J1,J2,J3,J4,J5,J6:0.000000,0.000000,1.047198,0.000000,-3.000000,0.000000:0.500000,0.500000,0.500000,0.500000,0.500000,0.500000:pos_vel_
cobot_dynamixel_driver/goal|-:J1,J2,J3,J4,J5,J6:0.000000,0.000000,1.047198,0.000000,-3.000000,0.000000:0.500000,0.500000,0.500000,0.500000,0.500000,0.500000:pos_vel_
