surachairobotic/cobot/cobot_dynamixel_driver/log/2018-12-07T07:58:23.993279_driver_log.txt
cobot_dynamixel_driver/joint_states|name|J1,J2,J3,J4,J5,J6|pos|0.269192,-1.268785,1.296275,-0.001715,-1.438151,-0.000083|vel|0.000000,-0.000000,0.000000,0.000000,0.000000,0.000000|eff|0.000000,0.000000,0.000000,0.000000,0.000000,0.000000
cobot_dynamixel_driver/joint_states|name|J1,J2,J3,J4,J5,J6|pos|0.269192,-1.268785,1.296275,-0.001715,-1.438151,-0.000083|vel|0.000000,-0.000000,0.000000,0.000000,0.000000,0.000000|eff|0.000000,0.000000,0.000000,0.000000,0.000000,0.000000
cobot_dynamixel_driver/joint_states|name|J1,J2,J3,J4,J5,J6|pos|0.269192,-1.268785,1.296275,-0.001715,-1.438151,-0.000083|vel|0.000000,-0.000000,0.000000,0.000000,0.000000,0.000000|eff|0.000000,0.000000,0.000000,0.000000,0.000000,0.000000
cobot_dynamixel_driver/joint_states|name|J1,J2,J3,J4,J5,J6|pos|0.269192,-1.268785,1.296275,-0.001715,-1.438151,-0.000083|vel|0.000000,-0.000000,0.000000,0.000000,0.000000,0.000000|eff|0.000000,0.000000,0.000000,0.000000,0.000000,0.000000
cobot_dynamixel_driver/joint_states|name|J1,J2,J3,J4,J5,J6|pos|0.269192,-1.268785,1.296275,-0.001715,-1.438151,-0.000083|vel|0.000000,-0.000000,0.000000,0.000000,0.000000,0.000000|eff|0.000000,0.000000,0.000000,0.000000,0.000000,0.000000
cobot_dynamixel_driver/joint_states|name|J1,J2,J3,J4,J5,J6|pos|0.269192,-1.268785,1.296275,-0.001715,-1.438151,-0.000083|vel|0.000000,-0.000000,0.000000,0.000000,0.000000,0.000000|eff|0.000000,0.000000,0.000000,0.000000,0.000000,0.000000
cobot_dynamixel_driver/joint_states|name|J1,J2,J3,J4,J5,J6|pos|0.269192,-1.268785,1.296275,-0.001715,-1.438151,-0.000083|vel|0.000000,-0.000000,0.000000,0.000000,0.000000,0.000000|eff|0.000000,0.000000,0.000000,0.000000,0.000000,0.000000
cobot_dynamixel_driver/joint_states|name|J1,J2,J3,J4,J5,J6|pos|0.269192,-1.268785,1.296275,-0.001715,-1.438151,-0.000083|vel|0.000000,-0.000000,0.000000,0.000000,0.000000,0.000000|eff|0.000000,0.000000,0.000000,0.000000,0.000000,0.000000
cobot_dynamixel_driver/joint_states|name|J1,J2,J3,J4,J5,J6|pos|0.269192,-1.268785,1.296275,-0.001715,-1.438151,-0.000083|vel|0.000000,-0.000000,0.000000,0.000000,0.000000,0.000000|eff|0.000000,0.000000,0.000000,0.000000,0.000000,0.000000
cobot_dynamixel_driver/joint_states|name|J1,J2,J3,J4,J5,J6|pos|0.269192,-1.268785,1.296275,-0.001715,-1.438151,-0.000083|vel|0.000000,-0.000000,0.000000,0.000000,0.000000,0.000000|eff|0.000000,0.000000,0.000000,0.000000,0.000000,0.000000
cobot_dynamixel_driver/joint_states|name|J1,J2,J3,J4,J5,J6|pos|0.269192,-1.268785,1.296275,-0.001715,-1.438151,-0.000083|vel|0.000000,-0.000000,0.000000,0.000000,0.000000,0.000000|eff|0.000000,0.000000,0.000000,0.000000,0.000000,0.000000
cobot_dynamixel_driver/joint_states|name|J1,J2,J3,J4,J5,J6|pos|0.269192,-1.268785,1.296275,-0.001715,-1.438151,-0.000083|vel|0.000000,-0.000000,0.000000,0.000000,0.000000,0.000000|eff|0.000000,0.000000,0.000000,0.000000,0.000000,0.000000
cobot_dynamixel_driver/joint_states|name|J1,J2,J3,J4,J5,J6|pos|0.269192,-1.268785,1.296275,-0.001715,-1.438151,-0.000083|vel|0.000000,-0.000000,0.000000,0.000000,0.000000,0.000000|eff|0.000000,0.000000,0.000000,0.000000,0.000000,0.000000
cobot_dynamixel_driver/joint_states|name|J1,J2,J3,J4,J5,J6|pos|0.269192,-1.268785,1.296275,-0.001715,-1.438151,-0.000083|vel|0.000000,-0.000000,0.000000,0.000000,0.000000,0.000000|eff|0.000000,0.000000,0.000000,0.000000,0.000000,0.000000
cobot_dynamixel_driver/joint_states|name|J1,J2,J3,J4,J5,J6|pos|0.269192,-1.268785,1.296275,-0.001715,-1.438151,-0.000083|vel|0.000000,-0.000000,0.000000,0.000000,0.000000,0.000000|eff|0.000000,0.000000,0.000000,0.000000,0.000000,0.000000
cobot_dynamixel_driver/joint_states|name|J1,J2,J3,J4,J5,J6|pos|0.269192,-1.268785,1.296275,-0.001715,-1.438151,-0.000083|vel|0.000000,-0.000000,0.000000,0.000000,0.000000,0.000000|eff|0.000000,0.000000,0.000000,0.000000,0.000000,0.000000
cobot_dynamixel_driver/joint_states|name|J1,J2,J3,J4,J5,J6|pos|0.269192,-1.268785,1.296275,-0.001715,-1.438151,-0.000083|vel|0.000000,-0.000000,0.000000,0.000000,0.000000,0.000000|eff|0.000000,0.000000,0.000000,0.000000,0.000000,0.000000
cobot_dynamixel_driver/joint_states|name|J1,J2,J3,J4,J5,J6|pos|0.269192,-1.268785,1.296275,-0.001715,-1.438151,-0.000083|vel|0.000000,-0.000000,0.000000,0.000000,0.000000,0.000000|eff|0.000000,0.000000,0.000000,0.000000,0.000000,0.000000
cobot_dynamixel_driver/joint_states|name|J1,J2,J3,J4,J5,J6|pos|0.269192,-1.268785,1.296275,-0.001715,-1.438151,-0.000083|vel|0.000000,-0.000000,0.000000,0.000000,0.000000,0.000000|eff|0.000000,0.000000,0.000000,0.000000,0.000000,0.000000
cobot_dynamixel_driver/joint_states|name|J1,J2,J3,J4,J5,J6|pos|0.269192,-1.268785,1.296275,-0.001715,-1.438151,-0.000083|vel|0.000000,-0.000000,0.000000,0.000000,0.000000,0.000000|eff|0.000000,0.000000,0.000000,0.000000,0.000000,0.000000
cobot_dynamixel_driver/joint_states|name|J1,J2,J3,J4,J5,J6|pos|0.269192,-1.268785,1.296275,-0.001715,-1.438151,-0.000083|vel|0.000000,-0.000000,0.000000,0.000000,0.000000,0.000000|eff|0.000000,0.000000,0.000000,0.000000,0.000000,0.000000
cobot_dynamixel_driver/joint_states|name|J1,J2,J3,J4,J5,J6|pos|0.269192,-1.268785,1.296275,-0.001715,-1.438151,-0.000083|vel|0.000000,-0.000000,0.000000,0.000000,0.000000,0.000000|eff|0.000000,0.000000,0.000000,0.000000,0.000000,0.000000
cobot_dynamixel_driver/joint_states|name|J1,J2,J3,J4,J5,J6|pos|0.269192,-1.268785,1.296275,-0.001715,-1.438151,-0.000083|vel|0.000000,-0.000000,0.000000,0.000000,0.000000,0.000000|eff|0.000000,0.000000,0.000000,0.000000,0.000000,0.000000
cobot_dynamixel_driver/joint_states|name|J1,J2,J3,J4,J5,J6|pos|0.269192,-1.268785,1.296275,-0.001715,-1.438151,-0.000083|vel|0.000000,-0.000000,0.000000,0.000000,0.000000,0.000000|eff|0.000000,0.000000,0.000000,0.000000,0.000000,0.000000
cobot_dynamixel_driver/joint_states|name|J1,J2,J3,J4,J5,J6|pos|0.269192,-1.268785,1.296275,-0.001715,-1.438151,-0.000083|vel|0.000000,-0.000000,0.000000,0.000000,0.000000,0.000000|eff|0.000000,0.000000,0.000000,0.000000,0.000000,0.000000
cobot_dynamixel_driver/joint_states|name|J1,J2,J3,J4,J5,J6|pos|0.269192,-1.268785,1.296275,-0.001715,-1.438151,-0.000083|vel|0.000000,-0.000000,0.000000,0.000000,0.000000,0.000000|eff|0.000000,0.000000,0.000000,0.000000,0.000000,0.000000
cobot_dynamixel_driver/joint_states|name|J1,J2,J3,J4,J5,J6|pos|0.269192,-1.268785,1.296275,-0.001715,-1.438151,-0.000083|vel|0.000000,-0.000000,0.000000,0.000000,0.000000,0.000000|eff|0.000000,0.000000,0.000000,0.000000,0.000000,0.000000
cobot_dynamixel_driver/joint_states|name|J1,J2,J3,J4,J5,J6|pos|0.269192,-1.268785,1.296275,-0.001715,-1.438151,-0.000083|vel|0.000000,-0.000000,0.000000,0.000000,0.000000,0.000000|eff|0.000000,0.000000,0.000000,0.000000,0.000000,0.000000
cobot_dynamixel_driver/joint_states|name|J1,J2,J3,J4,J5,J6|pos|0.269192,-1.268785,1.296275,-0.001715,-1.438151,-0.000083|vel|0.000000,-0.000000,0.000000,0.000000,0.000000,0.000000|eff|0.000000,0.000000,0.000000,0.000000,0.000000,0.000000
cobot_dynamixel_driver/joint_states|name|J1,J2,J3,J4,J5,J6|pos|0.269192,-1.268785,1.296275,-0.001715,-1.438151,-0.000083|vel|0.000000,-0.000000,0.000000,0.000000,0.000000,0.000000|eff|0.000000,0.000000,0.000000,0.000000,0.000000,0.000000
cobot_dynamixel_driver/joint_states|name|J1,J2,J3,J4,J5,J6|pos|0.269192,-1.268785,1.296275,-0.001715,-1.438151,-0.000083|vel|0.000000,-0.000000,0.000000,0.000000,0.000000,0.000000|eff|0.000000,0.000000,0.000000,0.000000,0.000000,0.000000
cobot_dynamixel_driver/joint_states|name|J1,J2,J3,J4,J5,J6|pos|0.269192,-1.268785,1.296275,-0.001715,-1.438151,-0.000083|vel|0.000000,-0.000000,0.000000,0.000000,0.000000,0.000000|eff|0.000000,0.000000,0.000000,0.000000,0.000000,0.000000
cobot_dynamixel_driver/joint_states|name|J1,J2,J3,J4,J5,J6|pos|0.269192,-1.268785,1.296275,-0.001715,-1.438151,-0.000083|vel|0.000000,-0.000000,0.000000,0.000000,0.000000,0.000000|eff|0.000000,0.000000,0.000000,0.000000,0.000000,0.000000
cobot_dynamixel_driver/joint_states|name|J1,J2,J3,J4,J5,J6|pos|0.269192,-1.268785,1.296275,-0.001715,-1.438151,-0.000083|vel|0.000000,-0.000000,0.000000,0.000000,0.000000,0.000000|eff|0.000000,0.000000,0.000000,0.000000,0.000000,0.000000
cobot_dynamixel_driver/joint_states|name|J1,J2,J3,J4,J5,J6|pos|0.269192,-1.268785,1.296275,-0.001715,-1.438151,-0.000083|vel|0.000000,-0.000000,0.000000,0.000000,0.000000,0.000000|eff|0.000000,0.000000,0.000000,0.000000,0.000000,0.000000
cobot_dynamixel_driver/joint_states|name|J1,J2,J3,J4,J5,J6|pos|0.269192,-1.268785,1.296275,-0.001715,-1.438151,-0.000083|vel|0.000000,-0.000000,0.000000,0.000000,0.000000,0.000000|eff|0.000000,0.000000,0.000000,0.000000,0.000000,0.000000
cobot_dynamixel_driver/joint_states|name|J1,J2,J3,J4,J5,J6|pos|0.269192,-1.268785,1.296275,-0.001715,-1.438151,-0.000083|vel|0.000000,-0.000000,0.000000,0.000000,0.000000,0.000000|eff|0.000000,0.000000,0.000000,0.000000,0.000000,0.000000
cobot_dynamixel_driver/joint_states|name|J1,J2,J3,J4,J5,J6|pos|0.269192,-1.268785,1.296275,-0.001715,-1.438151,-0.000083|vel|0.000000,-0.000000,0.000000,0.000000,0.000000,0.000000|eff|0.000000,0.000000,0.000000,0.000000,0.000000,0.000000
cobot_dynamixel_driver/joint_states|name|J1,J2,J3,J4,J5,J6|pos|0.269192,-1.268785,1.296275,-0.001715,-1.438151,-0.000083|vel|0.000000,-0.000000,0.000000,0.000000,0.000000,0.000000|eff|0.000000,0.000000,0.000000,0.000000,0.000000,0.000000
cobot_dynamixel_driver/joint_states|name|J1,J2,J3,J4,J5,J6|pos|0.269192,-1.268785,1.296275,-0.001715,-1.438151,-0.000083|vel|0.000000,-0.000000,0.000000,0.000000,0.000000,0.000000|eff|0.000000,0.000000,0.000000,0.000000,0.000000,0.000000
cobot_dynamixel_driver/joint_states|name|J1,J2,J3,J4,J5,J6|pos|0.269192,-1.268785,1.296275,-0.001715,-1.438151,-0.000083|vel|0.000000,-0.000000,0.000000,0.000000,0.000000,0.000000|eff|0.000000,0.000000,0.000000,0.000000,0.000000,0.000000
cobot_dynamixel_driver/joint_states|name|J1,J2,J3,J4,J5,J6|pos|0.269192,-1.268785,1.296275,-0.001715,-1.438151,-0.000083|vel|0.000000,-0.000000,0.000000,0.000000,0.000000,0.000000|eff|0.000000,0.000000,0.000000,0.000000,0.000000,0.000000
cobot_dynamixel_driver/joint_states|name|J1,J2,J3,J4,J5,J6|pos|0.269192,-1.268785,1.296275,-0.001715,-1.438151,-0.000083|vel|0.000000,-0.000000,0.000000,0.000000,0.000000,0.000000|eff|0.000000,0.000000,0.000000,0.000000,0.000000,0.000000
cobot_dynamixel_driver/joint_states|name|J1,J2,J3,J4,J5,J6|pos|0.269192,-1.268785,1.296275,-0.001715,-1.438151,-0.000083|vel|0.000000,-0.000000,0.000000,0.000000,0.000000,0.000000|eff|0.000000,0.000000,0.000000,0.000000,0.000000,0.000000
cobot_dynamixel_driver/joint_states|name|J1,J2,J3,J4,J5,J6|pos|0.269192,-1.268785,1.296275,-0.001715,-1.438151,-0.000083|vel|0.000000,-0.000000,0.000000,0.000000,0.000000,0.000000|eff|0.000000,0.000000,0.000000,0.000000,0.000000,0.000000
cobot_dynamixel_driver/joint_states|name|J1,J2,J3,J4,J5,J6|pos|0.269192,-1.268785,1.296275,-0.001715,-1.438151,-0.000083|vel|0.000000,-0.000000,0.000000,0.000000,0.000000,0.000000|eff|0.000000,0.000000,0.000000,0.000000,0.000000,0.000000
cobot_dynamixel_driver/joint_states|name|J1,J2,J3,J4,J5,J6|pos|0.269192,-1.268785,1.296275,-0.001715,-1.438151,-0.000083|vel|0.000000,-0.000000,0.000000,0.000000,0.000000,0.000000|eff|0.000000,0.000000,0.000000,0.000000,0.000000,0.000000
cobot_dynamixel_driver/joint_states|name|J1,J2,J3,J4,J5,J6|pos|0.269192,-1.268785,1.296275,-0.001715,-1.438151,-0.000083|vel|0.000000,-0.000000,0.000000,0.000000,0.000000,0.000000|eff|0.000000,0.000000,0.000000,0.000000,0.000000,0.000000
cobot_dynamixel_driver/joint_states|name|J1,J2,J3,J4,J5,J6|pos|0.269192,-1.268785,1.296275,-0.001715,-1.438151,-0.000083|vel|0.000000,-0.000000,0.000000,0.000000,0.000000,0.000000|eff|0.000000,0.000000,0.000000,0.000000,0.000000,0.000000
cobot_dynamixel_driver/joint_states|name|J1,J2,J3,J4,J5,J6|pos|0.269192,-1.268785,1.296275,-0.001715,-1.438151,-0.000083|vel|0.000000,-0.000000,0.000000,0.000000,0.000000,0.000000|eff|0.000000,0.000000,0.000000,0.000000,0.000000,0.000000
cobot_dynamixel_driver/joint_states|name|J1,J2,J3,J4,J5,J6|pos|0.269192,-1.268785,1.296275,-0.001715,-1.438151,-0.000083|vel|0.000000,-0.000000,0.000000,0.000000,0.000000,0.000000|eff|0.000000,0.000000,0.000000,0.000000,0.000000,0.000000
cobot_dynamixel_driver/joint_states|name|J1,J2,J3,J4,J5,J6|pos|0.269192,-1.268785,1.296275,-0.001715,-1.438151,-0.000083|vel|0.000000,-0.000000,0.000000,0.000000,0.000000,0.000000|eff|0.000000,0.000000,0.000000,0.000000,0.000000,0.000000
cobot_dynamixel_driver/joint_states|name|J1,J2,J3,J4,J5,J6|pos|0.269192,-1.268785,1.296275,-0.001715,-1.438151,-0.000083|vel|0.000000,-0.000000,0.000000,0.000000,0.000000,0.000000|eff|0.000000,0.000000,0.000000,0.000000,0.000000,0.000000
cobot_dynamixel_driver/joint_states|name|J1,J2,J3,J4,J5,J6|pos|0.269192,-1.268785,1.296275,-0.001715,-1.438151,-0.000083|vel|0.000000,-0.000000,0.000000,0.000000,0.000000,0.000000|eff|0.000000,0.000000,0.000000,0.000000,0.000000,0.000000
cobot_dynamixel_driver/joint_states|name|J1,J2,J3,J4,J5,J6|pos|0.269192,-1.268785,1.296275,-0.001715,-1.438151,-0.000083|vel|0.000000,-0.000000,0.000000,0.000000,0.000000,0.000000|eff|0.000000,0.000000,0.000000,0.000000,0.000000,0.000000
cobot_dynamixel_driver/joint_states|name|J1,J2,J3,J4,J5,J6|pos|0.269192,-1.268785,1.296275,-0.001715,-1.438151,-0.000083|vel|0.000000,-0.000000,0.000000,0.000000,0.000000,0.000000|eff|0.000000,0.000000,0.000000,0.000000,0.000000,0.000000
cobot_dynamixel_driver/joint_states|name|J1,J2,J3,J4,J5,J6|pos|0.269192,-1.268785,1.296275,-0.001715,-1.438151,-0.000083|vel|0.000000,-0.000000,0.000000,0.000000,0.000000,0.000000|eff|0.000000,0.000000,0.000000,0.000000,0.000000,0.000000
cobot_dynamixel_driver/joint_states|name|J1,J2,J3,J4,J5,J6|pos|0.269192,-1.268785,1.296275,-0.001715,-1.438151,-0.000083|vel|0.000000,-0.000000,0.000000,0.000000,0.000000,0.000000|eff|0.000000,0.000000,0.000000,0.000000,0.000000,0.000000
cobot_dynamixel_driver/joint_states|name|J1,J2,J3,J4,J5,J6|pos|0.269192,-1.268785,1.296275,-0.001715,-1.438151,-0.000083|vel|0.000000,-0.000000,0.000000,0.000000,0.000000,0.000000|eff|0.000000,0.000000,0.000000,0.000000,0.000000,0.000000
cobot_dynamixel_driver/joint_states|name|J1,J2,J3,J4,J5,J6|pos|0.269192,-1.268785,1.296275,-0.001715,-1.438151,-0.000083|vel|0.000000,-0.000000,0.000000,0.000000,0.000000,0.000000|eff|0.000000,0.000000,0.000000,0.000000,0.000000,0.000000
cobot_dynamixel_driver/joint_states|name|J1,J2,J3,J4,J5,J6|pos|0.269192,-1.268785,1.296275,-0.001715,-1.438151,-0.000083|vel|0.000000,-0.000000,0.000000,0.000000,0.000000,0.000000|eff|0.000000,0.000000,0.000000,0.000000,0.000000,0.000000
cobot_dynamixel_driver/joint_states|name|J1,J2,J3,J4,J5,J6|pos|0.269192,-1.268785,1.296275,-0.001715,-1.438151,-0.000083|vel|0.000000,-0.000000,0.000000,0.000000,0.000000,0.000000|eff|0.000000,0.000000,0.000000,0.000000,0.000000,0.000000
cobot_dynamixel_driver/joint_states|name|J1,J2,J3,J4,J5,J6|pos|0.269192,-1.268785,1.296275,-0.001715,-1.438151,-0.000083|vel|0.000000,-0.000000,0.000000,0.000000,0.000000,0.000000|eff|0.000000,0.000000,0.000000,0.000000,0.000000,0.000000
cobot_dynamixel_driver/joint_states|name|J1,J2,J3,J4,J5,J6|pos|0.269192,-1.268785,1.296275,-0.001715,-1.438151,-0.000083|vel|0.000000,-0.000000,0.000000,0.000000,0.000000,0.000000|eff|0.000000,0.000000,0.000000,0.000000,0.000000,0.000000
cobot_dynamixel_driver/joint_states|name|J1,J2,J3,J4,J5,J6|pos|0.269192,-1.268785,1.296275,-0.001715,-1.438151,-0.000083|vel|0.000000,-0.000000,0.000000,0.000000,0.000000,0.000000|eff|0.000000,0.000000,0.000000,0.000000,0.000000,0.000000
cobot_dynamixel_driver/joint_states|name|J1,J2,J3,J4,J5,J6|pos|0.269192,-1.268785,1.296275,-0.001715,-1.438151,-0.000083|vel|0.000000,-0.000000,0.000000,0.000000,0.000000,0.000000|eff|0.000000,0.000000,0.000000,0.000000,0.000000,0.000000
cobot_dynamixel_driver/joint_states|name|J1,J2,J3,J4,J5,J6|pos|0.269192,-1.268785,1.296275,-0.001715,-1.438151,-0.000083|vel|0.000000,-0.000000,0.000000,0.000000,0.000000,0.000000|eff|0.000000,0.000000,0.000000,0.000000,0.000000,0.000000
cobot_dynamixel_driver/joint_states|name|J1,J2,J3,J4,J5,J6|pos|0.269192,-1.268785,1.296275,-0.001715,-1.438151,-0.000083|vel|0.000000,-0.000000,0.000000,0.000000,0.000000,0.000000|eff|0.000000,0.000000,0.000000,0.000000,0.000000,0.000000
cobot_dynamixel_driver/joint_states|name|J1,J2,J3,J4,J5,J6|pos|0.269192,-1.268785,1.296275,-0.001715,-1.438151,-0.000083|vel|0.000000,-0.000000,0.000000,0.000000,0.000000,0.000000|eff|0.000000,0.000000,0.000000,0.000000,0.000000,0.000000
cobot_dynamixel_driver/joint_states|name|J1,J2,J3,J4,J5,J6|pos|0.269192,-1.268785,1.296275,-0.001715,-1.438151,-0.000083|vel|0.000000,-0.000000,0.000000,0.000000,0.000000,0.000000|eff|0.000000,0.000000,0.000000,0.000000,0.000000,0.000000
cobot_dynamixel_driver/joint_states|name|J1,J2,J3,J4,J5,J6|pos|0.269192,-1.268785,1.296275,-0.001715,-1.438151,-0.000083|vel|0.000000,-0.000000,0.000000,0.000000,0.000000,0.000000|eff|0.000000,0.000000,0.000000,0.000000,0.000000,0.000000
cobot_dynamixel_driver/joint_states|name|J1,J2,J3,J4,J5,J6|pos|0.269192,-1.268785,1.296275,-0.001715,-1.438151,-0.000083|vel|0.000000,-0.000000,0.000000,0.000000,0.000000,0.000000|eff|0.000000,0.000000,0.000000,0.000000,0.000000,0.000000
cobot_dynamixel_driver/joint_states|name|J1,J2,J3,J4,J5,J6|pos|0.269192,-1.268785,1.296275,-0.001715,-1.438151,-0.000083|vel|0.000000,-0.000000,0.000000,0.000000,0.000000,0.000000|eff|0.000000,0.000000,0.000000,0.000000,0.000000,0.000000
cobot_dynamixel_driver/joint_states|name|J1,J2,J3,J4,J5,J6|pos|0.269192,-1.268785,1.296275,-0.001715,-1.438151,-0.000083|vel|0.000000,-0.000000,0.000000,0.000000,0.000000,0.000000|eff|0.000000,0.000000,0.000000,0.000000,0.000000,0.000000
cobot_dynamixel_driver/joint_states|name|J1,J2,J3,J4,J5,J6|pos|0.269192,-1.268785,1.296275,-0.001715,-1.438151,-0.000083|vel|0.000000,-0.000000,0.000000,0.000000,0.000000,0.000000|eff|0.000000,0.000000,0.000000,0.000000,0.000000,0.000000
cobot_dynamixel_driver/joint_states|name|J1,J2,J3,J4,J5,J6|pos|0.269192,-1.268785,1.296275,-0.001715,-1.438151,-0.000083|vel|0.000000,-0.000000,0.000000,0.000000,0.000000,0.000000|eff|0.000000,0.000000,0.000000,0.000000,0.000000,0.000000
cobot_dynamixel_driver/joint_states|name|J1,J2,J3,J4,J5,J6|pos|0.269192,-1.268785,1.296275,-0.001715,-1.438151,-0.000083|vel|0.000000,-0.000000,0.000000,0.000000,0.000000,0.000000|eff|0.000000,0.000000,0.000000,0.000000,0.000000,0.000000
cobot_dynamixel_driver/joint_states|name|J1,J2,J3,J4,J5,J6|pos|0.269192,-1.268785,1.296275,-0.001715,-1.438151,-0.000083|vel|0.000000,-0.000000,0.000000,0.000000,0.000000,0.000000|eff|0.000000,0.000000,0.000000,0.000000,0.000000,0.000000
cobot_dynamixel_driver/joint_states|name|J1,J2,J3,J4,J5,J6|pos|0.269192,-1.268785,1.296275,-0.001715,-1.438151,-0.000083|vel|0.000000,-0.000000,0.000000,0.000000,0.000000,0.000000|eff|0.000000,0.000000,0.000000,0.000000,0.000000,0.000000
cobot_dynamixel_driver/joint_states|name|J1,J2,J3,J4,J5,J6|pos|0.269192,-1.268785,1.296275,-0.001715,-1.438151,-0.000083|vel|0.000000,-0.000000,0.000000,0.000000,0.000000,0.000000|eff|0.000000,0.000000,0.000000,0.000000,0.000000,0.000000
cobot_dynamixel_driver/joint_states|name|J1,J2,J3,J4,J5,J6|pos|0.269192,-1.268785,1.296275,-0.001715,-1.438151,-0.000083|vel|0.000000,-0.000000,0.000000,0.000000,0.000000,0.000000|eff|0.000000,0.000000,0.000000,0.000000,0.000000,0.000000
cobot_dynamixel_driver/joint_states|name|J1,J2,J3,J4,J5,J6|pos|0.269192,-1.268785,1.296275,-0.001715,-1.438151,-0.000083|vel|0.000000,-0.000000,0.000000,0.000000,0.000000,0.000000|eff|0.000000,0.000000,0.000000,0.000000,0.000000,0.000000
cobot_dynamixel_driver/joint_states|name|J1,J2,J3,J4,J5,J6|pos|0.269192,-1.268785,1.296275,-0.001715,-1.438151,-0.000083|vel|0.000000,-0.000000,0.000000,0.000000,0.000000,0.000000|eff|0.000000,0.000000,0.000000,0.000000,0.000000,0.000000
cobot_dynamixel_driver/joint_states|name|J1,J2,J3,J4,J5,J6|pos|0.269192,-1.268785,1.296275,-0.001715,-1.438151,-0.000083|vel|0.000000,-0.000000,0.000000,0.000000,0.000000,0.000000|eff|0.000000,0.000000,0.000000,0.000000,0.000000,0.000000
cobot_dynamixel_driver/joint_states|name|J1,J2,J3,J4,J5,J6|pos|0.269192,-1.268785,1.296275,-0.001715,-1.438151,-0.000083|vel|0.000000,-0.000000,0.000000,0.000000,0.000000,0.000000|eff|0.000000,0.000000,0.000000,0.000000,0.000000,0.000000
cobot_dynamixel_driver/joint_states|name|J1,J2,J3,J4,J5,J6|pos|0.269192,-1.268785,1.296275,-0.001715,-1.438151,-0.000083|vel|0.000000,-0.000000,0.000000,0.000000,0.000000,0.000000|eff|0.000000,0.000000,0.000000,0.000000,0.000000,0.000000
cobot_dynamixel_driver/joint_states|name|J1,J2,J3,J4,J5,J6|pos|0.269192,-1.268785,1.296275,-0.001715,-1.438151,-0.000083|vel|0.000000,-0.000000,0.000000,0.000000,0.000000,0.000000|eff|0.000000,0.000000,0.000000,0.000000,0.000000,0.000000
cobot_dynamixel_driver/joint_states|name|J1,J2,J3,J4,J5,J6|pos|0.269192,-1.268785,1.296275,-0.001715,-1.438151,-0.000083|vel|0.000000,-0.000000,0.000000,0.000000,0.000000,0.000000|eff|0.000000,0.000000,0.000000,0.000000,0.000000,0.000000
cobot_dynamixel_driver/joint_states|name|J1,J2,J3,J4,J5,J6|pos|0.269192,-1.268785,1.296275,-0.001715,-1.438151,-0.000083|vel|0.000000,-0.000000,0.000000,0.000000,0.000000,0.000000|eff|0.000000,0.000000,0.000000,0.000000,0.000000,0.000000
cobot_dynamixel_driver/joint_states|name|J1,J2,J3,J4,J5,J6|pos|0.269192,-1.268785,1.296275,-0.001715,-1.438151,-0.000083|vel|0.000000,-0.000000,0.000000,0.000000,0.000000,0.000000|eff|0.000000,0.000000,0.000000,0.000000,0.000000,0.000000
cobot_dynamixel_driver/joint_states|name|J1,J2,J3,J4,J5,J6|pos|0.269192,-1.268785,1.296275,-0.001715,-1.438151,-0.000083|vel|0.000000,-0.000000,0.000000,0.000000,0.000000,0.000000|eff|0.000000,0.000000,0.000000,0.000000,0.000000,0.000000
cobot_dynamixel_driver/joint_states|name|J1,J2,J3,J4,J5,J6|pos|0.269192,-1.268785,1.296275,-0.001715,-1.438151,-0.000083|vel|0.000000,-0.000000,0.000000,0.000000,0.000000,0.000000|eff|0.000000,0.000000,0.000000,0.000000,0.000000,0.000000
cobot_dynamixel_driver/joint_states|name|J1,J2,J3,J4,J5,J6|pos|0.269192,-1.268785,1.296275,-0.001715,-1.438151,-0.000083|vel|0.000000,-0.000000,0.000000,0.000000,0.000000,0.000000|eff|0.000000,0.000000,0.000000,0.000000,0.000000,0.000000
cobot_dynamixel_driver/joint_states|name|J1,J2,J3,J4,J5,J6|pos|0.269192,-1.268785,1.296275,-0.001715,-1.438151,-0.000083|vel|0.000000,-0.000000,0.000000,0.000000,0.000000,0.000000|eff|0.000000,0.000000,0.000000,0.000000,0.000000,0.000000
cobot_dynamixel_driver/joint_states|name|J1,J2,J3,J4,J5,J6|pos|0.269192,-1.268785,1.296275,-0.001715,-1.438151,-0.000083|vel|0.000000,-0.000000,0.000000,0.000000,0.000000,0.000000|eff|0.000000,0.000000,0.000000,0.000000,0.000000,0.000000
cobot_dynamixel_driver/joint_states|name|J1,J2,J3,J4,J5,J6|pos|0.269192,-1.268785,1.296275,-0.001715,-1.438151,-0.000083|vel|0.000000,-0.000000,0.000000,0.000000,0.000000,0.000000|eff|0.000000,0.000000,0.000000,0.000000,0.000000,0.000000
cobot_dynamixel_driver/joint_states|name|J1,J2,J3,J4,J5,J6|pos|0.269192,-1.268785,1.296275,-0.001715,-1.438151,-0.000083|vel|0.000000,-0.000000,0.000000,0.000000,0.000000,0.000000|eff|0.000000,0.000000,0.000000,0.000000,0.000000,0.000000
cobot_dynamixel_driver/joint_states|name|J1,J2,J3,J4,J5,J6|pos|0.269192,-1.268785,1.296275,-0.001715,-1.438151,-0.000083|vel|0.000000,-0.000000,0.000000,0.000000,0.000000,0.000000|eff|0.000000,0.000000,0.000000,0.000000,0.000000,0.000000
cobot_dynamixel_driver/joint_states|name|J1,J2,J3,J4,J5,J6|pos|0.269192,-1.268785,1.296275,-0.001715,-1.438151,-0.000083|vel|0.000000,-0.000000,0.000000,0.000000,0.000000,0.000000|eff|0.000000,0.000000,0.000000,0.000000,0.000000,0.000000
cobot_dynamixel_driver/joint_states|name|J1,J2,J3,J4,J5,J6|pos|0.269192,-1.268785,1.296275,-0.001715,-1.438151,-0.000083|vel|0.000000,-0.000000,0.000000,0.000000,0.000000,0.000000|eff|0.000000,0.000000,0.000000,0.000000,0.000000,0.000000
cobot_dynamixel_driver/joint_states|name|J1,J2,J3,J4,J5,J6|pos|0.269192,-1.268785,1.296275,-0.001715,-1.438151,-0.000083|vel|0.000000,-0.000000,0.000000,0.000000,0.000000,0.000000|eff|0.000000,0.000000,0.000000,0.000000,0.000000,0.000000
cobot_dynamixel_driver/joint_states|name|J1,J2,J3,J4,J5,J6|pos|0.269192,-1.268785,1.296275,-0.001715,-1.438151,-0.000083|vel|0.000000,-0.000000,0.000000,0.000000,0.000000,0.000000|eff|0.000000,0.000000,0.000000,0.000000,0.000000,0.000000
cobot_dynamixel_driver/joint_states|name|J1,J2,J3,J4,J5,J6|pos|0.269192,-1.268785,1.296275,-0.001715,-1.438151,-0.000083|vel|0.000000,-0.000000,0.000000,0.000000,0.000000,0.000000|eff|0.000000,0.000000,0.000000,0.000000,0.000000,0.000000
cobot_dynamixel_driver/joint_states|name|J1,J2,J3,J4,J5,J6|pos|0.269192,-1.268785,1.296275,-0.001715,-1.438151,-0.000083|vel|0.000000,-0.000000,0.000000,0.000000,0.000000,0.000000|eff|0.000000,0.000000,0.000000,0.000000,0.000000,0.000000
cobot_dynamixel_driver/joint_states|name|J1,J2,J3,J4,J5,J6|pos|0.269192,-1.268785,1.296275,-0.001715,-1.438151,-0.000083|vel|0.000000,-0.000000,0.000000,0.000000,0.000000,0.000000|eff|0.000000,0.000000,0.000000,0.000000,0.000000,0.000000
cobot_dynamixel_driver/joint_states|name|J1,J2,J3,J4,J5,J6|pos|0.269192,-1.268785,1.296275,-0.001715,-1.438151,-0.000083|vel|0.000000,-0.000000,0.000000,0.000000,0.000000,0.000000|eff|0.000000,0.000000,0.000000,0.000000,0.000000,0.000000
cobot_dynamixel_driver/joint_states|name|J1,J2,J3,J4,J5,J6|pos|0.269192,-1.268785,1.296275,-0.001715,-1.438151,-0.000083|vel|0.000000,-0.000000,0.000000,0.000000,0.000000,0.000000|eff|0.000000,0.000000,0.000000,0.000000,0.000000,0.000000
cobot_dynamixel_driver/joint_states|name|J1,J2,J3,J4,J5,J6|pos|0.269192,-1.268785,1.296275,-0.001715,-1.438151,-0.000083|vel|0.000000,-0.000000,0.000000,0.000000,0.000000,0.000000|eff|0.000000,0.000000,0.000000,0.000000,0.000000,0.000000
cobot_dynamixel_driver/joint_states|name|J1,J2,J3,J4,J5,J6|pos|0.269192,-1.268785,1.296275,-0.001715,-1.438151,-0.000083|vel|0.000000,-0.000000,0.000000,0.000000,0.000000,0.000000|eff|0.000000,0.000000,0.000000,0.000000,0.000000,0.000000
cobot_dynamixel_driver/joint_states|name|J1,J2,J3,J4,J5,J6|pos|0.269192,-1.268785,1.296275,-0.001715,-1.438151,-0.000083|vel|0.000000,-0.000000,0.000000,0.000000,0.000000,0.000000|eff|0.000000,0.000000,0.000000,0.000000,0.000000,0.000000
cobot_dynamixel_driver/joint_states|name|J1,J2,J3,J4,J5,J6|pos|0.269192,-1.268785,1.296275,-0.001715,-1.438151,-0.000083|vel|0.000000,-0.000000,0.000000,0.000000,0.000000,0.000000|eff|0.000000,0.000000,0.000000,0.000000,0.000000,0.000000
cobot_dynamixel_driver/joint_states|name|J1,J2,J3,J4,J5,J6|pos|0.269192,-1.268785,1.296275,-0.001715,-1.438151,-0.000083|vel|0.000000,-0.000000,0.000000,0.000000,0.000000,0.000000|eff|0.000000,0.000000,0.000000,0.000000,0.000000,0.000000
cobot_dynamixel_driver/joint_states|name|J1,J2,J3,J4,J5,J6|pos|0.269192,-1.268785,1.296275,-0.001715,-1.438151,-0.000083|vel|0.000000,-0.000000,0.000000,0.000000,0.000000,0.000000|eff|0.000000,0.000000,0.000000,0.000000,0.000000,0.000000
cobot_dynamixel_driver/joint_states|name|J1,J2,J3,J4,J5,J6|pos|0.269192,-1.268785,1.296275,-0.001715,-1.438151,-0.000083|vel|0.000000,-0.000000,0.000000,0.000000,0.000000,0.000000|eff|0.000000,0.000000,0.000000,0.000000,0.000000,0.000000
cobot_dynamixel_driver/joint_states|name|J1,J2,J3,J4,J5,J6|pos|0.269192,-1.268785,1.296275,-0.001715,-1.438151,-0.000083|vel|0.000000,-0.000000,0.000000,0.000000,0.000000,0.000000|eff|0.000000,0.000000,0.000000,0.000000,0.000000,0.000000
cobot_dynamixel_driver/joint_states|name|J1,J2,J3,J4,J5,J6|pos|0.269192,-1.268785,1.296275,-0.001715,-1.438151,-0.000083|vel|0.000000,-0.000000,0.000000,0.000000,0.000000,0.000000|eff|0.000000,0.000000,0.000000,0.000000,0.000000,0.000000
cobot_dynamixel_driver/joint_states|name|J1,J2,J3,J4,J5,J6|pos|0.269192,-1.268785,1.296275,-0.001715,-1.438151,-0.000083|vel|0.000000,-0.000000,0.000000,0.000000,0.000000,0.000000|eff|0.000000,0.000000,0.000000,0.000000,0.000000,0.000000
cobot_dynamixel_driver/joint_states|name|J1,J2,J3,J4,J5,J6|pos|0.269192,-1.268785,1.296275,-0.001715,-1.438151,-0.000083|vel|0.000000,-0.000000,0.000000,0.000000,0.000000,0.000000|eff|0.000000,0.000000,0.000000,0.000000,0.000000,0.000000
cobot_dynamixel_driver/joint_states|name|J1,J2,J3,J4,J5,J6|pos|0.269192,-1.268785,1.296275,-0.001715,-1.438151,-0.000083|vel|0.000000,-0.000000,0.000000,0.000000,0.000000,0.000000|eff|0.000000,0.000000,0.000000,0.000000,0.000000,0.000000
cobot_dynamixel_driver/joint_states|name|J1,J2,J3,J4,J5,J6|pos|0.269192,-1.268785,1.296275,-0.001715,-1.438151,-0.000083|vel|0.000000,-0.000000,0.000000,0.000000,0.000000,0.000000|eff|0.000000,0.000000,0.000000,0.000000,0.000000,0.000000
cobot_dynamixel_driver/joint_states|name|J1,J2,J3,J4,J5,J6|pos|0.269192,-1.268785,1.296275,-0.001715,-1.438151,-0.000083|vel|0.000000,-0.000000,0.000000,0.000000,0.000000,0.000000|eff|0.000000,0.000000,0.000000,0.000000,0.000000,0.000000
cobot_dynamixel_driver/joint_states|name|J1,J2,J3,J4,J5,J6|pos|0.269192,-1.268785,1.296275,-0.001715,-1.438151,-0.000083|vel|0.000000,-0.000000,0.000000,0.000000,0.000000,0.000000|eff|0.000000,0.000000,0.000000,0.000000,0.000000,0.000000
cobot_dynamixel_driver/joint_states|name|J1,J2,J3,J4,J5,J6|pos|0.269192,-1.268785,1.296275,-0.001715,-1.438151,-0.000083|vel|0.000000,-0.000000,0.000000,0.000000,0.000000,0.000000|eff|0.000000,0.000000,0.000000,0.000000,0.000000,0.000000
cobot_dynamixel_driver/joint_states|name|J1,J2,J3,J4,J5,J6|pos|0.269192,-1.268785,1.296275,-0.001715,-1.438151,-0.000083|vel|0.000000,-0.000000,0.000000,0.000000,0.000000,0.000000|eff|0.000000,0.000000,0.000000,0.000000,0.000000,0.000000
cobot_dynamixel_driver/joint_states|name|J1,J2,J3,J4,J5,J6|pos|0.269192,-1.268785,1.296275,-0.001715,-1.438151,-0.000083|vel|0.000000,-0.000000,0.000000,0.000000,0.000000,0.000000|eff|0.000000,0.000000,0.000000,0.000000,0.000000,0.000000
cobot_dynamixel_driver/joint_states|name|J1,J2,J3,J4,J5,J6|pos|0.269192,-1.268785,1.296275,-0.001715,-1.438151,-0.000083|vel|0.000000,-0.000000,0.000000,0.000000,0.000000,0.000000|eff|0.000000,0.000000,0.000000,0.000000,0.000000,0.000000
cobot_dynamixel_driver/joint_states|name|J1,J2,J3,J4,J5,J6|pos|0.269192,-1.268785,1.296275,-0.001715,-1.438151,-0.000083|vel|0.000000,-0.000000,0.000000,0.000000,0.000000,0.000000|eff|0.000000,0.000000,0.000000,0.000000,0.000000,0.000000
cobot_dynamixel_driver/joint_states|name|J1,J2,J3,J4,J5,J6|pos|0.269192,-1.268785,1.296275,-0.001715,-1.438151,-0.000083|vel|0.000000,-0.000000,0.000000,0.000000,0.000000,0.000000|eff|0.000000,0.000000,0.000000,0.000000,0.000000,0.000000
cobot_dynamixel_driver/joint_states|name|J1,J2,J3,J4,J5,J6|pos|0.269192,-1.268785,1.296275,-0.001715,-1.438151,-0.000083|vel|0.000000,-0.000000,0.000000,0.000000,0.000000,0.000000|eff|0.000000,0.000000,0.000000,0.000000,0.000000,0.000000
cobot_dynamixel_driver/joint_states|name|J1,J2,J3,J4,J5,J6|pos|0.269192,-1.268785,1.296275,-0.001715,-1.438151,-0.000083|vel|0.000000,-0.000000,0.000000,0.000000,0.000000,0.000000|eff|0.000000,0.000000,0.000000,0.000000,0.000000,0.000000
cobot_dynamixel_driver/joint_states|name|J1,J2,J3,J4,J5,J6|pos|0.269192,-1.268785,1.296275,-0.001715,-1.438151,-0.000083|vel|0.000000,-0.000000,0.000000,0.000000,0.000000,0.000000|eff|0.000000,0.000000,0.000000,0.000000,0.000000,0.000000
cobot_dynamixel_driver/joint_states|name|J1,J2,J3,J4,J5,J6|pos|0.269192,-1.268785,1.296275,-0.001715,-1.438151,-0.000083|vel|0.000000,-0.000000,0.000000,0.000000,0.000000,0.000000|eff|0.000000,0.000000,0.000000,0.000000,0.000000,0.000000
cobot_dynamixel_driver/joint_states|name|J1,J2,J3,J4,J5,J6|pos|0.269192,-1.268785,1.296275,-0.001715,-1.438151,-0.000083|vel|0.000000,-0.000000,0.000000,0.000000,0.000000,0.000000|eff|0.000000,0.000000,0.000000,0.000000,0.000000,0.000000
cobot_dynamixel_driver/joint_states|name|J1,J2,J3,J4,J5,J6|pos|0.269192,-1.268785,1.296275,-0.001715,-1.438151,-0.000083|vel|0.000000,-0.000000,0.000000,0.000000,0.000000,0.000000|eff|0.000000,0.000000,0.000000,0.000000,0.000000,0.000000
cobot_dynamixel_driver/joint_states|name|J1,J2,J3,J4,J5,J6|pos|0.269192,-1.268785,1.296275,-0.001715,-1.438151,-0.000083|vel|0.000000,-0.000000,0.000000,0.000000,0.000000,0.000000|eff|0.000000,0.000000,0.000000,0.000000,0.000000,0.000000
cobot_dynamixel_driver/joint_states|name|J1,J2,J3,J4,J5,J6|pos|0.269192,-1.268785,1.296275,-0.001715,-1.438151,-0.000083|vel|0.000000,-0.000000,0.000000,0.000000,0.000000,0.000000|eff|0.000000,0.000000,0.000000,0.000000,0.000000,0.000000
cobot_dynamixel_driver/joint_states|name|J1,J2,J3,J4,J5,J6|pos|0.269192,-1.268785,1.296275,-0.001715,-1.438151,-0.000083|vel|0.000000,-0.000000,0.000000,0.000000,0.000000,0.000000|eff|0.000000,0.000000,0.000000,0.000000,0.000000,0.000000
cobot_dynamixel_driver/joint_states|name|J1,J2,J3,J4,J5,J6|pos|0.269192,-1.268785,1.296275,-0.001715,-1.438151,-0.000083|vel|0.000000,-0.000000,0.000000,0.000000,0.000000,0.000000|eff|0.000000,0.000000,0.000000,0.000000,0.000000,0.000000
cobot_dynamixel_driver/joint_states|name|J1,J2,J3,J4,J5,J6|pos|0.269192,-1.268785,1.296275,-0.001715,-1.438151,-0.000083|vel|0.000000,-0.000000,0.000000,0.000000,0.000000,0.000000|eff|0.000000,0.000000,0.000000,0.000000,0.000000,0.000000
cobot_dynamixel_driver/joint_states|name|J1,J2,J3,J4,J5,J6|pos|0.269192,-1.268785,1.296275,-0.001715,-1.438151,-0.000083|vel|0.000000,-0.000000,0.000000,0.000000,0.000000,0.000000|eff|0.000000,0.000000,0.000000,0.000000,0.000000,0.000000
cobot_dynamixel_driver/joint_states|name|J1,J2,J3,J4,J5,J6|pos|0.269192,-1.268785,1.296275,-0.001715,-1.438151,-0.000083|vel|0.000000,-0.000000,0.000000,0.000000,0.000000,0.000000|eff|0.000000,0.000000,0.000000,0.000000,0.000000,0.000000
cobot_dynamixel_driver/joint_states|name|J1,J2,J3,J4,J5,J6|pos|0.269192,-1.268785,1.296275,-0.001715,-1.438151,-0.000083|vel|0.000000,-0.000000,0.000000,0.000000,0.000000,0.000000|eff|0.000000,0.000000,0.000000,0.000000,0.000000,0.000000
cobot_dynamixel_driver/joint_states|name|J1,J2,J3,J4,J5,J6|pos|0.269192,-1.268785,1.296275,-0.001715,-1.438151,-0.000083|vel|0.000000,-0.000000,0.000000,0.000000,0.000000,0.000000|eff|0.000000,0.000000,0.000000,0.000000,0.000000,0.000000
cobot_dynamixel_driver/joint_states|name|J1,J2,J3,J4,J5,J6|pos|0.269192,-1.268785,1.296275,-0.001715,-1.438151,-0.000083|vel|0.000000,-0.000000,0.000000,0.000000,0.000000,0.000000|eff|0.000000,0.000000,0.000000,0.000000,0.000000,0.000000
cobot_dynamixel_driver/joint_states|name|J1,J2,J3,J4,J5,J6|pos|0.269192,-1.268785,1.296275,-0.001715,-1.438151,-0.000083|vel|0.000000,-0.000000,0.000000,0.000000,0.000000,0.000000|eff|0.000000,0.000000,0.000000,0.000000,0.000000,0.000000
cobot_dynamixel_driver/joint_states|name|J1,J2,J3,J4,J5,J6|pos|0.269192,-1.268785,1.296275,-0.001715,-1.438151,-0.000083|vel|0.000000,-0.000000,0.000000,0.000000,0.000000,0.000000|eff|0.000000,0.000000,0.000000,0.000000,0.000000,0.000000
cobot_dynamixel_driver/joint_states|name|J1,J2,J3,J4,J5,J6|pos|0.269192,-1.268785,1.296275,-0.001715,-1.438151,-0.000083|vel|0.000000,-0.000000,0.000000,0.000000,0.000000,0.000000|eff|0.000000,0.000000,0.000000,0.000000,0.000000,0.000000
cobot_dynamixel_driver/joint_states|name|J1,J2,J3,J4,J5,J6|pos|0.269192,-1.268785,1.296275,-0.001715,-1.438151,-0.000083|vel|0.000000,-0.000000,0.000000,0.000000,0.000000,0.000000|eff|0.000000,0.000000,0.000000,0.000000,0.000000,0.000000
cobot_dynamixel_driver/joint_states|name|J1,J2,J3,J4,J5,J6|pos|0.269192,-1.268785,1.296275,-0.001715,-1.438151,-0.000083|vel|0.000000,-0.000000,0.000000,0.000000,0.000000,0.000000|eff|0.000000,0.000000,0.000000,0.000000,0.000000,0.000000
cobot_dynamixel_driver/joint_states|name|J1,J2,J3,J4,J5,J6|pos|0.269192,-1.268785,1.296275,-0.001715,-1.438151,-0.000083|vel|0.000000,-0.000000,0.000000,0.000000,0.000000,0.000000|eff|0.000000,0.000000,0.000000,0.000000,0.000000,0.000000
cobot_dynamixel_driver/joint_states|name|J1,J2,J3,J4,J5,J6|pos|0.269192,-1.268785,1.296275,-0.001715,-1.438151,-0.000083|vel|0.000000,-0.000000,0.000000,0.000000,0.000000,0.000000|eff|0.000000,0.000000,0.000000,0.000000,0.000000,0.000000
cobot_dynamixel_driver/joint_states|name|J1,J2,J3,J4,J5,J6|pos|0.269192,-1.268785,1.296275,-0.001715,-1.438151,-0.000083|vel|0.000000,-0.000000,0.000000,0.000000,0.000000,0.000000|eff|0.000000,0.000000,0.000000,0.000000,0.000000,0.000000
cobot_dynamixel_driver/joint_states|name|J1,J2,J3,J4,J5,J6|pos|0.269192,-1.268785,1.296275,-0.001715,-1.438151,-0.000083|vel|0.000000,-0.000000,0.000000,0.000000,0.000000,0.000000|eff|0.000000,0.000000,0.000000,0.000000,0.000000,0.000000
cobot_dynamixel_driver/joint_states|name|J1,J2,J3,J4,J5,J6|pos|0.269192,-1.268785,1.296275,-0.001715,-1.438151,-0.000083|vel|0.000000,-0.000000,0.000000,0.000000,0.000000,0.000000|eff|0.000000,0.000000,0.000000,0.000000,0.000000,0.000000
cobot_dynamixel_driver/joint_states|name|J1,J2,J3,J4,J5,J6|pos|0.269192,-1.268785,1.296275,-0.001715,-1.438151,-0.000083|vel|0.000000,-0.000000,0.000000,0.000000,0.000000,0.000000|eff|0.000000,0.000000,0.000000,0.000000,0.000000,0.000000
cobot_dynamixel_driver/joint_states|name|J1,J2,J3,J4,J5,J6|pos|0.269192,-1.268785,1.296275,-0.001715,-1.438151,-0.000083|vel|0.000000,-0.000000,0.000000,0.000000,0.000000,0.000000|eff|0.000000,0.000000,0.000000,0.000000,0.000000,0.000000
cobot_dynamixel_driver/joint_states|name|J1,J2,J3,J4,J5,J6|pos|0.269192,-1.268785,1.296275,-0.001715,-1.438151,-0.000083|vel|0.000000,-0.000000,0.000000,0.000000,0.000000,0.000000|eff|0.000000,0.000000,0.000000,0.000000,0.000000,0.000000
cobot_dynamixel_driver/joint_states|name|J1,J2,J3,J4,J5,J6|pos|0.269192,-1.268785,1.296275,-0.001715,-1.438151,-0.000083|vel|0.000000,-0.000000,0.000000,0.000000,0.000000,0.000000|eff|0.000000,0.000000,0.000000,0.000000,0.000000,0.000000
cobot_dynamixel_driver/joint_states|name|J1,J2,J3,J4,J5,J6|pos|0.269192,-1.268785,1.296275,-0.001715,-1.438151,-0.000083|vel|0.000000,-0.000000,0.000000,0.000000,0.000000,0.000000|eff|0.000000,0.000000,0.000000,0.000000,0.000000,0.000000
cobot_dynamixel_driver/joint_states|name|J1,J2,J3,J4,J5,J6|pos|0.269192,-1.268785,1.296275,-0.001715,-1.438151,-0.000083|vel|0.000000,-0.000000,0.000000,0.000000,0.000000,0.000000|eff|0.000000,0.000000,0.000000,0.000000,0.000000,0.000000
cobot_dynamixel_driver/joint_states|name|J1,J2,J3,J4,J5,J6|pos|0.269192,-1.268785,1.296275,-0.001715,-1.438151,-0.000083|vel|0.000000,-0.000000,0.000000,0.000000,0.000000,0.000000|eff|0.000000,0.000000,0.000000,0.000000,0.000000,0.000000
cobot_dynamixel_driver/joint_states|name|J1,J2,J3,J4,J5,J6|pos|0.269192,-1.268785,1.296275,-0.001715,-1.438151,-0.000083|vel|0.000000,-0.000000,0.000000,0.000000,0.000000,0.000000|eff|0.000000,0.000000,0.000000,0.000000,0.000000,0.000000
cobot_dynamixel_driver/joint_states|name|J1,J2,J3,J4,J5,J6|pos|0.269192,-1.268785,1.296275,-0.001715,-1.438151,-0.000083|vel|0.000000,-0.000000,0.000000,0.000000,0.000000,0.000000|eff|0.000000,0.000000,0.000000,0.000000,0.000000,0.000000
cobot_dynamixel_driver/joint_states|name|J1,J2,J3,J4,J5,J6|pos|0.269192,-1.268785,1.296275,-0.001715,-1.438151,-0.000083|vel|0.000000,-0.000000,0.000000,0.000000,0.000000,0.000000|eff|0.000000,0.000000,0.000000,0.000000,0.000000,0.000000
cobot_dynamixel_driver/joint_states|name|J1,J2,J3,J4,J5,J6|pos|0.269192,-1.268785,1.296275,-0.001715,-1.438151,-0.000083|vel|0.000000,-0.000000,0.000000,0.000000,0.000000,0.000000|eff|0.000000,0.000000,0.000000,0.000000,0.000000,0.000000
cobot_dynamixel_driver/joint_states|name|J1,J2,J3,J4,J5,J6|pos|0.269192,-1.268785,1.296275,-0.001715,-1.438151,-0.000083|vel|0.000000,-0.000000,0.000000,0.000000,0.000000,0.000000|eff|0.000000,0.000000,0.000000,0.000000,0.000000,0.000000
cobot_dynamixel_driver/joint_states|name|J1,J2,J3,J4,J5,J6|pos|0.269192,-1.268785,1.296275,-0.001715,-1.438151,-0.000083|vel|0.000000,-0.000000,0.000000,0.000000,0.000000,0.000000|eff|0.000000,0.000000,0.000000,0.000000,0.000000,0.000000
cobot_dynamixel_driver/joint_states|name|J1,J2,J3,J4,J5,J6|pos|0.269192,-1.268785,1.296275,-0.001715,-1.438151,-0.000083|vel|0.000000,-0.000000,0.000000,0.000000,0.000000,0.000000|eff|0.000000,0.000000,0.000000,0.000000,0.000000,0.000000
cobot_dynamixel_driver/joint_states|name|J1,J2,J3,J4,J5,J6|pos|0.269192,-1.268785,1.296275,-0.001715,-1.438151,-0.000083|vel|0.000000,-0.000000,0.000000,0.000000,0.000000,0.000000|eff|0.000000,0.000000,0.000000,0.000000,0.000000,0.000000
cobot_dynamixel_driver/joint_states|name|J1,J2,J3,J4,J5,J6|pos|0.269192,-1.268785,1.296275,-0.001715,-1.438151,-0.000083|vel|0.000000,-0.000000,0.000000,0.000000,0.000000,0.000000|eff|0.000000,0.000000,0.000000,0.000000,0.000000,0.000000
cobot_dynamixel_driver/joint_states|name|J1,J2,J3,J4,J5,J6|pos|0.269192,-1.268785,1.296275,-0.001715,-1.438151,-0.000083|vel|0.000000,-0.000000,0.000000,0.000000,0.000000,0.000000|eff|0.000000,0.000000,0.000000,0.000000,0.000000,0.000000
cobot_dynamixel_driver/joint_states|name|J1,J2,J3,J4,J5,J6|pos|0.269192,-1.268785,1.296275,-0.001715,-1.438151,-0.000083|vel|0.000000,-0.000000,0.000000,0.000000,0.000000,0.000000|eff|0.000000,0.000000,0.000000,0.000000,0.000000,0.000000
cobot_dynamixel_driver/joint_states|name|J1,J2,J3,J4,J5,J6|pos|0.269192,-1.268785,1.296275,-0.001715,-1.438151,-0.000083|vel|0.000000,-0.000000,0.000000,0.000000,0.000000,0.000000|eff|0.000000,0.000000,0.000000,0.000000,0.000000,0.000000
cobot_dynamixel_driver/joint_states|name|J1,J2,J3,J4,J5,J6|pos|0.269192,-1.268785,1.296275,-0.001715,-1.438151,-0.000083|vel|0.000000,-0.000000,0.000000,0.000000,0.000000,0.000000|eff|0.000000,0.000000,0.000000,0.000000,0.000000,0.000000
cobot_dynamixel_driver/joint_states|name|J1,J2,J3,J4,J5,J6|pos|0.269192,-1.268785,1.296275,-0.001715,-1.438151,-0.000083|vel|0.000000,-0.000000,0.000000,0.000000,0.000000,0.000000|eff|0.000000,0.000000,0.000000,0.000000,0.000000,0.000000
cobot_dynamixel_driver/joint_states|name|J1,J2,J3,J4,J5,J6|pos|0.269192,-1.268785,1.296275,-0.001715,-1.438151,-0.000083|vel|0.000000,-0.000000,0.000000,0.000000,0.000000,0.000000|eff|0.000000,0.000000,0.000000,0.000000,0.000000,0.000000
cobot_dynamixel_driver/joint_states|name|J1,J2,J3,J4,J5,J6|pos|0.269192,-1.268785,1.296275,-0.001715,-1.438151,-0.000083|vel|0.000000,-0.000000,0.000000,0.000000,0.000000,0.000000|eff|0.000000,0.000000,0.000000,0.000000,0.000000,0.000000
cobot_dynamixel_driver/joint_states|name|J1,J2,J3,J4,J5,J6|pos|0.269192,-1.268785,1.296275,-0.001715,-1.438151,-0.000083|vel|0.000000,-0.000000,0.000000,0.000000,0.000000,0.000000|eff|0.000000,0.000000,0.000000,0.000000,0.000000,0.000000
cobot_dynamixel_driver/joint_states|name|J1,J2,J3,J4,J5,J6|pos|0.269192,-1.268785,1.296275,-0.001715,-1.438151,-0.000083|vel|0.000000,-0.000000,0.000000,0.000000,0.000000,0.000000|eff|0.000000,0.000000,0.000000,0.000000,0.000000,0.000000
cobot_dynamixel_driver/joint_states|name|J1,J2,J3,J4,J5,J6|pos|0.269192,-1.268785,1.296275,-0.001715,-1.438151,-0.000083|vel|0.000000,-0.000000,0.000000,0.000000,0.000000,0.000000|eff|0.000000,0.000000,0.000000,0.000000,0.000000,0.000000
cobot_dynamixel_driver/joint_states|name|J1,J2,J3,J4,J5,J6|pos|0.269192,-1.268785,1.296275,-0.001715,-1.438151,-0.000083|vel|0.000000,-0.000000,0.000000,0.000000,0.000000,0.000000|eff|0.000000,0.000000,0.000000,0.000000,0.000000,0.000000
cobot_dynamixel_driver/joint_states|name|J1,J2,J3,J4,J5,J6|pos|0.269192,-1.268785,1.296275,-0.001715,-1.438151,-0.000083|vel|0.000000,-0.000000,0.000000,0.000000,0.000000,0.000000|eff|0.000000,0.000000,0.000000,0.000000,0.000000,0.000000
cobot_dynamixel_driver/joint_states|name|J1,J2,J3,J4,J5,J6|pos|0.269192,-1.268785,1.296275,-0.001715,-1.438151,-0.000083|vel|0.000000,-0.000000,0.000000,0.000000,0.000000,0.000000|eff|0.000000,0.000000,0.000000,0.000000,0.000000,0.000000
cobot_dynamixel_driver/joint_states|name|J1,J2,J3,J4,J5,J6|pos|0.269192,-1.268785,1.296275,-0.001715,-1.438151,-0.000083|vel|0.000000,-0.000000,0.000000,0.000000,0.000000,0.000000|eff|0.000000,0.000000,0.000000,0.000000,0.000000,0.000000
cobot_dynamixel_driver/joint_states|name|J1,J2,J3,J4,J5,J6|pos|0.269192,-1.268785,1.296275,-0.001715,-1.438151,-0.000083|vel|0.000000,-0.000000,0.000000,0.000000,0.000000,0.000000|eff|0.000000,0.000000,0.000000,0.000000,0.000000,0.000000
cobot_dynamixel_driver/joint_states|name|J1,J2,J3,J4,J5,J6|pos|0.269192,-1.268785,1.296275,-0.001715,-1.438151,-0.000083|vel|0.000000,-0.000000,0.000000,0.000000,0.000000,0.000000|eff|0.000000,0.000000,0.000000,0.000000,0.000000,0.000000
cobot_dynamixel_driver/joint_states|name|J1,J2,J3,J4,J5,J6|pos|0.269192,-1.268785,1.296275,-0.001715,-1.438151,-0.000083|vel|0.000000,-0.000000,0.000000,0.000000,0.000000,0.000000|eff|0.000000,0.000000,0.000000,0.000000,0.000000,0.000000
cobot_dynamixel_driver/joint_states|name|J1,J2,J3,J4,J5,J6|pos|0.269192,-1.268785,1.296275,-0.001715,-1.438151,-0.000083|vel|0.000000,-0.000000,0.000000,0.000000,0.000000,0.000000|eff|0.000000,0.000000,0.000000,0.000000,0.000000,0.000000
cobot_dynamixel_driver/joint_states|name|J1,J2,J3,J4,J5,J6|pos|0.269192,-1.268785,1.296275,-0.001715,-1.438151,-0.000083|vel|0.000000,-0.000000,0.000000,0.000000,0.000000,0.000000|eff|0.000000,0.000000,0.000000,0.000000,0.000000,0.000000
cobot_dynamixel_driver/joint_states|name|J1,J2,J3,J4,J5,J6|pos|0.269192,-1.268785,1.296275,-0.001715,-1.438151,-0.000083|vel|0.000000,-0.000000,0.000000,0.000000,0.000000,0.000000|eff|0.000000,0.000000,0.000000,0.000000,0.000000,0.000000
cobot_dynamixel_driver/joint_states|name|J1,J2,J3,J4,J5,J6|pos|0.269192,-1.268785,1.296275,-0.001715,-1.438151,-0.000083|vel|0.000000,-0.000000,0.000000,0.000000,0.000000,0.000000|eff|0.000000,0.000000,0.000000,0.000000,0.000000,0.000000
cobot_dynamixel_driver/joint_states|name|J1,J2,J3,J4,J5,J6|pos|0.269192,-1.268785,1.296275,-0.001715,-1.438151,-0.000083|vel|0.000000,-0.000000,0.000000,0.000000,0.000000,0.000000|eff|0.000000,0.000000,0.000000,0.000000,0.000000,0.000000
cobot_dynamixel_driver/joint_states|name|J1,J2,J3,J4,J5,J6|pos|0.269192,-1.268785,1.296275,-0.001715,-1.438151,-0.000083|vel|0.000000,-0.000000,0.000000,0.000000,0.000000,0.000000|eff|0.000000,0.000000,0.000000,0.000000,0.000000,0.000000
cobot_dynamixel_driver/joint_states|name|J1,J2,J3,J4,J5,J6|pos|0.269192,-1.268785,1.296275,-0.001715,-1.438151,-0.000083|vel|0.000000,-0.000000,0.000000,0.000000,0.000000,0.000000|eff|0.000000,0.000000,0.000000,0.000000,0.000000,0.000000
cobot_dynamixel_driver/joint_states|name|J1,J2,J3,J4,J5,J6|pos|0.269192,-1.268785,1.296275,-0.001715,-1.438151,-0.000083|vel|0.000000,-0.000000,0.000000,0.000000,0.000000,0.000000|eff|0.000000,0.000000,0.000000,0.000000,0.000000,0.000000
cobot_dynamixel_driver/joint_states|name|J1,J2,J3,J4,J5,J6|pos|0.269192,-1.268785,1.296275,-0.001715,-1.438151,-0.000083|vel|0.000000,-0.000000,0.000000,0.000000,0.000000,0.000000|eff|0.000000,0.000000,0.000000,0.000000,0.000000,0.000000
cobot_dynamixel_driver/joint_states|name|J1,J2,J3,J4,J5,J6|pos|0.269192,-1.268785,1.296275,-0.001715,-1.438151,-0.000083|vel|0.000000,-0.000000,0.000000,0.000000,0.000000,0.000000|eff|0.000000,0.000000,0.000000,0.000000,0.000000,0.000000
cobot_dynamixel_driver/joint_states|name|J1,J2,J3,J4,J5,J6|pos|0.269192,-1.268785,1.296275,-0.001715,-1.438151,-0.000083|vel|0.000000,-0.000000,0.000000,0.000000,0.000000,0.000000|eff|0.000000,0.000000,0.000000,0.000000,0.000000,0.000000
cobot_dynamixel_driver/joint_states|name|J1,J2,J3,J4,J5,J6|pos|0.269192,-1.268785,1.296275,-0.001715,-1.438151,-0.000083|vel|0.000000,-0.000000,0.000000,0.000000,0.000000,0.000000|eff|0.000000,0.000000,0.000000,0.000000,0.000000,0.000000
cobot_dynamixel_driver/joint_states|name|J1,J2,J3,J4,J5,J6|pos|0.269192,-1.268785,1.296275,-0.001715,-1.438151,-0.000083|vel|0.000000,-0.000000,0.000000,0.000000,0.000000,0.000000|eff|0.000000,0.000000,0.000000,0.000000,0.000000,0.000000
cobot_dynamixel_driver/joint_states|name|J1,J2,J3,J4,J5,J6|pos|0.269192,-1.268785,1.296275,-0.001715,-1.438151,-0.000083|vel|0.000000,-0.000000,0.000000,0.000000,0.000000,0.000000|eff|0.000000,0.000000,0.000000,0.000000,0.000000,0.000000
cobot_dynamixel_driver/joint_states|name|J1,J2,J3,J4,J5,J6|pos|0.269192,-1.268785,1.296275,-0.001715,-1.438151,-0.000083|vel|0.000000,-0.000000,0.000000,0.000000,0.000000,0.000000|eff|0.000000,0.000000,0.000000,0.000000,0.000000,0.000000
cobot_dynamixel_driver/joint_states|name|J1,J2,J3,J4,J5,J6|pos|0.269192,-1.268785,1.296275,-0.001715,-1.438151,-0.000083|vel|0.000000,-0.000000,0.000000,0.000000,0.000000,0.000000|eff|0.000000,0.000000,0.000000,0.000000,0.000000,0.000000
cobot_dynamixel_driver/joint_states|name|J1,J2,J3,J4,J5,J6|pos|0.269192,-1.268785,1.296275,-0.001715,-1.438151,-0.000083|vel|0.000000,-0.000000,0.000000,0.000000,0.000000,0.000000|eff|0.000000,0.000000,0.000000,0.000000,0.000000,0.000000
cobot_dynamixel_driver/joint_states|name|J1,J2,J3,J4,J5,J6|pos|0.269192,-1.268785,1.296275,-0.001715,-1.438151,-0.000083|vel|0.000000,-0.000000,0.000000,0.000000,0.000000,0.000000|eff|0.000000,0.000000,0.000000,0.000000,0.000000,0.000000
cobot_dynamixel_driver/joint_states|name|J1,J2,J3,J4,J5,J6|pos|0.269192,-1.268785,1.296275,-0.001715,-1.438151,-0.000083|vel|0.000000,-0.000000,0.000000,0.000000,0.000000,0.000000|eff|0.000000,0.000000,0.000000,0.000000,0.000000,0.000000
cobot_dynamixel_driver/joint_states|name|J1,J2,J3,J4,J5,J6|pos|0.269192,-1.268785,1.296275,-0.001715,-1.438151,-0.000083|vel|0.000000,-0.000000,0.000000,0.000000,0.000000,0.000000|eff|0.000000,0.000000,0.000000,0.000000,0.000000,0.000000
cobot_dynamixel_driver/joint_states|name|J1,J2,J3,J4,J5,J6|pos|0.269192,-1.268785,1.296275,-0.001715,-1.438151,-0.000083|vel|0.000000,-0.000000,0.000000,0.000000,0.000000,0.000000|eff|0.000000,0.000000,0.000000,0.000000,0.000000,0.000000
cobot_dynamixel_driver/joint_states|name|J1,J2,J3,J4,J5,J6|pos|0.269192,-1.268785,1.296275,-0.001715,-1.438151,-0.000083|vel|0.000000,-0.000000,0.000000,0.000000,0.000000,0.000000|eff|0.000000,0.000000,0.000000,0.000000,0.000000,0.000000
cobot_dynamixel_driver/joint_states|name|J1,J2,J3,J4,J5,J6|pos|0.269192,-1.268785,1.296275,-0.001715,-1.438151,-0.000083|vel|0.000000,-0.000000,0.000000,0.000000,0.000000,0.000000|eff|0.000000,0.000000,0.000000,0.000000,0.000000,0.000000
cobot_dynamixel_driver/joint_states|name|J1,J2,J3,J4,J5,J6|pos|0.269192,-1.268785,1.296275,-0.001715,-1.438151,-0.000083|vel|0.000000,-0.000000,0.000000,0.000000,0.000000,0.000000|eff|0.000000,0.000000,0.000000,0.000000,0.000000,0.000000
cobot_dynamixel_driver/joint_states|name|J1,J2,J3,J4,J5,J6|pos|0.269192,-1.268785,1.296275,-0.001715,-1.438151,-0.000083|vel|0.000000,-0.000000,0.000000,0.000000,0.000000,0.000000|eff|0.000000,0.000000,0.000000,0.000000,0.000000,0.000000
cobot_dynamixel_driver/joint_states|name|J1,J2,J3,J4,J5,J6|pos|0.269192,-1.268785,1.296275,-0.001715,-1.438151,-0.000083|vel|0.000000,-0.000000,0.000000,0.000000,0.000000,0.000000|eff|0.000000,0.000000,0.000000,0.000000,0.000000,0.000000
cobot_dynamixel_driver/joint_states|name|J1,J2,J3,J4,J5,J6|pos|0.269192,-1.268785,1.296275,-0.001715,-1.438151,-0.000083|vel|0.000000,-0.000000,0.000000,0.000000,0.000000,0.000000|eff|0.000000,0.000000,0.000000,0.000000,0.000000,0.000000
cobot_dynamixel_driver/joint_states|name|J1,J2,J3,J4,J5,J6|pos|0.269192,-1.268785,1.296275,-0.001715,-1.438151,-0.000083|vel|0.000000,-0.000000,0.000000,0.000000,0.000000,0.000000|eff|0.000000,0.000000,0.000000,0.000000,0.000000,0.000000
cobot_dynamixel_driver/joint_states|name|J1,J2,J3,J4,J5,J6|pos|0.269192,-1.268785,1.296275,-0.001715,-1.438151,-0.000083|vel|0.000000,-0.000000,0.000000,0.000000,0.000000,0.000000|eff|0.000000,0.000000,0.000000,0.000000,0.000000,0.000000
cobot_dynamixel_driver/joint_states|name|J1,J2,J3,J4,J5,J6|pos|0.269192,-1.268785,1.296275,-0.001715,-1.438151,-0.000083|vel|0.000000,-0.000000,0.000000,0.000000,0.000000,0.000000|eff|0.000000,0.000000,0.000000,0.000000,0.000000,0.000000
cobot_dynamixel_driver/joint_states|name|J1,J2,J3,J4,J5,J6|pos|0.269192,-1.268785,1.296275,-0.001715,-1.438151,-0.000083|vel|0.000000,-0.000000,0.000000,0.000000,0.000000,0.000000|eff|0.000000,0.000000,0.000000,0.000000,0.000000,0.000000
cobot_dynamixel_driver/joint_states|name|J1,J2,J3,J4,J5,J6|pos|0.269192,-1.268785,1.296275,-0.001715,-1.438151,-0.000083|vel|0.000000,-0.000000,0.000000,0.000000,0.000000,0.000000|eff|0.000000,0.000000,0.000000,0.000000,0.000000,0.000000
cobot_dynamixel_driver/joint_states|name|J1,J2,J3,J4,J5,J6|pos|0.269192,-1.268785,1.296275,-0.001715,-1.438151,-0.000083|vel|0.000000,-0.000000,0.000000,0.000000,0.000000,0.000000|eff|0.000000,0.000000,0.000000,0.000000,0.000000,0.000000
cobot_dynamixel_driver/joint_states|name|J1,J2,J3,J4,J5,J6|pos|0.269192,-1.268785,1.296275,-0.001715,-1.438151,-0.000083|vel|0.000000,-0.000000,0.000000,0.000000,0.000000,0.000000|eff|0.000000,0.000000,0.000000,0.000000,0.000000,0.000000
cobot_dynamixel_driver/joint_states|name|J1,J2,J3,J4,J5,J6|pos|0.269192,-1.268785,1.296275,-0.001715,-1.438151,-0.000083|vel|0.000000,-0.000000,0.000000,0.000000,0.000000,0.000000|eff|0.000000,0.000000,0.000000,0.000000,0.000000,0.000000
cobot_dynamixel_driver/joint_states|name|J1,J2,J3,J4,J5,J6|pos|0.269192,-1.268785,1.296275,-0.001715,-1.438151,-0.000083|vel|0.000000,-0.000000,0.000000,0.000000,0.000000,0.000000|eff|0.000000,0.000000,0.000000,0.000000,0.000000,0.000000
cobot_dynamixel_driver/joint_states|name|J1,J2,J3,J4,J5,J6|pos|0.269192,-1.268785,1.296275,-0.001715,-1.438151,-0.000083|vel|0.000000,-0.000000,0.000000,0.000000,0.000000,0.000000|eff|0.000000,0.000000,0.000000,0.000000,0.000000,0.000000
cobot_dynamixel_driver/joint_states|name|J1,J2,J3,J4,J5,J6|pos|0.269192,-1.268785,1.296275,-0.001715,-1.438151,-0.000083|vel|0.000000,-0.000000,0.000000,0.000000,0.000000,0.000000|eff|0.000000,0.000000,0.000000,0.000000,0.000000,0.000000
cobot_dynamixel_driver/joint_states|name|J1,J2,J3,J4,J5,J6|pos|0.269192,-1.268785,1.296275,-0.001715,-1.438151,-0.000083|vel|0.000000,-0.000000,0.000000,0.000000,0.000000,0.000000|eff|0.000000,0.000000,0.000000,0.000000,0.000000,0.000000
cobot_dynamixel_driver/joint_states|name|J1,J2,J3,J4,J5,J6|pos|0.269192,-1.268785,1.296275,-0.001715,-1.438151,-0.000083|vel|0.000000,-0.000000,0.000000,0.000000,0.000000,0.000000|eff|0.000000,0.000000,0.000000,0.000000,0.000000,0.000000
cobot_dynamixel_driver/joint_states|name|J1,J2,J3,J4,J5,J6|pos|0.269192,-1.268785,1.296275,-0.001715,-1.438151,-0.000083|vel|0.000000,-0.000000,0.000000,0.000000,0.000000,0.000000|eff|0.000000,0.000000,0.000000,0.000000,0.000000,0.000000
cobot_dynamixel_driver/joint_states|name|J1,J2,J3,J4,J5,J6|pos|0.269192,-1.268785,1.296275,-0.001715,-1.438151,-0.000083|vel|0.000000,-0.000000,0.000000,0.000000,0.000000,0.000000|eff|0.000000,0.000000,0.000000,0.000000,0.000000,0.000000
cobot_dynamixel_driver/joint_states|name|J1,J2,J3,J4,J5,J6|pos|0.269192,-1.268785,1.296275,-0.001715,-1.438151,-0.000083|vel|0.000000,-0.000000,0.000000,0.000000,0.000000,0.000000|eff|0.000000,0.000000,0.000000,0.000000,0.000000,0.000000
cobot_dynamixel_driver/joint_states|name|J1,J2,J3,J4,J5,J6|pos|0.269192,-1.268785,1.296275,-0.001715,-1.438151,-0.000083|vel|0.000000,-0.000000,0.000000,0.000000,0.000000,0.000000|eff|0.000000,0.000000,0.000000,0.000000,0.000000,0.000000
cobot_dynamixel_driver/joint_states|name|J1,J2,J3,J4,J5,J6|pos|0.269192,-1.268785,1.296275,-0.001715,-1.438151,-0.000083|vel|0.000000,-0.000000,0.000000,0.000000,0.000000,0.000000|eff|0.000000,0.000000,0.000000,0.000000,0.000000,0.000000
cobot_dynamixel_driver/joint_states|name|J1,J2,J3,J4,J5,J6|pos|0.269192,-1.268785,1.296275,-0.001715,-1.438151,-0.000083|vel|0.000000,-0.000000,0.000000,0.000000,0.000000,0.000000|eff|0.000000,0.000000,0.000000,0.000000,0.000000,0.000000
cobot_dynamixel_driver/joint_states|name|J1,J2,J3,J4,J5,J6|pos|0.269192,-1.268785,1.296275,-0.001715,-1.438151,-0.000083|vel|0.000000,-0.000000,0.000000,0.000000,0.000000,0.000000|eff|0.000000,0.000000,0.000000,0.000000,0.000000,0.000000
cobot_dynamixel_driver/joint_states|name|J1,J2,J3,J4,J5,J6|pos|0.269192,-1.268785,1.296275,-0.001715,-1.438151,-0.000083|vel|0.000000,-0.000000,0.000000,0.000000,0.000000,0.000000|eff|0.000000,0.000000,0.000000,0.000000,0.000000,0.000000
cobot_dynamixel_driver/joint_states|name|J1,J2,J3,J4,J5,J6|pos|0.269192,-1.268785,1.296275,-0.001715,-1.438151,-0.000083|vel|0.000000,-0.000000,0.000000,0.000000,0.000000,0.000000|eff|0.000000,0.000000,0.000000,0.000000,0.000000,0.000000
cobot_dynamixel_driver/joint_states|name|J1,J2,J3,J4,J5,J6|pos|0.269192,-1.268785,1.296275,-0.001715,-1.438151,-0.000083|vel|0.000000,-0.000000,0.000000,0.000000,0.000000,0.000000|eff|0.000000,0.000000,0.000000,0.000000,0.000000,0.000000
cobot_dynamixel_driver/joint_states|name|J1,J2,J3,J4,J5,J6|pos|0.269192,-1.268785,1.296275,-0.001715,-1.438151,-0.000083|vel|0.000000,-0.000000,0.000000,0.000000,0.000000,0.000000|eff|0.000000,0.000000,0.000000,0.000000,0.000000,0.000000
cobot_dynamixel_driver/joint_states|name|J1,J2,J3,J4,J5,J6|pos|0.269192,-1.268785,1.296275,-0.001715,-1.438151,-0.000083|vel|0.000000,-0.000000,0.000000,0.000000,0.000000,0.000000|eff|0.000000,0.000000,0.000000,0.000000,0.000000,0.000000
cobot_dynamixel_driver/joint_states|name|J1,J2,J3,J4,J5,J6|pos|0.269192,-1.268785,1.296275,-0.001715,-1.438151,-0.000083|vel|0.000000,-0.000000,0.000000,0.000000,0.000000,0.000000|eff|0.000000,0.000000,0.000000,0.000000,0.000000,0.000000
cobot_dynamixel_driver/joint_states|name|J1,J2,J3,J4,J5,J6|pos|0.269192,-1.268785,1.296275,-0.001715,-1.438151,-0.000083|vel|0.000000,-0.000000,0.000000,0.000000,0.000000,0.000000|eff|0.000000,0.000000,0.000000,0.000000,0.000000,0.000000
cobot_dynamixel_driver/joint_states|name|J1,J2,J3,J4,J5,J6|pos|0.269192,-1.268785,1.296275,-0.001715,-1.438151,-0.000083|vel|0.000000,-0.000000,0.000000,0.000000,0.000000,0.000000|eff|0.000000,0.000000,0.000000,0.000000,0.000000,0.000000
cobot_dynamixel_driver/joint_states|name|J1,J2,J3,J4,J5,J6|pos|0.269192,-1.268785,1.296275,-0.001715,-1.438151,-0.000083|vel|0.000000,-0.000000,0.000000,0.000000,0.000000,0.000000|eff|0.000000,0.000000,0.000000,0.000000,0.000000,0.000000
cobot_dynamixel_driver/joint_states|name|J1,J2,J3,J4,J5,J6|pos|0.269192,-1.268785,1.296275,-0.001715,-1.438151,-0.000083|vel|0.000000,-0.000000,0.000000,0.000000,0.000000,0.000000|eff|0.000000,0.000000,0.000000,0.000000,0.000000,0.000000
cobot_dynamixel_driver/joint_states|name|J1,J2,J3,J4,J5,J6|pos|0.269192,-1.268785,1.296275,-0.001715,-1.438151,-0.000083|vel|0.000000,-0.000000,0.000000,0.000000,0.000000,0.000000|eff|0.000000,0.000000,0.000000,0.000000,0.000000,0.000000
cobot_dynamixel_driver/joint_states|name|J1,J2,J3,J4,J5,J6|pos|0.269192,-1.268785,1.296275,-0.001715,-1.438151,-0.000083|vel|0.000000,-0.000000,0.000000,0.000000,0.000000,0.000000|eff|0.000000,0.000000,0.000000,0.000000,0.000000,0.000000
cobot_dynamixel_driver/joint_states|name|J1,J2,J3,J4,J5,J6|pos|0.269192,-1.268785,1.296275,-0.001715,-1.438151,-0.000083|vel|0.000000,-0.000000,0.000000,0.000000,0.000000,0.000000|eff|0.000000,0.000000,0.000000,0.000000,0.000000,0.000000
cobot_dynamixel_driver/joint_states|name|J1,J2,J3,J4,J5,J6|pos|0.269192,-1.268785,1.296275,-0.001715,-1.438151,-0.000083|vel|0.000000,-0.000000,0.000000,0.000000,0.000000,0.000000|eff|0.000000,0.000000,0.000000,0.000000,0.000000,0.000000
cobot_dynamixel_driver/joint_states|name|J1,J2,J3,J4,J5,J6|pos|0.269192,-1.268785,1.296275,-0.001715,-1.438151,-0.000083|vel|0.000000,-0.000000,0.000000,0.000000,0.000000,0.000000|eff|0.000000,0.000000,0.000000,0.000000,0.000000,0.000000
cobot_dynamixel_driver/joint_states|name|J1,J2,J3,J4,J5,J6|pos|0.269192,-1.268785,1.296275,-0.001715,-1.438151,-0.000083|vel|0.000000,-0.000000,0.000000,0.000000,0.000000,0.000000|eff|0.000000,0.000000,0.000000,0.000000,0.000000,0.000000
cobot_dynamixel_driver/joint_states|name|J1,J2,J3,J4,J5,J6|pos|0.269192,-1.268785,1.296275,-0.001715,-1.438151,-0.000083|vel|0.000000,-0.000000,0.000000,0.000000,0.000000,0.000000|eff|0.000000,0.000000,0.000000,0.000000,0.000000,0.000000
cobot_dynamixel_driver/joint_states|name|J1,J2,J3,J4,J5,J6|pos|0.269192,-1.268785,1.296275,-0.001715,-1.438151,-0.000083|vel|0.000000,-0.000000,0.000000,0.000000,0.000000,0.000000|eff|0.000000,0.000000,0.000000,0.000000,0.000000,0.000000
cobot_dynamixel_driver/joint_states|name|J1,J2,J3,J4,J5,J6|pos|0.269192,-1.268785,1.296275,-0.001715,-1.438151,-0.000083|vel|0.000000,-0.000000,0.000000,0.000000,0.000000,0.000000|eff|0.000000,0.000000,0.000000,0.000000,0.000000,0.000000
cobot_dynamixel_driver/joint_states|name|J1,J2,J3,J4,J5,J6|pos|0.269192,-1.268785,1.296275,-0.001715,-1.438151,-0.000083|vel|0.000000,-0.000000,0.000000,0.000000,0.000000,0.000000|eff|0.000000,0.000000,0.000000,0.000000,0.000000,0.000000
cobot_dynamixel_driver/joint_states|name|J1,J2,J3,J4,J5,J6|pos|0.269192,-1.268785,1.296275,-0.001715,-1.438151,-0.000083|vel|0.000000,-0.000000,0.000000,0.000000,0.000000,0.000000|eff|0.000000,0.000000,0.000000,0.000000,0.000000,0.000000
cobot_dynamixel_driver/joint_states|name|J1,J2,J3,J4,J5,J6|pos|0.269192,-1.268785,1.296275,-0.001715,-1.438151,-0.000083|vel|0.000000,-0.000000,0.000000,0.000000,0.000000,0.000000|eff|0.000000,0.000000,0.000000,0.000000,0.000000,0.000000
cobot_dynamixel_driver/joint_states|name|J1,J2,J3,J4,J5,J6|pos|0.269192,-1.268785,1.296275,-0.001715,-1.438151,-0.000083|vel|0.000000,-0.000000,0.000000,0.000000,0.000000,0.000000|eff|0.000000,0.000000,0.000000,0.000000,0.000000,0.000000
cobot_dynamixel_driver/joint_states|name|J1,J2,J3,J4,J5,J6|pos|0.269192,-1.268785,1.296275,-0.001715,-1.438151,-0.000083|vel|0.000000,-0.000000,0.000000,0.000000,0.000000,0.000000|eff|0.000000,0.000000,0.000000,0.000000,0.000000,0.000000
cobot_dynamixel_driver/joint_states|name|J1,J2,J3,J4,J5,J6|pos|0.269192,-1.268785,1.296275,-0.001715,-1.438151,-0.000083|vel|0.000000,-0.000000,0.000000,0.000000,0.000000,0.000000|eff|0.000000,0.000000,0.000000,0.000000,0.000000,0.000000
cobot_dynamixel_driver/joint_states|name|J1,J2,J3,J4,J5,J6|pos|0.269192,-1.268785,1.296275,-0.001715,-1.438151,-0.000083|vel|0.000000,-0.000000,0.000000,0.000000,0.000000,0.000000|eff|0.000000,0.000000,0.000000,0.000000,0.000000,0.000000
cobot_dynamixel_driver/joint_states|name|J1,J2,J3,J4,J5,J6|pos|0.269192,-1.268785,1.296275,-0.001715,-1.438151,-0.000083|vel|0.000000,-0.000000,0.000000,0.000000,0.000000,0.000000|eff|0.000000,0.000000,0.000000,0.000000,0.000000,0.000000
cobot_dynamixel_driver/joint_states|name|J1,J2,J3,J4,J5,J6|pos|0.269192,-1.268785,1.296275,-0.001715,-1.438151,-0.000083|vel|0.000000,-0.000000,0.000000,0.000000,0.000000,0.000000|eff|0.000000,0.000000,0.000000,0.000000,0.000000,0.000000
cobot_dynamixel_driver/joint_states|name|J1,J2,J3,J4,J5,J6|pos|0.269192,-1.268785,1.296275,-0.001715,-1.438151,-0.000083|vel|0.000000,-0.000000,0.000000,0.000000,0.000000,0.000000|eff|0.000000,0.000000,0.000000,0.000000,0.000000,0.000000
cobot_dynamixel_driver/joint_states|name|J1,J2,J3,J4,J5,J6|pos|0.269192,-1.268785,1.296275,-0.001715,-1.438151,-0.000083|vel|0.000000,-0.000000,0.000000,0.000000,0.000000,0.000000|eff|0.000000,0.000000,0.000000,0.000000,0.000000,0.000000
cobot_dynamixel_driver/joint_states|name|J1,J2,J3,J4,J5,J6|pos|0.269192,-1.268785,1.296275,-0.001715,-1.438151,-0.000083|vel|0.000000,-0.000000,0.000000,0.000000,0.000000,0.000000|eff|0.000000,0.000000,0.000000,0.000000,0.000000,0.000000
cobot_dynamixel_driver/joint_states|name|J1,J2,J3,J4,J5,J6|pos|0.269192,-1.268785,1.296275,-0.001715,-1.438151,-0.000083|vel|0.000000,-0.000000,0.000000,0.000000,0.000000,0.000000|eff|0.000000,0.000000,0.000000,0.000000,0.000000,0.000000
cobot_dynamixel_driver/joint_states|name|J1,J2,J3,J4,J5,J6|pos|0.269192,-1.268785,1.296275,-0.001715,-1.438151,-0.000083|vel|0.000000,-0.000000,0.000000,0.000000,0.000000,0.000000|eff|0.000000,0.000000,0.000000,0.000000,0.000000,0.000000
cobot_dynamixel_driver/joint_states|name|J1,J2,J3,J4,J5,J6|pos|0.269192,-1.268785,1.296275,-0.001715,-1.438151,-0.000083|vel|0.000000,-0.000000,0.000000,0.000000,0.000000,0.000000|eff|0.000000,0.000000,0.000000,0.000000,0.000000,0.000000
cobot_dynamixel_driver/joint_states|name|J1,J2,J3,J4,J5,J6|pos|0.269192,-1.268785,1.296275,-0.001715,-1.438151,-0.000083|vel|0.000000,-0.000000,0.000000,0.000000,0.000000,0.000000|eff|0.000000,0.000000,0.000000,0.000000,0.000000,0.000000
cobot_dynamixel_driver/joint_states|name|J1,J2,J3,J4,J5,J6|pos|0.269192,-1.268785,1.296275,-0.001715,-1.438151,-0.000083|vel|0.000000,-0.000000,0.000000,0.000000,0.000000,0.000000|eff|0.000000,0.000000,0.000000,0.000000,0.000000,0.000000
cobot_dynamixel_driver/joint_states|name|J1,J2,J3,J4,J5,J6|pos|0.269192,-1.268785,1.296275,-0.001715,-1.438151,-0.000083|vel|0.000000,-0.000000,0.000000,0.000000,0.000000,0.000000|eff|0.000000,0.000000,0.000000,0.000000,0.000000,0.000000
cobot_dynamixel_driver/joint_states|name|J1,J2,J3,J4,J5,J6|pos|0.269192,-1.268785,1.296275,-0.001715,-1.438151,-0.000083|vel|0.000000,-0.000000,0.000000,0.000000,0.000000,0.000000|eff|0.000000,0.000000,0.000000,0.000000,0.000000,0.000000
cobot_dynamixel_driver/joint_states|name|J1,J2,J3,J4,J5,J6|pos|0.269192,-1.268785,1.296275,-0.001715,-1.438151,-0.000083|vel|0.000000,-0.000000,0.000000,0.000000,0.000000,0.000000|eff|0.000000,0.000000,0.000000,0.000000,0.000000,0.000000
cobot_dynamixel_driver/joint_states|name|J1,J2,J3,J4,J5,J6|pos|0.269192,-1.268785,1.296275,-0.001715,-1.438151,-0.000083|vel|0.000000,-0.000000,0.000000,0.000000,0.000000,0.000000|eff|0.000000,0.000000,0.000000,0.000000,0.000000,0.000000
cobot_dynamixel_driver/joint_states|name|J1,J2,J3,J4,J5,J6|pos|0.269192,-1.268785,1.296275,-0.001715,-1.438151,-0.000083|vel|0.000000,-0.000000,0.000000,0.000000,0.000000,0.000000|eff|0.000000,0.000000,0.000000,0.000000,0.000000,0.000000
cobot_dynamixel_driver/joint_states|name|J1,J2,J3,J4,J5,J6|pos|0.269192,-1.268785,1.296275,-0.001715,-1.438151,-0.000083|vel|0.000000,-0.000000,0.000000,0.000000,0.000000,0.000000|eff|0.000000,0.000000,0.000000,0.000000,0.000000,0.000000
cobot_dynamixel_driver/joint_states|name|J1,J2,J3,J4,J5,J6|pos|0.269192,-1.268785,1.296275,-0.001715,-1.438151,-0.000083|vel|0.000000,-0.000000,0.000000,0.000000,0.000000,0.000000|eff|0.000000,0.000000,0.000000,0.000000,0.000000,0.000000
cobot_dynamixel_driver/joint_states|name|J1,J2,J3,J4,J5,J6|pos|0.269192,-1.268785,1.296275,-0.001715,-1.438151,-0.000083|vel|0.000000,-0.000000,0.000000,0.000000,0.000000,0.000000|eff|0.000000,0.000000,0.000000,0.000000,0.000000,0.000000
cobot_dynamixel_driver/joint_states|name|J1,J2,J3,J4,J5,J6|pos|0.269192,-1.268785,1.296275,-0.001715,-1.438151,-0.000083|vel|0.000000,-0.000000,0.000000,0.000000,0.000000,0.000000|eff|0.000000,0.000000,0.000000,0.000000,0.000000,0.000000
cobot_dynamixel_driver/joint_states|name|J1,J2,J3,J4,J5,J6|pos|0.269192,-1.268785,1.296275,-0.001715,-1.438151,-0.000083|vel|0.000000,-0.000000,0.000000,0.000000,0.000000,0.000000|eff|0.000000,0.000000,0.000000,0.000000,0.000000,0.000000
cobot_dynamixel_driver/joint_states|name|J1,J2,J3,J4,J5,J6|pos|0.269192,-1.268785,1.296275,-0.001715,-1.438151,-0.000083|vel|0.000000,-0.000000,0.000000,0.000000,0.000000,0.000000|eff|0.000000,0.000000,0.000000,0.000000,0.000000,0.000000
cobot_dynamixel_driver/joint_states|name|J1,J2,J3,J4,J5,J6|pos|0.269192,-1.268785,1.296275,-0.001715,-1.438151,-0.000083|vel|0.000000,-0.000000,0.000000,0.000000,0.000000,0.000000|eff|0.000000,0.000000,0.000000,0.000000,0.000000,0.000000
cobot_dynamixel_driver/joint_states|name|J1,J2,J3,J4,J5,J6|pos|0.269192,-1.268785,1.296275,-0.001715,-1.438151,-0.000083|vel|0.000000,-0.000000,0.000000,0.000000,0.000000,0.000000|eff|0.000000,0.000000,0.000000,0.000000,0.000000,0.000000
cobot_dynamixel_driver/joint_states|name|J1,J2,J3,J4,J5,J6|pos|0.269192,-1.268785,1.296275,-0.001715,-1.438151,-0.000083|vel|0.000000,-0.000000,0.000000,0.000000,0.000000,0.000000|eff|0.000000,0.000000,0.000000,0.000000,0.000000,0.000000
cobot_dynamixel_driver/joint_states|name|J1,J2,J3,J4,J5,J6|pos|0.269192,-1.268785,1.296275,-0.001715,-1.438151,-0.000083|vel|0.000000,-0.000000,0.000000,0.000000,0.000000,0.000000|eff|0.000000,0.000000,0.000000,0.000000,0.000000,0.000000
cobot_dynamixel_driver/joint_states|name|J1,J2,J3,J4,J5,J6|pos|0.269192,-1.268785,1.296275,-0.001715,-1.438151,-0.000083|vel|0.000000,-0.000000,0.000000,0.000000,0.000000,0.000000|eff|0.000000,0.000000,0.000000,0.000000,0.000000,0.000000
cobot_dynamixel_driver/joint_states|name|J1,J2,J3,J4,J5,J6|pos|0.269192,-1.268785,1.296275,-0.001715,-1.438151,-0.000083|vel|0.000000,-0.000000,0.000000,0.000000,0.000000,0.000000|eff|0.000000,0.000000,0.000000,0.000000,0.000000,0.000000
cobot_dynamixel_driver/joint_states|name|J1,J2,J3,J4,J5,J6|pos|0.269192,-1.268785,1.296275,-0.001715,-1.438151,-0.000083|vel|0.000000,-0.000000,0.000000,0.000000,0.000000,0.000000|eff|0.000000,0.000000,0.000000,0.000000,0.000000,0.000000
cobot_dynamixel_driver/joint_states|name|J1,J2,J3,J4,J5,J6|pos|0.269192,-1.268785,1.296275,-0.001715,-1.438151,-0.000083|vel|0.000000,-0.000000,0.000000,0.000000,0.000000,0.000000|eff|0.000000,0.000000,0.000000,0.000000,0.000000,0.000000
cobot_dynamixel_driver/joint_states|name|J1,J2,J3,J4,J5,J6|pos|0.269192,-1.268785,1.296275,-0.001715,-1.438151,-0.000083|vel|0.000000,-0.000000,0.000000,0.000000,0.000000,0.000000|eff|0.000000,0.000000,0.000000,0.000000,0.000000,0.000000
cobot_dynamixel_driver/joint_states|name|J1,J2,J3,J4,J5,J6|pos|0.269192,-1.268785,1.296275,-0.001715,-1.438151,-0.000083|vel|0.000000,-0.000000,0.000000,0.000000,0.000000,0.000000|eff|0.000000,0.000000,0.000000,0.000000,0.000000,0.000000
cobot_dynamixel_driver/joint_states|name|J1,J2,J3,J4,J5,J6|pos|0.269192,-1.268785,1.296275,-0.001715,-1.438151,-0.000083|vel|0.000000,-0.000000,0.000000,0.000000,0.000000,0.000000|eff|0.000000,0.000000,0.000000,0.000000,0.000000,0.000000
cobot_dynamixel_driver/goal|-:J1,J2,J3,J4,J5,J6:0.000000,0.000000,0.000000,0.000000,0.000000,0.000000:0.700000,0.700000,0.700000,0.700000,0.700000,0.700000:pos_vel_
cobot_dynamixel_driver/joint_states|name|J1,J2,J3,J4,J5,J6|pos|0.269192,-1.268785,1.296275,-0.001715,-1.438151,-0.000083|vel|0.000000,-0.000000,0.000000,0.000000,0.000000,0.000000|eff|0.000000,0.000000,0.000000,0.000000,0.000000,0.000000
cobot_dynamixel_driver/joint_states|name|J1,J2,J3,J4,J5,J6|pos|0.269179,-1.268772,1.296262,-0.001702,-1.438089,-0.000083|vel|0.000000,-0.000000,0.000000,0.000000,0.006894,0.000000|eff|-225.585938,-306.152344,-193.359375,177.246094,88.623047,0.000000
cobot_dynamixel_driver/joint_states|name|J1,J2,J3,J4,J5,J6|pos|0.268779,-1.268297,1.295849,-0.001690,-1.436910,-0.000083|vel|-0.039434,0.046528,-0.043607,0.000000,0.110993,0.000000|eff|-692.871094,-628.417969,-515.625000,145.019531,76.538086,0.000000
cobot_dynamixel_driver/joint_states|name|J1,J2,J3,J4,J5,J6|pos|0.267352,-1.266844,1.294547,-0.001590,-1.433952,-0.000083|vel|-0.113921,0.111209,-0.085545,0.008763,0.205441,0.000000|eff|-1079.589844,-1095.703125,-999.023438,193.359375,124.877930,0.000000
cobot_dynamixel_driver/joint_states|name|J1,J2,J3,J4,J5,J6|pos|0.264397,-1.264166,1.292106,-0.001415,-1.429443,-0.000083|vel|-0.196337,0.170673,-0.140419,0.008555,0.257491,0.000000|eff|-1176.269531,-1740.234375,-1562.988281,128.906250,88.623047,0.000000
cobot_dynamixel_driver/joint_states|name|J1,J2,J3,J4,J5,J6|pos|0.259966,-1.260160,1.288013,-0.001289,-1.423816,-0.000083|vel|-0.275414,0.230555,-0.254340,0.006677,0.312643,0.000000|eff|-1208.496094,-1901.367188,-1579.101562,161.132812,64.453125,0.000000
cobot_dynamixel_driver/joint_states|name|J1,J2,J3,J4,J5,J6|pos|0.254082,-1.254652,1.281991,-0.001152,-1.417218,-0.000083|vel|-0.302120,0.300451,-0.362837,0.005633,0.351594,0.000000|eff|-837.890625,-2078.613281,-1305.175781,193.359375,80.566406,0.000000
cobot_dynamixel_driver/joint_states|name|J1,J2,J3,J4,J5,J6|pos|0.247147,-1.247917,1.274668,-0.001014,-1.409771,-0.000083|vel|-0.396429,0.372017,-0.344058,0.006677,0.421912,0.000000|eff|-1788.574219,-1562.988281,-1111.816406,177.246094,68.481445,0.000000
cobot_dynamixel_driver/joint_states|name|J1,J2,J3,J4,J5,J6|pos|0.239248,-1.240030,1.266494,-0.000914,-1.401559,-0.000083|vel|-0.427726,0.412703,-0.452555,0.004590,0.438458,0.000000|eff|-725.097656,-2368.652344,-1289.062500,193.359375,56.396484,0.000000
cobot_dynamixel_driver/joint_states|name|J1,J2,J3,J4,J5,J6|pos|0.230611,-1.231280,1.257568,-0.000839,-1.392768,-0.000083|vel|-0.437115,0.560008,-0.454641,0.004590,0.481201,0.000000|eff|-1643.554688,-1514.648438,-1401.855469,241.699219,68.481445,0.000000
cobot_dynamixel_driver/joint_states|name|J1,J2,J3,J4,J5,J6|pos|0.221372,-1.221891,1.248167,-0.000751,-1.383314,-0.000083|vel|-0.497205,0.498248,-0.516818,0.003547,0.506019,0.000000|eff|-1369.628906,-1047.363281,-1659.667969,145.019531,56.396484,0.000000
cobot_dynamixel_driver/joint_states|name|J1,J2,J3,J4,J5,J6|pos|0.211520,-1.211864,1.238178,-0.000689,-1.373344,-0.000083|vel|-0.530588,0.530797,-0.469664,0.003130,0.517049,0.000000|eff|-1176.269531,-2578.125000,-1015.136719,225.585938,40.283203,8.056641
cobot_dynamixel_driver/joint_states|name|J1,J2,J3,J4,J5,J6|pos|0.201105,-1.201249,1.227712,-0.000563,-1.363022,-0.000083|vel|-0.530171,0.577117,-0.494701,0.006885,0.566686,0.000000|eff|-1192.382812,-3158.203125,-757.324219,209.472656,64.453125,8.056641
cobot_dynamixel_driver/joint_states|name|J1,J2,J3,J4,J5,J6|pos|0.190340,-1.190321,1.216922,-0.000438,-1.352266,-0.000083|vel|-0.565015,0.553331,-0.567936,0.005633,0.532906,0.000000|eff|-435.058594,-1272.949219,-1659.667969,128.906250,44.311523,8.056641
cobot_dynamixel_driver/joint_states|name|J1,J2,J3,J4,J5,J6|pos|0.179161,-1.178941,1.205705,-0.000363,-1.341240,-0.000083|vel|-0.524746,0.583585,-0.618846,0.003338,0.571167,0.000000|eff|-1063.476562,-741.210938,-982.910156,177.246094,44.311523,8.056641
cobot_dynamixel_driver/joint_states|name|J1,J2,J3,J4,J5,J6|pos|0.167857,-1.167325,1.194364,-0.000288,-1.329863,-0.000083|vel|-0.585880,0.576491,-0.585045,0.003964,0.613565,0.000000|eff|-2030.273438,-1111.816406,-854.003906,145.019531,56.396484,8.056641
cobot_dynamixel_driver/joint_states|name|J1,J2,J3,J4,J5,J6|pos|0.156202,-1.155507,1.182634,-0.000263,-1.318197,-0.000083|vel|-0.623019,0.601111,-0.540812,0.001252,0.684918,0.000000|eff|-451.171875,-2819.824219,-1256.835938,112.792969,32.226562,8.056641
cobot_dynamixel_driver/joint_states|name|J1,J2,J3,J4,J5,J6|pos|0.144135,-1.143490,1.170780,-0.000250,-1.306303,-0.000083|vel|-0.578786,0.624688,-0.596103,0.001252,0.610118,0.000000|eff|-1595.214844,-708.984375,-2545.898438,193.359375,0.000000,8.056641
cobot_dynamixel_driver/joint_states|name|J1,J2,J3,J4,J5,J6|pos|0.131880,-1.131222,1.158712,-0.000225,-1.294305,-0.000083|vel|-0.712320,0.638667,-0.646387,0.000835,0.627353,0.000000|eff|-596.191406,-2094.726562,-1224.609375,145.019531,60.424805,8.056641
cobot_dynamixel_driver/joint_states|name|J1,J2,J3,J4,J5,J6|pos|0.119599,-1.118829,1.146382,-0.000213,-1.282039,-0.000083|vel|-0.562094,0.613421,-0.633243,0.000835,0.561860,0.000000|eff|-128.906250,-2916.503906,-773.437500,193.359375,56.396484,12.084961
cobot_dynamixel_driver/joint_states|name|J1,J2,J3,J4,J5,J6|pos|0.107118,-1.106173,1.133951,-0.000200,-1.269524,-0.000083|vel|-0.588175,0.664957,-0.662453,0.000626,0.646312,0.000000|eff|-386.718750,-1885.253906,-725.097656,161.132812,60.424805,16.113281
cobot_dynamixel_driver/joint_states|name|J1,J2,J3,J4,J5,J6|pos|0.094500,-1.093467,1.121308,-0.000175,-1.256989,-0.000083|vel|-0.660993,0.665166,-0.692081,0.000626,0.724559,0.000000|eff|96.679688,-708.984375,-854.003906,177.246094,8.056641,12.084961
cobot_dynamixel_driver/joint_states|name|J1,J2,J3,J4,J5,J6|pos|0.082382,-1.080536,1.108639,-0.000138,-1.244391,-0.000083|vel|-0.612378,0.725464,-0.674137,0.001669,0.695259,0.000000|eff|-2578.125000,-1740.234375,-1240.722656,177.246094,24.169922,16.113281
cobot_dynamixel_driver/joint_states|name|J1,J2,J3,J4,J5,J6|pos|0.071354,-1.067617,1.095645,-0.000100,-1.231732,-0.000083|vel|-0.506177,0.665374,-0.688325,0.002086,0.583577,0.000000|eff|273.925781,-2223.632812,-1498.535156,128.906250,28.198242,8.056641
cobot_dynamixel_driver/joint_states|name|J1,J2,J3,J4,J5,J6|pos|0.061602,-1.054736,1.082626,-0.000100,-1.218948,-0.000083|vel|-0.454015,0.696671,-0.667669,0.002086,0.735934,0.000000|eff|-708.984375,-483.398438,-757.324219,145.019531,28.198242,16.113281
cobot_dynamixel_driver/joint_states|name|J1,J2,J3,J4,J5,J6|pos|0.053365,-1.041591,1.069645,-0.000088,-1.205999,-0.000083|vel|-0.392047,0.668504,-0.666417,0.002086,0.704911,0.000000|eff|-386.718750,-1498.535156,-1998.046875,177.246094,12.084961,16.113281
cobot_dynamixel_driver/joint_states|name|J1,J2,J3,J4,J5,J6|pos|0.046530,-1.028485,1.056601,-0.000088,-1.193071,-0.000062|vel|-0.350109,0.690412,-0.668087,0.002086,0.768336,0.000000|eff|-48.339844,-1192.382812,-741.210938,128.906250,24.169922,16.113281
cobot_dynamixel_driver/joint_states|name|J1,J2,J3,J4,J5,J6|pos|0.040421,-1.015353,1.043619,-0.000088,-1.180143,-0.000062|vel|-0.302746,0.671425,-0.682066,0.002086,0.668717,0.000000|eff|-789.550781,-1482.421875,-2239.746094,112.792969,76.538086,16.113281
cobot_dynamixel_driver/joint_states|name|J1,J2,J3,J4,J5,J6|pos|0.035026,-1.002071,1.030350,-0.000088,-1.167090,-0.000062|vel|-0.264564,0.664540,-0.681857,0.002086,0.712494,0.000000|eff|-48.339844,-547.851562,-1111.816406,145.019531,44.311523,20.141602
cobot_dynamixel_driver/joint_states|name|J1,J2,J3,J4,J5,J6|pos|0.030357,-0.988852,1.017206,-0.000088,-1.154038,-0.000062|vel|-0.217618,0.712946,-0.700427,0.000000,0.665270,0.000000|eff|-225.585938,-1256.835938,-757.324219,112.792969,-8.056641,16.113281
cobot_dynamixel_driver/joint_states|name|J1,J2,J3,J4,J5,J6|pos|0.026413,-0.975420,1.004024,-0.000088,-1.140882,-0.000041|vel|-0.193624,0.703348,-0.669964,0.000000,0.672854,0.000000|eff|-193.359375,-580.078125,-1160.156250,112.792969,72.509766,20.141602
cobot_dynamixel_driver/joint_states|name|J1,J2,J3,J4,J5,J6|pos|0.023034,-0.962101,0.990767,-0.000088,-1.127374,0.000000|vel|-0.161701,0.668295,-0.716910,0.000000,0.736278,0.000345|eff|-273.925781,-1111.816406,-1401.855469,128.906250,-8.056641,20.141602
cobot_dynamixel_driver/joint_states|name|J1,J2,J3,J4,J5,J6|pos|0.020067,-0.948744,0.977385,-0.000088,-1.114032,0.000041|vel|-0.134160,0.667669,-0.600276,0.000000,0.681127,0.002068|eff|-209.472656,-2755.371094,-660.644531,193.359375,0.000000,12.084961
cobot_dynamixel_driver/joint_states|name|J1,J2,J3,J4,J5,J6|pos|0.017488,-0.935575,0.963966,-0.000088,-1.100731,0.000041|vel|-0.123310,0.663496,-0.697714,0.000000,0.714562,0.002068|eff|-290.039062,-1579.101562,-547.851562,128.906250,-20.141602,12.084961
cobot_dynamixel_driver/joint_states|name|J1,J2,J3,J4,J5,J6|pos|0.015247,-0.922130,0.950546,-0.000088,-1.087327,0.000041|vel|-0.112252,0.704391,-0.683735,0.000000,0.688365,0.002068|eff|-273.925781,-725.097656,-1095.703125,112.792969,32.226562,0.000000
cobot_dynamixel_driver/joint_states|name|J1,J2,J3,J4,J5,J6|pos|0.013232,-0.908773,0.937265,-0.000088,-1.074233,0.000041|vel|-0.098690,0.677684,-0.700218,0.000000,0.685608,0.002068|eff|-193.359375,-306.152344,-2014.160156,112.792969,60.424805,0.000000
cobot_dynamixel_driver/joint_states|name|J1,J2,J3,J4,J5,J6|pos|0.011504,-0.895291,0.923908,-0.000088,-1.060705,0.000041|vel|-0.082415,0.727342,-0.727551,0.000000,0.762131,0.002068|eff|-241.699219,-306.152344,-1272.949219,145.019531,24.169922,0.000000
cobot_dynamixel_driver/joint_states|name|J1,J2,J3,J4,J5,J6|pos|0.010052,-0.881734,0.910501,-0.000088,-1.047239,0.000041|vel|-0.066350,0.720666,-0.681231,0.000000,0.604948,0.002068|eff|-290.039062,-306.152344,-966.796875,112.792969,0.000000,-16.113281
cobot_dynamixel_driver/joint_states|name|J1,J2,J3,J4,J5,J6|pos|0.008863,-0.868202,0.897069,-0.000088,-1.033835,0.000041|vel|-0.058630,0.695837,-0.721709,0.000000,0.676990,0.000000|eff|-241.699219,-596.191406,-773.437500,112.792969,36.254883,-16.113281
cobot_dynamixel_driver/joint_states|name|J1,J2,J3,J4,J5,J6|pos|0.007686,-0.854669,0.883511,-0.000088,-1.020617,0.000041|vel|-0.059464,0.705852,-0.744451,0.000000,0.643210,0.000000|eff|-112.792969,-547.851562,-660.644531,128.906250,76.538086,0.000000
cobot_dynamixel_driver/joint_states|name|J1,J2,J3,J4,J5,J6|pos|0.006635,-0.841137,0.869917,-0.000088,-1.007358,0.000041|vel|-0.049032,0.739026,-0.674137,0.000000,0.683884,0.000000|eff|-112.792969,-580.078125,-773.437500,128.906250,60.424805,-16.113281
cobot_dynamixel_driver/joint_states|name|J1,J2,J3,J4,J5,J6|pos|0.005783,-0.827517,0.856585,-0.000075,-0.993871,0.000041|vel|-0.038391,0.702096,-0.664748,0.000000,0.757995,0.000000|eff|-241.699219,-483.398438,-660.644531,177.246094,-24.169922,-12.084961
cobot_dynamixel_driver/joint_states|name|J1,J2,J3,J4,J5,J6|pos|0.005107,-0.813985,0.843065,-0.000075,-0.980818,0.000041|vel|-0.032549,0.694585,-0.644301,0.000000,0.677680,0.000000|eff|-225.585938,-225.585938,-773.437500,193.359375,0.000000,0.000000
cobot_dynamixel_driver/joint_states|name|J1,J2,J3,J4,J5,J6|pos|0.004469,-0.800703,0.829420,-0.000063,-0.967538,0.000041|vel|-0.030671,0.683526,-0.841681,0.000000,0.722835,0.000000|eff|-241.699219,-3335.449219,-418.945312,112.792969,28.198242,0.000000
cobot_dynamixel_driver/joint_states|name|J1,J2,J3,J4,J5,J6|pos|0.003856,-0.787284,0.815900,-0.000063,-0.953803,0.000041|vel|-0.030045,0.637833,-0.765316,0.000000,0.685608,0.000000|eff|-112.792969,-2255.859375,-499.511719,193.359375,24.169922,-12.084961
cobot_dynamixel_driver/joint_states|name|J1,J2,J3,J4,J5,J6|pos|0.003380,-0.773789,0.802293,-0.000063,-0.940461,0.000041|vel|-0.022325,0.726925,-0.715241,0.000209,0.608050,0.000000|eff|-193.359375,-1869.140625,-692.871094,145.019531,72.509766,0.000000
cobot_dynamixel_driver/joint_states|name|J1,J2,J3,J4,J5,J6|pos|0.002929,-0.760119,0.788773,-0.000063,-0.926953,0.000041|vel|-0.022117,0.688117,-0.702931,0.000209,0.686297,0.000000|eff|-193.359375,-2433.105469,-934.570312,193.359375,12.084961,-16.113281
cobot_dynamixel_driver/joint_states|name|J1,J2,J3,J4,J5,J6|pos|0.002541,-0.746549,0.775141,-0.000063,-0.913404,0.000041|vel|-0.017735,0.693959,-0.639502,0.000209,0.725937,0.000000|eff|-161.132812,-2835.937500,-531.738281,145.019531,-8.056641,-12.084961
cobot_dynamixel_driver/joint_states|name|J1,J2,J3,J4,J5,J6|pos|0.002228,-0.732992,0.761759,-0.000050,-0.899918,0.000041|vel|-0.016483,0.731098,-0.674346,0.000209,0.584266,0.000000|eff|-161.132812,-2562.011719,-1337.402344,145.019531,40.283203,0.000000
cobot_dynamixel_driver/joint_states|name|J1,J2,J3,J4,J5,J6|pos|0.001890,-0.719447,0.748227,-0.000050,-0.886555,0.000041|vel|-0.016900,0.729637,-0.680397,0.000209,0.668717,0.000000|eff|-80.566406,-2948.730469,-1772.460938,209.472656,60.424805,-16.113281
cobot_dynamixel_driver/joint_states|name|J1,J2,J3,J4,J5,J6|pos|0.001627,-0.705753,0.734657,-0.000050,-0.873047,0.000041|vel|-0.010224,0.678310,-0.707104,0.000209,0.793499,0.000000|eff|-80.566406,-837.890625,-1144.042969,177.246094,-40.283203,0.000000
cobot_dynamixel_driver/joint_states|name|J1,J2,J3,J4,J5,J6|pos|0.001452,-0.692120,0.720950,-0.000050,-0.860016,0.000041|vel|-0.008763,0.672051,-0.714406,0.000000,0.642175,0.000000|eff|-145.019531,-2642.578125,-660.644531,128.906250,24.169922,0.000000
cobot_dynamixel_driver/joint_states|name|J1,J2,J3,J4,J5,J6|pos|0.001264,-0.678538,0.707317,-0.000038,-0.846673,0.000041|vel|-0.009180,0.707521,-0.722543,0.000000,0.691812,0.000000|eff|-225.585938,-1756.347656,-563.964844,145.019531,48.339844,0.000000
cobot_dynamixel_driver/joint_states|name|J1,J2,J3,J4,J5,J6|pos|0.001089,-0.664931,0.693710,-0.000025,-0.833207,0.000041|vel|-0.007929,0.705226,-0.740278,0.000000,0.695949,0.000000|eff|-257.812500,-1675.781250,-531.738281,209.472656,68.481445,0.000000
cobot_dynamixel_driver/joint_states|name|J1,J2,J3,J4,J5,J6|pos|0.000964,-0.651499,0.680153,-0.000013,-0.819638,0.000041|vel|-0.005425,0.708355,-0.740696,0.000626,0.630456,0.000000|eff|-161.132812,-3061.523438,-596.191406,209.472656,68.481445,-12.084961
cobot_dynamixel_driver/joint_states|name|J1,J2,J3,J4,J5,J6|pos|0.000826,-0.637841,0.666633,0.000000,-0.806089,0.000041|vel|-0.007094,0.737149,-0.723587,0.000626,0.712839,0.000000|eff|-96.679688,-1708.007812,-563.964844,145.019531,84.594727,-16.113281
cobot_dynamixel_driver/joint_states|name|J1,J2,J3,J4,J5,J6|pos|0.000714,-0.624409,0.652988,0.000000,-0.792581,0.000041|vel|-0.005425,0.668295,-0.696880,0.000626,0.759029,0.000000|eff|-161.132812,-676.757812,-547.851562,128.906250,-8.056641,0.000000
cobot_dynamixel_driver/joint_states|name|J1,J2,J3,J4,J5,J6|pos|0.000626,-0.611015,0.639544,0.000000,-0.779115,0.000041|vel|-0.003756,0.671008,-0.693333,0.000626,0.575304,0.000000|eff|-128.906250,-2094.726562,-741.210938,209.472656,112.792969,-12.084961
cobot_dynamixel_driver/joint_states|name|J1,J2,J3,J4,J5,J6|pos|0.000551,-0.597457,0.625949,0.000013,-0.765587,0.000041|vel|-0.004173,0.681440,-0.709399,0.000626,0.689055,0.000000|eff|-241.699219,-2014.160156,-435.058594,145.019531,60.424805,-12.084961
cobot_dynamixel_driver/joint_states|name|J1,J2,J3,J4,J5,J6|pos|0.000488,-0.583863,0.612617,0.000013,-0.752100,0.000041|vel|-0.003130,0.677684,-0.743199,0.000626,0.706290,0.000000|eff|-80.566406,-2336.425781,-1272.949219,193.359375,20.141602,0.000000
cobot_dynamixel_driver/joint_states|name|J1,J2,J3,J4,J5,J6|pos|0.000426,-0.570118,0.598922,0.000013,-0.738944,0.000041|vel|-0.003130,0.721083,-0.707938,0.000000,0.712494,0.000000|eff|-161.132812,-2948.730469,-676.757812,177.246094,108.764648,0.000000
cobot_dynamixel_driver/joint_states|name|J1,J2,J3,J4,J5,J6|pos|0.000376,-0.556423,0.585265,0.000013,-0.725333,0.000041|vel|-0.002504,0.712320,-0.718996,0.000000,0.589436,0.000000|eff|-209.472656,-950.683594,-692.871094,128.906250,84.594727,0.000000
cobot_dynamixel_driver/joint_states|name|J1,J2,J3,J4,J5,J6|pos|0.000313,-0.542878,0.571632,0.000013,-0.711825,0.000041|vel|-0.002921,0.690620,-0.725673,0.000000,0.677335,0.000000|eff|-273.925781,-1643.554688,-708.984375,209.472656,32.226562,0.000000
cobot_dynamixel_driver/joint_states|name|J1,J2,J3,J4,J5,J6|pos|0.000263,-0.529358,0.558062,0.000013,-0.698339,0.000041|vel|-0.002504,0.669130,-0.734436,0.000000,0.693880,0.000000|eff|-145.019531,-2320.312500,-725.097656,112.792969,68.481445,0.000000
cobot_dynamixel_driver/joint_states|name|J1,J2,J3,J4,J5,J6|pos|0.000200,-0.515751,0.544493,0.000013,-0.684934,0.000041|vel|-0.002712,0.742573,-0.731515,0.000000,0.731108,0.000000|eff|-161.132812,-1047.363281,-628.417969,209.472656,108.764648,-16.113281
cobot_dynamixel_driver/joint_states|name|J1,J2,J3,J4,J5,J6|pos|0.000175,-0.502219,0.530898,0.000013,-0.671468,0.000041|vel|-0.001461,0.751545,-0.718788,0.000000,0.709047,0.000000|eff|-145.019531,-1595.214844,-692.871094,112.792969,0.000000,-12.084961
cobot_dynamixel_driver/joint_states|name|J1,J2,J3,J4,J5,J6|pos|0.000138,-0.488887,0.517391,0.000013,-0.658354,0.000041|vel|-0.001669,0.711485,-0.716910,0.000000,0.595641,0.000000|eff|-241.699219,-2255.859375,-612.304688,161.132812,108.764648,-12.084961
cobot_dynamixel_driver/joint_states|name|J1,J2,J3,J4,J5,J6|pos|0.000100,-0.475430,0.503796,0.000013,-0.644722,0.000041|vel|-0.002086,0.667878,-0.708564,0.000000,0.769025,0.000000|eff|-241.699219,-1981.933594,-580.078125,112.792969,64.453125,0.000000
cobot_dynamixel_driver/joint_states|name|J1,J2,J3,J4,J5,J6|pos|0.000075,-0.461760,0.490464,0.000013,-0.631235,0.000041|vel|-0.001878,0.669547,-0.734228,0.000000,0.692846,0.000000|eff|-161.132812,-2223.632812,-1095.703125,193.359375,-28.198242,0.000000
cobot_dynamixel_driver/joint_states|name|J1,J2,J3,J4,J5,J6|pos|0.000063,-0.448040,0.476819,0.000013,-0.618121,0.000041|vel|-0.001878,0.693124,-0.710233,0.000000,0.685263,0.000000|eff|-145.019531,-2255.859375,-757.324219,112.792969,124.877930,-12.084961
cobot_dynamixel_driver/joint_states|name|J1,J2,J3,J4,J5,J6|pos|0.000063,-0.434395,0.463162,0.000013,-0.604551,0.000041|vel|-0.001878,0.644510,-0.657863,0.000000,0.569099,0.000000|eff|-161.132812,-1095.703125,-483.398438,161.132812,56.396484,0.000000
cobot_dynamixel_driver/joint_states|name|J1,J2,J3,J4,J5,J6|pos|0.000063,-0.420850,0.449517,0.000013,-0.591023,0.000041|vel|-0.001878,0.743199,-0.675389,0.000000,0.693880,0.000000|eff|-80.566406,-1804.687500,-644.531250,145.019531,0.000000,0.000000
cobot_dynamixel_driver/joint_states|name|J1,J2,J3,J4,J5,J6|pos|0.000063,-0.407368,0.435797,0.000013,-0.577515,0.000041|vel|-0.001878,0.706060,-0.639085,0.000000,0.698706,0.000000|eff|0.000000,-2416.992188,-1111.816406,145.019531,56.396484,-12.084961
cobot_dynamixel_driver/joint_states|name|J1,J2,J3,J4,J5,J6|pos|0.000063,-0.393761,0.422252,0.000013,-0.563966,0.000041|vel|-0.001878,0.725047,-0.711902,0.000000,0.629422,0.000000|eff|-145.019531,-1144.042969,-1127.929688,112.792969,52.368164,0.000000
cobot_dynamixel_driver/joint_states|name|J1,J2,J3,J4,J5,J6|pos|0.000063,-0.380166,0.408733,0.000013,-0.550541,0.000041|vel|0.000000,0.711902,-0.710233,0.000000,0.711115,0.000000|eff|-161.132812,-1466.308594,-1095.703125,145.019531,84.594727,0.000000
cobot_dynamixel_driver/joint_states|name|J1,J2,J3,J4,J5,J6|pos|0.000063,-0.366659,0.395188,0.000013,-0.536972,0.000041|vel|0.000000,0.665583,-0.719414,0.000000,0.774540,0.000000|eff|-80.566406,-2255.859375,-1079.589844,145.019531,48.339844,0.000000
cobot_dynamixel_driver/joint_states|name|J1,J2,J3,J4,J5,J6|pos|0.000063,-0.353152,0.381543,0.000013,-0.523444,0.000041|vel|0.000000,0.687908,-0.633660,0.000000,0.592883,0.000000|eff|-161.132812,-1853.027344,-1095.703125,112.792969,44.311523,-12.084961
cobot_dynamixel_driver/joint_states|name|J1,J2,J3,J4,J5,J6|pos|0.000063,-0.339544,0.368048,0.000013,-0.509977,0.000041|vel|0.000000,0.711068,-0.680188,0.000000,0.702843,0.000000|eff|-80.566406,-1724.121094,-982.910156,112.792969,16.113281,0.000000
cobot_dynamixel_driver/joint_states|name|J1,J2,J3,J4,J5,J6|pos|0.000050,-0.325925,0.354491,0.000013,-0.496511,0.000041|vel|0.000000,0.691872,-0.610500,0.000000,0.688021,0.000000|eff|-145.019531,-2014.160156,-1063.476562,112.792969,32.226562,-12.084961
cobot_dynamixel_driver/joint_states|name|J1,J2,J3,J4,J5,J6|pos|0.000038,-0.312405,0.340859,0.000013,-0.482962,0.000041|vel|0.000000,0.733602,-0.649726,0.000000,0.594952,0.000000|eff|-112.792969,-1562.988281,-999.023438,193.359375,12.084961,0.000000
cobot_dynamixel_driver/joint_states|name|J1,J2,J3,J4,J5,J6|pos|0.000038,-0.298798,0.327239,0.000013,-0.469517,0.000041|vel|0.000000,0.727551,-0.732141,0.000000,0.680437,0.000000|eff|-80.566406,-1643.554688,-1321.289062,145.019531,68.481445,0.000000
cobot_dynamixel_driver/joint_states|name|J1,J2,J3,J4,J5,J6|pos|0.000038,-0.285215,0.313519,0.000013,-0.455968,0.000041|vel|0.000000,0.703765,-0.713989,0.000000,0.674233,0.000000|eff|-161.132812,-1417.968750,-1981.933594,177.246094,36.254883,-12.084961
cobot_dynamixel_driver/joint_states|name|J1,J2,J3,J4,J5,J6|pos|0.000025,-0.271633,0.299949,0.000013,-0.442543,0.000041|vel|0.000000,0.664540,-0.706895,0.000000,0.677335,0.000000|eff|0.000000,-628.417969,-1562.988281,112.792969,100.708008,-16.113281
cobot_dynamixel_driver/joint_states|name|J1,J2,J3,J4,J5,J6|pos|0.000025,-0.258038,0.286455,0.000013,-0.429036,0.000041|vel|0.000000,0.735062,-0.744660,0.000000,0.729729,0.000000|eff|-161.132812,-644.531250,-1530.761719,209.472656,44.311523,0.000000
cobot_dynamixel_driver/joint_states|name|J1,J2,J3,J4,J5,J6|pos|0.000013,-0.244468,0.272872,0.000013,-0.415611,0.000041|vel|-0.000209,0.677684,-0.710859,0.000000,0.691468,0.000000|eff|-145.019531,290.039062,-1659.667969,145.019531,8.056641,0.000000
cobot_dynamixel_driver/joint_states|name|J1,J2,J3,J4,J5,J6|pos|0.000013,-0.230899,0.259240,0.000013,-0.402538,0.000041|vel|-0.000209,0.706060,-0.696045,0.000000,0.670096,0.000000|eff|-80.566406,-225.585938,-1853.027344,112.792969,116.821289,-16.113281
cobot_dynamixel_driver/joint_states|name|J1,J2,J3,J4,J5,J6|pos|0.000013,-0.217241,0.246021,0.000013,-0.388906,0.000041|vel|-0.000209,0.700427,-0.733810,0.000000,0.680782,0.000000|eff|-161.132812,386.718750,-1111.816406,193.359375,116.821289,0.000000
cobot_dynamixel_driver/joint_states|name|J1,J2,J3,J4,J5,J6|pos|0.000013,-0.203697,0.232488,0.000013,-0.375709,0.000041|vel|-0.000209,0.729846,-0.712111,0.000000,0.664926,0.000000|eff|-161.132812,499.511719,-999.023438,128.906250,145.019531,-16.113281
cobot_dynamixel_driver/joint_states|name|J1,J2,J3,J4,J5,J6|pos|0.000000,-0.190202,0.218856,0.000013,-0.362201,0.000041|vel|-0.000209,0.723169,-0.671216,0.000000,0.676645,0.000000|eff|-80.566406,-596.191406,-1063.476562,193.359375,76.538086,0.000000
cobot_dynamixel_driver/joint_states|name|J1,J2,J3,J4,J5,J6|pos|0.000000,-0.176670,0.205086,0.000013,-0.348652,0.000041|vel|-0.000209,0.731724,-0.724004,0.000000,0.697327,0.000000|eff|-145.019531,-531.738281,-1708.007812,128.906250,44.311523,0.000000
cobot_dynamixel_driver/joint_states|name|J1,J2,J3,J4,J5,J6|pos|-0.000013,-0.163037,0.191454,0.000013,-0.335207,0.000041|vel|-0.000209,0.711902,-0.709816,0.000000,0.742483,0.000000|eff|-112.792969,32.226562,-1691.894531,112.792969,36.254883,-12.084961
cobot_dynamixel_driver/joint_states|name|J1,J2,J3,J4,J5,J6|pos|-0.000013,-0.149367,0.177922,0.000013,-0.321803,0.000041|vel|-0.000209,0.719831,-0.683526,0.000000,0.737657,0.000000|eff|-177.246094,628.417969,-1724.121094,112.792969,52.368164,0.000000
cobot_dynamixel_driver/joint_states|name|J1,J2,J3,J4,J5,J6|pos|-0.000013,-0.135785,0.164352,0.000013,-0.308274,0.000041|vel|-0.000209,0.669547,-0.682900,0.000000,0.629422,0.000000|eff|-145.019531,580.078125,-1804.687500,145.019531,80.566406,0.000000
cobot_dynamixel_driver/joint_states|name|J1,J2,J3,J4,J5,J6|pos|-0.000025,-0.122203,0.150945,0.000013,-0.294725,0.000041|vel|-0.000209,0.707729,-0.693333,0.000000,0.782124,0.000000|eff|0.000000,660.644531,-1289.062500,112.792969,96.679688,0.000000
cobot_dynamixel_driver/joint_states|name|J1,J2,J3,J4,J5,J6|pos|-0.000025,-0.108621,0.137600,0.000013,-0.281549,0.000041|vel|-0.000209,0.698966,-0.698340,0.000000,0.669751,0.000000|eff|-128.906250,644.531250,-773.437500,128.906250,132.934570,0.000000
cobot_dynamixel_driver/joint_states|name|J1,J2,J3,J4,J5,J6|pos|-0.000025,-0.095226,0.124281,0.000013,-0.268041,0.000041|vel|0.000000,0.669130,-0.632199,0.000000,0.782468,0.000000|eff|-177.246094,934.570312,-676.757812,193.359375,56.396484,0.000000
cobot_dynamixel_driver/joint_states|name|J1,J2,J3,J4,J5,J6|pos|-0.000025,-0.082595,0.110786,0.000013,-0.254492,0.000041|vel|0.000000,0.616342,-0.599442,0.000000,0.627009,0.000000|eff|0.000000,1256.835938,-918.457031,112.792969,80.566406,0.000000
cobot_dynamixel_driver/joint_states|name|J1,J2,J3,J4,J5,J6|pos|-0.000025,-0.071416,0.097267,0.000013,-0.241026,0.000041|vel|0.000000,0.538934,-0.621976,0.000000,0.701464,0.000000|eff|-177.246094,96.679688,-966.796875,112.792969,36.254883,0.000000
cobot_dynamixel_driver/joint_states|name|J1,J2,J3,J4,J5,J6|pos|-0.000025,-0.061853,0.084573,0.000013,-0.227498,0.000041|vel|0.000000,0.399767,-0.566684,0.000000,0.785226,0.000000|eff|-80.566406,1192.382812,-241.699219,193.359375,40.283203,-16.113281
cobot_dynamixel_driver/joint_states|name|J1,J2,J3,J4,J5,J6|pos|-0.000038,-0.053653,0.073319,0.000013,-0.214032,0.000041|vel|0.000000,0.395594,-0.552914,0.000000,0.593228,0.000000|eff|-32.226562,612.304688,-934.570312,112.792969,72.509766,-12.084961
cobot_dynamixel_driver/joint_states|name|J1,J2,J3,J4,J5,J6|pos|-0.000038,-0.046680,0.063830,0.000013,-0.200483,0.000041|vel|0.000000,0.332583,-0.429395,0.000000,0.691812,0.000000|eff|-80.566406,-96.679688,-999.023438,112.792969,64.453125,0.000000
cobot_dynamixel_driver/joint_states|name|J1,J2,J3,J4,J5,J6|pos|-0.000038,-0.040672,0.055781,0.000013,-0.187141,0.000041|vel|0.000000,0.284385,-0.393090,0.000000,0.763165,0.000000|eff|-177.246094,161.132812,-934.570312,161.132812,0.000000,0.000000
cobot_dynamixel_driver/joint_states|name|J1,J2,J3,J4,J5,J6|pos|-0.000038,-0.035414,0.048809,0.000013,-0.174026,0.000041|vel|0.000000,0.248707,-0.341555,0.000000,0.697672,0.000000|eff|-80.566406,402.832031,-644.531250,112.792969,92.651367,-12.084961
cobot_dynamixel_driver/joint_states|name|J1,J2,J3,J4,J5,J6|pos|-0.000038,-0.030895,0.042650,0.000013,-0.160498,0.000041|vel|0.000000,0.221583,-0.303998,0.000000,0.706634,0.000000|eff|-80.566406,80.566406,-563.964844,112.792969,88.623047,0.000000
cobot_dynamixel_driver/joint_states|name|J1,J2,J3,J4,J5,J6|pos|-0.000038,-0.026964,0.037317,0.000013,-0.146866,0.000041|vel|0.000000,0.194876,-0.253923,0.000000,0.741104,0.000000|eff|-112.792969,193.359375,-725.097656,112.792969,72.509766,0.000000
cobot_dynamixel_driver/joint_states|name|J1,J2,J3,J4,J5,J6|pos|-0.000038,-0.023547,0.032685,0.000013,-0.133338,0.000041|vel|0.000000,0.161493,-0.234310,0.000000,0.800393,0.000000|eff|-80.566406,96.679688,-837.890625,209.472656,60.424805,0.000000
cobot_dynamixel_driver/joint_states|name|J1,J2,J3,J4,J5,J6|pos|-0.000038,-0.020618,0.028542,0.000013,-0.119789,0.000041|vel|0.000000,0.131656,-0.204265,0.000000,0.681816,0.000000|eff|-161.132812,145.019531,-773.437500,112.792969,80.566406,-16.113281
cobot_dynamixel_driver/joint_states|name|J1,J2,J3,J4,J5,J6|pos|-0.000038,-0.018126,0.024899,0.000013,-0.106550,0.000041|vel|0.000000,0.122684,-0.177350,0.000000,0.653551,0.000000|eff|-112.792969,241.699219,-708.984375,112.792969,40.283203,-12.084961
cobot_dynamixel_driver/joint_states|name|J1,J2,J3,J4,J5,J6|pos|-0.000038,-0.015923,0.021794,0.000013,-0.093291,0.000041|vel|0.000000,0.106827,-0.155024,0.000000,0.668028,0.000000|eff|-80.566406,209.472656,-741.210938,177.246094,28.198242,0.000000
cobot_dynamixel_driver/joint_states|name|J1,J2,J3,J4,J5,J6|pos|-0.000038,-0.013895,0.019178,0.000013,-0.080963,0.000041|vel|0.000000,0.098690,-0.130821,0.000000,0.601846,0.000000|eff|-177.246094,241.699219,-854.003906,161.132812,-68.481445,0.000000
cobot_dynamixel_driver/joint_states|name|J1,J2,J3,J4,J5,J6|pos|-0.000038,-0.012118,0.016824,0.000013,-0.070744,0.000041|vel|0.000000,0.084711,-0.117468,0.000000,0.515326,0.000000|eff|-177.246094,193.359375,-854.003906,112.792969,12.084961,0.000000
cobot_dynamixel_driver/joint_states|name|J1,J2,J3,J4,J5,J6|pos|-0.000038,-0.010653,0.014772,0.000013,-0.061870,0.000041|vel|0.000000,0.066141,-0.101820,0.000000,0.420189,0.000000|eff|-161.132812,177.246094,-870.117188,193.359375,20.141602,0.000000
cobot_dynamixel_driver/joint_states|name|J1,J2,J3,J4,J5,J6|pos|-0.000038,-0.009389,0.012944,0.000013,-0.054113,0.000041|vel|0.000000,0.060299,-0.090553,0.000000,0.360556,0.000000|eff|-80.566406,128.906250,-837.890625,177.246094,8.056641,-12.084961
cobot_dynamixel_driver/joint_states|name|J1,J2,J3,J4,J5,J6|pos|-0.000038,-0.008250,0.011254,0.000013,-0.047411,0.000041|vel|0.000000,0.051118,-0.079912,0.000000,0.307472,0.000000|eff|-145.019531,177.246094,-821.777344,161.132812,32.226562,0.000000
cobot_dynamixel_driver/joint_states|name|J1,J2,J3,J4,J5,J6|pos|-0.000038,-0.007210,0.009877,0.000013,-0.041598,0.000041|vel|0.000000,0.052579,-0.066558,0.000000,0.260593,0.000000|eff|-112.792969,193.359375,-870.117188,112.792969,40.283203,-16.113281
cobot_dynamixel_driver/joint_states|name|J1,J2,J3,J4,J5,J6|pos|-0.000038,-0.006247,0.008763,0.000013,-0.036427,0.000041|vel|0.000000,0.044024,-0.054874,0.000000,0.274726,0.000000|eff|-32.226562,225.585938,-934.570312,112.792969,24.169922,-12.084961
cobot_dynamixel_driver/joint_states|name|J1,J2,J3,J4,J5,J6|pos|-0.000038,-0.005433,0.007774,0.000013,-0.031918,0.000041|vel|0.000000,0.037974,-0.051536,0.000000,0.196134,0.000000|eff|-177.246094,241.699219,-918.457031,177.246094,36.254883,0.000000
cobot_dynamixel_driver/joint_states|name|J1,J2,J3,J4,J5,J6|pos|-0.000038,-0.004807,0.006772,0.000013,-0.027967,0.000041|vel|0.000000,0.030254,-0.049032,0.000000,0.193377,0.000000|eff|-145.019531,80.566406,-950.683594,128.906250,40.283203,0.000000
cobot_dynamixel_driver/joint_states|name|J1,J2,J3,J4,J5,J6|pos|-0.000038,-0.004256,0.005884,0.000013,-0.024491,0.000041|vel|0.000000,0.021699,-0.039434,0.000000,0.165456,0.000000|eff|0.000000,145.019531,-902.343750,128.906250,36.254883,0.000000
cobot_dynamixel_driver/joint_states|name|J1,J2,J3,J4,J5,J6|pos|-0.000038,-0.003768,0.005095,0.000013,-0.021492,0.000041|vel|0.000000,0.022325,-0.032549,0.000000,0.165111,0.000000|eff|-161.132812,112.792969,-870.117188,112.792969,60.424805,0.000000
cobot_dynamixel_driver/joint_states|name|J1,J2,J3,J4,J5,J6|pos|-0.000038,-0.003267,0.004456,0.000013,-0.018844,0.000041|vel|0.000000,0.023786,-0.034009,0.000000,0.137880,0.000000|eff|-161.132812,257.812500,-854.003906,145.019531,60.424805,-16.113281
