surachairobotic/cobot/cobot_dynamixel_driver/log/2018-12-20T08:54:05.325803_driver_log.txt
cobot_dynamixel_driver/goal|-:J1,J2,J3,J4,J5,J6:0.000000,0.000000,0.000000,0.000000,0.000000,0.000000:0.250000,0.250000,0.250000,0.250000,0.250000,0.250000:pos_vel_
cobot_dynamixel_driver/goal|-:J1,J2,J3,J4,J5,J6:0.000000,0.000000,0.000000,0.000000,0.000000,0.000000:0.250000,0.250000,0.250000,0.250000,0.250000,0.250000:pos_vel_
cobot_dynamixel_driver/goal|-:J1,J2,J3,J4,J5,J6:0.000000,0.000000,0.000000,0.000000,0.000000,0.000000:0.250000,0.250000,0.250000,0.250000,0.250000,0.250000:pos_vel_
cobot_dynamixel_driver/goal|-:J1,J2,J3,J4,J5,J6:0.000000,0.000000,0.000000,0.000000,0.000000,0.000000:0.250000,0.250000,0.250000,0.250000,0.250000,0.250000:pos_vel_
cobot_dynamixel_driver/goal|-:J1,J2,J3,J4,J5,J6:0.000000,0.000000,0.000000,0.000000,0.000000,0.000000:0.250000,0.250000,0.250000,0.250000,0.250000,0.250000:pos_vel_
cobot_dynamixel_driver/goal|-:J1,J2,J3,J4,J5,J6:0.000000,0.000000,0.000000,0.000000,0.000000,0.000000:0.250000,0.250000,0.250000,0.250000,0.250000,0.250000:pos_vel_
cobot_dynamixel_driver/goal|-:J1,J2,J3,J4,J5,J6:0.000000,0.000000,0.000000,0.000000,0.000000,0.000000:0.250000,0.250000,0.250000,0.250000,0.250000,0.250000:pos_vel_
cobot_dynamixel_driver/goal|-:J1,J2,J3,J4,J5,J6:0.000000,0.000000,0.000000,0.000000,0.000000,0.000000:0.250000,0.250000,0.250000,0.250000,0.250000,0.250000:pos_vel_
cobot_dynamixel_driver/goal|-:J1,J2,J3,J4,J5,J6:0.000000,0.000000,0.000000,0.000000,0.000000,0.000000:0.250000,0.250000,0.250000,0.250000,0.250000,0.250000:pos_vel_
cobot_dynamixel_driver/goal|-:J1,J2,J3,J4,J5,J6:0.000000,0.000000,0.000000,0.000000,0.000000,0.000000:0.250000,0.250000,0.250000,0.250000,0.250000,0.250000:pos_vel_
cobot_dynamixel_driver/goal|-:J1,J2,J3,J4,J5,J6:0.000000,0.000000,0.000000,0.000000,0.000000,0.000000:0.250000,0.250000,0.250000,0.250000,0.250000,0.250000:pos_vel_
cobot_dynamixel_driver/goal|-:J1,J2,J3,J4,J5,J6:0.000000,0.000000,0.000000,0.000000,0.000000,0.000000:0.250000,0.250000,0.250000,0.250000,0.250000,0.250000:pos_vel_
cobot_dynamixel_driver/goal|-:J1,J2,J3,J4,J5,J6:0.000000,0.000000,0.000000,0.000000,0.000000,0.000000:0.250000,0.250000,0.250000,0.250000,0.250000,0.250000:pos_vel_
cobot_dynamixel_driver/goal|-:J1,J2,J3,J4,J5,J6:0.000000,0.000000,0.000000,0.000000,0.000000,0.000000:0.250000,0.250000,0.250000,0.250000,0.250000,0.250000:pos_vel_
cobot_dynamixel_driver/goal|-:J1,J2,J3,J4,J5,J6:0.000000,0.000000,0.000000,0.000000,0.000000,0.000000:0.250000,0.250000,0.250000,0.250000,0.250000,0.250000:pos_vel_
cobot_dynamixel_driver/goal|-:J1,J2,J3,J4,J5,J6:0.000000,0.000000,0.000000,0.000000,0.000000,0.000000:0.250000,0.250000,0.250000,0.250000,0.250000,0.250000:pos_vel_
cobot_dynamixel_driver/goal|-:J1,J2,J3,J4,J5,J6:0.261799,0.174533,0.000000,0.000000,-0.261799,0.000000:vel_
cobot_dynamixel_driver/goal|-:J1,J2,J3,J4,J5,J6:0.261799,0.174533,0.000000,0.000000,-0.261799,0.000000:vel_
cobot_dynamixel_driver/goal|-:J1,J2,J3,J4,J5,J6:0.261799,0.174533,0.000000,0.000000,-0.261799,0.000000:vel_
cobot_dynamixel_driver/goal|-:J1,J2,J3,J4,J5,J6:0.261799,0.174533,0.000000,0.000000,-0.261799,0.000000:vel_
cobot_dynamixel_driver/goal|-:J1,J2,J3,J4,J5,J6:0.261799,0.174533,0.000000,0.000000,-0.261799,0.000000:vel_
cobot_dynamixel_driver/goal|-:J1,J2,J3,J4,J5,J6:0.261799,0.174533,0.000000,0.000000,-0.261799,0.000000:vel_
cobot_dynamixel_driver/goal|-:J1,J2,J3,J4,J5,J6:0.261799,0.174533,0.000000,0.000000,-0.261799,0.000000:vel_
cobot_dynamixel_driver/goal|-:J1,J2,J3,J4,J5,J6:0.261799,0.174533,0.000000,0.000000,-0.261799,0.000000:vel_
cobot_dynamixel_driver/goal|-:J1,J2,J3,J4,J5,J6:0.261799,0.174533,0.000000,0.000000,-0.261799,0.000000:vel_
cobot_dynamixel_driver/goal|-:J1,J2,J3,J4,J5,J6:0.261799,0.174533,0.000000,0.000000,-0.261799,0.000000:vel_
cobot_dynamixel_driver/goal|-:J1,J2,J3,J4,J5,J6:0.261799,0.174533,0.000000,0.000000,-0.261799,0.000000:vel_
cobot_dynamixel_driver/goal|-:J1,J2,J3,J4,J5,J6:0.261799,0.174533,0.000000,0.000000,-0.261799,0.000000:vel_
cobot_dynamixel_driver/goal|-:J1,J2,J3,J4,J5,J6:0.261799,0.174533,0.000000,0.000000,-0.261799,0.000000:vel_
cobot_dynamixel_driver/goal|-:J1,J2,J3,J4,J5,J6:0.261799,0.174533,0.000000,0.000000,-0.261799,0.000000:vel_
cobot_dynamixel_driver/goal|-:J1,J2,J3,J4,J5,J6:0.261799,0.174533,0.000000,0.000000,-0.261799,0.000000:vel_
cobot_dynamixel_driver/goal|-:J1,J2,J3,J4,J5,J6:0.261799,0.174533,0.000000,0.000000,-0.261799,0.000000:vel_
cobot_dynamixel_driver/goal|-:J1,J2,J3,J4,J5,J6:0.261799,0.174533,0.000000,0.000000,-0.261799,0.000000:vel_
cobot_dynamixel_driver/goal|-:J1,J2,J3,J4,J5,J6:0.261799,0.174533,0.000000,0.000000,-0.261799,0.000000:vel_
cobot_dynamixel_driver/goal|-:J1,J2,J3,J4,J5,J6:0.261799,0.174533,0.000000,0.000000,-0.261799,0.000000:vel_
cobot_dynamixel_driver/goal|-:J1,J2,J3,J4,J5,J6:0.261799,0.174533,0.000000,0.000000,-0.261799,0.000000:vel_
cobot_dynamixel_driver/goal|-:J1,J2,J3,J4,J5,J6:0.261799,0.174533,0.000000,0.000000,-0.261799,0.000000:vel_
cobot_dynamixel_driver/goal|-:J1,J2,J3,J4,J5,J6:0.261799,0.174533,0.000000,0.000000,-0.261799,0.000000:vel_
cobot_dynamixel_driver/goal|-:J1,J2,J3,J4,J5,J6:0.261799,0.174533,0.000000,0.000000,-0.261799,0.000000:vel_
cobot_dynamixel_driver/goal|-:J1,J2,J3,J4,J5,J6:0.261799,0.174533,0.000000,0.000000,-0.261799,0.000000:vel_
cobot_dynamixel_driver/goal|-:J1,J2,J3,J4,J5,J6:0.261799,0.174533,0.000000,0.000000,-0.261799,0.000000:vel_
cobot_dynamixel_driver/goal|-:J1,J2,J3,J4,J5,J6:0.261799,0.174533,0.000000,0.000000,-0.261799,0.000000:vel_
cobot_dynamixel_driver/goal|-:J1,J2,J3,J4,J5,J6:0.261799,0.174533,0.000000,0.000000,-0.261799,0.000000:vel_
cobot_dynamixel_driver/goal|-:J1,J2,J3,J4,J5,J6:0.261799,0.174533,0.000000,0.000000,-0.261799,0.000000:vel_
cobot_dynamixel_driver/goal|-:J1,J2,J3,J4,J5,J6:0.261799,0.174533,0.000000,0.000000,-0.261799,0.000000:vel_
cobot_dynamixel_driver/goal|-:J1,J2,J3,J4,J5,J6:0.261799,0.174533,0.000000,0.000000,-0.261799,0.000000:vel_
cobot_dynamixel_driver/goal|-:J1,J2,J3,J4,J5,J6:0.261799,0.174533,0.000000,0.000000,-0.261799,0.000000:vel_
cobot_dynamixel_driver/goal|-:J1,J2,J3,J4,J5,J6:0.261799,0.174533,0.000000,0.000000,-0.261799,0.000000:vel_
cobot_dynamixel_driver/goal|-:J1,J2,J3,J4,J5,J6:0.261799,0.174533,0.000000,0.000000,-0.261799,0.000000:vel_
cobot_dynamixel_driver/goal|-:J1,J2,J3,J4,J5,J6:0.261799,0.174533,0.000000,0.000000,-0.261799,0.000000:vel_
cobot_dynamixel_driver/goal|-:J1,J2,J3,J4,J5,J6:0.261799,0.174533,0.000000,0.000000,-0.261799,0.000000:vel_
cobot_dynamixel_driver/goal|-:J1,J2,J3,J4,J5,J6:0.261799,0.174533,0.000000,0.000000,-0.261799,0.000000:vel_
cobot_dynamixel_driver/goal|-:J1,J2,J3,J4,J5,J6:0.261799,0.174533,0.000000,0.000000,-0.261799,0.000000:vel_
cobot_dynamixel_driver/goal|-:J1,J2,J3,J4,J5,J6:0.261799,0.174533,0.000000,0.000000,-0.261799,0.000000:vel_
cobot_dynamixel_driver/goal|-:J1,J2,J3,J4,J5,J6:0.261799,0.174533,0.000000,0.000000,-0.261799,0.000000:vel_
cobot_dynamixel_driver/goal|-:J1,J2,J3,J4,J5,J6:0.261799,0.174533,0.000000,0.000000,-0.261799,0.000000:vel_
cobot_dynamixel_driver/goal|-:J1,J2,J3,J4,J5,J6:0.261799,0.174533,0.000000,0.000000,-0.261799,0.000000:vel_
cobot_dynamixel_driver/goal|-:J1,J2,J3,J4,J5,J6:0.261799,0.174533,0.000000,0.000000,-0.261799,0.000000:vel_
cobot_dynamixel_driver/goal|-:J1,J2,J3,J4,J5,J6:0.261799,0.174533,0.000000,0.000000,-0.261799,0.000000:vel_
cobot_dynamixel_driver/goal|-:J1,J2,J3,J4,J5,J6:0.261799,0.174533,0.000000,0.000000,-0.261799,0.000000:vel_
cobot_dynamixel_driver/goal|-:J1,J2,J3,J4,J5,J6:0.261799,0.174533,0.000000,0.000000,-0.261799,0.000000:vel_
cobot_dynamixel_driver/goal|-:J1,J2,J3,J4,J5,J6:0.261799,0.174533,0.000000,0.000000,-0.261799,0.000000:vel_
cobot_dynamixel_driver/goal|-:J1,J2,J3,J4,J5,J6:0.261799,0.174533,0.000000,0.000000,-0.261799,0.000000:vel_
cobot_dynamixel_driver/goal|-:J1,J2,J3,J4,J5,J6:0.261799,0.174533,0.000000,0.000000,-0.261799,0.000000:vel_
cobot_dynamixel_driver/goal|-:J1,J2,J3,J4,J5,J6:0.261799,0.174533,0.000000,0.000000,-0.261799,0.000000:vel_
cobot_dynamixel_driver/goal|-:J1,J2,J3,J4,J5,J6:0.261799,0.174533,0.000000,0.000000,-0.261799,0.000000:vel_
cobot_dynamixel_driver/goal|-:J1,J2,J3,J4,J5,J6:0.261799,0.174533,0.000000,0.000000,-0.261799,0.000000:vel_
cobot_dynamixel_driver/goal|-:J1,J2,J3,J4,J5,J6:0.261799,0.174533,0.000000,0.000000,-0.261799,0.000000:vel_
cobot_dynamixel_driver/goal|-:J1,J2,J3,J4,J5,J6:0.261799,0.174533,0.000000,0.000000,-0.261799,0.000000:vel_
cobot_dynamixel_driver/goal|-:J1,J2,J3,J4,J5,J6:0.261799,0.174533,0.000000,0.000000,-0.261799,0.000000:vel_
cobot_dynamixel_driver/goal|-:J1,J2,J3,J4,J5,J6:0.261799,0.174533,0.000000,0.000000,-0.261799,0.000000:vel_
cobot_dynamixel_driver/goal|-:J1,J2,J3,J4,J5,J6:0.261799,0.174533,0.000000,0.000000,-0.261799,0.000000:vel_
cobot_dynamixel_driver/goal|-:J1,J2,J3,J4,J5,J6:0.261799,0.174533,0.000000,0.000000,-0.261799,0.000000:vel_
cobot_dynamixel_driver/goal|-:J1,J2,J3,J4,J5,J6:0.261799,0.174533,0.000000,0.000000,-0.261799,0.000000:vel_
cobot_dynamixel_driver/goal|-:J1,J2,J3,J4,J5,J6:0.261799,0.174533,0.000000,0.000000,-0.261799,0.000000:vel_
cobot_dynamixel_driver/goal|-:J1,J2,J3,J4,J5,J6:0.261799,0.174533,0.000000,0.000000,-0.261799,0.000000:vel_
cobot_dynamixel_driver/goal|-:J1,J2,J3,J4,J5,J6:0.261799,0.174533,0.000000,0.000000,-0.261799,0.000000:vel_
cobot_dynamixel_driver/goal|-:J1,J2,J3,J4,J5,J6:0.261799,0.174533,0.000000,0.000000,-0.261799,0.000000:vel_
cobot_dynamixel_driver/goal|-:J1,J2,J3,J4,J5,J6:0.261799,0.174533,0.000000,0.000000,-0.261799,0.000000:vel_
cobot_dynamixel_driver/goal|-:J1,J2,J3,J4,J5,J6:0.261799,0.174533,0.000000,0.000000,-0.261799,0.000000:vel_
cobot_dynamixel_driver/goal|-:J1,J2,J3,J4,J5,J6:0.261799,0.174533,0.000000,0.000000,-0.261799,0.000000:vel_
cobot_dynamixel_driver/goal|-:J1,J2,J3,J4,J5,J6:0.261799,0.174533,0.000000,0.000000,-0.261799,0.000000:vel_
cobot_dynamixel_driver/goal|-:J1,J2,J3,J4,J5,J6:0.261799,0.174533,0.000000,0.000000,-0.261799,0.000000:vel_
cobot_dynamixel_driver/goal|-:J1,J2,J3,J4,J5,J6:0.261799,0.174533,0.000000,0.000000,-0.261799,0.000000:vel_
cobot_dynamixel_driver/goal|-:J1,J2,J3,J4,J5,J6:0.261799,0.174533,0.000000,0.000000,-0.261799,0.000000:vel_
cobot_dynamixel_driver/goal|-:J1,J2,J3,J4,J5,J6:0.261799,0.174533,0.000000,0.000000,-0.261799,0.000000:vel_
cobot_dynamixel_driver/goal|-:J1,J2,J3,J4,J5,J6:0.261799,0.174533,0.000000,0.000000,-0.261799,0.000000:vel_
cobot_dynamixel_driver/goal|-:J1,J2,J3,J4,J5,J6:0.261799,0.174533,0.000000,0.000000,-0.261799,0.000000:vel_
cobot_dynamixel_driver/goal|-:J1,J2,J3,J4,J5,J6:0.261799,0.174533,0.000000,0.000000,-0.261799,0.000000:vel_
cobot_dynamixel_driver/goal|-:J1,J2,J3,J4,J5,J6:0.261799,0.174533,0.000000,0.000000,-0.261799,0.000000:vel_
cobot_dynamixel_driver/goal|-:J1,J2,J3,J4,J5,J6:0.261799,0.174533,0.000000,0.000000,-0.261799,0.000000:vel_
cobot_dynamixel_driver/goal|-:J1,J2,J3,J4,J5,J6:0.261799,0.174533,0.000000,0.000000,-0.261799,0.000000:vel_
cobot_dynamixel_driver/goal|-:J1,J2,J3,J4,J5,J6:0.261799,0.174533,0.000000,0.000000,-0.261799,0.000000:vel_
cobot_dynamixel_driver/goal|-:J1,J2,J3,J4,J5,J6:0.261799,0.174533,0.000000,0.000000,-0.261799,0.000000:vel_
cobot_dynamixel_driver/goal|-:J1,J2,J3,J4,J5,J6:0.261799,0.174533,0.000000,0.000000,-0.261799,0.000000:vel_
cobot_dynamixel_driver/goal|-:J1,J2,J3,J4,J5,J6:0.261799,0.174533,0.000000,0.000000,-0.261799,0.000000:vel_
cobot_dynamixel_driver/goal|-:J1,J2,J3,J4,J5,J6:0.261799,0.174533,0.000000,0.000000,-0.261799,0.000000:vel_
cobot_dynamixel_driver/goal|-:J1,J2,J3,J4,J5,J6:0.261799,0.174533,0.000000,0.000000,-0.261799,0.000000:vel_
cobot_dynamixel_driver/goal|-:J1,J2,J3,J4,J5,J6:0.261799,0.174533,0.000000,0.000000,-0.261799,0.000000:vel_
cobot_dynamixel_driver/goal|-:J1,J2,J3,J4,J5,J6:0.261799,0.174533,0.000000,0.000000,-0.261799,0.000000:vel_
cobot_dynamixel_driver/goal|-:J1,J2,J3,J4,J5,J6:0.261799,0.174533,0.000000,0.000000,-0.261799,0.000000:vel_
cobot_dynamixel_driver/goal|-:J1,J2,J3,J4,J5,J6:0.261799,0.174533,0.000000,0.000000,-0.261799,0.000000:vel_
cobot_dynamixel_driver/goal|-:J1,J2,J3,J4,J5,J6:0.261799,0.174533,0.000000,0.000000,-0.261799,0.000000:vel_
cobot_dynamixel_driver/goal|-:J1,J2,J3,J4,J5,J6:0.261799,0.174533,0.000000,0.000000,-0.261799,0.000000:vel_
cobot_dynamixel_driver/goal|-:J1,J2,J3,J4,J5,J6:0.261799,0.174533,0.000000,0.000000,-0.261799,0.000000:vel_
cobot_dynamixel_driver/goal|-:J1,J2,J3,J4,J5,J6:0.261799,0.174533,0.000000,0.000000,-0.261799,0.000000:vel_
cobot_dynamixel_driver/goal|-:J1,J2,J3,J4,J5,J6:0.261799,0.174533,0.000000,0.000000,-0.261799,0.000000:vel_
cobot_dynamixel_driver/goal|-:J1,J2,J3,J4,J5,J6:0.261799,0.174533,0.000000,0.000000,-0.261799,0.000000:vel_
cobot_dynamixel_driver/goal|-:J1,J2,J3,J4,J5,J6:0.261799,0.174533,0.000000,0.000000,-0.261799,0.000000:vel_
cobot_dynamixel_driver/goal|-:J1,J2,J3,J4,J5,J6:0.261799,0.174533,0.000000,0.000000,-0.261799,0.000000:vel_
cobot_dynamixel_driver/goal|-:J1,J2,J3,J4,J5,J6:0.261799,0.174533,0.000000,0.000000,-0.261799,0.000000:vel_
cobot_dynamixel_driver/goal|-:J1,J2,J3,J4,J5,J6:0.261799,0.174533,0.000000,0.000000,-0.261799,0.000000:vel_
cobot_dynamixel_driver/goal|-:J1,J2,J3,J4,J5,J6:0.261799,0.174533,0.000000,0.000000,-0.261799,0.000000:vel_
cobot_dynamixel_driver/goal|-:J1,J2,J3,J4,J5,J6:0.261799,0.174533,0.000000,0.000000,-0.261799,0.000000:vel_
cobot_dynamixel_driver/goal|-:J1,J2,J3,J4,J5,J6:0.261799,0.174533,0.000000,0.000000,-0.261799,0.000000:vel_
cobot_dynamixel_driver/goal|-:J1,J2,J3,J4,J5,J6:0.261799,0.174533,0.000000,0.000000,-0.261799,0.000000:vel_
cobot_dynamixel_driver/goal|-:J1,J2,J3,J4,J5,J6:0.261799,0.174533,0.000000,0.000000,-0.261799,0.000000:vel_
cobot_dynamixel_driver/goal|-:J1,J2,J3,J4,J5,J6:0.261799,0.174533,0.000000,0.000000,-0.261799,0.000000:vel_
cobot_dynamixel_driver/goal|-:J1,J2,J3,J4,J5,J6:0.261799,0.174533,0.000000,0.000000,-0.261799,0.000000:vel_
cobot_dynamixel_driver/goal|-:J1,J2,J3,J4,J5,J6:0.261799,0.174533,0.000000,0.000000,-0.261799,0.000000:vel_
cobot_dynamixel_driver/goal|-:J1,J2,J3,J4,J5,J6:0.261799,0.174533,0.000000,0.000000,-0.261799,0.000000:vel_
cobot_dynamixel_driver/goal|-:J1,J2,J3,J4,J5,J6:0.261799,0.174533,0.000000,0.000000,-0.261799,0.000000:vel_
cobot_dynamixel_driver/goal|-:J1,J2,J3,J4,J5,J6:0.261799,0.174533,0.000000,0.000000,-0.261799,0.000000:vel_
cobot_dynamixel_driver/goal|-:J1,J2,J3,J4,J5,J6:0.261799,0.174533,0.000000,0.000000,-0.261799,0.000000:vel_
cobot_dynamixel_driver/goal|-:J1,J2,J3,J4,J5,J6:0.261799,0.174533,0.000000,0.000000,-0.261799,0.000000:vel_
cobot_dynamixel_driver/goal|-:J1,J2,J3,J4,J5,J6:0.261799,0.174533,0.000000,0.000000,-0.261799,0.000000:vel_
cobot_dynamixel_driver/goal|-:J1,J2,J3,J4,J5,J6:0.261799,0.174533,0.000000,0.000000,-0.261799,0.000000:vel_
cobot_dynamixel_driver/goal|-:J1,J2,J3,J4,J5,J6:0.261799,0.174533,0.000000,0.000000,-0.261799,0.000000:vel_
cobot_dynamixel_driver/goal|-:J1,J2,J3,J4,J5,J6:0.261799,0.174533,0.000000,0.000000,-0.261799,0.000000:vel_
cobot_dynamixel_driver/goal|-:J1,J2,J3,J4,J5,J6:0.261799,-0.174533,0.000000,0.000000,-0.261799,0.000000:vel_
cobot_dynamixel_driver/goal|-:J1,J2,J3,J4,J5,J6:0.261799,-0.174533,0.000000,0.000000,-0.261799,0.000000:vel_
cobot_dynamixel_driver/goal|-:J1,J2,J3,J4,J5,J6:0.261799,-0.174533,0.000000,0.000000,-0.261799,0.000000:vel_
cobot_dynamixel_driver/goal|-:J1,J2,J3,J4,J5,J6:0.261799,-0.174533,0.000000,0.000000,-0.261799,0.000000:vel_
cobot_dynamixel_driver/goal|-:J1,J2,J3,J4,J5,J6:0.261799,-0.174533,0.000000,0.000000,-0.261799,0.000000:vel_
cobot_dynamixel_driver/goal|-:J1,J2,J3,J4,J5,J6:-0.261799,-0.174533,0.000000,0.000000,-0.261799,0.000000:vel_
cobot_dynamixel_driver/goal|-:J1,J2,J3,J4,J5,J6:-0.261799,-0.174533,0.000000,0.000000,-0.261799,0.000000:vel_
cobot_dynamixel_driver/goal|-:J1,J2,J3,J4,J5,J6:-0.261799,-0.174533,0.000000,0.000000,-0.261799,0.000000:vel_
cobot_dynamixel_driver/goal|-:J1,J2,J3,J4,J5,J6:-0.261799,-0.174533,0.000000,0.000000,-0.261799,0.000000:vel_
cobot_dynamixel_driver/goal|-:J1,J2,J3,J4,J5,J6:-0.261799,-0.174533,0.000000,0.000000,-0.261799,0.000000:vel_
cobot_dynamixel_driver/goal|-:J1,J2,J3,J4,J5,J6:-0.261799,-0.174533,0.000000,0.000000,-0.261799,0.000000:vel_
cobot_dynamixel_driver/goal|-:J1,J2,J3,J4,J5,J6:-0.261799,-0.174533,0.000000,0.000000,-0.261799,0.000000:vel_
cobot_dynamixel_driver/goal|-:J1,J2,J3,J4,J5,J6:-0.261799,-0.174533,0.000000,0.000000,-0.261799,0.000000:vel_
cobot_dynamixel_driver/goal|-:J1,J2,J3,J4,J5,J6:-0.261799,-0.174533,0.000000,0.000000,-0.261799,0.000000:vel_
cobot_dynamixel_driver/goal|-:J1,J2,J3,J4,J5,J6:-0.261799,-0.174533,0.000000,0.000000,-0.261799,0.000000:vel_
cobot_dynamixel_driver/goal|-:J1,J2,J3,J4,J5,J6:-0.261799,-0.174533,0.000000,0.000000,-0.261799,0.000000:vel_
cobot_dynamixel_driver/goal|-:J1,J2,J3,J4,J5,J6:-0.261799,-0.174533,0.000000,0.000000,-0.261799,0.000000:vel_
cobot_dynamixel_driver/goal|-:J1,J2,J3,J4,J5,J6:-0.261799,-0.174533,0.000000,0.000000,-0.261799,0.000000:vel_
cobot_dynamixel_driver/goal|-:J1,J2,J3,J4,J5,J6:-0.261799,-0.174533,0.000000,0.000000,-0.261799,0.000000:vel_
cobot_dynamixel_driver/goal|-:J1,J2,J3,J4,J5,J6:-0.261799,-0.174533,0.000000,0.000000,-0.261799,0.000000:vel_
cobot_dynamixel_driver/goal|-:J1,J2,J3,J4,J5,J6:-0.261799,-0.174533,0.000000,0.000000,-0.261799,0.000000:vel_
cobot_dynamixel_driver/goal|-:J1,J2,J3,J4,J5,J6:-0.261799,-0.174533,0.000000,0.000000,-0.261799,0.000000:vel_
cobot_dynamixel_driver/goal|-:J1,J2,J3,J4,J5,J6:-0.261799,-0.174533,0.000000,0.000000,-0.261799,0.000000:vel_
cobot_dynamixel_driver/goal|-:J1,J2,J3,J4,J5,J6:-0.261799,-0.174533,0.000000,0.000000,-0.261799,0.000000:vel_
cobot_dynamixel_driver/goal|-:J1,J2,J3,J4,J5,J6:-0.261799,-0.174533,0.000000,0.000000,-0.261799,0.000000:vel_
cobot_dynamixel_driver/goal|-:J1,J2,J3,J4,J5,J6:-0.261799,-0.174533,0.000000,0.000000,-0.261799,0.000000:vel_
cobot_dynamixel_driver/goal|-:J1,J2,J3,J4,J5,J6:-0.261799,-0.174533,0.000000,0.000000,-0.261799,0.000000:vel_
cobot_dynamixel_driver/goal|-:J1,J2,J3,J4,J5,J6:-0.261799,-0.174533,0.000000,0.000000,-0.261799,0.000000:vel_
cobot_dynamixel_driver/goal|-:J1,J2,J3,J4,J5,J6:-0.261799,-0.174533,0.000000,0.000000,-0.261799,0.000000:vel_
cobot_dynamixel_driver/goal|-:J1,J2,J3,J4,J5,J6:-0.261799,-0.174533,0.000000,0.000000,-0.261799,0.000000:vel_
cobot_dynamixel_driver/goal|-:J1,J2,J3,J4,J5,J6:-0.261799,-0.174533,0.000000,0.000000,-0.261799,0.000000:vel_
cobot_dynamixel_driver/goal|-:J1,J2,J3,J4,J5,J6:-0.261799,-0.174533,0.000000,0.000000,-0.261799,0.000000:vel_
cobot_dynamixel_driver/goal|-:J1,J2,J3,J4,J5,J6:-0.261799,-0.174533,0.000000,0.000000,-0.261799,0.000000:vel_
cobot_dynamixel_driver/goal|-:J1,J2,J3,J4,J5,J6:-0.261799,-0.174533,0.000000,0.000000,-0.261799,0.000000:vel_
cobot_dynamixel_driver/goal|-:J1,J2,J3,J4,J5,J6:-0.261799,-0.174533,0.000000,0.000000,-0.261799,0.000000:vel_
cobot_dynamixel_driver/goal|-:J1,J2,J3,J4,J5,J6:-0.261799,-0.174533,0.000000,0.000000,-0.261799,0.000000:vel_
cobot_dynamixel_driver/goal|-:J1,J2,J3,J4,J5,J6:-0.261799,-0.174533,0.000000,0.000000,-0.261799,0.000000:vel_
cobot_dynamixel_driver/goal|-:J1,J2,J3,J4,J5,J6:-0.261799,-0.174533,0.000000,0.000000,-0.261799,0.000000:vel_
cobot_dynamixel_driver/goal|-:J1,J2,J3,J4,J5,J6:-0.261799,-0.174533,0.000000,0.000000,-0.261799,0.000000:vel_
cobot_dynamixel_driver/goal|-:J1,J2,J3,J4,J5,J6:-0.261799,-0.174533,0.000000,0.000000,-0.261799,0.000000:vel_
cobot_dynamixel_driver/goal|-:J1,J2,J3,J4,J5,J6:-0.261799,-0.174533,0.000000,0.000000,-0.261799,0.000000:vel_
cobot_dynamixel_driver/goal|-:J1,J2,J3,J4,J5,J6:-0.261799,-0.174533,0.000000,0.000000,-0.261799,0.000000:vel_
cobot_dynamixel_driver/goal|-:J1,J2,J3,J4,J5,J6:-0.261799,-0.174533,0.000000,0.000000,-0.261799,0.000000:vel_
cobot_dynamixel_driver/goal|-:J1,J2,J3,J4,J5,J6:-0.261799,-0.174533,0.000000,0.000000,-0.261799,0.000000:vel_
cobot_dynamixel_driver/goal|-:J1,J2,J3,J4,J5,J6:-0.261799,-0.174533,0.000000,0.000000,-0.261799,0.000000:vel_
cobot_dynamixel_driver/goal|-:J1,J2,J3,J4,J5,J6:-0.261799,-0.174533,0.000000,0.000000,-0.261799,0.000000:vel_
cobot_dynamixel_driver/goal|-:J1,J2,J3,J4,J5,J6:-0.261799,-0.174533,0.000000,0.000000,-0.261799,0.000000:vel_
cobot_dynamixel_driver/goal|-:J1,J2,J3,J4,J5,J6:-0.261799,-0.174533,0.000000,0.000000,-0.261799,0.000000:vel_
cobot_dynamixel_driver/goal|-:J1,J2,J3,J4,J5,J6:-0.261799,-0.174533,0.000000,0.000000,-0.261799,0.000000:vel_
cobot_dynamixel_driver/goal|-:J1,J2,J3,J4,J5,J6:-0.261799,-0.174533,0.000000,0.000000,-0.261799,0.000000:vel_
cobot_dynamixel_driver/goal|-:J1,J2,J3,J4,J5,J6:-0.261799,-0.174533,0.000000,0.000000,-0.261799,0.000000:vel_
cobot_dynamixel_driver/goal|-:J1,J2,J3,J4,J5,J6:-0.261799,-0.174533,0.000000,0.000000,-0.261799,0.000000:vel_
cobot_dynamixel_driver/goal|-:J1,J2,J3,J4,J5,J6:-0.261799,-0.174533,0.000000,0.000000,-0.261799,0.000000:vel_
cobot_dynamixel_driver/goal|-:J1,J2,J3,J4,J5,J6:-0.261799,-0.174533,0.000000,0.000000,-0.261799,0.000000:vel_
cobot_dynamixel_driver/goal|-:J1,J2,J3,J4,J5,J6:-0.261799,-0.174533,0.000000,0.000000,-0.261799,0.000000:vel_
cobot_dynamixel_driver/goal|-:J1,J2,J3,J4,J5,J6:-0.261799,-0.174533,0.000000,0.000000,-0.261799,0.000000:vel_
cobot_dynamixel_driver/goal|-:J1,J2,J3,J4,J5,J6:-0.261799,-0.174533,0.000000,0.000000,-0.261799,0.000000:vel_
cobot_dynamixel_driver/goal|-:J1,J2,J3,J4,J5,J6:-0.261799,-0.174533,0.000000,0.000000,-0.261799,0.000000:vel_
cobot_dynamixel_driver/goal|-:J1,J2,J3,J4,J5,J6:-0.261799,-0.174533,0.000000,0.000000,-0.261799,0.000000:vel_
cobot_dynamixel_driver/goal|-:J1,J2,J3,J4,J5,J6:-0.261799,-0.174533,0.000000,0.000000,-0.261799,0.000000:vel_
cobot_dynamixel_driver/goal|-:J1,J2,J3,J4,J5,J6:-0.261799,-0.174533,0.000000,0.000000,-0.261799,0.000000:vel_
cobot_dynamixel_driver/goal|-:J1,J2,J3,J4,J5,J6:-0.261799,-0.174533,0.000000,0.000000,-0.261799,0.000000:vel_
cobot_dynamixel_driver/goal|-:J1,J2,J3,J4,J5,J6:-0.261799,-0.174533,0.000000,0.000000,-0.261799,0.000000:vel_
cobot_dynamixel_driver/goal|-:J1,J2,J3,J4,J5,J6:-0.261799,-0.174533,0.000000,0.000000,-0.261799,0.000000:vel_
cobot_dynamixel_driver/goal|-:J1,J2,J3,J4,J5,J6:-0.261799,-0.174533,0.000000,0.000000,-0.261799,0.000000:vel_
cobot_dynamixel_driver/goal|-:J1,J2,J3,J4,J5,J6:-0.261799,-0.174533,0.000000,0.000000,-0.261799,0.000000:vel_
cobot_dynamixel_driver/goal|-:J1,J2,J3,J4,J5,J6:-0.261799,-0.174533,0.000000,0.000000,-0.261799,0.000000:vel_
cobot_dynamixel_driver/goal|-:J1,J2,J3,J4,J5,J6:-0.261799,-0.174533,0.000000,0.000000,-0.261799,0.000000:vel_
cobot_dynamixel_driver/goal|-:J1,J2,J3,J4,J5,J6:-0.261799,-0.174533,0.000000,0.000000,-0.261799,0.000000:vel_
cobot_dynamixel_driver/goal|-:J1,J2,J3,J4,J5,J6:-0.261799,-0.174533,0.000000,0.000000,-0.261799,0.000000:vel_
cobot_dynamixel_driver/goal|-:J1,J2,J3,J4,J5,J6:-0.261799,-0.174533,0.000000,0.000000,-0.261799,0.000000:vel_
cobot_dynamixel_driver/goal|-:J1,J2,J3,J4,J5,J6:-0.261799,-0.174533,0.000000,0.000000,-0.261799,0.000000:vel_
cobot_dynamixel_driver/goal|-:J1,J2,J3,J4,J5,J6:-0.261799,-0.174533,0.000000,0.000000,-0.261799,0.000000:vel_
cobot_dynamixel_driver/goal|-:J1,J2,J3,J4,J5,J6:-0.261799,-0.174533,0.000000,0.000000,-0.261799,0.000000:vel_
cobot_dynamixel_driver/goal|-:J1,J2,J3,J4,J5,J6:-0.261799,-0.174533,0.000000,0.000000,-0.261799,0.000000:vel_
cobot_dynamixel_driver/goal|-:J1,J2,J3,J4,J5,J6:-0.261799,-0.174533,0.000000,0.000000,-0.261799,0.000000:vel_
cobot_dynamixel_driver/goal|-:J1,J2,J3,J4,J5,J6:-0.261799,-0.174533,0.000000,0.000000,-0.261799,0.000000:vel_
cobot_dynamixel_driver/goal|-:J1,J2,J3,J4,J5,J6:-0.261799,-0.174533,0.000000,0.000000,-0.261799,0.000000:vel_
cobot_dynamixel_driver/goal|-:J1,J2,J3,J4,J5,J6:-0.261799,-0.174533,0.000000,0.000000,-0.261799,0.000000:vel_
cobot_dynamixel_driver/goal|-:J1,J2,J3,J4,J5,J6:-0.261799,-0.174533,0.000000,0.000000,-0.261799,0.000000:vel_
cobot_dynamixel_driver/goal|-:J1,J2,J3,J4,J5,J6:-0.261799,-0.174533,0.000000,0.000000,-0.261799,0.000000:vel_
cobot_dynamixel_driver/goal|-:J1,J2,J3,J4,J5,J6:-0.261799,-0.174533,0.000000,0.000000,-0.261799,0.000000:vel_
cobot_dynamixel_driver/goal|-:J1,J2,J3,J4,J5,J6:-0.261799,-0.174533,0.000000,0.000000,-0.261799,0.000000:vel_
cobot_dynamixel_driver/goal|-:J1,J2,J3,J4,J5,J6:-0.261799,-0.174533,0.000000,0.000000,-0.261799,0.000000:vel_
cobot_dynamixel_driver/goal|-:J1,J2,J3,J4,J5,J6:-0.261799,-0.174533,0.000000,0.000000,-0.261799,0.000000:vel_
cobot_dynamixel_driver/goal|-:J1,J2,J3,J4,J5,J6:-0.261799,-0.174533,0.000000,0.000000,-0.261799,0.000000:vel_
cobot_dynamixel_driver/goal|-:J1,J2,J3,J4,J5,J6:-0.261799,-0.174533,0.000000,0.000000,-0.261799,0.000000:vel_
cobot_dynamixel_driver/goal|-:J1,J2,J3,J4,J5,J6:-0.261799,-0.174533,0.000000,0.000000,-0.261799,0.000000:vel_
cobot_dynamixel_driver/goal|-:J1,J2,J3,J4,J5,J6:-0.261799,-0.174533,0.000000,0.000000,-0.261799,0.000000:vel_
cobot_dynamixel_driver/goal|-:J1,J2,J3,J4,J5,J6:-0.261799,-0.174533,0.000000,0.000000,-0.261799,0.000000:vel_
cobot_dynamixel_driver/goal|-:J1,J2,J3,J4,J5,J6:-0.261799,-0.174533,0.000000,0.000000,-0.261799,0.000000:vel_
cobot_dynamixel_driver/goal|-:J1,J2,J3,J4,J5,J6:-0.261799,-0.174533,0.000000,0.000000,-0.261799,0.000000:vel_
cobot_dynamixel_driver/goal|-:J1,J2,J3,J4,J5,J6:-0.261799,-0.174533,0.000000,0.000000,-0.261799,0.000000:vel_
cobot_dynamixel_driver/goal|-:J1,J2,J3,J4,J5,J6:-0.261799,-0.174533,0.000000,0.000000,-0.261799,0.000000:vel_
cobot_dynamixel_driver/goal|-:J1,J2,J3,J4,J5,J6:-0.261799,-0.174533,0.000000,0.000000,-0.261799,0.000000:vel_
cobot_dynamixel_driver/goal|-:J1,J2,J3,J4,J5,J6:-0.261799,-0.174533,0.000000,0.000000,-0.261799,0.000000:vel_
cobot_dynamixel_driver/goal|-:J1,J2,J3,J4,J5,J6:-0.261799,-0.174533,0.000000,0.000000,-0.261799,0.000000:vel_
cobot_dynamixel_driver/goal|-:J1,J2,J3,J4,J5,J6:-0.261799,-0.174533,0.000000,0.000000,-0.261799,0.000000:vel_
cobot_dynamixel_driver/goal|-:J1,J2,J3,J4,J5,J6:-0.261799,-0.174533,0.000000,0.000000,-0.261799,0.000000:vel_
cobot_dynamixel_driver/goal|-:J1,J2,J3,J4,J5,J6:-0.261799,-0.174533,0.000000,0.000000,-0.261799,0.000000:vel_
cobot_dynamixel_driver/goal|-:J1,J2,J3,J4,J5,J6:-0.261799,-0.174533,0.000000,0.000000,-0.261799,0.000000:vel_
cobot_dynamixel_driver/goal|-:J1,J2,J3,J4,J5,J6:-0.261799,-0.174533,0.000000,0.000000,-0.261799,0.000000:vel_
cobot_dynamixel_driver/goal|-:J1,J2,J3,J4,J5,J6:-0.261799,-0.174533,0.000000,0.000000,-0.261799,0.000000:vel_
cobot_dynamixel_driver/goal|-:J1,J2,J3,J4,J5,J6:-0.261799,-0.174533,0.000000,0.000000,-0.261799,0.000000:vel_
cobot_dynamixel_driver/goal|-:J1,J2,J3,J4,J5,J6:-0.261799,-0.174533,0.000000,0.000000,-0.261799,0.000000:vel_
cobot_dynamixel_driver/goal|-:J1,J2,J3,J4,J5,J6:-0.261799,-0.174533,0.000000,0.000000,-0.261799,0.000000:vel_
cobot_dynamixel_driver/goal|-:J1,J2,J3,J4,J5,J6:-0.261799,-0.174533,0.000000,0.000000,-0.261799,0.000000:vel_
cobot_dynamixel_driver/goal|-:J1,J2,J3,J4,J5,J6:-0.261799,-0.174533,0.000000,0.000000,-0.261799,0.000000:vel_
cobot_dynamixel_driver/goal|-:J1,J2,J3,J4,J5,J6:-0.261799,-0.174533,0.000000,0.000000,-0.261799,0.000000:vel_
cobot_dynamixel_driver/goal|-:J1,J2,J3,J4,J5,J6:-0.261799,-0.174533,0.000000,0.000000,-0.261799,0.000000:vel_
cobot_dynamixel_driver/goal|-:J1,J2,J3,J4,J5,J6:-0.261799,-0.174533,0.000000,0.000000,-0.261799,0.000000:vel_
cobot_dynamixel_driver/goal|-:J1,J2,J3,J4,J5,J6:-0.261799,-0.174533,0.000000,0.000000,-0.261799,0.000000:vel_
cobot_dynamixel_driver/goal|-:J1,J2,J3,J4,J5,J6:-0.261799,-0.174533,0.000000,0.000000,-0.261799,0.000000:vel_
cobot_dynamixel_driver/goal|-:J1,J2,J3,J4,J5,J6:-0.261799,-0.174533,0.000000,0.000000,-0.261799,0.000000:vel_
cobot_dynamixel_driver/goal|-:J1,J2,J3,J4,J5,J6:-0.261799,-0.174533,0.000000,0.000000,-0.261799,0.000000:vel_
cobot_dynamixel_driver/goal|-:J1,J2,J3,J4,J5,J6:-0.261799,-0.174533,0.000000,0.000000,-0.261799,0.000000:vel_
cobot_dynamixel_driver/goal|-:J1,J2,J3,J4,J5,J6:-0.261799,-0.174533,0.000000,0.000000,-0.261799,0.000000:vel_
cobot_dynamixel_driver/goal|-:J1,J2,J3,J4,J5,J6:-0.261799,-0.174533,0.000000,0.000000,-0.261799,0.000000:vel_
cobot_dynamixel_driver/goal|-:J1,J2,J3,J4,J5,J6:-0.261799,-0.174533,0.000000,0.000000,-0.261799,0.000000:vel_
cobot_dynamixel_driver/goal|-:J1,J2,J3,J4,J5,J6:-0.261799,-0.174533,0.000000,0.000000,-0.261799,0.000000:vel_
cobot_dynamixel_driver/goal|-:J1,J2,J3,J4,J5,J6:-0.261799,-0.174533,0.000000,0.000000,-0.261799,0.000000:vel_
cobot_dynamixel_driver/goal|-:J1,J2,J3,J4,J5,J6:-0.261799,-0.174533,0.000000,0.000000,-0.261799,0.000000:vel_
cobot_dynamixel_driver/goal|-:J1,J2,J3,J4,J5,J6:-0.261799,-0.174533,0.000000,0.000000,-0.261799,0.000000:vel_
cobot_dynamixel_driver/goal|-:J1,J2,J3,J4,J5,J6:-0.261799,-0.174533,0.000000,0.000000,-0.261799,0.000000:vel_
cobot_dynamixel_driver/goal|-:J1,J2,J3,J4,J5,J6:-0.261799,-0.174533,0.000000,0.000000,-0.261799,0.000000:vel_
cobot_dynamixel_driver/goal|-:J1,J2,J3,J4,J5,J6:-0.261799,-0.174533,0.000000,0.000000,-0.261799,0.000000:vel_
cobot_dynamixel_driver/goal|-:J1,J2,J3,J4,J5,J6:-0.261799,-0.174533,0.000000,0.000000,-0.261799,0.000000:vel_
cobot_dynamixel_driver/goal|-:J1,J2,J3,J4,J5,J6:-0.261799,-0.174533,0.000000,0.000000,-0.261799,0.000000:vel_
cobot_dynamixel_driver/goal|-:J1,J2,J3,J4,J5,J6:-0.261799,-0.174533,0.000000,0.000000,-0.261799,0.000000:vel_
cobot_dynamixel_driver/goal|-:J1,J2,J3,J4,J5,J6:-0.261799,-0.174533,0.000000,0.000000,-0.261799,0.000000:vel_
cobot_dynamixel_driver/goal|-:J1,J2,J3,J4,J5,J6:-0.261799,-0.174533,0.000000,0.000000,-0.261799,0.000000:vel_
cobot_dynamixel_driver/goal|-:J1,J2,J3,J4,J5,J6:-0.261799,-0.174533,0.000000,0.000000,-0.261799,0.000000:vel_
cobot_dynamixel_driver/goal|-:J1,J2,J3,J4,J5,J6:-0.261799,-0.174533,0.000000,0.000000,-0.261799,0.000000:vel_
cobot_dynamixel_driver/goal|-:J1,J2,J3,J4,J5,J6:-0.261799,-0.174533,0.000000,0.000000,-0.261799,0.000000:vel_
cobot_dynamixel_driver/goal|-:J1,J2,J3,J4,J5,J6:-0.261799,-0.174533,0.000000,0.000000,-0.261799,0.000000:vel_
cobot_dynamixel_driver/goal|-:J1,J2,J3,J4,J5,J6:-0.261799,-0.174533,0.000000,0.000000,-0.261799,0.000000:vel_
cobot_dynamixel_driver/goal|-:J1,J2,J3,J4,J5,J6:-0.261799,-0.174533,0.000000,0.000000,-0.261799,0.000000:vel_
cobot_dynamixel_driver/goal|-:J1,J2,J3,J4,J5,J6:-0.261799,-0.174533,0.000000,0.000000,-0.261799,0.000000:vel_
cobot_dynamixel_driver/goal|-:J1,J2,J3,J4,J5,J6:-0.261799,-0.174533,0.000000,0.000000,-0.261799,0.000000:vel_
cobot_dynamixel_driver/goal|-:J1,J2,J3,J4,J5,J6:-0.261799,-0.174533,0.000000,0.000000,-0.261799,0.000000:vel_
cobot_dynamixel_driver/goal|-:J1,J2,J3,J4,J5,J6:-0.261799,-0.174533,0.000000,0.000000,-0.261799,0.000000:vel_
cobot_dynamixel_driver/goal|-:J1,J2,J3,J4,J5,J6:-0.261799,-0.174533,0.000000,0.000000,-0.261799,0.000000:vel_
cobot_dynamixel_driver/goal|-:J1,J2,J3,J4,J5,J6:-0.261799,-0.174533,0.000000,0.000000,-0.261799,0.000000:vel_
cobot_dynamixel_driver/goal|-:J1,J2,J3,J4,J5,J6:-0.261799,-0.174533,0.000000,0.000000,-0.261799,0.000000:vel_
cobot_dynamixel_driver/goal|-:J1,J2,J3,J4,J5,J6:-0.261799,-0.174533,0.000000,0.000000,-0.261799,0.000000:vel_
cobot_dynamixel_driver/goal|-:J1,J2,J3,J4,J5,J6:-0.261799,-0.174533,0.000000,0.000000,-0.261799,0.000000:vel_
cobot_dynamixel_driver/goal|-:J1,J2,J3,J4,J5,J6:-0.261799,-0.174533,0.000000,0.000000,-0.261799,0.000000:vel_
cobot_dynamixel_driver/goal|-:J1,J2,J3,J4,J5,J6:-0.261799,-0.174533,0.000000,0.000000,-0.261799,0.000000:vel_
cobot_dynamixel_driver/goal|-:J1,J2,J3,J4,J5,J6:-0.261799,-0.174533,0.000000,0.000000,-0.261799,0.000000:vel_
cobot_dynamixel_driver/goal|-:J1,J2,J3,J4,J5,J6:-0.261799,-0.174533,0.000000,0.000000,-0.261799,0.000000:vel_
cobot_dynamixel_driver/goal|-:J1,J2,J3,J4,J5,J6:-0.261799,-0.174533,0.000000,0.000000,-0.261799,0.000000:vel_
cobot_dynamixel_driver/goal|-:J1,J2,J3,J4,J5,J6:-0.261799,-0.174533,0.000000,0.000000,-0.261799,0.000000:vel_
cobot_dynamixel_driver/goal|-:J1,J2,J3,J4,J5,J6:-0.261799,0.174533,0.000000,0.000000,-0.261799,0.000000:vel_
cobot_dynamixel_driver/goal|-:J1,J2,J3,J4,J5,J6:-0.261799,0.174533,0.000000,0.000000,-0.261799,0.000000:vel_
cobot_dynamixel_driver/goal|-:J1,J2,J3,J4,J5,J6:-0.261799,0.174533,0.000000,0.000000,-0.261799,0.000000:vel_
cobot_dynamixel_driver/goal|-:J1,J2,J3,J4,J5,J6:-0.261799,0.174533,0.000000,0.000000,-0.261799,0.000000:vel_
cobot_dynamixel_driver/goal|-:J1,J2,J3,J4,J5,J6:-0.261799,0.174533,0.000000,0.000000,-0.261799,0.000000:vel_
cobot_dynamixel_driver/goal|-:J1,J2,J3,J4,J5,J6:-0.261799,0.174533,0.000000,0.000000,-0.261799,0.000000:vel_
cobot_dynamixel_driver/goal|-:J1,J2,J3,J4,J5,J6:-0.261799,0.174533,0.000000,0.000000,-0.261799,0.000000:vel_
cobot_dynamixel_driver/goal|-:J1,J2,J3,J4,J5,J6:-0.261799,0.174533,0.000000,0.000000,-0.261799,0.000000:vel_
cobot_dynamixel_driver/goal|-:J1,J2,J3,J4,J5,J6:-0.261799,0.174533,0.000000,0.000000,-0.261799,0.000000:vel_
cobot_dynamixel_driver/goal|-:J1,J2,J3,J4,J5,J6:-0.261799,0.174533,0.000000,0.000000,-0.261799,0.000000:vel_
cobot_dynamixel_driver/goal|-:J1,J2,J3,J4,J5,J6:-0.261799,0.174533,0.000000,0.000000,-0.261799,0.000000:vel_
cobot_dynamixel_driver/goal|-:J1,J2,J3,J4,J5,J6:-0.261799,0.174533,0.000000,0.000000,-0.261799,0.000000:vel_
cobot_dynamixel_driver/goal|-:J1,J2,J3,J4,J5,J6:-0.261799,0.174533,0.000000,0.000000,-0.261799,0.000000:vel_
cobot_dynamixel_driver/goal|-:J1,J2,J3,J4,J5,J6:-0.261799,0.174533,0.000000,0.000000,-0.261799,0.000000:vel_
cobot_dynamixel_driver/goal|-:J1,J2,J3,J4,J5,J6:-0.261799,0.174533,0.000000,0.000000,-0.261799,0.000000:vel_
cobot_dynamixel_driver/goal|-:J1,J2,J3,J4,J5,J6:-0.261799,0.174533,0.000000,0.000000,-0.261799,0.000000:vel_
cobot_dynamixel_driver/goal|-:J1,J2,J3,J4,J5,J6:-0.261799,0.174533,0.000000,0.000000,-0.261799,0.000000:vel_
cobot_dynamixel_driver/goal|-:J1,J2,J3,J4,J5,J6:-0.261799,0.174533,0.000000,0.000000,-0.261799,0.000000:vel_
cobot_dynamixel_driver/goal|-:J1,J2,J3,J4,J5,J6:-0.261799,0.174533,0.000000,0.000000,-0.261799,0.000000:vel_
cobot_dynamixel_driver/goal|-:J1,J2,J3,J4,J5,J6:-0.261799,0.174533,0.000000,0.000000,-0.261799,0.000000:vel_
cobot_dynamixel_driver/goal|-:J1,J2,J3,J4,J5,J6:-0.261799,0.174533,0.000000,0.000000,-0.261799,0.000000:vel_
cobot_dynamixel_driver/goal|-:J1,J2,J3,J4,J5,J6:-0.261799,0.174533,0.000000,0.000000,-0.261799,0.000000:vel_
cobot_dynamixel_driver/goal|-:J1,J2,J3,J4,J5,J6:-0.261799,0.174533,0.000000,0.000000,-0.261799,0.000000:vel_
cobot_dynamixel_driver/goal|-:J1,J2,J3,J4,J5,J6:-0.261799,0.174533,0.000000,0.000000,-0.261799,0.000000:vel_
cobot_dynamixel_driver/goal|-:J1,J2,J3,J4,J5,J6:-0.261799,0.174533,0.000000,0.000000,-0.261799,0.000000:vel_
cobot_dynamixel_driver/goal|-:J1,J2,J3,J4,J5,J6:-0.261799,0.174533,0.000000,0.000000,-0.261799,0.000000:vel_
cobot_dynamixel_driver/goal|-:J1,J2,J3,J4,J5,J6:-0.261799,0.174533,0.000000,0.000000,-0.261799,0.000000:vel_
cobot_dynamixel_driver/goal|-:J1,J2,J3,J4,J5,J6:-0.261799,0.174533,0.000000,0.000000,-0.261799,0.000000:vel_
cobot_dynamixel_driver/goal|-:J1,J2,J3,J4,J5,J6:-0.261799,0.174533,0.000000,0.000000,-0.261799,0.000000:vel_
cobot_dynamixel_driver/goal|-:J1,J2,J3,J4,J5,J6:-0.261799,0.174533,0.000000,0.000000,-0.261799,0.000000:vel_
cobot_dynamixel_driver/goal|-:J1,J2,J3,J4,J5,J6:-0.261799,0.174533,0.000000,0.000000,-0.261799,0.000000:vel_
cobot_dynamixel_driver/goal|-:J1,J2,J3,J4,J5,J6:-0.261799,0.174533,0.000000,0.000000,-0.261799,0.000000:vel_
cobot_dynamixel_driver/goal|-:J1,J2,J3,J4,J5,J6:-0.261799,0.174533,0.000000,0.000000,-0.261799,0.000000:vel_
cobot_dynamixel_driver/goal|-:J1,J2,J3,J4,J5,J6:-0.261799,0.174533,0.000000,0.000000,-0.261799,0.000000:vel_
cobot_dynamixel_driver/goal|-:J1,J2,J3,J4,J5,J6:-0.261799,0.174533,0.000000,0.000000,-0.261799,0.000000:vel_
cobot_dynamixel_driver/goal|-:J1,J2,J3,J4,J5,J6:-0.261799,0.174533,0.000000,0.000000,-0.261799,0.000000:vel_
cobot_dynamixel_driver/goal|-:J1,J2,J3,J4,J5,J6:-0.261799,0.174533,0.000000,0.000000,-0.261799,0.000000:vel_
cobot_dynamixel_driver/goal|-:J1,J2,J3,J4,J5,J6:-0.261799,0.174533,0.000000,0.000000,-0.261799,0.000000:vel_
cobot_dynamixel_driver/goal|-:J1,J2,J3,J4,J5,J6:-0.261799,0.174533,0.000000,0.000000,-0.261799,0.000000:vel_
cobot_dynamixel_driver/goal|-:J1,J2,J3,J4,J5,J6:-0.261799,0.174533,0.000000,0.000000,-0.261799,0.000000:vel_
cobot_dynamixel_driver/goal|-:J1,J2,J3,J4,J5,J6:-0.261799,0.174533,0.000000,0.000000,-0.261799,0.000000:vel_
cobot_dynamixel_driver/goal|-:J1,J2,J3,J4,J5,J6:-0.261799,0.174533,0.000000,0.000000,-0.261799,0.000000:vel_
cobot_dynamixel_driver/goal|-:J1,J2,J3,J4,J5,J6:-0.261799,0.174533,0.000000,0.000000,-0.261799,0.000000:vel_
cobot_dynamixel_driver/goal|-:J1,J2,J3,J4,J5,J6:-0.261799,0.174533,0.000000,0.000000,-0.261799,0.000000:vel_
cobot_dynamixel_driver/goal|-:J1,J2,J3,J4,J5,J6:-0.261799,0.174533,0.000000,0.000000,-0.261799,0.000000:vel_
cobot_dynamixel_driver/goal|-:J1,J2,J3,J4,J5,J6:-0.261799,0.174533,0.000000,0.000000,-0.261799,0.000000:vel_
cobot_dynamixel_driver/goal|-:J1,J2,J3,J4,J5,J6:-0.261799,0.174533,0.000000,0.000000,-0.261799,0.000000:vel_
cobot_dynamixel_driver/goal|-:J1,J2,J3,J4,J5,J6:-0.261799,0.174533,0.000000,0.000000,-0.261799,0.000000:vel_
cobot_dynamixel_driver/goal|-:J1,J2,J3,J4,J5,J6:-0.261799,0.174533,0.000000,0.000000,-0.261799,0.000000:vel_
cobot_dynamixel_driver/goal|-:J1,J2,J3,J4,J5,J6:-0.261799,0.174533,0.000000,0.000000,-0.261799,0.000000:vel_
cobot_dynamixel_driver/goal|-:J1,J2,J3,J4,J5,J6:-0.261799,0.174533,0.000000,0.000000,-0.261799,0.000000:vel_
cobot_dynamixel_driver/goal|-:J1,J2,J3,J4,J5,J6:-0.261799,0.174533,0.000000,0.000000,-0.261799,0.000000:vel_
cobot_dynamixel_driver/goal|-:J1,J2,J3,J4,J5,J6:-0.261799,0.174533,0.000000,0.000000,-0.261799,0.000000:vel_
cobot_dynamixel_driver/goal|-:J1,J2,J3,J4,J5,J6:-0.261799,0.174533,0.000000,0.000000,-0.261799,0.000000:vel_
cobot_dynamixel_driver/goal|-:J1,J2,J3,J4,J5,J6:-0.261799,0.174533,0.000000,0.000000,-0.261799,0.000000:vel_
cobot_dynamixel_driver/goal|-:J1,J2,J3,J4,J5,J6:-0.261799,0.174533,0.000000,0.000000,-0.261799,0.000000:vel_
cobot_dynamixel_driver/goal|-:J1,J2,J3,J4,J5,J6:-0.261799,0.174533,0.000000,0.000000,-0.261799,0.000000:vel_
cobot_dynamixel_driver/goal|-:J1,J2,J3,J4,J5,J6:-0.261799,0.174533,0.000000,0.000000,-0.261799,0.000000:vel_
cobot_dynamixel_driver/goal|-:J1,J2,J3,J4,J5,J6:-0.261799,0.174533,0.000000,0.000000,-0.261799,0.000000:vel_
cobot_dynamixel_driver/goal|-:J1,J2,J3,J4,J5,J6:-0.261799,0.174533,0.000000,0.000000,-0.261799,0.000000:vel_
cobot_dynamixel_driver/goal|-:J1,J2,J3,J4,J5,J6:-0.261799,0.174533,0.000000,0.000000,-0.261799,0.000000:vel_
cobot_dynamixel_driver/goal|-:J1,J2,J3,J4,J5,J6:-0.261799,0.174533,0.000000,0.000000,-0.261799,0.000000:vel_
cobot_dynamixel_driver/goal|-:J1,J2,J3,J4,J5,J6:-0.261799,0.174533,0.000000,0.000000,-0.261799,0.000000:vel_
cobot_dynamixel_driver/goal|-:J1,J2,J3,J4,J5,J6:0.261799,0.174533,0.000000,0.000000,-0.261799,0.000000:vel_
cobot_dynamixel_driver/goal|-:J1,J2,J3,J4,J5,J6:0.261799,0.174533,0.000000,0.000000,-0.261799,0.000000:vel_
cobot_dynamixel_driver/goal|-:J1,J2,J3,J4,J5,J6:0.261799,0.174533,0.000000,0.000000,-0.261799,0.000000:vel_
cobot_dynamixel_driver/goal|-:J1,J2,J3,J4,J5,J6:0.261799,0.174533,0.000000,0.000000,-0.261799,0.000000:vel_
cobot_dynamixel_driver/goal|-:J1,J2,J3,J4,J5,J6:0.261799,0.174533,0.000000,0.000000,-0.261799,0.000000:vel_
cobot_dynamixel_driver/goal|-:J1,J2,J3,J4,J5,J6:0.261799,0.174533,0.000000,0.000000,-0.261799,0.000000:vel_
cobot_dynamixel_driver/goal|-:J1,J2,J3,J4,J5,J6:0.261799,0.174533,0.000000,0.000000,-0.261799,0.000000:vel_
cobot_dynamixel_driver/goal|-:J1,J2,J3,J4,J5,J6:0.261799,0.174533,0.000000,0.000000,-0.261799,0.000000:vel_
cobot_dynamixel_driver/goal|-:J1,J2,J3,J4,J5,J6:0.261799,0.174533,0.000000,0.000000,-0.261799,0.000000:vel_
cobot_dynamixel_driver/goal|-:J1,J2,J3,J4,J5,J6:0.261799,0.174533,0.000000,0.000000,-0.261799,0.000000:vel_
cobot_dynamixel_driver/goal|-:J1,J2,J3,J4,J5,J6:0.261799,0.174533,0.000000,0.000000,-0.261799,0.000000:vel_
cobot_dynamixel_driver/goal|-:J1,J2,J3,J4,J5,J6:0.261799,0.174533,0.000000,0.000000,-0.261799,0.000000:vel_
cobot_dynamixel_driver/goal|-:J1,J2,J3,J4,J5,J6:0.261799,0.174533,0.000000,0.000000,-0.261799,0.000000:vel_
cobot_dynamixel_driver/goal|-:J1,J2,J3,J4,J5,J6:0.261799,0.174533,0.000000,0.000000,-0.261799,0.000000:vel_
cobot_dynamixel_driver/goal|-:J1,J2,J3,J4,J5,J6:0.261799,0.174533,0.000000,0.000000,-0.261799,0.000000:vel_
cobot_dynamixel_driver/goal|-:J1,J2,J3,J4,J5,J6:0.261799,0.174533,0.000000,0.000000,-0.261799,0.000000:vel_
