surachairobotic/cobot/cobot_dynamixel_driver/log/2018-12-19T08:30:04.833698_driver_log.txt
cobot_dynamixel_driver/joint_states|name|J1,J2,J3,J4,J5,J6|pos|-0.005771,-1.267658,1.294497,0.002216,-1.076488,-0.000083|vel|0.000000,-0.000000,0.000000,0.000000,0.000000,0.000000|eff|0.000000,0.000000,0.000000,0.000000,0.000000,0.000000
cobot_dynamixel_driver/goal|-:J1,J2,J3,J4,J5,J6:0.000000,-0.261799,0.000000,0.000000,0.000000,0.000000:0.500000,0.500000,0.500000,0.500000,0.500000,0.500000:pos_vel_
cobot_dynamixel_driver/goal|-:J1,J2,J3,J4,J5,J6:0.000000,-0.261799,0.000000,0.000000,0.000000,0.000000:0.500000,0.500000,0.500000,0.500000,0.500000,0.500000:pos_vel_
cobot_dynamixel_driver/goal|-:J1,J2,J3,J4,J5,J6:0.000000,-0.261799,0.000000,0.000000,0.000000,0.000000:0.500000,0.500000,0.500000,0.500000,0.500000,0.500000:pos_vel_
cobot_dynamixel_driver/goal|-:J1,J2,J3,J4,J5,J6:0.000000,-0.261799,0.000000,0.000000,0.000000,0.000000:0.500000,0.500000,0.500000,0.500000,0.500000,0.500000:pos_vel_
cobot_dynamixel_driver/goal|-:J1,J2,J3,J4,J5,J6:0.000000,-0.261799,0.000000,0.000000,0.000000,0.000000:0.500000,0.500000,0.500000,0.500000,0.500000,0.500000:pos_vel_
cobot_dynamixel_driver/goal|-:J1,J2,J3,J4,J5,J6:0.000000,-0.261799,0.000000,0.000000,0.000000,0.000000:0.500000,0.500000,0.500000,0.500000,0.500000,0.500000:pos_vel_
cobot_dynamixel_driver/goal|-:J1,J2,J3,J4,J5,J6:0.000000,-0.261799,0.000000,0.000000,0.000000,0.000000:0.500000,0.500000,0.500000,0.500000,0.500000,0.500000:pos_vel_
cobot_dynamixel_driver/goal|-:J1,J2,J3,J4,J5,J6:0.000000,-0.261799,0.000000,0.000000,0.000000,0.000000:0.500000,0.500000,0.500000,0.500000,0.500000,0.500000:pos_vel_
cobot_dynamixel_driver/goal|-:J1,J2,J3,J4,J5,J6:0.000000,-0.261799,0.000000,0.000000,0.000000,0.000000:0.500000,0.500000,0.500000,0.500000,0.500000,0.500000:pos_vel_
cobot_dynamixel_driver/goal|-:J1,J2,J3,J4,J5,J6:0.000000,-0.261799,0.000000,0.000000,0.000000,0.000000:0.500000,0.500000,0.500000,0.500000,0.500000,0.500000:pos_vel_
cobot_dynamixel_driver/goal|-:J1,J2,J3,J4,J5,J6:0.000000,-0.261799,0.000000,0.000000,0.000000,0.000000:0.500000,0.500000,0.500000,0.500000,0.500000,0.500000:pos_vel_
cobot_dynamixel_driver/goal|-:J1,J2,J3,J4,J5,J6:0.000000,-0.261799,0.000000,0.000000,0.000000,0.000000:0.500000,0.500000,0.500000,0.500000,0.500000,0.500000:pos_vel_
cobot_dynamixel_driver/goal|-:J1,J2,J3,J4,J5,J6:0.000000,-0.261799,0.000000,0.000000,0.000000,0.000000:0.500000,0.500000,0.500000,0.500000,0.500000,0.500000:pos_vel_
cobot_dynamixel_driver/goal|-:J1,J2,J3,J4,J5,J6:0.000000,-0.261799,0.000000,0.000000,0.000000,0.000000:0.500000,0.500000,0.500000,0.500000,0.500000,0.500000:pos_vel_
cobot_dynamixel_driver/goal|-:J1,J2,J3,J4,J5,J6:0.000000,-0.261799,0.000000,0.000000,0.000000,0.000000:0.500000,0.500000,0.500000,0.500000,0.500000,0.500000:pos_vel_
cobot_dynamixel_driver/goal|-:J1,J2,J3,J4,J5,J6:0.000000,-0.261799,0.000000,0.000000,0.000000,0.000000:0.500000,0.500000,0.500000,0.500000,0.500000,0.500000:pos_vel_
cobot_dynamixel_driver/goal|-:J1,J2,J3,J4,J5,J6:0.000000,-0.261799,0.000000,0.000000,0.000000,0.000000:0.500000,0.500000,0.500000,0.500000,0.500000,0.500000:pos_vel_
cobot_dynamixel_driver/goal|-:J1,J2,J3,J4,J5,J6:0.000000,-0.261799,0.000000,0.000000,0.000000,0.000000:0.500000,0.500000,0.500000,0.500000,0.500000,0.500000:pos_vel_
cobot_dynamixel_driver/goal|-:J1,J2,J3,J4,J5,J6:0.000000,-0.261799,0.000000,0.000000,0.000000,0.000000:0.500000,0.500000,0.500000,0.500000,0.500000,0.500000:pos_vel_
cobot_dynamixel_driver/goal|-:J1,J2,J3,J4,J5,J6:0.000000,-0.261799,0.000000,0.000000,0.000000,0.000000:0.500000,0.500000,0.500000,0.500000,0.500000,0.500000:pos_vel_
cobot_dynamixel_driver/goal|-:J1,J2,J3,J4,J5,J6:0.000000,-0.261799,0.000000,0.000000,0.000000,0.000000:0.500000,0.500000,0.500000,0.500000,0.500000,0.500000:pos_vel_
cobot_dynamixel_driver/goal|-:J1,J2,J3,J4,J5,J6:0.000000,-0.261799,0.000000,0.000000,0.000000,0.000000:0.500000,0.500000,0.500000,0.500000,0.500000,0.500000:pos_vel_
cobot_dynamixel_driver/goal|-:J1,J2,J3,J4,J5,J6:0.000000,-0.261799,0.000000,0.000000,0.000000,0.000000:0.500000,0.500000,0.500000,0.500000,0.500000,0.500000:pos_vel_
cobot_dynamixel_driver/goal|-:J1,J2,J3,J4,J5,J6:0.000000,-0.261799,0.000000,0.000000,0.000000,0.000000:0.500000,0.500000,0.500000,0.500000,0.500000,0.500000:pos_vel_
cobot_dynamixel_driver/goal|-:J1,J2,J3,J4,J5,J6:0.000000,-0.261799,0.000000,0.000000,0.000000,0.000000:0.500000,0.500000,0.500000,0.500000,0.500000,0.500000:pos_vel_
cobot_dynamixel_driver/goal|-:J1,J2,J3,J4,J5,J6:0.000000,-0.261799,0.000000,0.000000,0.000000,0.000000:0.500000,0.500000,0.500000,0.500000,0.500000,0.500000:pos_vel_
cobot_dynamixel_driver/goal|-:J1,J2,J3,J4,J5,J6:0.000000,-0.261799,0.000000,0.000000,0.000000,0.000000:0.500000,0.500000,0.500000,0.500000,0.500000,0.500000:pos_vel_
cobot_dynamixel_driver/goal|-:J1,J2,J3,J4,J5,J6:0.000000,-0.261799,0.000000,0.000000,0.000000,0.000000:0.500000,0.500000,0.500000,0.500000,0.500000,0.500000:pos_vel_
cobot_dynamixel_driver/goal|-:J1,J2,J3,J4,J5,J6:0.000000,-0.261799,0.000000,0.000000,0.000000,0.000000:0.500000,0.500000,0.500000,0.500000,0.500000,0.500000:pos_vel_
cobot_dynamixel_driver/goal|-:J1,J2,J3,J4,J5,J6:0.000000,-0.261799,0.000000,0.000000,0.000000,0.000000:0.500000,0.500000,0.500000,0.500000,0.500000,0.500000:pos_vel_
cobot_dynamixel_driver/joint_states|name|J1,J2,J3,J4,J5,J6|pos|-0.005220,-1.267658,1.294497,0.002216,-1.076488,-0.000083|vel|0.000000,-0.000000,0.000000,0.000000,0.000000,0.000000|eff|0.000000,0.000000,0.000000,0.000000,12.084961,0.000000
cobot_dynamixel_driver/goal|-:J1,J2,J3,J4,J5,J6:0.000000,-0.261799,0.000000,0.000000,0.000000,0.000000:0.500000,0.500000,0.500000,0.500000,0.500000,0.500000:pos_vel_
cobot_dynamixel_driver/goal|-:J1,J2,J3,J4,J5,J6:0.000000,-0.261799,0.000000,0.000000,0.000000,0.000000:0.500000,0.500000,0.500000,0.500000,0.500000,0.500000:pos_vel_
cobot_dynamixel_driver/goal|-:J1,J2,J3,J4,J5,J6:0.000000,-0.261799,0.000000,0.000000,0.000000,0.000000:0.500000,0.500000,0.500000,0.500000,0.500000,0.500000:pos_vel_
cobot_dynamixel_driver/goal|-:J1,J2,J3,J4,J5,J6:0.000000,-0.261799,0.000000,0.000000,0.000000,0.000000:0.500000,0.500000,0.500000,0.500000,0.500000,0.500000:pos_vel_
cobot_dynamixel_driver/goal|-:J1,J2,J3,J4,J5,J6:0.000000,-0.261799,0.000000,0.000000,0.000000,0.000000:0.500000,0.500000,0.500000,0.500000,0.500000,0.500000:pos_vel_
cobot_dynamixel_driver/goal|-:J1,J2,J3,J4,J5,J6:0.000000,-0.261799,0.000000,0.000000,0.000000,0.000000:0.500000,0.500000,0.500000,0.500000,0.500000,0.500000:pos_vel_
cobot_dynamixel_driver/goal|-:J1,J2,J3,J4,J5,J6:0.000000,-0.261799,0.000000,0.000000,0.000000,0.000000:0.500000,0.500000,0.500000,0.500000,0.500000,0.500000:pos_vel_
cobot_dynamixel_driver/goal|-:J1,J2,J3,J4,J5,J6:0.000000,-0.261799,0.000000,0.000000,0.000000,0.000000:0.500000,0.500000,0.500000,0.500000,0.500000,0.500000:pos_vel_
cobot_dynamixel_driver/joint_states|name|J1,J2,J3,J4,J5,J6|pos|-0.005107,-1.267533,1.294309,0.002091,-1.076074,-0.000083|vel|0.016483,0.018152,-0.025038,-0.016274,0.043432,0.000000|eff|418.945312,-515.625000,-257.812500,-80.566406,124.877930,-8.056641
cobot_dynamixel_driver/joint_states|name|J1,J2,J3,J4,J5,J6|pos|-0.004632,-1.266644,1.293333,0.001928,-1.074275,-0.000083|vel|0.026915,0.069271,-0.074904,-0.006885,0.108236,0.000000|eff|209.472656,-789.550781,-515.625000,-128.906250,96.679688,0.000000
cobot_dynamixel_driver/goal|-:J1,J2,J3,J4,J5,J6:0.000000,-0.261799,0.000000,0.000000,0.000000,0.000000:0.500000,0.500000,0.500000,0.500000,0.500000,0.500000:pos_vel_
cobot_dynamixel_driver/joint_states|name|J1,J2,J3,J4,J5,J6|pos|-0.004169,-1.264842,1.291605,0.001778,-1.071337,-0.000083|vel|0.021073,0.109957,-0.101194,-0.008137,0.179933,0.000000|eff|273.925781,-1224.609375,-1047.363281,-145.019531,80.566406,0.000000
cobot_dynamixel_driver/joint_states|name|J1,J2,J3,J4,J5,J6|pos|-0.003668,-1.261787,1.288789,0.001590,-1.066869,-0.000083|vel|0.022117,0.173177,-0.170464,-0.008763,0.220952,0.000000|eff|257.812500,-1514.648438,-1450.195312,-145.019531,72.509766,-8.056641
cobot_dynamixel_driver/goal|-:J1,J2,J3,J4,J5,J6:0.000000,-0.261799,0.000000,0.000000,0.000000,0.000000:0.500000,0.500000,0.500000,0.500000,0.500000,0.500000:pos_vel_
cobot_dynamixel_driver/joint_states|name|J1,J2,J3,J4,J5,J6|pos|-0.003280,-1.258482,1.285309,0.001452,-1.062691,-0.000083|vel|0.020447,0.219288,-0.242447,-0.007303,0.252320,0.000000|eff|241.699219,-1675.781250,-1401.855469,-177.246094,56.396484,0.000000
cobot_dynamixel_driver/joint_states|name|J1,J2,J3,J4,J5,J6|pos|-0.002804,-1.252949,1.279087,0.001302,-1.056361,-0.000083|vel|0.020865,0.270615,-0.286055,-0.006259,0.280586,0.000000|eff|177.246094,-1901.367188,-1176.269531,-193.359375,60.424805,12.084961
cobot_dynamixel_driver/goal|-:J1,J2,J3,J4,J5,J6:0.000000,-0.261799,0.000000,0.000000,0.000000,0.000000:0.500000,0.500000,0.500000,0.500000,0.500000,0.500000:pos_vel_
cobot_dynamixel_driver/joint_states|name|J1,J2,J3,J4,J5,J6|pos|-0.002341,-1.246477,1.272190,0.001152,-1.049618,-0.000083|vel|0.017944,0.308797,-0.331957,-0.005842,0.310919,0.000000|eff|161.132812,-1466.308594,-1079.589844,-193.359375,64.453125,0.000000
cobot_dynamixel_driver/joint_states|name|J1,J2,J3,J4,J5,J6|pos|-0.001965,-1.238478,1.264015,0.001001,-1.041530,-0.000083|vel|0.014188,0.335295,-0.342806,-0.005216,0.305404,0.000000|eff|112.792969,-2110.839844,-1079.589844,-177.246094,48.339844,12.084961
cobot_dynamixel_driver/goal|-:J1,J2,J3,J4,J5,J6:0.000000,-0.261799,0.000000,0.000000,0.000000,0.000000:0.500000,0.500000,0.500000,0.500000,0.500000,0.500000:pos_vel_
cobot_dynamixel_driver/joint_states|name|J1,J2,J3,J4,J5,J6|pos|-0.001615,-1.228927,1.254464,0.000839,-1.032159,-0.000083|vel|0.012727,0.388500,-0.392673,-0.006677,0.361245,0.000000|eff|177.246094,-2110.839844,-966.796875,-193.359375,44.311523,0.000000
cobot_dynamixel_driver/goal|-:J1,J2,J3,J4,J5,J6:0.000000,-0.261799,0.000000,0.000000,0.000000,0.000000:0.500000,0.500000,0.500000,0.500000,0.500000,0.500000:pos_vel_
cobot_dynamixel_driver/joint_states|name|J1,J2,J3,J4,J5,J6|pos|-0.001327,-1.218837,1.244399,0.000663,-1.022251,-0.000083|vel|0.009180,0.422927,-0.422092,-0.005842,0.393647,0.000000|eff|241.699219,-2014.160156,-1240.722656,-209.472656,52.368164,16.113281
cobot_dynamixel_driver/joint_states|name|J1,J2,J3,J4,J5,J6|pos|-0.001127,-1.208735,1.234259,0.000538,-1.012591,-0.000083|vel|0.007720,0.389543,-0.411034,-0.005216,0.361935,0.000000|eff|177.246094,-1401.855469,-1192.382812,-209.472656,56.396484,0.000000
cobot_dynamixel_driver/goal|-:J1,J2,J3,J4,J5,J6:0.000000,-0.261799,0.000000,0.000000,0.000000,0.000000:0.500000,0.500000,0.500000,0.500000,0.500000,0.500000:pos_vel_
cobot_dynamixel_driver/joint_states|name|J1,J2,J3,J4,J5,J6|pos|-0.000989,-1.198545,1.224383,0.000451,-1.002538,-0.000083|vel|0.005633,0.427517,-0.454015,-0.002712,0.367795,0.000000|eff|225.585938,-1708.007812,-1015.136719,-161.132812,44.311523,0.000000
cobot_dynamixel_driver/goal|-:J1,J2,J3,J4,J5,J6:0.000000,-0.261799,0.000000,0.000000,0.000000,0.000000:0.500000,0.500000,0.500000,0.500000,0.500000,0.500000:pos_vel_
cobot_dynamixel_driver/joint_states|name|J1,J2,J3,J4,J5,J6|pos|-0.000851,-1.187041,1.212991,0.000401,-0.991409,-0.000083|vel|0.004799,0.461944,-0.458397,-0.001669,0.434666,0.000000|eff|177.246094,-1627.441406,-1337.402344,-161.132812,36.254883,0.000000
cobot_dynamixel_driver/joint_states|name|J1,J2,J3,J4,J5,J6|pos|-0.000751,-1.179655,1.205693,0.000363,-0.984252,-0.000083|vel|0.006259,0.416876,-0.450259,-0.001461,0.398818,0.000000|eff|193.359375,-918.457031,-805.664062,-177.246094,52.368164,0.000000
cobot_dynamixel_driver/goal|-:J1,J2,J3,J4,J5,J6:0.000000,-0.261799,0.000000,0.000000,0.000000,0.000000:0.500000,0.500000,0.500000,0.500000,0.500000,0.500000:pos_vel_
cobot_dynamixel_driver/joint_states|name|J1,J2,J3,J4,J5,J6|pos|-0.000651,-1.171243,1.197456,0.000313,-0.976081,-0.000083|vel|0.004799,0.437949,-0.473002,-0.002712,0.471894,0.000000|eff|209.472656,-886.230469,-1176.269531,-209.472656,32.226562,0.000000
cobot_dynamixel_driver/joint_states|name|J1,J2,J3,J4,J5,J6|pos|-0.000563,-1.163707,1.189957,0.000275,-0.968676,-0.000083|vel|0.005216,0.439201,-0.467786,-0.002712,0.374689,0.000000|eff|112.792969,-1546.875000,-789.550781,-161.132812,36.254883,0.000000
cobot_dynamixel_driver/goal|-:J1,J2,J3,J4,J5,J6:0.000000,-0.261799,0.000000,0.000000,0.000000,0.000000:0.500000,0.500000,0.500000,0.500000,0.500000,0.500000:pos_vel_
cobot_dynamixel_driver/joint_states|name|J1,J2,J3,J4,J5,J6|pos|-0.000476,-1.155633,1.181971,0.000225,-0.960795,-0.000083|vel|0.004799,0.494075,-0.447547,-0.002712,0.498780,0.000000|eff|225.585938,-837.890625,-1417.968750,-177.246094,56.396484,0.000000
cobot_dynamixel_driver/joint_states|name|J1,J2,J3,J4,J5,J6|pos|-0.000413,-1.147921,1.174335,0.000188,-0.953182,-0.000083|vel|0.004173,0.479679,-0.459023,-0.001878,0.452935,0.000000|eff|241.699219,-1885.253906,-821.777344,-96.679688,36.254883,28.198242
cobot_dynamixel_driver/goal|-:J1,J2,J3,J4,J5,J6:0.000000,-0.261799,0.000000,0.000000,0.000000,0.000000:0.500000,0.500000,0.500000,0.500000,0.500000,0.500000:pos_vel_
cobot_dynamixel_driver/joint_states|name|J1,J2,J3,J4,J5,J6|pos|-0.000363,-1.140135,1.166248,0.000188,-0.945177,-0.000083|vel|0.002712,0.493241,-0.483852,-0.001878,0.430875,0.000000|eff|96.679688,-886.230469,-1417.968750,-193.359375,60.424805,24.169922
cobot_dynamixel_driver/joint_states|name|J1,J2,J3,J4,J5,J6|pos|-0.000325,-1.131823,1.158474,0.000175,-0.937482,-0.000083|vel|0.001878,0.483434,-0.496996,-0.000626,0.457072,0.000000|eff|145.019531,-870.117188,-982.910156,-128.906250,36.254883,0.000000
cobot_dynamixel_driver/joint_states|name|J1,J2,J3,J4,J5,J6|pos|-0.000275,-1.122196,1.148735,0.000163,-0.927946,-0.000083|vel|0.001878,0.479053,-0.471750,-0.000626,0.456727,0.000000|eff|128.906250,-902.343750,-1176.269531,-177.246094,56.396484,0.000000
cobot_dynamixel_driver/goal|-:J1,J2,J3,J4,J5,J6:0.000000,-0.261799,0.000000,0.000000,0.000000,0.000000:0.500000,0.500000,0.500000,0.500000,0.500000,0.500000:pos_vel_
cobot_dynamixel_driver/joint_states|name|J1,J2,J3,J4,J5,J6|pos|-0.000250,-1.113346,1.139972,0.000163,-0.919176,-0.000083|vel|0.001461,0.497622,-0.491154,-0.000626,0.464655,0.000000|eff|161.132812,-2400.878906,-789.550781,-177.246094,36.254883,0.000000
cobot_dynamixel_driver/joint_states|name|J1,J2,J3,J4,J5,J6|pos|-0.000213,-1.103982,1.130684,0.000150,-0.909950,-0.000083|vel|0.001461,0.494493,-0.489276,-0.000626,0.420878,0.000000|eff|161.132812,-2288.085938,-1015.136719,-128.906250,44.311523,32.226562
cobot_dynamixel_driver/goal|-:J1,J2,J3,J4,J5,J6:0.000000,-0.261799,0.000000,0.000000,0.000000,0.000000:0.500000,0.500000,0.500000,0.500000,0.500000,0.500000:pos_vel_
cobot_dynamixel_driver/joint_states|name|J1,J2,J3,J4,J5,J6|pos|-0.000188,-1.094669,1.121358,0.000138,-0.900683,-0.000083|vel|0.001252,0.467994,-0.513897,-0.000209,0.453280,0.000000|eff|145.019531,-2159.179688,-1482.421875,-161.132812,28.198242,28.198242
cobot_dynamixel_driver/joint_states|name|J1,J2,J3,J4,J5,J6|pos|-0.000163,-1.084166,1.111130,0.000113,-0.890464,-0.000083|vel|0.001252,0.497831,-0.442122,-0.000835,0.537387,0.000000|eff|161.132812,-2191.406250,-1482.421875,-193.359375,20.141602,16.113281
cobot_dynamixel_driver/goal|-:J1,J2,J3,J4,J5,J6:0.000000,-0.261799,0.000000,0.000000,0.000000,0.000000:0.500000,0.500000,0.500000,0.500000,0.500000,0.500000:pos_vel_
cobot_dynamixel_driver/joint_states|name|J1,J2,J3,J4,J5,J6|pos|-0.000138,-1.075666,1.102117,0.000100,-0.882170,-0.000083|vel|0.001043,0.499917,-0.526416,-0.000835,0.481545,0.000000|eff|161.132812,-1015.136719,-773.437500,-161.132812,52.368164,24.169922
cobot_dynamixel_driver/joint_states|name|J1,J2,J3,J4,J5,J6|pos|-0.000113,-1.066152,1.093116,0.000088,-0.872654,-0.000083|vel|0.001461,0.518070,-0.495536,-0.000835,0.523943,0.000000|eff|145.019531,-1047.363281,-870.117188,-209.472656,16.113281,0.000000
cobot_dynamixel_driver/goal|-:J1,J2,J3,J4,J5,J6:0.000000,-0.261799,0.000000,0.000000,0.000000,0.000000:0.500000,0.500000,0.500000,0.500000,0.500000,0.500000:pos_vel_
cobot_dynamixel_driver/joint_states|name|J1,J2,J3,J4,J5,J6|pos|-0.000100,-1.056563,1.083528,0.000063,-0.863304,-0.000083|vel|0.001461,0.510141,-0.507429,-0.000626,0.539455,0.000000|eff|161.132812,-563.964844,-660.644531,-128.906250,56.396484,20.141602
cobot_dynamixel_driver/joint_states|name|J1,J2,J3,J4,J5,J6|pos|-0.000088,-1.047024,1.073989,0.000050,-0.853851,-0.000083|vel|0.000626,0.501587,-0.493449,-0.000626,0.479477,0.000000|eff|225.585938,-918.457031,-854.003906,-112.792969,28.198242,0.000000
cobot_dynamixel_driver/goal|-:J1,J2,J3,J4,J5,J6:0.000000,-0.261799,0.000000,0.000000,0.000000,0.000000:0.500000,0.500000,0.500000,0.500000,0.500000,0.500000:pos_vel_
cobot_dynamixel_driver/joint_states|name|J1,J2,J3,J4,J5,J6|pos|-0.000075,-1.035570,1.062084,0.000050,-0.842536,-0.000083|vel|0.000626,0.474254,-0.508681,-0.000626,0.480511,0.000000|eff|161.132812,-1192.382812,-999.023438,-193.359375,24.169922,20.141602
cobot_dynamixel_driver/joint_states|name|J1,J2,J3,J4,J5,J6|pos|-0.000063,-1.026995,1.053972,0.000038,-0.834076,-0.000083|vel|0.000626,0.492823,-0.505551,-0.000626,0.480511,0.000000|eff|128.906250,-1160.156250,-982.910156,-145.019531,44.311523,0.000000
cobot_dynamixel_driver/goal|-:J1,J2,J3,J4,J5,J6:0.000000,-0.261799,0.000000,0.000000,0.000000,0.000000:0.500000,0.500000,0.500000,0.500000,0.500000,0.500000:pos_vel_
cobot_dynamixel_driver/joint_states|name|J1,J2,J3,J4,J5,J6|pos|-0.000063,-1.016405,1.043482,0.000038,-0.823568,-0.000083|vel|0.000626,0.463613,-0.516192,-0.000626,0.557724,0.000000|eff|161.132812,-2223.632812,-1434.082031,-145.019531,44.311523,32.226562
cobot_dynamixel_driver/joint_states|name|J1,J2,J3,J4,J5,J6|pos|-0.000050,-1.008180,1.034832,0.000025,-0.814942,-0.000083|vel|0.000626,0.516818,-0.509098,-0.000626,0.479133,0.000000|eff|177.246094,-2964.843750,-1369.628906,-209.472656,24.169922,28.198242
cobot_dynamixel_driver/goal|-:J1,J2,J3,J4,J5,J6:0.000000,-0.261799,0.000000,0.000000,0.000000,0.000000:0.500000,0.500000,0.500000,0.500000,0.500000,0.500000:pos_vel_
cobot_dynamixel_driver/joint_states|name|J1,J2,J3,J4,J5,J6|pos|-0.000050,-0.996213,1.022802,0.000025,-0.803110,-0.000083|vel|0.000209,0.490111,-0.510350,-0.000626,0.472928,0.000000|eff|80.566406,-660.644531,-725.097656,-128.906250,36.254883,36.254883
cobot_dynamixel_driver/goal|-:J1,J2,J3,J4,J5,J6:0.000000,-0.261799,0.000000,0.000000,0.000000,0.000000:0.500000,0.500000,0.500000,0.500000,0.500000,0.500000:pos_vel_
cobot_dynamixel_driver/joint_states|name|J1,J2,J3,J4,J5,J6|pos|-0.000038,-0.984621,1.011773,0.000025,-0.792147,-0.000083|vel|0.000209,0.469872,-0.518278,-0.000626,0.503606,0.000000|eff|161.132812,-1079.589844,-1401.855469,-145.019531,44.311523,32.226562
cobot_dynamixel_driver/joint_states|name|J1,J2,J3,J4,J5,J6|pos|-0.000038,-0.976484,1.003098,0.000025,-0.784079,-0.000083|vel|0.000209,0.460483,-0.461944,0.000000,0.490508,0.000000|eff|145.019531,-563.964844,-1015.136719,-177.246094,64.453125,28.198242
cobot_dynamixel_driver/goal|-:J1,J2,J3,J4,J5,J6:0.000000,-0.261799,0.000000,0.000000,0.000000,0.000000:0.500000,0.500000,0.500000,0.500000,0.500000,0.500000:pos_vel_
cobot_dynamixel_driver/joint_states|name|J1,J2,J3,J4,J5,J6|pos|-0.000025,-0.967859,0.994924,0.000025,-0.775557,-0.000083|vel|0.000209,0.443165,-0.509306,-0.002712,0.539455,0.000000|eff|161.132812,-692.871094,-692.871094,-145.019531,60.424805,28.198242
cobot_dynamixel_driver/joint_states|name|J1,J2,J3,J4,J5,J6|pos|-0.000013,-0.959572,0.986336,0.000025,-0.767366,-0.000083|vel|0.000209,0.486773,-0.492615,-0.001043,0.520841,0.000000|eff|161.132812,-805.664062,-1079.589844,-209.472656,44.311523,36.254883
cobot_dynamixel_driver/joint_states|name|J1,J2,J3,J4,J5,J6|pos|0.000000,-0.948982,0.976134,0.000025,-0.756795,-0.000083|vel|0.000417,0.499083,-0.493867,-0.001043,0.484303,0.000000|eff|145.019531,-854.003906,-644.531250,-96.679688,28.198242,36.254883
cobot_dynamixel_driver/goal|-:J1,J2,J3,J4,J5,J6:0.000000,-0.261799,0.000000,0.000000,0.000000,0.000000:0.500000,0.500000,0.500000,0.500000,0.500000,0.500000:pos_vel_
cobot_dynamixel_driver/joint_states|name|J1,J2,J3,J4,J5,J6|pos|0.000013,-0.937377,0.964517,0.000025,-0.745232,-0.000083|vel|0.000417,0.494075,-0.525164,-0.001043,0.519462,0.000000|eff|161.132812,-1015.136719,-773.437500,-128.906250,40.283203,32.226562
cobot_dynamixel_driver/goal|-:J1,J2,J3,J4,J5,J6:0.000000,-0.261799,0.000000,0.000000,0.000000,0.000000:0.500000,0.500000,0.500000,0.500000,0.500000,0.500000:pos_vel_
cobot_dynamixel_driver/joint_states|name|J1,J2,J3,J4,J5,J6|pos|0.000025,-0.928189,0.955316,0.000025,-0.736172,-0.000083|vel|0.000626,0.512019,-0.512228,-0.001043,0.446041,0.000000|eff|145.019531,-821.777344,-692.871094,-128.906250,56.396484,36.254883
cobot_dynamixel_driver/joint_states|name|J1,J2,J3,J4,J5,J6|pos|0.000050,-0.920002,0.946616,0.000025,-0.727505,-0.000083|vel|0.000626,0.504508,-0.450468,-0.001043,0.463621,0.000000|eff|145.019531,-789.550781,-708.984375,-96.679688,32.226562,32.226562
cobot_dynamixel_driver/goal|-:J1,J2,J3,J4,J5,J6:0.000000,-0.261799,0.000000,0.000000,0.000000,0.000000:0.500000,0.500000,0.500000,0.500000,0.500000,0.500000:pos_vel_
cobot_dynamixel_driver/joint_states|name|J1,J2,J3,J4,J5,J6|pos|0.000063,-0.909837,0.936964,0.000025,-0.717907,-0.000083|vel|0.000835,0.504090,-0.432733,-0.001043,0.483958,0.000000|eff|96.679688,-1272.949219,-1627.441406,-193.359375,56.396484,32.226562
cobot_dynamixel_driver/joint_states|name|J1,J2,J3,J4,J5,J6|pos|0.000063,-0.901613,0.928727,0.000025,-0.709695,-0.000083|vel|0.000835,0.483017,-0.557504,-0.001043,0.473617,0.000000|eff|96.679688,-2545.898438,-1514.648438,-96.679688,64.453125,12.084961
cobot_dynamixel_driver/joint_states|name|J1,J2,J3,J4,J5,J6|pos|0.000063,-0.892887,0.920115,0.000025,-0.701028,-0.000083|vel|0.000835,0.536639,-0.481974,0.000000,0.506364,0.000000|eff|161.132812,-499.511719,-2014.160156,-193.359375,20.141602,32.226562
cobot_dynamixel_driver/goal|-:J1,J2,J3,J4,J5,J6:0.000000,-0.261799,0.000000,0.000000,0.000000,0.000000:0.500000,0.500000,0.500000,0.500000,0.500000,0.500000:pos_vel_
cobot_dynamixel_driver/joint_states|name|J1,J2,J3,J4,J5,J6|pos|0.000063,-0.883173,0.910413,0.000025,-0.691595,-0.000083|vel|0.000835,0.479679,-0.461944,0.000000,0.430875,0.000000|eff|0.000000,-1031.250000,-660.644531,-96.679688,52.368164,36.254883
cobot_dynamixel_driver/joint_states|name|J1,J2,J3,J4,J5,J6|pos|0.000063,-0.873071,0.899710,0.000025,-0.681108,-0.000083|vel|0.000835,0.504299,-0.494075,0.000000,0.497402,0.000000|eff|161.132812,-660.644531,-725.097656,-193.359375,72.509766,36.254883
cobot_dynamixel_driver/goal|-:J1,J2,J3,J4,J5,J6:0.000000,-0.261799,0.000000,0.000000,0.000000,0.000000:0.500000,0.500000,0.500000,0.500000,0.500000,0.500000:pos_vel_
cobot_dynamixel_driver/joint_states|name|J1,J2,J3,J4,J5,J6|pos|0.000063,-0.863833,0.891022,0.000025,-0.672399,-0.000083|vel|0.000835,0.482182,-0.499500,0.000000,0.484303,0.000000|eff|80.566406,-1434.082031,-1562.988281,-161.132812,24.169922,36.254883
cobot_dynamixel_driver/goal|-:J1,J2,J3,J4,J5,J6:0.000000,-0.261799,0.000000,0.000000,0.000000,0.000000:0.500000,0.500000,0.500000,0.500000,0.500000,0.500000:pos_vel_
cobot_dynamixel_driver/joint_states|name|J1,J2,J3,J4,J5,J6|pos|0.000063,-0.852241,0.879355,0.000025,-0.660877,-0.000083|vel|0.000000,0.496788,-0.489485,0.000000,0.487750,0.000000|eff|112.792969,-1369.628906,-1401.855469,-193.359375,40.283203,32.226562
cobot_dynamixel_driver/joint_states|name|J1,J2,J3,J4,J5,J6|pos|0.000063,-0.844041,0.871118,0.000025,-0.652748,-0.000083|vel|0.000000,0.477801,-0.489694,0.000000,0.438458,0.000000|eff|96.679688,-451.171875,-1595.214844,-177.246094,28.198242,36.254883
cobot_dynamixel_driver/joint_states|name|J1,J2,J3,J4,J5,J6|pos|0.000063,-0.834765,0.862043,0.000025,-0.643605,-0.000083|vel|0.000000,0.501169,-0.489902,0.000000,0.430530,0.000000|eff|161.132812,-2288.085938,-1224.609375,-145.019531,28.198242,32.226562
cobot_dynamixel_driver/goal|-:J1,J2,J3,J4,J5,J6:0.000000,-0.261799,0.000000,0.000000,0.000000,0.000000:0.500000,0.500000,0.500000,0.500000,0.500000,0.500000:pos_vel_
cobot_dynamixel_driver/joint_states|name|J1,J2,J3,J4,J5,J6|pos|0.000063,-0.825076,0.852303,0.000025,-0.634152,0.000041|vel|0.000000,0.458814,-0.508055,0.000000,0.484648,0.009652|eff|32.226562,-370.605469,-1691.894531,-112.792969,32.226562,12.084961
cobot_dynamixel_driver/joint_states|name|J1,J2,J3,J4,J5,J6|pos|0.000063,-0.815375,0.842627,0.000025,-0.624657,0.000083|vel|0.000000,0.486773,-0.499291,0.000000,0.401575,0.007928|eff|96.679688,-1224.609375,-837.890625,-128.906250,40.283203,-8.056641
cobot_dynamixel_driver/goal|-:J1,J2,J3,J4,J5,J6:0.000000,-0.261799,0.000000,0.000000,0.000000,0.000000:0.500000,0.500000,0.500000,0.500000,0.500000,0.500000:pos_vel_
cobot_dynamixel_driver/joint_states|name|J1,J2,J3,J4,J5,J6|pos|0.000063,-0.805673,0.832900,0.000025,-0.615018,0.000083|vel|0.000000,0.502421,-0.511184,0.000000,0.512224,0.007928|eff|145.019531,-1853.027344,-1015.136719,-193.359375,44.311523,-8.056641
cobot_dynamixel_driver/joint_states|name|J1,J2,J3,J4,J5,J6|pos|0.000063,-0.796034,0.823173,0.000025,-0.605358,0.000083|vel|0.000000,0.523703,-0.508889,0.000000,0.499125,-0.000689|eff|0.000000,-628.417969,-1675.781250,-177.246094,72.509766,-28.198242
cobot_dynamixel_driver/goal|-:J1,J2,J3,J4,J5,J6:0.000000,-0.261799,0.000000,0.000000,0.000000,0.000000:0.500000,0.500000,0.500000,0.500000,0.500000,0.500000:pos_vel_
cobot_dynamixel_driver/joint_states|name|J1,J2,J3,J4,J5,J6|pos|0.000063,-0.786320,0.813497,0.000025,-0.595780,0.000062|vel|0.000000,0.521408,-0.490320,0.000000,0.484303,-0.000689|eff|161.132812,-547.851562,-628.417969,-145.019531,56.396484,0.000000
cobot_dynamixel_driver/joint_states|name|J1,J2,J3,J4,J5,J6|pos|0.000063,-0.776681,0.803845,0.000025,-0.586100,0.000062|vel|0.000000,0.534135,-0.521617,0.000000,0.524978,-0.000689|eff|0.000000,-1208.496094,-918.457031,-112.792969,44.311523,-32.226562
cobot_dynamixel_driver/goal|-:J1,J2,J3,J4,J5,J6:0.000000,-0.261799,0.000000,0.000000,0.000000,0.000000:0.500000,0.500000,0.500000,0.500000,0.500000,0.500000:pos_vel_
cobot_dynamixel_driver/joint_states|name|J1,J2,J3,J4,J5,J6|pos|0.000063,-0.765990,0.793267,0.000025,-0.575467,0.000062|vel|0.000000,0.525998,-0.522869,0.000000,0.412261,-0.000689|eff|0.000000,-1160.156250,-854.003906,-145.019531,40.283203,-28.198242
cobot_dynamixel_driver/joint_states|name|J1,J2,J3,J4,J5,J6|pos|0.000063,-0.756814,0.784016,0.000025,-0.566304,0.000062|vel|0.000000,0.468203,-0.436489,0.000000,0.504296,-0.000689|eff|128.906250,-902.343750,-692.871094,-128.906250,48.339844,0.000000
cobot_dynamixel_driver/goal|-:J1,J2,J3,J4,J5,J6:0.000000,-0.261799,0.000000,0.000000,0.000000,0.000000:0.500000,0.500000,0.500000,0.500000,0.500000,0.500000:pos_vel_
cobot_dynamixel_driver/joint_states|name|J1,J2,J3,J4,J5,J6|pos|0.000063,-0.747664,0.774740,0.000025,-0.557161,0.000062|vel|0.000000,0.478427,-0.425848,0.000000,0.554277,-0.000689|eff|32.226562,-725.097656,-741.210938,-161.132812,28.198242,0.000000
cobot_dynamixel_driver/joint_states|name|J1,J2,J3,J4,J5,J6|pos|0.000063,-0.734081,0.760682,0.000025,-0.543757,0.000062|vel|0.000000,0.478427,-0.513062,0.000000,0.491542,0.000000|eff|145.019531,-1031.250000,-854.003906,-193.359375,68.481445,-8.056641
cobot_dynamixel_driver/goal|-:J1,J2,J3,J4,J5,J6:0.000000,-0.261799,0.000000,0.000000,0.000000,0.000000:0.500000,0.500000,0.500000,0.500000,0.500000,0.500000:pos_vel_
cobot_dynamixel_driver/joint_states|name|J1,J2,J3,J4,J5,J6|pos|0.000063,-0.724930,0.751469,0.000025,-0.534097,0.000062|vel|0.000000,0.501587,-0.526416,0.000000,0.446041,0.000000|eff|112.792969,-467.285156,-692.871094,-161.132812,28.198242,-12.084961
cobot_dynamixel_driver/goal|-:J1,J2,J3,J4,J5,J6:0.000000,-0.261799,0.000000,0.000000,0.000000,0.000000:0.500000,0.500000,0.500000,0.500000,0.500000,0.500000:pos_vel_
cobot_dynamixel_driver/joint_states|name|J1,J2,J3,J4,J5,J6|pos|0.000063,-0.715642,0.742857,0.000025,-0.525429,0.000062|vel|0.000000,0.524120,-0.507846,0.000000,0.488439,0.000000|eff|80.566406,-612.304688,-1530.761719,-145.019531,52.368164,-12.084961
cobot_dynamixel_driver/joint_states|name|J1,J2,J3,J4,J5,J6|pos|0.000063,-0.707355,0.734632,0.000025,-0.517300,0.000062|vel|0.000000,0.468412,-0.521199,0.000000,0.480167,0.000000|eff|0.000000,-1804.687500,-1321.289062,-128.906250,60.424805,-32.226562
cobot_dynamixel_driver/goal|-:J1,J2,J3,J4,J5,J6:0.000000,-0.261799,0.000000,0.000000,0.000000,0.000000:0.500000,0.500000,0.500000,0.500000,0.500000,0.500000:pos_vel_
cobot_dynamixel_driver/joint_states|name|J1,J2,J3,J4,J5,J6|pos|0.000063,-0.697165,0.724417,0.000025,-0.507206,0.000062|vel|0.000000,0.488442,-0.509098,0.000000,0.496368,0.000000|eff|112.792969,-1498.535156,-934.570312,-112.792969,60.424805,-20.141602
cobot_dynamixel_driver/joint_states|name|J1,J2,J3,J4,J5,J6|pos|0.000063,-0.688890,0.715642,0.000025,-0.498538,0.000062|vel|0.000000,0.477801,-0.525372,0.000000,0.415018,0.000000|eff|0.000000,-2529.785156,-1305.175781,-96.679688,24.169922,-20.141602
cobot_dynamixel_driver/joint_states|name|J1,J2,J3,J4,J5,J6|pos|0.000063,-0.679727,0.706879,0.000025,-0.489975,0.000062|vel|0.000000,0.495536,-0.529545,0.000000,0.480856,0.000000|eff|0.000000,-1015.136719,-821.777344,-145.019531,64.453125,-36.254883
cobot_dynamixel_driver/goal|-:J1,J2,J3,J4,J5,J6:0.000000,-0.261799,0.000000,0.000000,0.000000,0.000000:0.500000,0.500000,0.500000,0.500000,0.500000,0.500000:pos_vel_
cobot_dynamixel_driver/joint_states|name|J1,J2,J3,J4,J5,J6|pos|0.000063,-0.670076,0.697178,0.000025,-0.480377,0.000062|vel|0.000000,0.503047,-0.527667,0.000000,0.483269,0.000000|eff|0.000000,-1836.914062,-1272.949219,-161.132812,80.566406,-32.226562
cobot_dynamixel_driver/goal|-:J1,J2,J3,J4,J5,J6:0.000000,-0.261799,0.000000,0.000000,0.000000,0.000000:0.500000,0.500000,0.500000,0.500000,0.500000,0.500000:pos_vel_
cobot_dynamixel_driver/joint_states|name|J1,J2,J3,J4,J5,J6|pos|0.000063,-0.656043,0.682669,0.000025,-0.465897,0.000062|vel|0.000000,0.443374,-0.500126,0.000000,0.546349,0.000000|eff|80.566406,-596.191406,-725.097656,-112.792969,64.453125,0.000000
cobot_dynamixel_driver/joint_states|name|J1,J2,J3,J4,J5,J6|pos|0.000063,-0.647305,0.674495,0.000025,-0.457685,0.000062|vel|0.000000,0.512645,-0.444209,0.000000,0.544970,0.000000|eff|0.000000,-725.097656,-757.324219,-193.359375,84.594727,-24.169922
cobot_dynamixel_driver/goal|-:J1,J2,J3,J4,J5,J6:0.000000,-0.261799,0.000000,0.000000,0.000000,0.000000:0.500000,0.500000,0.500000,0.500000,0.500000,0.500000:pos_vel_
cobot_dynamixel_driver/joint_states|name|J1,J2,J3,J4,J5,J6|pos|0.000063,-0.638517,0.665319,0.000025,-0.448687,0.000062|vel|0.000000,0.470915,-0.497831,0.000000,0.488784,0.000000|eff|145.019531,-177.246094,-1627.441406,-96.679688,52.368164,-36.254883
cobot_dynamixel_driver/joint_states|name|J1,J2,J3,J4,J5,J6|pos|0.000063,-0.629366,0.656581,0.000025,-0.440164,0.000062|vel|0.000000,0.452555,-0.435446,0.000000,0.522909,0.000000|eff|80.566406,-2062.500000,-1224.609375,-145.019531,64.453125,-12.084961
cobot_dynamixel_driver/goal|-:J1,J2,J3,J4,J5,J6:0.000000,-0.261799,0.000000,0.000000,0.000000,0.000000:0.500000,0.500000,0.500000,0.500000,0.500000,0.500000:pos_vel_
cobot_dynamixel_driver/joint_states|name|J1,J2,J3,J4,J5,J6|pos|0.000063,-0.620716,0.647368,0.000025,-0.430918,0.000062|vel|0.000000,0.497205,-0.508055,0.000000,0.529803,0.000000|eff|0.000000,-290.039062,-821.777344,-145.019531,48.339844,-8.056641
cobot_dynamixel_driver/joint_states|name|J1,J2,J3,J4,J5,J6|pos|0.000050,-0.611453,0.638592,0.000025,-0.422313,0.000041|vel|0.000000,0.539978,-0.514940,0.000000,0.500849,0.000000|eff|112.792969,-1933.593750,-1417.968750,-112.792969,48.339844,-28.198242
cobot_dynamixel_driver/joint_states|name|J1,J2,J3,J4,J5,J6|pos|0.000050,-0.602239,0.629379,0.000025,-0.413191,0.000021|vel|0.000000,0.517444,-0.508263,0.000000,0.489818,0.000000|eff|0.000000,-2175.292969,-1369.628906,-96.679688,60.424805,-32.226562
cobot_dynamixel_driver/goal|-:J1,J2,J3,J4,J5,J6:0.000000,-0.261799,0.000000,0.000000,0.000000,0.000000:0.500000,0.500000,0.500000,0.500000,0.500000,0.500000:pos_vel_
cobot_dynamixel_driver/joint_states|name|J1,J2,J3,J4,J5,J6|pos|0.000050,-0.592488,0.619790,0.000025,-0.403448,-0.000021|vel|0.000000,0.506803,-0.483852,0.000000,0.481545,-0.002068|eff|80.566406,-48.339844,-1659.667969,-128.906250,44.311523,0.000000
cobot_dynamixel_driver/joint_states|name|J1,J2,J3,J4,J5,J6|pos|0.000050,-0.582248,0.609575,0.000025,-0.393395,-0.000021|vel|0.000000,0.478844,-0.493449,0.000000,0.435700,-0.002068|eff|0.000000,-2110.839844,-918.457031,-128.906250,84.594727,0.000000
cobot_dynamixel_driver/goal|-:J1,J2,J3,J4,J5,J6:0.000000,-0.261799,0.000000,0.000000,0.000000,0.000000:0.500000,0.500000,0.500000,0.500000,0.500000,0.500000:pos_vel_
cobot_dynamixel_driver/joint_states|name|J1,J2,J3,J4,J5,J6|pos|0.000050,-0.573059,0.600362,0.000025,-0.384190,-0.000021|vel|0.000000,0.503047,-0.524120,0.000000,0.492921,-0.002068|eff|145.019531,-2030.273438,-1095.703125,-112.792969,60.424805,-32.226562
cobot_dynamixel_driver/joint_states|name|J1,J2,J3,J4,J5,J6|pos|0.000050,-0.562882,0.590109,0.000025,-0.374157,-0.000021|vel|0.000000,0.489902,-0.494493,0.000000,0.491542,-0.002068|eff|112.792969,-161.132812,-1095.703125,-112.792969,56.396484,0.000000
cobot_dynamixel_driver/goal|-:J1,J2,J3,J4,J5,J6:0.000000,-0.261799,0.000000,0.000000,0.000000,0.000000:0.500000,0.500000,0.500000,0.500000,0.500000,0.500000:pos_vel_
cobot_dynamixel_driver/joint_states|name|J1,J2,J3,J4,J5,J6|pos|0.000050,-0.553706,0.580871,0.000025,-0.365014,-0.000021|vel|0.000000,0.481556,-0.507429,0.000000,0.513947,-0.002068|eff|112.792969,-354.492188,-692.871094,-112.792969,56.396484,0.000000
cobot_dynamixel_driver/joint_states|name|J1,J2,J3,J4,J5,J6|pos|0.000050,-0.542114,0.569216,0.000025,-0.353493,-0.000021|vel|0.000000,0.441914,-0.477175,0.000000,0.558413,-0.002068|eff|0.000000,-225.585938,-660.644531,-96.679688,64.453125,0.000000
cobot_dynamixel_driver/goal|-:J1,J2,J3,J4,J5,J6:0.000000,-0.261799,0.000000,0.000000,0.000000,0.000000:0.500000,0.500000,0.500000,0.500000,0.500000,0.500000:pos_vel_
cobot_dynamixel_driver/joint_states|name|J1,J2,J3,J4,J5,J6|pos|0.000050,-0.533414,0.560028,0.000025,-0.344370,-0.000021|vel|0.000000,0.500543,-0.458814,0.000000,0.503951,0.000000|eff|128.906250,-1643.554688,-1401.855469,-112.792969,80.566406,0.000000
cobot_dynamixel_driver/joint_states|name|J1,J2,J3,J4,J5,J6|pos|0.000050,-0.524651,0.551428,0.000025,-0.336137,-0.000021|vel|0.000000,0.481348,-0.499083,0.000000,0.531872,0.000000|eff|0.000000,-112.792969,-1176.269531,-161.132812,44.311523,0.000000
cobot_dynamixel_driver/goal|-:J1,J2,J3,J4,J5,J6:0.000000,-0.261799,0.000000,0.000000,0.000000,0.000000:0.500000,0.500000,0.500000,0.500000,0.500000,0.500000:pos_vel_
cobot_dynamixel_driver/joint_states|name|J1,J2,J3,J4,J5,J6|pos|0.000050,-0.514887,0.542315,0.000025,-0.326519,-0.000021|vel|0.000000,0.494910,-0.500335,0.000000,0.480511,0.000000|eff|80.566406,-612.304688,-1111.816406,-193.359375,56.396484,0.000000
cobot_dynamixel_driver/joint_states|name|J1,J2,J3,J4,J5,J6|pos|0.000050,-0.504322,0.531611,0.000025,-0.315949,-0.000021|vel|0.000000,0.457771,-0.513897,0.000000,0.525322,0.000000|eff|0.000000,-854.003906,-644.531250,-128.906250,60.424805,-8.056641
cobot_dynamixel_driver/goal|-:J1,J2,J3,J4,J5,J6:0.000000,-0.261799,0.000000,0.000000,0.000000,0.000000:0.500000,0.500000,0.500000,0.500000,0.500000,0.500000:pos_vel_
cobot_dynamixel_driver/joint_states|name|J1,J2,J3,J4,J5,J6|pos|0.000050,-0.494683,0.521434,0.000025,-0.306309,-0.000021|vel|0.000000,0.478218,-0.503673,0.000000,0.513258,0.000000|eff|64.453125,-918.457031,-1514.648438,-96.679688,64.453125,0.000000
cobot_dynamixel_driver/joint_states|name|J1,J2,J3,J4,J5,J6|pos|0.000050,-0.485907,0.512634,0.000025,-0.297208,-0.000021|vel|0.000000,0.492406,-0.491572,0.000000,0.486371,0.000000|eff|0.000000,-692.871094,-708.984375,-96.679688,64.453125,0.000000
cobot_dynamixel_driver/goal|-:J1,J2,J3,J4,J5,J6:0.000000,-0.261799,0.000000,0.000000,0.000000,0.000000:0.500000,0.500000,0.500000,0.500000,0.500000,0.500000:pos_vel_
cobot_dynamixel_driver/joint_states|name|J1,J2,J3,J4,J5,J6|pos|0.000050,-0.476181,0.503483,0.000025,-0.288106,-0.000021|vel|0.000000,0.500961,-0.514523,0.000000,0.486716,0.000000|eff|64.453125,-1256.835938,-837.890625,-112.792969,76.538086,0.000000
cobot_dynamixel_driver/joint_states|name|J1,J2,J3,J4,J5,J6|pos|0.000050,-0.466442,0.493919,0.000025,-0.278446,-0.000021|vel|0.000000,0.481139,-0.509724,0.000000,0.546349,0.000000|eff|0.000000,-612.304688,-1208.496094,-96.679688,60.424805,0.000000
cobot_dynamixel_driver/goal|-:J1,J2,J3,J4,J5,J6:0.000000,-0.261799,0.000000,0.000000,0.000000,0.000000:0.500000,0.500000,0.500000,0.500000,0.500000,0.500000:pos_vel_
cobot_dynamixel_driver/joint_states|name|J1,J2,J3,J4,J5,J6|pos|0.000050,-0.456702,0.484130,0.000025,-0.268827,-0.000021|vel|0.000000,0.488025,-0.515983,0.000000,0.492921,0.000000|eff|0.000000,0.000000,-1643.554688,-193.359375,64.453125,0.000000
cobot_dynamixel_driver/joint_states|name|J1,J2,J3,J4,J5,J6|pos|0.000050,-0.447013,0.474428,0.000025,-0.259167,-0.000021|vel|0.000000,0.511393,-0.508681,0.000000,0.521875,0.000000|eff|0.000000,-1063.476562,-660.644531,-145.019531,72.509766,-12.084961
cobot_dynamixel_driver/goal|-:J1,J2,J3,J4,J5,J6:0.000000,-0.261799,0.000000,0.000000,0.000000,0.000000:0.500000,0.500000,0.500000,0.500000,0.500000,0.500000:pos_vel_
cobot_dynamixel_driver/joint_states|name|J1,J2,J3,J4,J5,J6|pos|0.000050,-0.437362,0.464188,0.000025,-0.249569,-0.000021|vel|0.000000,0.526416,-0.525164,0.000000,0.496712,0.000000|eff|128.906250,-1031.250000,-1321.289062,-177.246094,60.424805,0.000000
cobot_dynamixel_driver/joint_states|name|J1,J2,J3,J4,J5,J6|pos|0.000050,-0.427184,0.453886,0.000025,-0.239557,-0.000021|vel|0.000000,0.469455,-0.461735,0.000000,0.557724,0.000000|eff|64.453125,-1514.648438,-966.796875,-112.792969,84.594727,0.000000
cobot_dynamixel_driver/goal|-:J1,J2,J3,J4,J5,J6:0.000000,-0.261799,0.000000,0.000000,0.000000,0.000000:0.500000,0.500000,0.500000,0.500000,0.500000,0.500000:pos_vel_
cobot_dynamixel_driver/joint_states|name|J1,J2,J3,J4,J5,J6|pos|0.000050,-0.418009,0.445098,0.000025,-0.230352,-0.000021|vel|0.000000,0.466534,-0.512228,0.000000,0.506364,0.000000|eff|64.453125,-241.699219,-660.644531,-112.792969,88.623047,0.000000
cobot_dynamixel_driver/joint_states|name|J1,J2,J3,J4,J5,J6|pos|0.000050,-0.404965,0.431578,0.000025,-0.217341,-0.000021|vel|0.000000,0.507429,-0.488025,0.000000,0.510500,0.000000|eff|0.000000,-563.964844,-1450.195312,-112.792969,80.566406,0.000000
cobot_dynamixel_driver/goal|-:J1,J2,J3,J4,J5,J6:0.000000,-0.261799,0.000000,0.000000,0.000000,0.000000:0.500000,0.500000,0.500000,0.500000,0.500000,0.500000:pos_vel_
cobot_dynamixel_driver/joint_states|name|J1,J2,J3,J4,J5,J6|pos|0.000050,-0.395689,0.422478,0.000025,-0.207805,-0.000021|vel|0.000000,0.509098,-0.500752,0.000000,0.495333,0.000000|eff|64.453125,-1192.382812,-1353.515625,-128.906250,84.594727,0.000000
cobot_dynamixel_driver/joint_states|name|J1,J2,J3,J4,J5,J6|pos|0.000050,-0.387402,0.414303,0.000025,-0.199593,-0.000021|vel|0.000000,0.502212,-0.508472,0.000000,0.499125,0.000000|eff|112.792969,-1385.742188,-1015.136719,-112.792969,72.509766,0.000000
cobot_dynamixel_driver/goal|-:J1,J2,J3,J4,J5,J6:0.000000,-0.261799,0.000000,0.000000,0.000000,0.000000:0.500000,0.500000,0.500000,0.500000,0.500000,0.500000:pos_vel_
cobot_dynamixel_driver/joint_states|name|J1,J2,J3,J4,J5,J6|pos|0.000050,-0.378238,0.405565,0.000025,-0.190988,-0.000021|vel|0.000000,0.459649,-0.497831,0.000000,0.519118,0.000000|eff|0.000000,-112.792969,-1369.628906,-145.019531,80.566406,0.000000
cobot_dynamixel_driver/joint_states|name|J1,J2,J3,J4,J5,J6|pos|0.000050,-0.369588,0.396828,0.000025,-0.182362,-0.000021|vel|0.000000,0.492823,-0.515775,0.000000,0.486716,0.000000|eff|0.000000,-2191.406250,-1095.703125,-112.792969,80.566406,-24.169922
cobot_dynamixel_driver/goal|-:J1,J2,J3,J4,J5,J6:0.000000,-0.261799,0.000000,0.000000,0.000000,0.000000:0.500000,0.500000,0.500000,0.500000,0.500000,0.500000:pos_vel_
cobot_dynamixel_driver/joint_states|name|J1,J2,J3,J4,J5,J6|pos|0.000050,-0.359924,0.387101,0.000025,-0.172702,-0.000021|vel|0.000000,0.485729,-0.495953,0.000000,0.442594,0.000000|eff|0.000000,-145.019531,-1562.988281,-177.246094,84.594727,0.000000
cobot_dynamixel_driver/joint_states|name|J1,J2,J3,J4,J5,J6|pos|0.000050,-0.350222,0.377462,0.000025,-0.163125,-0.000021|vel|0.000000,0.506385,-0.511810,0.000000,0.521875,0.000000|eff|80.566406,-225.585938,-644.531250,-128.906250,76.538086,0.000000
cobot_dynamixel_driver/goal|-:J1,J2,J3,J4,J5,J6:0.000000,-0.261799,0.000000,0.000000,0.000000,0.000000:0.500000,0.500000,0.500000,0.500000,0.500000,0.500000:pos_vel_
cobot_dynamixel_driver/joint_states|name|J1,J2,J3,J4,J5,J6|pos|0.000050,-0.340496,0.367911,0.000025,-0.153506,-0.000021|vel|0.000000,0.502421,-0.503047,0.000000,0.500849,0.000000|eff|0.000000,-1144.042969,-805.664062,-193.359375,68.481445,0.000000
cobot_dynamixel_driver/joint_states|name|J1,J2,J3,J4,J5,J6|pos|0.000050,-0.330306,0.357233,0.000025,-0.142957,-0.000021|vel|0.000000,0.490528,-0.455267,0.000000,0.549451,0.000000|eff|0.000000,-628.417969,-757.324219,-96.679688,52.368164,-24.169922
cobot_dynamixel_driver/goal|-:J1,J2,J3,J4,J5,J6:0.000000,-0.261799,0.000000,0.000000,0.000000,0.000000:0.500000,0.500000,0.500000,0.500000,0.500000,0.500000:pos_vel_
cobot_dynamixel_driver/joint_states|name|J1,J2,J3,J4,J5,J6|pos|0.000050,-0.320304,0.347018,0.000025,-0.132862,-0.000021|vel|0.000000,0.438158,-0.461109,0.000000,0.470515,0.000000|eff|0.000000,-112.792969,-741.210938,-177.246094,76.538086,0.000000
cobot_dynamixel_driver/joint_states|name|J1,J2,J3,J4,J5,J6|pos|0.000050,-0.313469,0.338781,0.000025,-0.124671,-0.000021|vel|0.000000,0.382032,-0.519530,0.000000,0.481201,0.000000|eff|0.000000,-112.792969,-692.871094,-96.679688,72.509766,0.000000
cobot_dynamixel_driver/goal|-:J1,J2,J3,J4,J5,J6:0.000000,-0.261799,0.000000,0.000000,0.000000,0.000000:0.500000,0.500000,0.500000,0.500000,0.500000,0.500000:pos_vel_
cobot_dynamixel_driver/joint_states|name|J1,J2,J3,J4,J5,J6|pos|0.000050,-0.306546,0.328566,0.000025,-0.115093,-0.000021|vel|0.000000,0.345102,-0.508263,0.000000,0.512913,0.000000|eff|0.000000,483.398438,-1289.062500,-145.019531,44.311523,-8.056641
cobot_dynamixel_driver/joint_states|name|J1,J2,J3,J4,J5,J6|pos|0.000050,-0.300563,0.319290,0.000025,-0.105578,-0.000021|vel|0.000000,0.286889,-0.489068,0.000000,0.434322,0.000000|eff|0.000000,-451.171875,-1434.082031,-96.679688,112.792969,-24.169922
cobot_dynamixel_driver/goal|-:J1,J2,J3,J4,J5,J6:0.000000,-0.261799,0.000000,0.000000,0.000000,0.000000:0.500000,0.500000,0.500000,0.500000,0.500000,0.500000:pos_vel_
cobot_dynamixel_driver/joint_states|name|J1,J2,J3,J4,J5,J6|pos|0.000050,-0.295505,0.309576,0.000025,-0.095897,-0.000021|vel|0.000000,0.231180,-0.451303,0.000000,0.436734,0.000000|eff|0.000000,-241.699219,-741.210938,-112.792969,76.538086,0.000000
cobot_dynamixel_driver/joint_states|name|J1,J2,J3,J4,J5,J6|pos|0.000050,-0.291186,0.299874,0.000025,-0.086299,-0.000021|vel|0.000000,0.197797,-0.511602,0.000000,0.603224,0.000000|eff|0.000000,-322.265625,-1079.589844,-112.792969,116.821289,0.000000
cobot_dynamixel_driver/goal|-:J1,J2,J3,J4,J5,J6:0.000000,-0.261799,0.000000,0.000000,0.000000,0.000000:0.500000,0.500000,0.500000,0.500000,0.500000,0.500000:pos_vel_
cobot_dynamixel_driver/joint_states|name|J1,J2,J3,J4,J5,J6|pos|0.000050,-0.287443,0.290135,0.000025,-0.076639,-0.000021|vel|0.000000,0.183818,-0.501378,0.000000,0.498436,0.000000|eff|0.000000,0.000000,-1611.328125,-145.019531,80.566406,0.000000
cobot_dynamixel_driver/joint_states|name|J1,J2,J3,J4,J5,J6|pos|0.000050,-0.284189,0.280471,0.000025,-0.067103,-0.000021|vel|0.000000,0.149391,-0.451929,0.000000,0.506708,0.000000|eff|0.000000,-48.339844,-821.777344,-96.679688,20.141602,-24.169922
cobot_dynamixel_driver/goal|-:J1,J2,J3,J4,J5,J6:0.000000,-0.261799,0.000000,0.000000,0.000000,0.000000:0.500000,0.500000,0.500000,0.500000,0.500000,0.500000:pos_vel_
cobot_dynamixel_driver/joint_states|name|J1,J2,J3,J4,J5,J6|pos|0.000050,-0.281059,0.269805,0.000025,-0.057526,-0.000021|vel|0.000000,0.140002,-0.503256,0.000000,0.400196,0.000000|eff|0.000000,32.226562,-708.984375,-112.792969,0.000000,-24.169922
cobot_dynamixel_driver/joint_states|name|J1,J2,J3,J4,J5,J6|pos|0.000050,-0.278718,0.260629,0.000025,-0.050514,-0.000021|vel|0.000000,0.123936,-0.479053,0.000000,0.377791,0.000000|eff|0.000000,-32.226562,-2239.746094,-161.132812,24.169922,0.000000
cobot_dynamixel_driver/goal|-:J1,J2,J3,J4,J5,J6:0.000000,-0.261799,0.000000,0.000000,0.000000,0.000000:0.500000,0.500000,0.500000,0.500000,0.500000,0.500000:pos_vel_
cobot_dynamixel_driver/joint_states|name|J1,J2,J3,J4,J5,J6|pos|0.000050,-0.276690,0.251466,0.000025,-0.044536,-0.000021|vel|0.000000,0.103280,-0.400602,0.000000,0.299889,0.000000|eff|0.000000,-48.339844,-1643.554688,-128.906250,16.113281,0.000000
cobot_dynamixel_driver/joint_states|name|J1,J2,J3,J4,J5,J6|pos|0.000050,-0.274850,0.241790,0.000025,-0.039054,-0.000021|vel|0.000000,0.088049,-0.521199,0.000000,0.272657,0.000000|eff|0.000000,-48.339844,-580.078125,-96.679688,32.226562,-8.056641
cobot_dynamixel_driver/goal|-:J1,J2,J3,J4,J5,J6:0.000000,-0.261799,0.000000,0.000000,0.000000,0.000000:0.500000,0.500000,0.500000,0.500000,0.500000,0.500000:pos_vel_
cobot_dynamixel_driver/joint_states|name|J1,J2,J3,J4,J5,J6|pos|0.000050,-0.273235,0.232113,0.000025,-0.034152,-0.000021|vel|0.000000,0.081581,-0.493032,0.000000,0.269210,0.000000|eff|0.000000,-32.226562,-1111.816406,-96.679688,24.169922,0.000000
cobot_dynamixel_driver/joint_states|name|J1,J2,J3,J4,J5,J6|pos|0.000050,-0.271821,0.222361,0.000025,-0.029952,-0.000021|vel|0.000000,0.070105,-0.502421,0.000000,0.223365,0.000000|eff|0.000000,0.000000,-1144.042969,-177.246094,48.339844,0.000000
cobot_dynamixel_driver/goal|-:J1,J2,J3,J4,J5,J6:0.000000,-0.261799,0.000000,0.000000,0.000000,0.000000:0.500000,0.500000,0.500000,0.500000,0.500000,0.500000:pos_vel_
cobot_dynamixel_driver/joint_states|name|J1,J2,J3,J4,J5,J6|pos|0.000050,-0.270569,0.212146,0.000025,-0.026229,-0.000021|vel|0.000000,0.062385,-0.493658,0.000000,0.156838,0.000000|eff|32.226562,0.000000,-596.191406,-128.906250,44.311523,-24.169922
cobot_dynamixel_driver/joint_states|name|J1,J2,J3,J4,J5,J6|pos|0.000050,-0.269467,0.202432,0.000025,-0.022981,-0.000021|vel|0.000000,0.051536,-0.488442,0.000000,0.152013,0.000000|eff|80.566406,-64.453125,-1047.363281,-193.359375,56.396484,0.000000
cobot_dynamixel_driver/goal|-:J1,J2,J3,J4,J5,J6:0.000000,-0.261799,0.000000,0.000000,0.000000,0.000000:0.500000,0.500000,0.500000,0.500000,0.500000,0.500000:pos_vel_
cobot_dynamixel_driver/joint_states|name|J1,J2,J3,J4,J5,J6|pos|0.000050,-0.268516,0.193194,0.000025,-0.020148,-0.000021|vel|0.000000,0.044233,-0.520782,0.000000,0.138569,0.000000|eff|0.000000,-48.339844,-1514.648438,-145.019531,60.424805,0.000000
cobot_dynamixel_driver/joint_states|name|J1,J2,J3,J4,J5,J6|pos|0.000050,-0.267665,0.183530,0.000025,-0.017624,-0.000021|vel|0.000000,0.040477,-0.506385,0.000000,0.123402,0.000000|eff|0.000000,0.000000,-837.890625,-96.679688,48.339844,0.000000
cobot_dynamixel_driver/goal|-:J1,J2,J3,J4,J5,J6:0.000000,-0.261799,0.000000,0.000000,0.000000,0.000000:0.500000,0.500000,0.500000,0.500000,0.500000,0.500000:pos_vel_
cobot_dynamixel_driver/joint_states|name|J1,J2,J3,J4,J5,J6|pos|0.000050,-0.266926,0.173866,0.000025,-0.015431,-0.000021|vel|0.000000,0.035470,-0.426682,0.000000,0.096516,0.000000|eff|112.792969,-32.226562,-741.210938,-145.019531,52.368164,0.000000
cobot_dynamixel_driver/joint_states|name|J1,J2,J3,J4,J5,J6|pos|0.000050,-0.266263,0.164126,0.000025,-0.013508,-0.000021|vel|0.000000,0.033801,-0.517026,0.000000,0.094103,0.000000|eff|0.000000,-48.339844,-1321.289062,-96.679688,60.424805,-12.084961
cobot_dynamixel_driver/joint_states|name|J1,J2,J3,J4,J5,J6|pos|0.000050,-0.265649,0.153549,0.000025,-0.011625,-0.000021|vel|0.000000,0.028167,-0.488233,0.000000,0.088243,0.000000|eff|0.000000,0.000000,-1450.195312,-193.359375,56.396484,0.000000
cobot_dynamixel_driver/joint_states|name|J1,J2,J3,J4,J5,J6|pos|0.000038,-0.265161,0.144323,0.000025,-0.010281,-0.000021|vel|0.000000,0.024203,-0.530171,0.000000,0.073421,0.000000|eff|0.000000,0.000000,-870.117188,-145.019531,60.424805,0.000000
cobot_dynamixel_driver/joint_states|name|J1,J2,J3,J4,J5,J6|pos|0.000038,-0.264735,0.135122,0.000025,-0.009040,-0.000021|vel|0.000000,0.020239,-0.516818,0.000000,0.061012,0.000000|eff|0.000000,0.000000,-934.570312,-112.792969,60.424805,0.000000
cobot_dynamixel_driver/joint_states|name|J1,J2,J3,J4,J5,J6|pos|0.000038,-0.264335,0.125020,0.000025,-0.007881,-0.000021|vel|0.000000,0.018778,-0.453389,0.000000,0.044466,0.000000|eff|0.000000,0.000000,-1579.101562,-96.679688,68.481445,0.000000
cobot_dynamixel_driver/goal|-:J2:0.523599:vel_
cobot_dynamixel_driver/goal|-:J2:0.523599:vel_
cobot_dynamixel_driver/joint_states|name|J1,J2,J3,J4,J5,J6|pos|0.000038,-0.263108,0.059462,0.000050,-0.001882,-0.000021|vel|0.000000,0.000417,-0.005008,0.000000,-0.009307,0.000000|eff|0.000000,32.226562,-354.492188,0.000000,20.141602,0.000000
cobot_dynamixel_driver/goal|-:J2:0.523599:vel_
cobot_dynamixel_driver/joint_states|name|J1,J2,J3,J4,J5,J6|pos|0.000038,-0.261769,0.059462,0.000050,-0.001882,-0.000021|vel|0.000000,0.191538,-0.005008,0.000000,0.010686,0.000000|eff|0.000000,-2126.953125,-338.378906,0.000000,20.141602,0.000000
cobot_dynamixel_driver/joint_states|name|J1,J2,J3,J4,J5,J6|pos|0.000038,-0.255422,0.059474,0.000050,-0.001882,-0.000021|vel|0.000000,0.464447,0.005008,0.000000,0.010686,0.000000|eff|0.000000,-1949.707031,-402.832031,0.000000,20.141602,0.000000
cobot_dynamixel_driver/joint_states|name|J1,J2,J3,J4,J5,J6|pos|0.000038,-0.245958,0.059399,0.000063,-0.001882,-0.000021|vel|0.000000,0.514523,-0.006677,0.000000,0.008962,0.000000|eff|0.000000,-1353.515625,-338.378906,0.000000,0.000000,0.000000
cobot_dynamixel_driver/joint_states|name|J1,J2,J3,J4,J5,J6|pos|0.000038,-0.235743,0.059449,0.000063,-0.001882,-0.000021|vel|0.000000,0.587132,0.006051,0.000000,0.003447,0.000000|eff|0.000000,-225.585938,-402.832031,0.000000,0.000000,0.000000
cobot_dynamixel_driver/joint_states|name|J1,J2,J3,J4,J5,J6|pos|0.000038,-0.224589,0.059474,0.000063,-0.001882,-0.000021|vel|0.000000,0.584419,0.005008,0.000000,0.005515,0.000000|eff|0.000000,-1836.914062,-451.171875,0.000000,0.000000,0.000000
cobot_dynamixel_driver/joint_states|name|J1,J2,J3,J4,J5,J6|pos|0.000038,-0.213123,0.059474,0.000063,-0.001882,-0.000021|vel|0.000000,0.566476,0.005008,0.000000,0.008962,0.000000|eff|0.000000,-499.511719,-451.171875,0.000000,0.000000,0.000000
cobot_dynamixel_driver/joint_states|name|J1,J2,J3,J4,J5,J6|pos|0.000038,-0.201944,0.059474,0.000063,-0.001882,-0.000021|vel|0.000000,0.566476,-0.000417,0.000000,-0.004136,0.000000|eff|0.000000,-241.699219,-435.058594,0.000000,0.000000,0.000000
cobot_dynamixel_driver/joint_states|name|J1,J2,J3,J4,J5,J6|pos|0.000038,-0.191504,0.059474,0.000063,-0.001882,-0.000021|vel|0.000000,0.526416,-0.001669,0.000000,-0.004136,0.000000|eff|0.000000,-338.378906,-386.718750,0.000000,8.056641,0.000000
cobot_dynamixel_driver/joint_states|name|J1,J2,J3,J4,J5,J6|pos|0.000038,-0.181326,0.059474,0.000063,-0.001882,-0.000021|vel|0.000000,0.531840,-0.001669,0.000000,-0.004136,0.000000|eff|0.000000,0.000000,-451.171875,0.000000,20.141602,0.000000
cobot_dynamixel_driver/joint_states|name|J1,J2,J3,J4,J5,J6|pos|0.000038,-0.171062,0.059474,0.000063,-0.001882,-0.000021|vel|0.000000,0.535387,0.001669,0.000000,0.004136,0.000000|eff|0.000000,80.566406,-435.058594,0.000000,0.000000,0.000000
cobot_dynamixel_driver/joint_states|name|J1,J2,J3,J4,J5,J6|pos|0.000025,-0.160709,0.059474,0.000063,-0.001882,-0.000021|vel|0.000000,0.511393,-0.000417,0.000000,-0.000345,0.000000|eff|0.000000,-112.792969,-451.171875,0.000000,8.056641,0.000000
cobot_dynamixel_driver/joint_states|name|J1,J2,J3,J4,J5,J6|pos|0.000025,-0.150169,0.059474,0.000063,-0.001882,-0.000021|vel|0.000000,0.531006,0.000417,0.000000,-0.000345,0.000000|eff|0.000000,628.417969,-402.832031,0.000000,12.084961,0.000000
cobot_dynamixel_driver/joint_states|name|J1,J2,J3,J4,J5,J6|pos|0.000038,-0.139453,0.059474,0.000063,-0.001882,-0.000021|vel|0.000000,0.554166,0.000417,0.000000,-0.000345,0.000000|eff|0.000000,193.359375,-435.058594,0.000000,20.141602,0.000000
cobot_dynamixel_driver/joint_states|name|J1,J2,J3,J4,J5,J6|pos|0.000038,-0.128938,0.059474,0.000063,-0.001882,-0.000021|vel|0.000000,0.531632,0.000417,0.000000,-0.000345,0.000000|eff|0.000000,-547.851562,-451.171875,0.000000,8.056641,0.000000
cobot_dynamixel_driver/joint_states|name|J1,J2,J3,J4,J5,J6|pos|0.000025,-0.118710,0.059474,0.000063,-0.001882,-0.000021|vel|0.000000,0.509515,0.000417,0.000000,-0.000345,0.000000|eff|0.000000,145.019531,-435.058594,0.000000,16.113281,0.000000
cobot_dynamixel_driver/joint_states|name|J1,J2,J3,J4,J5,J6|pos|0.000025,-0.108470,0.059474,0.000063,-0.001882,-0.000021|vel|0.000000,0.537891,0.000417,0.000000,-0.000345,0.000000|eff|0.000000,193.359375,-402.832031,0.000000,20.141602,0.000000
cobot_dynamixel_driver/joint_states|name|J1,J2,J3,J4,J5,J6|pos|0.000025,-0.098005,0.059474,0.000063,-0.001882,-0.000021|vel|0.000000,0.564389,0.000000,0.000000,0.000000,0.000000|eff|0.000000,773.437500,-418.945312,0.000000,20.141602,0.000000
cobot_dynamixel_driver/joint_states|name|J1,J2,J3,J4,J5,J6|pos|0.000025,-0.087465,0.059474,0.000063,-0.001882,-0.000021|vel|0.000000,0.531006,0.000000,0.000000,0.000000,0.000000|eff|0.000000,547.851562,-451.171875,0.000000,20.141602,0.000000
cobot_dynamixel_driver/joint_states|name|J1,J2,J3,J4,J5,J6|pos|0.000025,-0.077050,0.059474,0.000063,-0.001882,-0.000021|vel|0.000000,0.504508,0.000000,0.000000,0.000000,0.000000|eff|0.000000,547.851562,-370.605469,0.000000,20.141602,0.000000
cobot_dynamixel_driver/joint_states|name|J1,J2,J3,J4,J5,J6|pos|0.000025,-0.066847,0.059474,0.000063,-0.001882,-0.000021|vel|0.000000,0.530588,0.000000,0.000000,0.000000,0.000000|eff|0.000000,306.152344,-451.171875,0.000000,20.141602,0.000000
cobot_dynamixel_driver/joint_states|name|J1,J2,J3,J4,J5,J6|pos|0.000025,-0.056595,0.059474,0.000063,-0.001882,-0.000021|vel|0.000000,0.541438,0.000000,0.000000,0.000000,0.000000|eff|0.000000,-1853.027344,-418.945312,0.000000,20.141602,0.000000
cobot_dynamixel_driver/joint_states|name|J1,J2,J3,J4,J5,J6|pos|0.000025,-0.046217,0.059474,0.000063,-0.001882,-0.000021|vel|0.000000,0.549158,0.000000,0.000000,0.000000,0.000000|eff|0.000000,-1466.308594,-418.945312,0.000000,0.000000,0.000000
cobot_dynamixel_driver/joint_states|name|J1,J2,J3,J4,J5,J6|pos|0.000025,-0.035752,0.059474,0.000063,-0.001882,-0.000021|vel|0.000000,0.527667,0.000000,0.000000,0.000000,0.000000|eff|0.000000,-725.097656,-370.605469,0.000000,16.113281,0.000000
cobot_dynamixel_driver/joint_states|name|J1,J2,J3,J4,J5,J6|pos|0.000025,-0.025387,0.059474,0.000075,-0.001882,-0.000021|vel|0.000000,0.544985,0.000000,0.000000,0.000000,0.000000|eff|0.000000,-1321.289062,-451.171875,0.000000,0.000000,0.000000
cobot_dynamixel_driver/joint_states|name|J1,J2,J3,J4,J5,J6|pos|0.000025,-0.015122,0.059474,0.000075,-0.001882,-0.000021|vel|0.000000,0.519530,0.000000,0.000000,0.000000,0.000000|eff|0.000000,-563.964844,-451.171875,0.000000,20.141602,0.000000
cobot_dynamixel_driver/joint_states|name|J1,J2,J3,J4,J5,J6|pos|0.000025,-0.004794,0.059474,0.000075,-0.001882,-0.000021|vel|0.000000,0.510558,0.000000,0.000000,0.000000,0.000000|eff|0.000000,-48.339844,-435.058594,0.000000,20.141602,0.000000
cobot_dynamixel_driver/joint_states|name|J1,J2,J3,J4,J5,J6|pos|0.000025,0.005546,0.059474,0.000075,-0.001882,-0.000021|vel|0.000000,0.490528,0.000000,0.000000,0.000000,0.000000|eff|0.000000,161.132812,-418.945312,0.000000,16.113281,0.000000
cobot_dynamixel_driver/joint_states|name|J1,J2,J3,J4,J5,J6|pos|0.000025,0.015923,0.059474,0.000075,-0.001882,-0.000021|vel|0.000000,0.514731,0.000000,0.000000,0.000000,0.000000|eff|0.000000,386.718750,-435.058594,0.000000,12.084961,0.000000
cobot_dynamixel_driver/joint_states|name|J1,J2,J3,J4,J5,J6|pos|0.000025,0.026276,0.059474,0.000075,-0.001882,-0.000021|vel|0.000000,0.531632,0.000000,0.000000,0.000000,0.000000|eff|0.000000,418.945312,-418.945312,0.000000,20.141602,0.000000
cobot_dynamixel_driver/joint_states|name|J1,J2,J3,J4,J5,J6|pos|0.000025,0.036541,0.059474,0.000075,-0.001882,-0.000021|vel|0.000000,0.532675,0.000000,0.000000,0.000000,0.000000|eff|0.000000,580.078125,-370.605469,0.000000,20.141602,0.000000
cobot_dynamixel_driver/joint_states|name|J1,J2,J3,J4,J5,J6|pos|0.000025,0.046868,0.059474,0.000075,-0.001882,-0.000021|vel|0.000000,0.517652,0.000000,0.000000,0.000000,0.000000|eff|0.000000,273.925781,-451.171875,0.000000,12.084961,0.000000
cobot_dynamixel_driver/joint_states|name|J1,J2,J3,J4,J5,J6|pos|0.000025,0.057183,0.059474,0.000075,-0.001882,-0.000021|vel|0.000000,0.552496,0.000000,0.000000,0.000000,0.000000|eff|0.000000,-209.472656,-451.171875,0.000000,20.141602,0.000000
cobot_dynamixel_driver/joint_states|name|J1,J2,J3,J4,J5,J6|pos|0.000025,0.067523,0.059474,0.000075,-0.001882,-0.000021|vel|0.000000,0.541647,0.000000,0.000000,0.000000,0.000000|eff|0.000000,-1434.082031,-418.945312,0.000000,20.141602,0.000000
cobot_dynamixel_driver/joint_states|name|J1,J2,J3,J4,J5,J6|pos|0.000025,0.077913,0.059474,0.000075,-0.001882,-0.000021|vel|0.000000,0.559382,0.000000,0.000000,0.000000,0.000000|eff|0.000000,-1627.441406,-354.492188,0.000000,16.113281,0.000000
cobot_dynamixel_driver/joint_states|name|J1,J2,J3,J4,J5,J6|pos|0.000025,0.088253,0.059474,0.000075,-0.001882,-0.000021|vel|0.000000,0.550827,0.000000,0.000000,0.000000,0.000000|eff|0.000000,-902.343750,-435.058594,0.000000,20.141602,0.000000
cobot_dynamixel_driver/joint_states|name|J1,J2,J3,J4,J5,J6|pos|0.000025,0.098569,0.059474,0.000075,-0.001882,-0.000021|vel|0.000000,0.523703,0.000000,0.000000,0.000000,0.000000|eff|0.000000,-596.191406,-451.171875,0.000000,16.113281,0.000000
cobot_dynamixel_driver/joint_states|name|J1,J2,J3,J4,J5,J6|pos|0.000025,0.108959,0.059474,0.000075,-0.001882,-0.000021|vel|0.000000,0.648057,0.000000,0.000000,0.000000,0.000000|eff|0.000000,-467.285156,-451.171875,0.000000,12.084961,0.000000
cobot_dynamixel_driver/joint_states|name|J1,J2,J3,J4,J5,J6|pos|0.000025,0.119299,0.059474,0.000075,-0.001882,-0.000021|vel|0.000000,0.551870,0.000000,0.000000,0.000000,0.000000|eff|0.000000,128.906250,-435.058594,0.000000,20.141602,0.000000
cobot_dynamixel_driver/joint_states|name|J1,J2,J3,J4,J5,J6|pos|0.000025,0.129576,0.059474,0.000075,-0.001882,-0.000021|vel|0.000000,0.555417,0.000000,0.000000,0.000000,0.000000|eff|0.000000,628.417969,-418.945312,0.000000,12.084961,0.000000
cobot_dynamixel_driver/joint_states|name|J1,J2,J3,J4,J5,J6|pos|0.000025,0.139929,0.059474,0.000075,-0.001882,-0.000021|vel|0.000000,0.539978,0.000000,0.000000,0.000000,0.000000|eff|0.000000,757.324219,-451.171875,0.000000,16.113281,0.000000
cobot_dynamixel_driver/joint_states|name|J1,J2,J3,J4,J5,J6|pos|0.000025,0.150231,0.059474,0.000075,-0.001882,-0.000021|vel|0.000000,0.535179,0.000000,0.000000,0.000000,0.000000|eff|0.000000,870.117188,-451.171875,0.000000,12.084961,0.000000
cobot_dynamixel_driver/joint_states|name|J1,J2,J3,J4,J5,J6|pos|0.000025,0.160496,0.059474,0.000075,-0.001882,-0.000021|vel|0.000000,0.536013,0.000000,0.000000,0.000000,0.000000|eff|0.000000,-48.339844,-386.718750,0.000000,16.113281,0.000000
cobot_dynamixel_driver/joint_states|name|J1,J2,J3,J4,J5,J6|pos|0.000025,0.170849,0.059474,0.000075,-0.001882,-0.000021|vel|0.000000,0.514105,0.000000,0.000000,0.000000,0.000000|eff|0.000000,-821.777344,-386.718750,0.000000,16.113281,0.000000
cobot_dynamixel_driver/joint_states|name|J1,J2,J3,J4,J5,J6|pos|0.000025,0.181176,0.059474,0.000075,-0.001882,-0.000021|vel|0.000000,0.522451,0.000000,0.000000,0.000000,0.000000|eff|0.000000,725.097656,-354.492188,0.000000,12.084961,0.000000
cobot_dynamixel_driver/joint_states|name|J1,J2,J3,J4,J5,J6|pos|0.000025,0.191516,0.059474,0.000075,-0.001882,-0.000021|vel|0.000000,0.559173,0.000000,0.000000,0.000000,0.000000|eff|0.000000,-1192.382812,-386.718750,0.000000,20.141602,0.000000
cobot_dynamixel_driver/joint_states|name|J1,J2,J3,J4,J5,J6|pos|0.000025,0.201881,0.059474,0.000075,-0.001882,-0.000021|vel|0.000000,0.503673,0.000000,0.000000,0.000000,0.000000|eff|0.000000,-499.511719,-451.171875,0.000000,16.113281,0.000000
cobot_dynamixel_driver/joint_states|name|J1,J2,J3,J4,J5,J6|pos|0.000025,0.212209,0.059474,0.000075,-0.001882,-0.000021|vel|0.000000,0.554166,0.000000,0.000000,0.000000,0.000000|eff|0.000000,32.226562,-418.945312,0.000000,16.113281,0.000000
cobot_dynamixel_driver/joint_states|name|J1,J2,J3,J4,J5,J6|pos|0.000025,0.222499,0.059474,0.000075,-0.001882,-0.000021|vel|0.000000,0.506803,0.000000,0.000000,0.000000,0.000000|eff|0.000000,306.152344,-451.171875,0.000000,16.113281,0.000000
cobot_dynamixel_driver/joint_states|name|J1,J2,J3,J4,J5,J6|pos|0.000025,0.232801,0.059474,0.000075,-0.001882,-0.000021|vel|0.000000,0.530171,0.000000,0.000000,0.000000,0.000000|eff|0.000000,676.757812,-435.058594,0.000000,12.084961,0.000000
cobot_dynamixel_driver/joint_states|name|J1,J2,J3,J4,J5,J6|pos|0.000025,0.243041,0.059474,0.000075,-0.001882,-0.000021|vel|0.000000,0.514105,0.000000,0.000000,0.000000,0.000000|eff|0.000000,708.984375,-418.945312,0.000000,20.141602,0.000000
cobot_dynamixel_driver/joint_states|name|J1,J2,J3,J4,J5,J6|pos|0.000025,0.253306,0.059474,0.000075,-0.001882,-0.000021|vel|0.000000,0.525581,0.000000,0.000000,0.000000,0.000000|eff|0.000000,112.792969,-354.492188,0.000000,20.141602,0.000000
cobot_dynamixel_driver/joint_states|name|J1,J2,J3,J4,J5,J6|pos|0.000025,0.263696,0.059474,0.000075,-0.001882,-0.000021|vel|0.000000,0.620515,0.000000,0.000000,0.000000,0.000000|eff|0.000000,-96.679688,-418.945312,0.000000,20.141602,0.000000
cobot_dynamixel_driver/joint_states|name|J1,J2,J3,J4,J5,J6|pos|0.000025,0.273999,0.059474,0.000075,-0.001882,-0.000021|vel|0.000000,0.518070,0.000000,0.000000,0.000000,0.000000|eff|0.000000,-1272.949219,-435.058594,0.000000,20.141602,0.000000
cobot_dynamixel_driver/joint_states|name|J1,J2,J3,J4,J5,J6|pos|0.000025,0.284239,0.059474,0.000075,-0.001882,-0.000021|vel|0.000000,0.567519,0.000000,0.000000,0.000000,0.000000|eff|0.000000,-467.285156,-370.605469,0.000000,20.141602,0.000000
cobot_dynamixel_driver/joint_states|name|J1,J2,J3,J4,J5,J6|pos|0.000025,0.294566,0.059474,0.000075,-0.001882,-0.000021|vel|0.000000,0.552079,0.000000,0.000000,0.000000,0.000000|eff|0.000000,128.906250,-451.171875,0.000000,0.000000,0.000000
cobot_dynamixel_driver/joint_states|name|J1,J2,J3,J4,J5,J6|pos|0.000013,0.304856,0.059474,0.000075,-0.001882,-0.000021|vel|0.000000,0.514731,0.000000,0.000000,0.000000,0.000000|eff|0.000000,290.039062,-386.718750,0.000000,20.141602,0.000000
cobot_dynamixel_driver/joint_states|name|J1,J2,J3,J4,J5,J6|pos|-0.000013,0.315134,0.059462,0.000075,-0.001882,-0.000021|vel|0.000000,0.513062,0.000000,0.000000,0.000000,0.000000|eff|0.000000,692.871094,-354.492188,0.000000,0.000000,0.000000
cobot_dynamixel_driver/joint_states|name|J1,J2,J3,J4,J5,J6|pos|-0.000025,0.325349,0.059449,0.000075,-0.001882,-0.000021|vel|-0.001461,0.548741,0.000000,0.000000,0.000000,0.000000|eff|0.000000,290.039062,-402.832031,0.000000,20.141602,0.000000
cobot_dynamixel_driver/joint_states|name|J1,J2,J3,J4,J5,J6|pos|-0.000050,0.335513,0.059399,0.000075,-0.001882,-0.000021|vel|-0.000835,0.532258,-0.002504,0.000000,0.000000,0.000000|eff|0.000000,-918.457031,-402.832031,0.000000,16.113281,0.000000
cobot_dynamixel_driver/joint_states|name|J1,J2,J3,J4,J5,J6|pos|-0.000088,0.345678,0.059374,0.000075,-0.001882,-0.000021|vel|-0.002086,0.484060,-0.002504,0.000000,0.000000,0.000000|eff|32.226562,-112.792969,-402.832031,0.000000,20.141602,0.000000
cobot_dynamixel_driver/joint_states|name|J1,J2,J3,J4,J5,J6|pos|-0.000150,0.355868,0.059374,0.000075,-0.001882,-0.000021|vel|-0.003338,0.543107,-0.002504,0.000000,0.000000,0.000000|eff|32.226562,499.511719,-370.605469,0.000000,0.000000,0.000000
cobot_dynamixel_driver/joint_states|name|J1,J2,J3,J4,J5,J6|pos|-0.000200,0.366096,0.059374,0.000075,-0.001882,-0.000021|vel|-0.002712,0.497205,-0.002504,0.000000,0.000000,0.000000|eff|32.226562,402.832031,-338.378906,0.000000,20.141602,0.000000
cobot_dynamixel_driver/joint_states|name|J1,J2,J3,J4,J5,J6|pos|-0.000238,0.376273,0.059374,0.000075,-0.001882,-0.000021|vel|-0.002295,0.521199,-0.002504,0.000000,0.000000,0.000000|eff|32.226562,-1691.894531,-338.378906,0.000000,20.141602,0.000000
cobot_dynamixel_driver/joint_states|name|J1,J2,J3,J4,J5,J6|pos|-0.000263,0.386463,0.059374,0.000075,-0.001882,-0.000021|vel|-0.001043,0.511810,-0.002504,0.000000,0.000000,0.000000|eff|48.339844,-531.738281,-338.378906,0.000000,20.141602,0.000000
cobot_dynamixel_driver/joint_states|name|J1,J2,J3,J4,J5,J6|pos|-0.000300,0.396640,0.059374,0.000075,-0.001882,-0.000021|vel|-0.002086,0.440662,-0.002504,0.000000,0.000000,0.000000|eff|32.226562,128.906250,-257.812500,0.000000,8.056641,0.000000
cobot_dynamixel_driver/joint_states|name|J1,J2,J3,J4,J5,J6|pos|-0.000338,0.406755,0.059374,0.000075,-0.001882,-0.000021|vel|-0.002086,0.496579,0.000000,0.000000,0.000000,0.000000|eff|0.000000,96.679688,-322.265625,0.000000,20.141602,0.000000
cobot_dynamixel_driver/joint_states|name|J1,J2,J3,J4,J5,J6|pos|-0.000363,0.416882,0.059349,0.000075,-0.001882,-0.000021|vel|-0.002086,0.516192,0.000000,0.000000,0.000000,0.000000|eff|193.359375,-1256.835938,-354.492188,0.000000,16.113281,0.000000
cobot_dynamixel_driver/joint_states|name|J1,J2,J3,J4,J5,J6|pos|-0.000388,0.426784,0.059261,0.000075,-0.001882,-0.000021|vel|-0.001461,0.515357,-0.006468,0.000000,0.000000,0.000000|eff|32.226562,145.019531,-257.812500,0.000000,16.113281,0.000000
cobot_dynamixel_driver/joint_states|name|J1,J2,J3,J4,J5,J6|pos|-0.000438,0.436636,0.059111,0.000075,-0.001882,-0.000021|vel|-0.002295,0.517444,-0.007303,0.000000,0.000000,0.000000|eff|64.453125,-1562.988281,-225.585938,0.000000,12.084961,0.000000
cobot_dynamixel_driver/joint_states|name|J1,J2,J3,J4,J5,J6|pos|-0.000488,0.446412,0.058986,0.000075,-0.001882,-0.000021|vel|-0.003756,0.484060,-0.006885,0.000000,0.000000,0.000000|eff|0.000000,0.000000,0.000000,0.000000,0.000000,0.000000
cobot_dynamixel_driver/joint_states|name|J1,J2,J3,J4,J5,J6|pos|-0.000714,0.454837,0.059061,0.000075,-0.001882,-0.000021|vel|-0.014605,0.390169,0.004799,0.000000,0.000000,0.000000|eff|0.000000,0.000000,0.000000,0.000000,0.000000,0.000000
