surachairobotic/cobot/cobot_dynamixel_driver/log/2019-02-06T10:24:06.524115_driver_cmd.txt
1549449142.464888,cobot_dynamixel_driver/goal|-:J1,J2,J3,J4,J5,J6:0.000000,0.000000,0.000000,0.000000,0.000000,0.000000:0.500000,0.500000,0.500000,0.500000,0.500000,0.500000:pos_vel_
1549449158.826236,cobot_dynamixel_driver/goal|-:J3:0.000000:eff_
1549449158.944517,cobot_dynamixel_driver/goal|-:J1,J2,J3,J4,J5,J6:0.000000,0.000000,0.523599,0.000000,0.000000,0.000000:0.250000,0.250000,0.250000,0.250000,0.250000,0.250000:pos_vel_
1549449163.893970,cobot_dynamixel_driver/goal|-:J3:-237.324643:eff_
1549449164.498925,cobot_dynamixel_driver/goal|-:J3:-247.324643:eff_
1549449165.093543,cobot_dynamixel_driver/goal|-:J3:-257.324643:eff_
1549449165.687199,cobot_dynamixel_driver/goal|-:J3:-267.324643:eff_
1549449166.281031,cobot_dynamixel_driver/goal|-:J3:-277.324643:eff_
1549449166.902591,cobot_dynamixel_driver/goal|-:J3:-287.324643:eff_
1549449167.496339,cobot_dynamixel_driver/goal|-:J3:-297.324643:eff_
1549449168.090981,cobot_dynamixel_driver/goal|-:J3:-307.324643:eff_
1549449168.685907,cobot_dynamixel_driver/goal|-:J3:-317.324643:eff_
1549449169.281651,cobot_dynamixel_driver/goal|-:J3:-327.324643:eff_
1549449169.904023,cobot_dynamixel_driver/goal|-:J3:-337.324643:eff_
1549449170.497563,cobot_dynamixel_driver/goal|-:J3:-347.324643:eff_
1549449171.091285,cobot_dynamixel_driver/goal|-:J3:-357.324643:eff_
1549449171.686905,cobot_dynamixel_driver/goal|-:J3:-367.324643:eff_
1549449172.307463,cobot_dynamixel_driver/goal|-:J3:-377.324643:eff_
1549449172.901055,cobot_dynamixel_driver/goal|-:J3:-387.324643:eff_
1549449173.495586,cobot_dynamixel_driver/goal|-:J3:-397.324643:eff_
1549449174.090681,cobot_dynamixel_driver/goal|-:J3:-407.324643:eff_
1549449174.711777,cobot_dynamixel_driver/goal|-:J3:-417.324643:eff_
1549449175.305305,cobot_dynamixel_driver/goal|-:J3:-427.324643:eff_
1549449175.899098,cobot_dynamixel_driver/goal|-:J3:-437.324643:eff_
1549449176.492785,cobot_dynamixel_driver/goal|-:J3:-447.324643:eff_
1549449177.115480,cobot_dynamixel_driver/goal|-:J3:-457.324643:eff_
1549449177.709195,cobot_dynamixel_driver/goal|-:J3:-467.324643:eff_
1549449178.302924,cobot_dynamixel_driver/goal|-:J3:-477.324643:eff_
1549449178.896408,cobot_dynamixel_driver/goal|-:J3:-487.324643:eff_
1549449179.517140,cobot_dynamixel_driver/goal|-:J3:-497.324643:eff_
1549449180.111040,cobot_dynamixel_driver/goal|-:J3:-507.324643:eff_
1549449180.704511,cobot_dynamixel_driver/goal|-:J3:-517.324643:eff_
1549449181.298225,cobot_dynamixel_driver/goal|-:J3:-527.324643:eff_
1549449181.918668,cobot_dynamixel_driver/goal|-:J3:-537.324643:eff_
1549449182.512645,cobot_dynamixel_driver/goal|-:J3:-547.324643:eff_
1549449183.107250,cobot_dynamixel_driver/goal|-:J3:-557.324643:eff_
1549449183.727744,cobot_dynamixel_driver/goal|-:J3:-567.324643:eff_
1549449184.322550,cobot_dynamixel_driver/goal|-:J3:-577.324643:eff_
1549449184.916273,cobot_dynamixel_driver/goal|-:J3:-587.324643:eff_
1549449185.509564,cobot_dynamixel_driver/goal|-:J3:-597.324643:eff_
1549449186.130259,cobot_dynamixel_driver/goal|-:J3:-607.324643:eff_
1549449186.726746,cobot_dynamixel_driver/goal|-:J3:-617.324643:eff_
1549449187.321597,cobot_dynamixel_driver/goal|-:J3:-627.324643:eff_
1549449187.916145,cobot_dynamixel_driver/goal|-:J3:-637.324643:eff_
1549449188.510825,cobot_dynamixel_driver/goal|-:J3:-647.324643:eff_
1549449189.133415,cobot_dynamixel_driver/goal|-:J3:-657.324643:eff_
1549449189.728102,cobot_dynamixel_driver/goal|-:J3:-667.324643:eff_
1549449190.322430,cobot_dynamixel_driver/goal|-:J3:-677.324643:eff_
1549449190.916404,cobot_dynamixel_driver/goal|-:J3:-687.324643:eff_
1549449191.513247,cobot_dynamixel_driver/goal|-:J3:-697.324643:eff_
1549449192.134761,cobot_dynamixel_driver/goal|-:J3:-707.324643:eff_
1549449192.729543,cobot_dynamixel_driver/goal|-:J3:-717.324643:eff_
1549449193.326058,cobot_dynamixel_driver/goal|-:J3:-727.324643:eff_
1549449193.919763,cobot_dynamixel_driver/goal|-:J3:-737.324643:eff_
1549449194.542571,cobot_dynamixel_driver/goal|-:J3:-747.324643:eff_
1549449195.138228,cobot_dynamixel_driver/goal|-:J3:-757.324643:eff_
1549449195.733906,cobot_dynamixel_driver/goal|-:J3:-767.324643:eff_
1549449196.329778,cobot_dynamixel_driver/goal|-:J3:-777.324643:eff_
1549449196.926280,cobot_dynamixel_driver/goal|-:J3:-787.324643:eff_
1549449197.548018,cobot_dynamixel_driver/goal|-:J3:-797.324643:eff_
1549449198.143461,cobot_dynamixel_driver/goal|-:J3:-807.324643:eff_
1549449198.739055,cobot_dynamixel_driver/goal|-:J3:-817.324643:eff_
1549449199.334643,cobot_dynamixel_driver/goal|-:J3:-827.324643:eff_
1549449199.929235,cobot_dynamixel_driver/goal|-:J3:-837.324643:eff_
1549449200.550817,cobot_dynamixel_driver/goal|-:J3:-847.324643:eff_
1549449201.148406,cobot_dynamixel_driver/goal|-:J3:-857.324643:eff_
1549449201.742854,cobot_dynamixel_driver/goal|-:J3:0.000000:eff_
1549449201.851775,cobot_dynamixel_driver/goal|-:J1,J2,J3,J4,J5,J6:0.000000,0.000000,0.523599,0.000000,0.000000,0.000000:0.250000,0.250000,0.250000,0.250000,0.250000,0.250000:pos_vel_
1549449204.182618,cobot_dynamixel_driver/goal|-:J3:0.000000:eff_
1549449204.273341,cobot_dynamixel_driver/goal|-:J1,J2,J3,J4,J5,J6:0.000000,0.000000,0.523599,0.000000,0.000000,0.000000:0.250000,0.250000,0.250000,0.250000,0.250000,0.250000:pos_vel_
1549449207.009869,cobot_dynamixel_driver/goal|-:J3:-413.138658:eff_
1549449207.614781,cobot_dynamixel_driver/goal|-:J3:-423.138658:eff_
1549449208.209670,cobot_dynamixel_driver/goal|-:J3:-433.138658:eff_
1549449208.805102,cobot_dynamixel_driver/goal|-:J3:-443.138658:eff_
1549449209.399810,cobot_dynamixel_driver/goal|-:J3:-453.138658:eff_
1549449210.021688,cobot_dynamixel_driver/goal|-:J3:-463.138658:eff_
1549449210.615982,cobot_dynamixel_driver/goal|-:J3:-473.138658:eff_
1549449211.211846,cobot_dynamixel_driver/goal|-:J3:-483.138658:eff_
1549449211.806252,cobot_dynamixel_driver/goal|-:J3:-493.138658:eff_
1549449212.429685,cobot_dynamixel_driver/goal|-:J3:-503.138658:eff_
1549449213.024349,cobot_dynamixel_driver/goal|-:J3:-513.138658:eff_
1549449213.619350,cobot_dynamixel_driver/goal|-:J3:-523.138658:eff_
1549449214.214651,cobot_dynamixel_driver/goal|-:J3:-533.138658:eff_
1549449214.810324,cobot_dynamixel_driver/goal|-:J3:-543.138658:eff_
1549449215.434126,cobot_dynamixel_driver/goal|-:J3:-553.138658:eff_
1549449216.028941,cobot_dynamixel_driver/goal|-:J3:-563.138658:eff_
1549449216.624233,cobot_dynamixel_driver/goal|-:J3:-573.138658:eff_
1549449217.218079,cobot_dynamixel_driver/goal|-:J3:-583.138658:eff_
1549449217.813727,cobot_dynamixel_driver/goal|-:J3:-593.138658:eff_
1549449218.436564,cobot_dynamixel_driver/goal|-:J3:-603.138658:eff_
1549449219.031329,cobot_dynamixel_driver/goal|-:J3:-613.138658:eff_
1549449219.626073,cobot_dynamixel_driver/goal|-:J3:-623.138658:eff_
1549449220.221833,cobot_dynamixel_driver/goal|-:J3:-633.138658:eff_
1549449220.843358,cobot_dynamixel_driver/goal|-:J3:-643.138658:eff_
1549449221.438856,cobot_dynamixel_driver/goal|-:J3:-653.138658:eff_
1549449222.032583,cobot_dynamixel_driver/goal|-:J3:-663.138658:eff_
1549449222.627432,cobot_dynamixel_driver/goal|-:J3:-673.138658:eff_
1549449223.222065,cobot_dynamixel_driver/goal|-:J3:-683.138658:eff_
1549449223.843622,cobot_dynamixel_driver/goal|-:J3:-693.138658:eff_
1549449224.439131,cobot_dynamixel_driver/goal|-:J3:-703.138658:eff_
1549449225.033589,cobot_dynamixel_driver/goal|-:J3:-713.138658:eff_
1549449225.628371,cobot_dynamixel_driver/goal|-:J3:-723.138658:eff_
1549449226.250739,cobot_dynamixel_driver/goal|-:J3:-733.138658:eff_
1549449226.844348,cobot_dynamixel_driver/goal|-:J3:-743.138658:eff_
1549449227.438168,cobot_dynamixel_driver/goal|-:J3:-753.138658:eff_
1549449228.034876,cobot_dynamixel_driver/goal|-:J3:-763.138658:eff_
1549449228.630340,cobot_dynamixel_driver/goal|-:J3:-773.138658:eff_
1549449229.251207,cobot_dynamixel_driver/goal|-:J3:-783.138658:eff_
1549449229.847754,cobot_dynamixel_driver/goal|-:J3:-793.138658:eff_
1549449230.442431,cobot_dynamixel_driver/goal|-:J3:-803.138658:eff_
1549449231.038365,cobot_dynamixel_driver/goal|-:J3:0.000000:eff_
1549449231.147988,cobot_dynamixel_driver/goal|-:J1,J2,J3,J4,J5,J6:0.000000,0.000000,0.523599,0.000000,0.000000,0.000000:0.250000,0.250000,0.250000,0.250000,0.250000,0.250000:pos_vel_
1549449232.968160,cobot_dynamixel_driver/goal|-:J3:0.000000:eff_
1549449233.086154,cobot_dynamixel_driver/goal|-:J1,J2,J3,J4,J5,J6:0.000000,0.000000,0.436332,0.000000,0.000000,0.000000:0.250000,0.250000,0.250000,0.250000,0.250000,0.250000:pos_vel_
1549449236.309063,cobot_dynamixel_driver/goal|-:J3:-814.226534:eff_
1549449236.912959,cobot_dynamixel_driver/goal|-:J1,J2,J3,J4,J5,J6:0.000000,0.000000,0.436332,0.000000,0.000000,0.000000:0.250000,0.250000,0.250000,0.250000,0.250000,0.250000:pos_vel_
1549449237.625291,cobot_dynamixel_driver/goal|-:J3:-804.226534:eff_
1549449238.228876,cobot_dynamixel_driver/goal|-:J1,J2,J3,J4,J5,J6:0.000000,0.000000,0.436332,0.000000,0.000000,0.000000:0.250000,0.250000,0.250000,0.250000,0.250000,0.250000:pos_vel_
1549449238.916608,cobot_dynamixel_driver/goal|-:J3:-794.226534:eff_
1549449239.520272,cobot_dynamixel_driver/goal|-:J1,J2,J3,J4,J5,J6:0.000000,0.000000,0.436332,0.000000,0.000000,0.000000:0.250000,0.250000,0.250000,0.250000,0.250000,0.250000:pos_vel_
1549449240.204304,cobot_dynamixel_driver/goal|-:J3:-784.226534:eff_
1549449241.807396,cobot_dynamixel_driver/goal|-:J3:0.000000:eff_
1549449241.915713,cobot_dynamixel_driver/goal|-:J1,J2,J3,J4,J5,J6:0.000000,0.000000,0.436332,0.000000,0.000000,0.000000:0.250000,0.250000,0.250000,0.250000,0.250000,0.250000:pos_vel_
1549449242.331347,cobot_dynamixel_driver/goal|-:J3:-794.226534:eff_
1549449242.907914,cobot_dynamixel_driver/goal|-:J3:0.000000:eff_
1549449243.015834,cobot_dynamixel_driver/goal|-:J1,J2,J3,J4,J5,J6:0.000000,0.000000,0.436332,0.000000,0.000000,0.000000:0.250000,0.250000,0.250000,0.250000,0.250000,0.250000:pos_vel_
1549449244.755190,cobot_dynamixel_driver/goal|-:J3:0.000000:eff_
1549449244.872916,cobot_dynamixel_driver/goal|-:J1,J2,J3,J4,J5,J6:0.000000,0.000000,0.436332,0.000000,0.000000,0.000000:0.250000,0.250000,0.250000,0.250000,0.250000,0.250000:pos_vel_
1549449247.689063,cobot_dynamixel_driver/goal|-:J3:-445.898524:eff_
1549449248.294076,cobot_dynamixel_driver/goal|-:J3:-455.898524:eff_
1549449248.889616,cobot_dynamixel_driver/goal|-:J3:-465.898524:eff_
1549449249.510149,cobot_dynamixel_driver/goal|-:J3:-475.898524:eff_
1549449250.104966,cobot_dynamixel_driver/goal|-:J3:-485.898524:eff_
1549449250.726382,cobot_dynamixel_driver/goal|-:J3:-495.898524:eff_
1549449251.321029,cobot_dynamixel_driver/goal|-:J3:-505.898524:eff_
1549449251.915703,cobot_dynamixel_driver/goal|-:J3:-515.898524:eff_
1549449252.510247,cobot_dynamixel_driver/goal|-:J3:-525.898524:eff_
1549449253.104772,cobot_dynamixel_driver/goal|-:J3:-535.898524:eff_
1549449253.727126,cobot_dynamixel_driver/goal|-:J3:-545.898524:eff_
1549449254.321881,cobot_dynamixel_driver/goal|-:J3:-555.898524:eff_
1549449254.916790,cobot_dynamixel_driver/goal|-:J3:-565.898524:eff_
1549449255.512256,cobot_dynamixel_driver/goal|-:J3:-575.898524:eff_
1549449256.132998,cobot_dynamixel_driver/goal|-:J3:-585.898524:eff_
1549449256.727367,cobot_dynamixel_driver/goal|-:J3:-595.898524:eff_
1549449257.321297,cobot_dynamixel_driver/goal|-:J3:-605.898524:eff_
1549449257.916218,cobot_dynamixel_driver/goal|-:J3:-615.898524:eff_
1549449258.511591,cobot_dynamixel_driver/goal|-:J3:-625.898524:eff_
1549449259.134463,cobot_dynamixel_driver/goal|-:J3:-635.898524:eff_
1549449259.727927,cobot_dynamixel_driver/goal|-:J3:-645.898524:eff_
1549449260.321653,cobot_dynamixel_driver/goal|-:J3:-655.898524:eff_
1549449260.917279,cobot_dynamixel_driver/goal|-:J3:-665.898524:eff_
1549449261.537990,cobot_dynamixel_driver/goal|-:J3:-675.898524:eff_
1549449262.132773,cobot_dynamixel_driver/goal|-:J3:-685.898524:eff_
1549449262.728228,cobot_dynamixel_driver/goal|-:J3:-695.898524:eff_
1549449263.323792,cobot_dynamixel_driver/goal|-:J3:-705.898524:eff_
1549449263.945344,cobot_dynamixel_driver/goal|-:J3:-715.898524:eff_
1549449264.539114,cobot_dynamixel_driver/goal|-:J3:-725.898524:eff_
1549449265.133502,cobot_dynamixel_driver/goal|-:J3:-735.898524:eff_
1549449265.727248,cobot_dynamixel_driver/goal|-:J3:-745.898524:eff_
1549449266.348751,cobot_dynamixel_driver/goal|-:J3:-755.898524:eff_
1549449266.943568,cobot_dynamixel_driver/goal|-:J3:-765.898524:eff_
1549449267.536823,cobot_dynamixel_driver/goal|-:J3:-775.898524:eff_
1549449268.131733,cobot_dynamixel_driver/goal|-:J3:-785.898524:eff_
1549449268.753396,cobot_dynamixel_driver/goal|-:J3:-795.898524:eff_
1549449269.347223,cobot_dynamixel_driver/goal|-:J3:-805.898524:eff_
1549449269.941987,cobot_dynamixel_driver/goal|-:J3:-815.898524:eff_
1549449270.536320,cobot_dynamixel_driver/goal|-:J3:-825.898524:eff_
1549449271.292864,cobot_dynamixel_driver/goal|-:J3:0.000000:eff_
1549449271.373892,cobot_dynamixel_driver/goal|-:J1,J2,J3,J4,J5,J6:0.000000,0.000000,0.436332,0.000000,0.000000,0.000000:0.250000,0.250000,0.250000,0.250000,0.250000,0.250000:pos_vel_
1549449273.110910,cobot_dynamixel_driver/goal|-:J3:0.000000:eff_
1549449273.229187,cobot_dynamixel_driver/goal|-:J1,J2,J3,J4,J5,J6:0.000000,0.000000,0.349066,0.000000,0.000000,0.000000:0.250000,0.250000,0.250000,0.250000,0.250000,0.250000:pos_vel_
1549449276.560892,cobot_dynamixel_driver/goal|-:J3:-576.292092:eff_
1549449277.164808,cobot_dynamixel_driver/goal|-:J3:-586.292092:eff_
1549449277.759453,cobot_dynamixel_driver/goal|-:J3:-596.292092:eff_
1549449278.353849,cobot_dynamixel_driver/goal|-:J3:-606.292092:eff_
1549449278.948384,cobot_dynamixel_driver/goal|-:J3:-616.292092:eff_
1549449279.570019,cobot_dynamixel_driver/goal|-:J3:-626.292092:eff_
1549449280.164705,cobot_dynamixel_driver/goal|-:J3:-636.292092:eff_
1549449280.759347,cobot_dynamixel_driver/goal|-:J3:-646.292092:eff_
1549449281.354283,cobot_dynamixel_driver/goal|-:J3:-656.292092:eff_
1549449281.975742,cobot_dynamixel_driver/goal|-:J3:-666.292092:eff_
1549449282.571381,cobot_dynamixel_driver/goal|-:J3:-676.292092:eff_
1549449283.167222,cobot_dynamixel_driver/goal|-:J3:-686.292092:eff_
1549449283.761707,cobot_dynamixel_driver/goal|-:J3:-696.292092:eff_
1549449284.356571,cobot_dynamixel_driver/goal|-:J3:-706.292092:eff_
1549449284.979116,cobot_dynamixel_driver/goal|-:J3:-716.292092:eff_
1549449285.575998,cobot_dynamixel_driver/goal|-:J3:-726.292092:eff_
1549449286.170704,cobot_dynamixel_driver/goal|-:J3:-736.292092:eff_
1549449286.765228,cobot_dynamixel_driver/goal|-:J3:-746.292092:eff_
1549449287.360244,cobot_dynamixel_driver/goal|-:J3:-756.292092:eff_
1549449287.981676,cobot_dynamixel_driver/goal|-:J3:-766.292092:eff_
1549449288.575265,cobot_dynamixel_driver/goal|-:J3:-776.292092:eff_
1549449289.169059,cobot_dynamixel_driver/goal|-:J3:-786.292092:eff_
1549449289.762730,cobot_dynamixel_driver/goal|-:J3:-796.292092:eff_
1549449290.384115,cobot_dynamixel_driver/goal|-:J3:-806.292092:eff_
1549449290.978708,cobot_dynamixel_driver/goal|-:J3:-816.292092:eff_
1549449291.573154,cobot_dynamixel_driver/goal|-:J3:-826.292092:eff_
1549449293.164951,cobot_dynamixel_driver/goal|-:J3:0.000000:eff_
1549449293.273134,cobot_dynamixel_driver/goal|-:J1,J2,J3,J4,J5,J6:0.000000,0.000000,0.349066,0.000000,0.000000,0.000000:0.250000,0.250000,0.250000,0.250000,0.250000,0.250000:pos_vel_
1549449293.876810,cobot_dynamixel_driver/goal|-:J3:-836.292092:eff_
1549449294.480601,cobot_dynamixel_driver/goal|-:J3:0.000000:eff_
1549449294.589460,cobot_dynamixel_driver/goal|-:J1,J2,J3,J4,J5,J6:0.000000,0.000000,0.349066,0.000000,0.000000,0.000000:0.250000,0.250000,0.250000,0.250000,0.250000,0.250000:pos_vel_
1549449296.030897,cobot_dynamixel_driver/goal|-:J3:0.000000:eff_
1549449296.121617,cobot_dynamixel_driver/goal|-:J1,J2,J3,J4,J5,J6:0.000000,0.000000,0.349066,0.000000,0.000000,0.000000:0.250000,0.250000,0.250000,0.250000,0.250000,0.250000:pos_vel_
1549449298.964917,cobot_dynamixel_driver/goal|-:J3:-495.977206:eff_
1549449299.568877,cobot_dynamixel_driver/goal|-:J3:-505.977206:eff_
1549449300.163630,cobot_dynamixel_driver/goal|-:J3:-515.977206:eff_
1549449300.758206,cobot_dynamixel_driver/goal|-:J3:-525.977206:eff_
1549449301.353940,cobot_dynamixel_driver/goal|-:J3:-535.977206:eff_
1549449301.976515,cobot_dynamixel_driver/goal|-:J3:-545.977206:eff_
1549449302.570996,cobot_dynamixel_driver/goal|-:J3:-555.977206:eff_
1549449303.165530,cobot_dynamixel_driver/goal|-:J3:-565.977206:eff_
1549449303.760182,cobot_dynamixel_driver/goal|-:J3:-575.977206:eff_
1549449304.354667,cobot_dynamixel_driver/goal|-:J3:-585.977206:eff_
1549449304.976317,cobot_dynamixel_driver/goal|-:J3:-595.977206:eff_
1549449305.570903,cobot_dynamixel_driver/goal|-:J3:-605.977206:eff_
1549449306.166697,cobot_dynamixel_driver/goal|-:J3:-615.977206:eff_
1549449306.761277,cobot_dynamixel_driver/goal|-:J3:-625.977206:eff_
1549449307.382890,cobot_dynamixel_driver/goal|-:J3:-635.977206:eff_
1549449307.977750,cobot_dynamixel_driver/goal|-:J3:-645.977206:eff_
1549449308.571212,cobot_dynamixel_driver/goal|-:J3:-655.977206:eff_
1549449309.165889,cobot_dynamixel_driver/goal|-:J3:-665.977206:eff_
1549449309.787658,cobot_dynamixel_driver/goal|-:J3:-675.977206:eff_
1549449310.382118,cobot_dynamixel_driver/goal|-:J3:-685.977206:eff_
1549449310.976280,cobot_dynamixel_driver/goal|-:J3:-695.977206:eff_
1549449311.570695,cobot_dynamixel_driver/goal|-:J3:-705.977206:eff_
1549449312.166656,cobot_dynamixel_driver/goal|-:J3:-715.977206:eff_
1549449312.787887,cobot_dynamixel_driver/goal|-:J3:-725.977206:eff_
1549449313.382560,cobot_dynamixel_driver/goal|-:J3:-735.977206:eff_
1549449313.976387,cobot_dynamixel_driver/goal|-:J3:-745.977206:eff_
1549449314.571048,cobot_dynamixel_driver/goal|-:J3:-755.977206:eff_
1549449315.192685,cobot_dynamixel_driver/goal|-:J3:-765.977206:eff_
1549449315.787278,cobot_dynamixel_driver/goal|-:J3:-775.977206:eff_
1549449316.380826,cobot_dynamixel_driver/goal|-:J3:-785.977206:eff_
1549449316.974410,cobot_dynamixel_driver/goal|-:J3:-795.977206:eff_
1549449317.597105,cobot_dynamixel_driver/goal|-:J3:-805.977206:eff_
1549449318.192828,cobot_dynamixel_driver/goal|-:J3:-815.977206:eff_
1549449318.787416,cobot_dynamixel_driver/goal|-:J3:-825.977206:eff_
1549449320.004359,cobot_dynamixel_driver/goal|-:J3:0.000000:eff_
1549449320.085451,cobot_dynamixel_driver/goal|-:J1,J2,J3,J4,J5,J6:0.000000,0.000000,0.349066,0.000000,0.000000,0.000000:0.250000,0.250000,0.250000,0.250000,0.250000,0.250000:pos_vel_
1549449321.930657,cobot_dynamixel_driver/goal|-:J3:0.000000:eff_
1549449322.021251,cobot_dynamixel_driver/goal|-:J1,J2,J3,J4,J5,J6:0.000000,0.000000,0.261799,0.000000,0.000000,0.000000:0.250000,0.250000,0.250000,0.250000,0.250000,0.250000:pos_vel_
1549449325.459535,cobot_dynamixel_driver/goal|-:J3:-580.506832:eff_
1549449326.064640,cobot_dynamixel_driver/goal|-:J3:-590.506832:eff_
1549449326.659251,cobot_dynamixel_driver/goal|-:J3:-600.506832:eff_
1549449327.253872,cobot_dynamixel_driver/goal|-:J3:-610.506832:eff_
1549449327.875382,cobot_dynamixel_driver/goal|-:J3:-620.506832:eff_
1549449328.468992,cobot_dynamixel_driver/goal|-:J3:-630.506832:eff_
1549449329.063754,cobot_dynamixel_driver/goal|-:J3:-640.506832:eff_
1549449329.657086,cobot_dynamixel_driver/goal|-:J3:-650.506832:eff_
1549449330.278612,cobot_dynamixel_driver/goal|-:J3:-660.506832:eff_
1549449330.873155,cobot_dynamixel_driver/goal|-:J3:-670.506832:eff_
1549449331.466978,cobot_dynamixel_driver/goal|-:J3:-680.506832:eff_
1549449332.060465,cobot_dynamixel_driver/goal|-:J3:-690.506832:eff_
1549449332.681935,cobot_dynamixel_driver/goal|-:J3:-700.506832:eff_
1549449333.276710,cobot_dynamixel_driver/goal|-:J3:-710.506832:eff_
1549449333.871518,cobot_dynamixel_driver/goal|-:J3:-720.506832:eff_
1549449334.467112,cobot_dynamixel_driver/goal|-:J3:-730.506832:eff_
1549449335.088697,cobot_dynamixel_driver/goal|-:J3:-740.506832:eff_
1549449335.683247,cobot_dynamixel_driver/goal|-:J3:-750.506832:eff_
1549449336.278080,cobot_dynamixel_driver/goal|-:J3:-760.506832:eff_
1549449336.871756,cobot_dynamixel_driver/goal|-:J3:-770.506832:eff_
1549449337.466618,cobot_dynamixel_driver/goal|-:J3:-780.506832:eff_
1549449338.087260,cobot_dynamixel_driver/goal|-:J3:-790.506832:eff_
1549449338.681854,cobot_dynamixel_driver/goal|-:J3:-800.506832:eff_
1549449339.276651,cobot_dynamixel_driver/goal|-:J3:-810.506832:eff_
1549449339.871257,cobot_dynamixel_driver/goal|-:J3:-820.506832:eff_
1549449340.492747,cobot_dynamixel_driver/goal|-:J3:-830.506832:eff_
1549449341.087345,cobot_dynamixel_driver/goal|-:J3:-840.506832:eff_
1549449341.681165,cobot_dynamixel_driver/goal|-:J3:-850.506832:eff_
1549449342.275930,cobot_dynamixel_driver/goal|-:J3:-860.506832:eff_
1549449343.058977,cobot_dynamixel_driver/goal|-:J3:0.000000:eff_
1549449343.139983,cobot_dynamixel_driver/goal|-:J1,J2,J3,J4,J5,J6:0.000000,0.000000,0.261799,0.000000,0.000000,0.000000:0.250000,0.250000,0.250000,0.250000,0.250000,0.250000:pos_vel_
1549449345.173640,cobot_dynamixel_driver/goal|-:J3:0.000000:eff_
1549449345.264687,cobot_dynamixel_driver/goal|-:J1,J2,J3,J4,J5,J6:0.000000,0.000000,0.261799,0.000000,0.000000,0.000000:0.250000,0.250000,0.250000,0.250000,0.250000,0.250000:pos_vel_
1549449348.001939,cobot_dynamixel_driver/goal|-:J3:-743.208396:eff_
1549449348.605958,cobot_dynamixel_driver/goal|-:J3:-753.208396:eff_
1549449349.200394,cobot_dynamixel_driver/goal|-:J3:-763.208396:eff_
1549449349.821208,cobot_dynamixel_driver/goal|-:J3:-773.208396:eff_
1549449350.415792,cobot_dynamixel_driver/goal|-:J3:-783.208396:eff_
1549449351.009418,cobot_dynamixel_driver/goal|-:J3:-793.208396:eff_
1549449351.603089,cobot_dynamixel_driver/goal|-:J3:-803.208396:eff_
1549449352.223839,cobot_dynamixel_driver/goal|-:J3:-813.208396:eff_
1549449352.817515,cobot_dynamixel_driver/goal|-:J3:-823.208396:eff_
1549449353.411151,cobot_dynamixel_driver/goal|-:J3:-833.208396:eff_
1549449354.004892,cobot_dynamixel_driver/goal|-:J3:-843.208396:eff_
1549449354.625468,cobot_dynamixel_driver/goal|-:J3:-853.208396:eff_
1549449355.219031,cobot_dynamixel_driver/goal|-:J3:-863.208396:eff_
1549449356.810864,cobot_dynamixel_driver/goal|-:J3:0.000000:eff_
1549449356.919061,cobot_dynamixel_driver/goal|-:J1,J2,J3,J4,J5,J6:0.000000,0.000000,0.261799,0.000000,0.000000,0.000000:0.250000,0.250000,0.250000,0.250000,0.250000,0.250000:pos_vel_
1549449357.522572,cobot_dynamixel_driver/goal|-:J3:-873.208396:eff_
1549449358.128064,cobot_dynamixel_driver/goal|-:J3:0.000000:eff_
1549449358.209939,cobot_dynamixel_driver/goal|-:J1,J2,J3,J4,J5,J6:0.000000,0.000000,0.261799,0.000000,0.000000,0.000000:0.250000,0.250000,0.250000,0.250000,0.250000,0.250000:pos_vel_
1549449360.270900,cobot_dynamixel_driver/goal|-:J3:0.000000:eff_
1549449360.361788,cobot_dynamixel_driver/goal|-:J1,J2,J3,J4,J5,J6:0.000000,0.000000,0.174533,0.000000,0.000000,0.000000:0.250000,0.250000,0.250000,0.250000,0.250000,0.250000:pos_vel_
1549449363.611956,cobot_dynamixel_driver/goal|-:J3:-833.710740:eff_
1549449364.215879,cobot_dynamixel_driver/goal|-:J3:-843.710740:eff_
1549449364.811470,cobot_dynamixel_driver/goal|-:J3:-853.710740:eff_
1549449365.407187,cobot_dynamixel_driver/goal|-:J3:-863.710740:eff_
1549449366.001759,cobot_dynamixel_driver/goal|-:J3:-873.710740:eff_
1549449366.597781,cobot_dynamixel_driver/goal|-:J3:-883.710740:eff_
1549449367.218216,cobot_dynamixel_driver/goal|-:J3:-893.710740:eff_
1549449367.813764,cobot_dynamixel_driver/goal|-:J3:-903.710740:eff_
1549449369.001856,cobot_dynamixel_driver/goal|-:J3:0.000000:eff_
1549449369.082862,cobot_dynamixel_driver/goal|-:J1,J2,J3,J4,J5,J6:0.000000,0.000000,0.174533,0.000000,0.000000,0.000000:0.250000,0.250000,0.250000,0.250000,0.250000,0.250000:pos_vel_
1549449370.631837,cobot_dynamixel_driver/goal|-:J3:0.000000:eff_
1549449370.722773,cobot_dynamixel_driver/goal|-:J1,J2,J3,J4,J5,J6:0.000000,0.000000,0.174533,0.000000,0.000000,0.000000:0.250000,0.250000,0.250000,0.250000,0.250000,0.250000:pos_vel_
1549449373.566795,cobot_dynamixel_driver/goal|-:J3:-560.711106:eff_
1549449374.170606,cobot_dynamixel_driver/goal|-:J3:-570.711106:eff_
1549449374.765526,cobot_dynamixel_driver/goal|-:J3:-580.711106:eff_
1549449375.360000,cobot_dynamixel_driver/goal|-:J3:-590.711106:eff_
1549449375.981975,cobot_dynamixel_driver/goal|-:J3:-600.711106:eff_
1549449376.576508,cobot_dynamixel_driver/goal|-:J3:-610.711106:eff_
1549449377.171079,cobot_dynamixel_driver/goal|-:J3:-620.711106:eff_
1549449377.764968,cobot_dynamixel_driver/goal|-:J3:-630.711106:eff_
1549449378.386325,cobot_dynamixel_driver/goal|-:J3:-640.711106:eff_
1549449378.980107,cobot_dynamixel_driver/goal|-:J3:-650.711106:eff_
1549449379.574735,cobot_dynamixel_driver/goal|-:J3:-660.711106:eff_
1549449380.169451,cobot_dynamixel_driver/goal|-:J3:-670.711106:eff_
1549449380.791063,cobot_dynamixel_driver/goal|-:J3:-680.711106:eff_
1549449381.385611,cobot_dynamixel_driver/goal|-:J3:-690.711106:eff_
1549449381.979116,cobot_dynamixel_driver/goal|-:J3:-700.711106:eff_
1549449382.573665,cobot_dynamixel_driver/goal|-:J3:-710.711106:eff_
1549449383.194532,cobot_dynamixel_driver/goal|-:J3:-720.711106:eff_
1549449383.788985,cobot_dynamixel_driver/goal|-:J3:-730.711106:eff_
1549449384.383560,cobot_dynamixel_driver/goal|-:J3:-740.711106:eff_
1549449384.977372,cobot_dynamixel_driver/goal|-:J3:-750.711106:eff_
1549449385.574007,cobot_dynamixel_driver/goal|-:J3:-760.711106:eff_
1549449386.196504,cobot_dynamixel_driver/goal|-:J3:-770.711106:eff_
1549449386.790122,cobot_dynamixel_driver/goal|-:J3:-780.711106:eff_
1549449387.383711,cobot_dynamixel_driver/goal|-:J3:-790.711106:eff_
1549449387.977715,cobot_dynamixel_driver/goal|-:J3:-800.711106:eff_
1549449388.599247,cobot_dynamixel_driver/goal|-:J3:-810.711106:eff_
1549449389.192909,cobot_dynamixel_driver/goal|-:J3:-820.711106:eff_
1549449389.786764,cobot_dynamixel_driver/goal|-:J3:-830.711106:eff_
1549449390.381254,cobot_dynamixel_driver/goal|-:J3:-840.711106:eff_
1549449391.004271,cobot_dynamixel_driver/goal|-:J3:-850.711106:eff_
1549449391.598587,cobot_dynamixel_driver/goal|-:J3:-860.711106:eff_
1549449392.193184,cobot_dynamixel_driver/goal|-:J3:-870.711106:eff_
1549449392.788033,cobot_dynamixel_driver/goal|-:J3:-880.711106:eff_
1549449393.409551,cobot_dynamixel_driver/goal|-:J3:-890.711106:eff_
1549449394.004037,cobot_dynamixel_driver/goal|-:J3:-900.711106:eff_
1549449394.597960,cobot_dynamixel_driver/goal|-:J3:-910.711106:eff_
1549449395.192354,cobot_dynamixel_driver/goal|-:J3:-920.711106:eff_
1549449395.813080,cobot_dynamixel_driver/goal|-:J3:0.000000:eff_
1549449395.894681,cobot_dynamixel_driver/goal|-:J1,J2,J3,J4,J5,J6:0.000000,0.000000,0.174533,0.000000,0.000000,0.000000:0.250000,0.250000,0.250000,0.250000,0.250000,0.250000:pos_vel_
1549449397.712476,cobot_dynamixel_driver/goal|-:J3:0.000000:eff_
1549449397.830693,cobot_dynamixel_driver/goal|-:J1,J2,J3,J4,J5,J6:0.000000,0.000000,0.087266,0.000000,0.000000,0.000000:0.250000,0.250000,0.250000,0.250000,0.250000,0.250000:pos_vel_
1549449401.161497,cobot_dynamixel_driver/goal|-:J3:-784.159622:eff_
1549449401.765464,cobot_dynamixel_driver/goal|-:J3:-794.159622:eff_
1549449402.360018,cobot_dynamixel_driver/goal|-:J3:-804.159622:eff_
1549449402.954688,cobot_dynamixel_driver/goal|-:J3:-814.159622:eff_
1549449403.577319,cobot_dynamixel_driver/goal|-:J3:-824.159622:eff_
1549449404.171241,cobot_dynamixel_driver/goal|-:J3:-834.159622:eff_
1549449404.766905,cobot_dynamixel_driver/goal|-:J3:-844.159622:eff_
1549449405.361475,cobot_dynamixel_driver/goal|-:J3:-854.159622:eff_
1549449405.984134,cobot_dynamixel_driver/goal|-:J3:-864.159622:eff_
1549449406.577809,cobot_dynamixel_driver/goal|-:J3:-874.159622:eff_
1549449407.172339,cobot_dynamixel_driver/goal|-:J3:-884.159622:eff_
1549449407.766862,cobot_dynamixel_driver/goal|-:J3:-894.159622:eff_
1549449408.387577,cobot_dynamixel_driver/goal|-:J3:-904.159622:eff_
1549449409.116725,cobot_dynamixel_driver/goal|-:J3:0.000000:eff_
1549449409.197714,cobot_dynamixel_driver/goal|-:J1,J2,J3,J4,J5,J6:0.000000,0.000000,0.087266,0.000000,0.000000,0.000000:0.250000,0.250000,0.250000,0.250000,0.250000,0.250000:pos_vel_
1549449410.935539,cobot_dynamixel_driver/goal|-:J3:0.000000:eff_
1549449411.053711,cobot_dynamixel_driver/goal|-:J1,J2,J3,J4,J5,J6:0.000000,0.000000,0.087266,0.000000,0.000000,0.000000:0.250000,0.250000,0.250000,0.250000,0.250000,0.250000:pos_vel_
1549449413.873930,cobot_dynamixel_driver/goal|-:J3:-778.240331:eff_
1549449414.477718,cobot_dynamixel_driver/goal|-:J3:-788.240331:eff_
1549449415.072428,cobot_dynamixel_driver/goal|-:J3:-798.240331:eff_
1549449415.693088,cobot_dynamixel_driver/goal|-:J3:-808.240331:eff_
1549449416.287841,cobot_dynamixel_driver/goal|-:J3:-818.240331:eff_
1549449416.882509,cobot_dynamixel_driver/goal|-:J3:-828.240331:eff_
1549449417.478314,cobot_dynamixel_driver/goal|-:J3:-838.240331:eff_
1549449418.099949,cobot_dynamixel_driver/goal|-:J3:-848.240331:eff_
1549449418.694609,cobot_dynamixel_driver/goal|-:J3:-858.240331:eff_
1549449419.290353,cobot_dynamixel_driver/goal|-:J3:-868.240331:eff_
1549449419.884789,cobot_dynamixel_driver/goal|-:J3:-878.240331:eff_
1549449420.480432,cobot_dynamixel_driver/goal|-:J3:-888.240331:eff_
1549449421.100901,cobot_dynamixel_driver/goal|-:J3:-898.240331:eff_
1549449422.073041,cobot_dynamixel_driver/goal|-:J3:0.000000:eff_
1549449422.154008,cobot_dynamixel_driver/goal|-:J1,J2,J3,J4,J5,J6:0.000000,0.000000,0.087266,0.000000,0.000000,0.000000:0.250000,0.250000,0.250000,0.250000,0.250000,0.250000:pos_vel_
1549449424.079782,cobot_dynamixel_driver/goal|-:J3:0.000000:eff_
1549449424.197962,cobot_dynamixel_driver/goal|-:J1,J2,J3,J4,J5,J6:0.000000,0.000000,0.000000,0.000000,0.000000,0.000000:0.250000,0.250000,0.250000,0.250000,0.250000,0.250000:pos_vel_
1549449427.634816,cobot_dynamixel_driver/goal|-:J3:-481.398475:eff_
1549449428.238666,cobot_dynamixel_driver/goal|-:J3:-491.398475:eff_
1549449428.834411,cobot_dynamixel_driver/goal|-:J3:-501.398475:eff_
1549449429.429120,cobot_dynamixel_driver/goal|-:J3:-511.398475:eff_
1549449430.025871,cobot_dynamixel_driver/goal|-:J3:-521.398475:eff_
1549449430.621336,cobot_dynamixel_driver/goal|-:J3:-531.398475:eff_
1549449431.242157,cobot_dynamixel_driver/goal|-:J3:-541.398475:eff_
1549449431.836815,cobot_dynamixel_driver/goal|-:J3:-551.398475:eff_
1549449432.431314,cobot_dynamixel_driver/goal|-:J3:-561.398475:eff_
1549449433.026145,cobot_dynamixel_driver/goal|-:J3:-571.398475:eff_
1549449433.620794,cobot_dynamixel_driver/goal|-:J3:-581.398475:eff_
1549449434.242172,cobot_dynamixel_driver/goal|-:J3:-591.398475:eff_
1549449434.836893,cobot_dynamixel_driver/goal|-:J3:-601.398475:eff_
1549449435.431655,cobot_dynamixel_driver/goal|-:J3:-611.398475:eff_
1549449436.024913,cobot_dynamixel_driver/goal|-:J3:-621.398475:eff_
1549449436.646392,cobot_dynamixel_driver/goal|-:J3:-631.398475:eff_
1549449437.240066,cobot_dynamixel_driver/goal|-:J3:-641.398475:eff_
1549449437.833952,cobot_dynamixel_driver/goal|-:J3:-651.398475:eff_
1549449438.428623,cobot_dynamixel_driver/goal|-:J3:-661.398475:eff_
1549449439.050235,cobot_dynamixel_driver/goal|-:J3:-671.398475:eff_
1549449439.644786,cobot_dynamixel_driver/goal|-:J3:-681.398475:eff_
1549449440.239476,cobot_dynamixel_driver/goal|-:J3:-691.398475:eff_
1549449440.832948,cobot_dynamixel_driver/goal|-:J3:-701.398475:eff_
1549449441.453555,cobot_dynamixel_driver/goal|-:J3:-711.398475:eff_
1549449442.047580,cobot_dynamixel_driver/goal|-:J3:-721.398475:eff_
1549449442.643278,cobot_dynamixel_driver/goal|-:J3:-731.398475:eff_
1549449443.237868,cobot_dynamixel_driver/goal|-:J3:-741.398475:eff_
1549449443.859384,cobot_dynamixel_driver/goal|-:J3:-751.398475:eff_
1549449444.453518,cobot_dynamixel_driver/goal|-:J3:-761.398475:eff_
1549449445.048943,cobot_dynamixel_driver/goal|-:J3:-771.398475:eff_
1549449445.642592,cobot_dynamixel_driver/goal|-:J3:-781.398475:eff_
1549449446.264268,cobot_dynamixel_driver/goal|-:J3:-791.398475:eff_
1549449446.858806,cobot_dynamixel_driver/goal|-:J3:-801.398475:eff_
1549449447.453504,cobot_dynamixel_driver/goal|-:J3:-811.398475:eff_
1549449448.047848,cobot_dynamixel_driver/goal|-:J3:-821.398475:eff_
1549449448.643595,cobot_dynamixel_driver/goal|-:J3:-831.398475:eff_
1549449449.265231,cobot_dynamixel_driver/goal|-:J3:-841.398475:eff_
1549449449.860574,cobot_dynamixel_driver/goal|-:J3:-851.398475:eff_
1549449450.455538,cobot_dynamixel_driver/goal|-:J3:-861.398475:eff_
1549449451.051050,cobot_dynamixel_driver/goal|-:J3:-871.398475:eff_
1549449451.646655,cobot_dynamixel_driver/goal|-:J3:-881.398475:eff_
1549449452.267357,cobot_dynamixel_driver/goal|-:J3:-891.398475:eff_
1549449452.861807,cobot_dynamixel_driver/goal|-:J3:-901.398475:eff_
1549449453.455518,cobot_dynamixel_driver/goal|-:J3:-911.398475:eff_
1549449454.051246,cobot_dynamixel_driver/goal|-:J3:-921.398475:eff_
1549449454.672962,cobot_dynamixel_driver/goal|-:J3:-931.398475:eff_
1549449455.267764,cobot_dynamixel_driver/goal|-:J3:-941.398475:eff_
1549449455.863624,cobot_dynamixel_driver/goal|-:J3:-951.398475:eff_
1549449456.458014,cobot_dynamixel_driver/goal|-:J3:-961.398475:eff_
1549449457.079950,cobot_dynamixel_driver/goal|-:J3:-971.398475:eff_
1549449457.674576,cobot_dynamixel_driver/goal|-:J3:-981.398475:eff_
1549449458.270095,cobot_dynamixel_driver/goal|-:J3:-991.398475:eff_
1549449458.864820,cobot_dynamixel_driver/goal|-:J3:-1001.398475:eff_
1549449459.459310,cobot_dynamixel_driver/goal|-:J3:-1011.398475:eff_
1549449460.080851,cobot_dynamixel_driver/goal|-:J3:-1021.398475:eff_
1549449460.674774,cobot_dynamixel_driver/goal|-:J3:-1031.398475:eff_
1549449461.430790,cobot_dynamixel_driver/goal|-:J3:0.000000:eff_
1549449461.512969,cobot_dynamixel_driver/goal|-:J1,J2,J3,J4,J5,J6:0.000000,0.000000,0.000000,0.000000,0.000000,0.000000:0.250000,0.250000,0.250000,0.250000,0.250000,0.250000:pos_vel_
1549449463.357540,cobot_dynamixel_driver/goal|-:J3:0.000000:eff_
1549449463.448511,cobot_dynamixel_driver/goal|-:J1,J2,J3,J4,J5,J6:0.000000,0.000000,0.000000,0.000000,0.000000,0.000000:0.250000,0.250000,0.250000,0.250000,0.250000,0.250000:pos_vel_
1549449466.183761,cobot_dynamixel_driver/goal|-:J3:-611.203488:eff_
1549449466.787622,cobot_dynamixel_driver/goal|-:J3:-621.203488:eff_
1549449467.409184,cobot_dynamixel_driver/goal|-:J3:-631.203488:eff_
1549449468.003219,cobot_dynamixel_driver/goal|-:J3:-641.203488:eff_
1549449468.597542,cobot_dynamixel_driver/goal|-:J3:-651.203488:eff_
1549449469.192333,cobot_dynamixel_driver/goal|-:J3:-661.203488:eff_
1549449469.814098,cobot_dynamixel_driver/goal|-:J3:-671.203488:eff_
1549449470.408862,cobot_dynamixel_driver/goal|-:J3:-681.203488:eff_
1549449471.004355,cobot_dynamixel_driver/goal|-:J3:-691.203488:eff_
1549449471.599007,cobot_dynamixel_driver/goal|-:J3:-701.203488:eff_
1549449472.193677,cobot_dynamixel_driver/goal|-:J3:-711.203488:eff_
1549449472.816258,cobot_dynamixel_driver/goal|-:J3:-721.203488:eff_
1549449473.411098,cobot_dynamixel_driver/goal|-:J3:-731.203488:eff_
1549449474.004575,cobot_dynamixel_driver/goal|-:J3:-741.203488:eff_
1549449474.598066,cobot_dynamixel_driver/goal|-:J3:-751.203488:eff_
1549449475.220561,cobot_dynamixel_driver/goal|-:J3:-761.203488:eff_
1549449475.814385,cobot_dynamixel_driver/goal|-:J3:-771.203488:eff_
1549449476.409019,cobot_dynamixel_driver/goal|-:J3:-781.203488:eff_
1549449477.003723,cobot_dynamixel_driver/goal|-:J3:-791.203488:eff_
1549449477.624353,cobot_dynamixel_driver/goal|-:J3:-801.203488:eff_
1549449478.219925,cobot_dynamixel_driver/goal|-:J3:-811.203488:eff_
1549449478.814766,cobot_dynamixel_driver/goal|-:J3:-821.203488:eff_
1549449479.409211,cobot_dynamixel_driver/goal|-:J3:-831.203488:eff_
1549449480.004021,cobot_dynamixel_driver/goal|-:J3:-841.203488:eff_
1549449480.625699,cobot_dynamixel_driver/goal|-:J3:-851.203488:eff_
1549449481.221305,cobot_dynamixel_driver/goal|-:J3:-861.203488:eff_
1549449481.816890,cobot_dynamixel_driver/goal|-:J3:-871.203488:eff_
1549449482.411510,cobot_dynamixel_driver/goal|-:J3:-881.203488:eff_
1549449483.032197,cobot_dynamixel_driver/goal|-:J3:-891.203488:eff_
1549449483.626982,cobot_dynamixel_driver/goal|-:J3:-901.203488:eff_
1549449484.221420,cobot_dynamixel_driver/goal|-:J3:-911.203488:eff_
1549449484.816959,cobot_dynamixel_driver/goal|-:J3:-921.203488:eff_
1549449485.411852,cobot_dynamixel_driver/goal|-:J3:-931.203488:eff_
1549449486.033179,cobot_dynamixel_driver/goal|-:J3:-941.203488:eff_
1549449486.626884,cobot_dynamixel_driver/goal|-:J3:-951.203488:eff_
1549449487.222550,cobot_dynamixel_driver/goal|-:J3:-961.203488:eff_
1549449487.816938,cobot_dynamixel_driver/goal|-:J3:-971.203488:eff_
1549449488.439572,cobot_dynamixel_driver/goal|-:J3:-981.203488:eff_
1549449489.034171,cobot_dynamixel_driver/goal|-:J3:-991.203488:eff_
1549449489.628630,cobot_dynamixel_driver/goal|-:J3:-1001.203488:eff_
1549449490.224303,cobot_dynamixel_driver/goal|-:J3:-1011.203488:eff_
1549449490.845202,cobot_dynamixel_driver/goal|-:J3:-1021.203488:eff_
1549449491.439638,cobot_dynamixel_driver/goal|-:J3:-1031.203488:eff_
1549449492.033396,cobot_dynamixel_driver/goal|-:J3:-1041.203488:eff_
1549449492.628183,cobot_dynamixel_driver/goal|-:J3:-1051.203488:eff_
1549449493.222886,cobot_dynamixel_driver/goal|-:J3:-1061.203488:eff_
1549449493.845731,cobot_dynamixel_driver/goal|-:J3:-1071.203488:eff_
1549449494.441173,cobot_dynamixel_driver/goal|-:J3:0.000000:eff_
1549449494.549175,cobot_dynamixel_driver/goal|-:J1,J2,J3,J4,J5,J6:0.000000,0.000000,0.000000,0.000000,0.000000,0.000000:0.250000,0.250000,0.250000,0.250000,0.250000,0.250000:pos_vel_
1549449496.691985,cobot_dynamixel_driver/goal|-:J3:0.000000:eff_
1549449496.782796,cobot_dynamixel_driver/goal|-:J1,J2,J3,J4,J5,J6:0.000000,0.000000,-0.087266,0.000000,0.000000,0.000000:0.250000,0.250000,0.250000,0.250000,0.250000,0.250000:pos_vel_
1549449500.112520,cobot_dynamixel_driver/goal|-:J3:-509.005472:eff_
1549449500.716291,cobot_dynamixel_driver/goal|-:J3:-519.005472:eff_
1549449501.336824,cobot_dynamixel_driver/goal|-:J3:-529.005472:eff_
1549449501.930303,cobot_dynamixel_driver/goal|-:J3:-539.005472:eff_
1549449502.525070,cobot_dynamixel_driver/goal|-:J3:-549.005472:eff_
1549449503.119625,cobot_dynamixel_driver/goal|-:J3:-559.005472:eff_
1549449503.715316,cobot_dynamixel_driver/goal|-:J3:-569.005472:eff_
1549449504.336926,cobot_dynamixel_driver/goal|-:J3:-579.005472:eff_
1549449504.930619,cobot_dynamixel_driver/goal|-:J3:-589.005472:eff_
1549449505.525467,cobot_dynamixel_driver/goal|-:J3:-599.005472:eff_
1549449506.120147,cobot_dynamixel_driver/goal|-:J3:-609.005472:eff_
1549449506.741811,cobot_dynamixel_driver/goal|-:J3:-619.005472:eff_
1549449507.336247,cobot_dynamixel_driver/goal|-:J3:-629.005472:eff_
1549449507.931142,cobot_dynamixel_driver/goal|-:J3:-639.005472:eff_
1549449508.524920,cobot_dynamixel_driver/goal|-:J3:-649.005472:eff_
1549449509.146515,cobot_dynamixel_driver/goal|-:J3:-659.005472:eff_
1549449509.740089,cobot_dynamixel_driver/goal|-:J3:-669.005472:eff_
1549449510.335573,cobot_dynamixel_driver/goal|-:J3:-679.005472:eff_
1549449510.930230,cobot_dynamixel_driver/goal|-:J3:-689.005472:eff_
1549449511.553119,cobot_dynamixel_driver/goal|-:J3:-699.005472:eff_
1549449512.146685,cobot_dynamixel_driver/goal|-:J3:-709.005472:eff_
1549449512.740158,cobot_dynamixel_driver/goal|-:J3:-719.005472:eff_
1549449513.334945,cobot_dynamixel_driver/goal|-:J3:-729.005472:eff_
1549449513.929388,cobot_dynamixel_driver/goal|-:J3:-739.005472:eff_
1549449514.550070,cobot_dynamixel_driver/goal|-:J3:-749.005472:eff_
1549449515.144550,cobot_dynamixel_driver/goal|-:J3:-759.005472:eff_
1549449515.741027,cobot_dynamixel_driver/goal|-:J3:-769.005472:eff_
1549449516.335783,cobot_dynamixel_driver/goal|-:J3:-779.005472:eff_
1549449516.957408,cobot_dynamixel_driver/goal|-:J3:-789.005472:eff_
1549449517.551191,cobot_dynamixel_driver/goal|-:J3:-799.005472:eff_
1549449518.145762,cobot_dynamixel_driver/goal|-:J3:-809.005472:eff_
1549449518.740596,cobot_dynamixel_driver/goal|-:J3:-819.005472:eff_
1549449519.362025,cobot_dynamixel_driver/goal|-:J3:-829.005472:eff_
1549449519.955913,cobot_dynamixel_driver/goal|-:J3:-839.005472:eff_
1549449520.551398,cobot_dynamixel_driver/goal|-:J3:-849.005472:eff_
1549449521.145346,cobot_dynamixel_driver/goal|-:J3:-859.005472:eff_
1549449521.739931,cobot_dynamixel_driver/goal|-:J3:-869.005472:eff_
1549449522.361603,cobot_dynamixel_driver/goal|-:J3:-879.005472:eff_
1549449522.956206,cobot_dynamixel_driver/goal|-:J3:-889.005472:eff_
1549449523.550795,cobot_dynamixel_driver/goal|-:J3:-899.005472:eff_
1549449524.144485,cobot_dynamixel_driver/goal|-:J3:-909.005472:eff_
1549449524.765990,cobot_dynamixel_driver/goal|-:J3:-919.005472:eff_
1549449525.359643,cobot_dynamixel_driver/goal|-:J3:-929.005472:eff_
1549449525.954500,cobot_dynamixel_driver/goal|-:J3:-939.005472:eff_
1549449526.549007,cobot_dynamixel_driver/goal|-:J3:-949.005472:eff_
1549449527.170650,cobot_dynamixel_driver/goal|-:J3:-959.005472:eff_
1549449527.763987,cobot_dynamixel_driver/goal|-:J3:-969.005472:eff_
1549449528.357705,cobot_dynamixel_driver/goal|-:J3:-979.005472:eff_
1549449528.951411,cobot_dynamixel_driver/goal|-:J3:-989.005472:eff_
1549449529.573995,cobot_dynamixel_driver/goal|-:J3:-999.005472:eff_
1549449530.168782,cobot_dynamixel_driver/goal|-:J3:-1009.005472:eff_
1549449530.764362,cobot_dynamixel_driver/goal|-:J3:-1019.005472:eff_
1549449531.358819,cobot_dynamixel_driver/goal|-:J3:0.000000:eff_
1549449531.467762,cobot_dynamixel_driver/goal|-:J1,J2,J3,J4,J5,J6:0.000000,0.000000,-0.087266,0.000000,0.000000,0.000000:0.250000,0.250000,0.250000,0.250000,0.250000,0.250000:pos_vel_
1549449533.611700,cobot_dynamixel_driver/goal|-:J3:0.000000:eff_
1549449533.702511,cobot_dynamixel_driver/goal|-:J1,J2,J3,J4,J5,J6:0.000000,0.000000,-0.087266,0.000000,0.000000,0.000000:0.250000,0.250000,0.250000,0.250000,0.250000,0.250000:pos_vel_
1549449536.545805,cobot_dynamixel_driver/goal|-:J3:-722.170474:eff_
1549449537.149575,cobot_dynamixel_driver/goal|-:J3:-732.170474:eff_
1549449537.744300,cobot_dynamixel_driver/goal|-:J3:-742.170474:eff_
1549449538.339888,cobot_dynamixel_driver/goal|-:J3:-752.170474:eff_
1549449538.935519,cobot_dynamixel_driver/goal|-:J3:-762.170474:eff_
1549449539.557050,cobot_dynamixel_driver/goal|-:J3:-772.170474:eff_
1549449540.152481,cobot_dynamixel_driver/goal|-:J3:-782.170474:eff_
1549449541.745306,cobot_dynamixel_driver/goal|-:J3:0.000000:eff_
1549449541.853340,cobot_dynamixel_driver/goal|-:J1,J2,J3,J4,J5,J6:0.000000,0.000000,-0.087266,0.000000,0.000000,0.000000:0.250000,0.250000,0.250000,0.250000,0.250000,0.250000:pos_vel_
1549449542.537851,cobot_dynamixel_driver/goal|-:J3:-792.170474:eff_
1549449543.142452,cobot_dynamixel_driver/goal|-:J3:-802.170474:eff_
1549449543.764277,cobot_dynamixel_driver/goal|-:J3:-812.170474:eff_
1549449544.357839,cobot_dynamixel_driver/goal|-:J3:-822.170474:eff_
1549449544.952538,cobot_dynamixel_driver/goal|-:J3:-832.170474:eff_
1549449545.546160,cobot_dynamixel_driver/goal|-:J3:-842.170474:eff_
1549449546.167981,cobot_dynamixel_driver/goal|-:J3:-852.170474:eff_
1549449546.762900,cobot_dynamixel_driver/goal|-:J3:-862.170474:eff_
1549449547.357322,cobot_dynamixel_driver/goal|-:J3:-872.170474:eff_
1549449547.951830,cobot_dynamixel_driver/goal|-:J3:-882.170474:eff_
1549449548.572826,cobot_dynamixel_driver/goal|-:J3:-892.170474:eff_
1549449549.167185,cobot_dynamixel_driver/goal|-:J3:-902.170474:eff_
1549449549.760909,cobot_dynamixel_driver/goal|-:J3:-912.170474:eff_
1549449550.355826,cobot_dynamixel_driver/goal|-:J3:-922.170474:eff_
1549449550.950186,cobot_dynamixel_driver/goal|-:J3:-932.170474:eff_
1549449551.572925,cobot_dynamixel_driver/goal|-:J3:-942.170474:eff_
1549449552.166386,cobot_dynamixel_driver/goal|-:J3:-952.170474:eff_
1549449552.895769,cobot_dynamixel_driver/goal|-:J3:0.000000:eff_
1549449552.977746,cobot_dynamixel_driver/goal|-:J1,J2,J3,J4,J5,J6:0.000000,0.000000,-0.087266,0.000000,0.000000,0.000000:0.250000,0.250000,0.250000,0.250000,0.250000,0.250000:pos_vel_
1549449554.905452,cobot_dynamixel_driver/goal|-:J3:0.000000:eff_
1549449554.996396,cobot_dynamixel_driver/goal|-:J1,J2,J3,J4,J5,J6:0.000000,0.000000,-0.174533,0.000000,0.000000,0.000000:0.250000,0.250000,0.250000,0.250000,0.250000,0.250000:pos_vel_
1549449558.245487,cobot_dynamixel_driver/goal|-:J3:-667.542821:eff_
1549449558.850320,cobot_dynamixel_driver/goal|-:J3:-677.542821:eff_
1549449559.443931,cobot_dynamixel_driver/goal|-:J3:-687.542821:eff_
1549449560.038598,cobot_dynamixel_driver/goal|-:J3:-697.542821:eff_
1549449560.659249,cobot_dynamixel_driver/goal|-:J3:-707.542821:eff_
1549449561.253046,cobot_dynamixel_driver/goal|-:J3:-717.542821:eff_
1549449561.847657,cobot_dynamixel_driver/goal|-:J3:-727.542821:eff_
1549449562.441350,cobot_dynamixel_driver/goal|-:J3:-737.542821:eff_
1549449563.063014,cobot_dynamixel_driver/goal|-:J3:-747.542821:eff_
1549449563.657575,cobot_dynamixel_driver/goal|-:J3:-757.542821:eff_
1549449564.252307,cobot_dynamixel_driver/goal|-:J3:-767.542821:eff_
1549449564.846932,cobot_dynamixel_driver/goal|-:J3:-777.542821:eff_
1549449565.467505,cobot_dynamixel_driver/goal|-:J3:-787.542821:eff_
1549449566.060823,cobot_dynamixel_driver/goal|-:J3:-797.542821:eff_
1549449567.653583,cobot_dynamixel_driver/goal|-:J3:0.000000:eff_
1549449567.761524,cobot_dynamixel_driver/goal|-:J1,J2,J3,J4,J5,J6:0.000000,0.000000,-0.174533,0.000000,0.000000,0.000000:0.250000,0.250000,0.250000,0.250000,0.250000,0.250000:pos_vel_
1549449568.446112,cobot_dynamixel_driver/goal|-:J3:-807.542821:eff_
1549449570.048146,cobot_dynamixel_driver/goal|-:J3:0.000000:eff_
1549449570.156117,cobot_dynamixel_driver/goal|-:J1,J2,J3,J4,J5,J6:0.000000,0.000000,-0.174533,0.000000,0.000000,0.000000:0.250000,0.250000,0.250000,0.250000,0.250000,0.250000:pos_vel_
1549449570.867773,cobot_dynamixel_driver/goal|-:J3:-817.542821:eff_
1549449571.471426,cobot_dynamixel_driver/goal|-:J3:-827.542821:eff_
1549449572.065419,cobot_dynamixel_driver/goal|-:J3:-837.542821:eff_
1549449572.659858,cobot_dynamixel_driver/goal|-:J3:-847.542821:eff_
1549449573.253538,cobot_dynamixel_driver/goal|-:J3:-857.542821:eff_
1549449573.875272,cobot_dynamixel_driver/goal|-:J3:-867.542821:eff_
1549449574.469783,cobot_dynamixel_driver/goal|-:J3:-877.542821:eff_
1549449575.065537,cobot_dynamixel_driver/goal|-:J3:-887.542821:eff_
1549449575.660962,cobot_dynamixel_driver/goal|-:J3:-897.542821:eff_
1549449576.281686,cobot_dynamixel_driver/goal|-:J3:-907.542821:eff_
1549449576.875208,cobot_dynamixel_driver/goal|-:J3:-917.542821:eff_
1549449577.684657,cobot_dynamixel_driver/goal|-:J3:0.000000:eff_
1549449577.765617,cobot_dynamixel_driver/goal|-:J1,J2,J3,J4,J5,J6:0.000000,0.000000,-0.174533,0.000000,0.000000,0.000000:0.250000,0.250000,0.250000,0.250000,0.250000,0.250000:pos_vel_
1549449579.827076,cobot_dynamixel_driver/goal|-:J3:0.000000:eff_
1549449579.917937,cobot_dynamixel_driver/goal|-:J1,J2,J3,J4,J5,J6:0.000000,0.000000,-0.174533,0.000000,0.000000,0.000000:0.250000,0.250000,0.250000,0.250000,0.250000,0.250000:pos_vel_
1549449582.761098,cobot_dynamixel_driver/goal|-:J3:-692.229178:eff_
1549449583.365006,cobot_dynamixel_driver/goal|-:J3:-702.229178:eff_
1549449583.958831,cobot_dynamixel_driver/goal|-:J3:-712.229178:eff_
1549449584.552127,cobot_dynamixel_driver/goal|-:J3:-722.229178:eff_
1549449585.172831,cobot_dynamixel_driver/goal|-:J3:-732.229178:eff_
1549449585.766504,cobot_dynamixel_driver/goal|-:J3:-742.229178:eff_
1549449586.361119,cobot_dynamixel_driver/goal|-:J3:-752.229178:eff_
1549449586.954757,cobot_dynamixel_driver/goal|-:J3:-762.229178:eff_
1549449587.575577,cobot_dynamixel_driver/goal|-:J3:-772.229178:eff_
1549449588.169159,cobot_dynamixel_driver/goal|-:J3:-782.229178:eff_
1549449588.765020,cobot_dynamixel_driver/goal|-:J3:-792.229178:eff_
1549449589.359486,cobot_dynamixel_driver/goal|-:J3:-802.229178:eff_
1549449589.980082,cobot_dynamixel_driver/goal|-:J3:-812.229178:eff_
1549449590.574522,cobot_dynamixel_driver/goal|-:J3:-822.229178:eff_
1549449591.168211,cobot_dynamixel_driver/goal|-:J3:-832.229178:eff_
1549449591.762680,cobot_dynamixel_driver/goal|-:J3:-842.229178:eff_
1549449592.383376,cobot_dynamixel_driver/goal|-:J3:-852.229178:eff_
1549449592.977847,cobot_dynamixel_driver/goal|-:J3:-862.229178:eff_
1549449593.572469,cobot_dynamixel_driver/goal|-:J3:-872.229178:eff_
1549449595.165419,cobot_dynamixel_driver/goal|-:J3:0.000000:eff_
1549449595.273708,cobot_dynamixel_driver/goal|-:J1,J2,J3,J4,J5,J6:0.000000,0.000000,-0.174533,0.000000,0.000000,0.000000:0.250000,0.250000,0.250000,0.250000,0.250000,0.250000:pos_vel_
1549449595.985105,cobot_dynamixel_driver/goal|-:J3:-882.229178:eff_
1549449597.586998,cobot_dynamixel_driver/goal|-:J3:0.000000:eff_
1549449597.668110,cobot_dynamixel_driver/goal|-:J1,J2,J3,J4,J5,J6:0.000000,0.000000,-0.174533,0.000000,0.000000,0.000000:0.250000,0.250000,0.250000,0.250000,0.250000,0.250000:pos_vel_
1549449598.163774,cobot_dynamixel_driver/goal|-:J3:-892.229178:eff_
1549449598.767432,cobot_dynamixel_driver/goal|-:J3:0.000000:eff_
1549449598.875696,cobot_dynamixel_driver/goal|-:J1,J2,J3,J4,J5,J6:0.000000,0.000000,-0.174533,0.000000,0.000000,0.000000:0.250000,0.250000,0.250000,0.250000,0.250000,0.250000:pos_vel_
1549449600.612466,cobot_dynamixel_driver/goal|-:J3:0.000000:eff_
1549449600.703415,cobot_dynamixel_driver/goal|-:J1,J2,J3,J4,J5,J6:0.000000,0.000000,-0.261799,0.000000,0.000000,0.000000:0.250000,0.250000,0.250000,0.250000,0.250000,0.250000:pos_vel_
1549449603.925344,cobot_dynamixel_driver/goal|-:J3:-836.683022:eff_
1549449604.528799,cobot_dynamixel_driver/goal|-:J3:-846.683022:eff_
1549449605.149461,cobot_dynamixel_driver/goal|-:J3:-856.683022:eff_
1549449605.743865,cobot_dynamixel_driver/goal|-:J3:-866.683022:eff_
1549449606.337525,cobot_dynamixel_driver/goal|-:J3:-876.683022:eff_
1549449606.932979,cobot_dynamixel_driver/goal|-:J3:-886.683022:eff_
1549449607.554602,cobot_dynamixel_driver/goal|-:J3:-896.683022:eff_
1549449608.148298,cobot_dynamixel_driver/goal|-:J3:-906.683022:eff_
1549449608.743072,cobot_dynamixel_driver/goal|-:J3:-916.683022:eff_
1549449609.337061,cobot_dynamixel_driver/goal|-:J3:-926.683022:eff_
1549449609.957397,cobot_dynamixel_driver/goal|-:J3:-936.683022:eff_
1549449610.551992,cobot_dynamixel_driver/goal|-:J3:-946.683022:eff_
1549449611.145605,cobot_dynamixel_driver/goal|-:J3:-956.683022:eff_
1549449611.741214,cobot_dynamixel_driver/goal|-:J3:-966.683022:eff_
1549449612.334999,cobot_dynamixel_driver/goal|-:J3:-976.683022:eff_
1549449613.172515,cobot_dynamixel_driver/goal|-:J3:0.000000:eff_
1549449613.253446,cobot_dynamixel_driver/goal|-:J1,J2,J3,J4,J5,J6:0.000000,0.000000,-0.261799,0.000000,0.000000,0.000000:0.250000,0.250000,0.250000,0.250000,0.250000,0.250000:pos_vel_
1549449614.910450,cobot_dynamixel_driver/goal|-:J3:0.000000:eff_
1549449615.001465,cobot_dynamixel_driver/goal|-:J1,J2,J3,J4,J5,J6:0.000000,0.000000,-0.261799,0.000000,0.000000,0.000000:0.250000,0.250000,0.250000,0.250000,0.250000,0.250000:pos_vel_
1549449617.736620,cobot_dynamixel_driver/goal|-:J3:-659.579700:eff_
1549449618.340369,cobot_dynamixel_driver/goal|-:J3:-669.579700:eff_
1549449618.933806,cobot_dynamixel_driver/goal|-:J3:-679.579700:eff_
1549449619.529263,cobot_dynamixel_driver/goal|-:J3:-689.579700:eff_
1549449620.150889,cobot_dynamixel_driver/goal|-:J3:-699.579700:eff_
1549449620.744315,cobot_dynamixel_driver/goal|-:J3:-709.579700:eff_
1549449621.339155,cobot_dynamixel_driver/goal|-:J3:-719.579700:eff_
1549449621.932770,cobot_dynamixel_driver/goal|-:J3:-729.579700:eff_
1549449622.528434,cobot_dynamixel_driver/goal|-:J3:-739.579700:eff_
1549449623.150161,cobot_dynamixel_driver/goal|-:J3:-749.579700:eff_
1549449623.745701,cobot_dynamixel_driver/goal|-:J3:-759.579700:eff_
1549449624.340444,cobot_dynamixel_driver/goal|-:J3:-769.579700:eff_
1549449624.934255,cobot_dynamixel_driver/goal|-:J3:-779.579700:eff_
1549449625.556817,cobot_dynamixel_driver/goal|-:J3:-789.579700:eff_
1549449626.150398,cobot_dynamixel_driver/goal|-:J3:-799.579700:eff_
1549449626.744163,cobot_dynamixel_driver/goal|-:J3:-809.579700:eff_
1549449627.339659,cobot_dynamixel_driver/goal|-:J3:-819.579700:eff_
1549449627.961410,cobot_dynamixel_driver/goal|-:J3:-829.579700:eff_
1549449628.555161,cobot_dynamixel_driver/goal|-:J3:-839.579700:eff_
1549449629.148702,cobot_dynamixel_driver/goal|-:J3:-849.579700:eff_
1549449629.744326,cobot_dynamixel_driver/goal|-:J3:-859.579700:eff_
1549449630.366019,cobot_dynamixel_driver/goal|-:J3:-869.579700:eff_
1549449630.959532,cobot_dynamixel_driver/goal|-:J3:-879.579700:eff_
1549449631.553431,cobot_dynamixel_driver/goal|-:J3:-889.579700:eff_
1549449632.147786,cobot_dynamixel_driver/goal|-:J3:-899.579700:eff_
1549449632.768192,cobot_dynamixel_driver/goal|-:J3:-909.579700:eff_
1549449633.361915,cobot_dynamixel_driver/goal|-:J3:-919.579700:eff_
1549449633.956519,cobot_dynamixel_driver/goal|-:J3:-929.579700:eff_
1549449634.550226,cobot_dynamixel_driver/goal|-:J3:-939.579700:eff_
1549449635.171906,cobot_dynamixel_driver/goal|-:J3:-949.579700:eff_
1549449635.766444,cobot_dynamixel_driver/goal|-:J3:-959.579700:eff_
1549449636.360469,cobot_dynamixel_driver/goal|-:J3:-969.579700:eff_
1549449636.953804,cobot_dynamixel_driver/goal|-:J3:-979.579700:eff_
1549449637.574436,cobot_dynamixel_driver/goal|-:J3:-989.579700:eff_
1549449638.169318,cobot_dynamixel_driver/goal|-:J3:-999.579700:eff_
1549449638.762785,cobot_dynamixel_driver/goal|-:J3:-1009.579700:eff_
1549449639.356976,cobot_dynamixel_driver/goal|-:J3:-1019.579700:eff_
1549449639.978162,cobot_dynamixel_driver/goal|-:J3:-1029.579700:eff_
1549449640.575914,cobot_dynamixel_driver/goal|-:J3:-1039.579700:eff_
1549449641.170485,cobot_dynamixel_driver/goal|-:J3:-1049.579700:eff_
1549449641.765185,cobot_dynamixel_driver/goal|-:J3:0.000000:eff_
1549449641.873992,cobot_dynamixel_driver/goal|-:J1,J2,J3,J4,J5,J6:0.000000,0.000000,-0.261799,0.000000,0.000000,0.000000:0.250000,0.250000,0.250000,0.250000,0.250000,0.250000:pos_vel_
1549449643.881024,cobot_dynamixel_driver/goal|-:J3:0.000000:eff_
1549449643.998878,cobot_dynamixel_driver/goal|-:J1,J2,J3,J4,J5,J6:0.000000,0.000000,-0.349066,0.000000,0.000000,0.000000:0.250000,0.250000,0.250000,0.250000,0.250000,0.250000:pos_vel_
1549449647.437226,cobot_dynamixel_driver/goal|-:J3:-545.706839:eff_
1549449648.015036,cobot_dynamixel_driver/goal|-:J3:-555.706839:eff_
1549449648.636905,cobot_dynamixel_driver/goal|-:J3:-565.706839:eff_
1549449649.231204,cobot_dynamixel_driver/goal|-:J3:-575.706839:eff_
1549449649.826017,cobot_dynamixel_driver/goal|-:J3:-585.706839:eff_
1549449650.421858,cobot_dynamixel_driver/goal|-:J3:-595.706839:eff_
1549449651.043365,cobot_dynamixel_driver/goal|-:J3:-605.706839:eff_
1549449651.636923,cobot_dynamixel_driver/goal|-:J3:-615.706839:eff_
1549449652.230635,cobot_dynamixel_driver/goal|-:J3:-625.706839:eff_
1549449652.824197,cobot_dynamixel_driver/goal|-:J3:-635.706839:eff_
1549449653.445866,cobot_dynamixel_driver/goal|-:J3:-645.706839:eff_
1549449654.039912,cobot_dynamixel_driver/goal|-:J3:-655.706839:eff_
1549449654.634221,cobot_dynamixel_driver/goal|-:J3:-665.706839:eff_
1549449655.229839,cobot_dynamixel_driver/goal|-:J3:-675.706839:eff_
1549449655.824464,cobot_dynamixel_driver/goal|-:J3:-685.706839:eff_
1549449656.445076,cobot_dynamixel_driver/goal|-:J3:-695.706839:eff_
1549449657.039823,cobot_dynamixel_driver/goal|-:J3:-705.706839:eff_
1549449657.635189,cobot_dynamixel_driver/goal|-:J3:-715.706839:eff_
1549449658.228772,cobot_dynamixel_driver/goal|-:J3:-725.706839:eff_
1549449658.849462,cobot_dynamixel_driver/goal|-:J3:-735.706839:eff_
1549449659.442859,cobot_dynamixel_driver/goal|-:J3:-745.706839:eff_
1549449660.036523,cobot_dynamixel_driver/goal|-:J3:-755.706839:eff_
1549449660.631098,cobot_dynamixel_driver/goal|-:J3:-765.706839:eff_
1549449661.253056,cobot_dynamixel_driver/goal|-:J3:-775.706839:eff_
1549449661.846545,cobot_dynamixel_driver/goal|-:J3:-785.706839:eff_
1549449662.441177,cobot_dynamixel_driver/goal|-:J3:-795.706839:eff_
1549449663.034915,cobot_dynamixel_driver/goal|-:J3:-805.706839:eff_
1549449663.655441,cobot_dynamixel_driver/goal|-:J3:-815.706839:eff_
1549449664.249204,cobot_dynamixel_driver/goal|-:J3:-825.706839:eff_
1549449664.844252,cobot_dynamixel_driver/goal|-:J3:-835.706839:eff_
1549449665.437657,cobot_dynamixel_driver/goal|-:J3:-845.706839:eff_
1549449666.059230,cobot_dynamixel_driver/goal|-:J3:-855.706839:eff_
1549449666.654044,cobot_dynamixel_driver/goal|-:J3:-865.706839:eff_
1549449667.247570,cobot_dynamixel_driver/goal|-:J3:-875.706839:eff_
1549449667.841208,cobot_dynamixel_driver/goal|-:J3:-885.706839:eff_
1549449668.461742,cobot_dynamixel_driver/goal|-:J3:-895.706839:eff_
1549449669.056374,cobot_dynamixel_driver/goal|-:J3:-905.706839:eff_
1549449669.650973,cobot_dynamixel_driver/goal|-:J3:-915.706839:eff_
1549449670.246858,cobot_dynamixel_driver/goal|-:J3:-925.706839:eff_
1549449670.868052,cobot_dynamixel_driver/goal|-:J3:-935.706839:eff_
1549449671.462702,cobot_dynamixel_driver/goal|-:J3:-945.706839:eff_
1549449672.057359,cobot_dynamixel_driver/goal|-:J3:-955.706839:eff_
1549449672.651842,cobot_dynamixel_driver/goal|-:J3:-965.706839:eff_
1549449673.273575,cobot_dynamixel_driver/goal|-:J3:-975.706839:eff_
1549449673.868331,cobot_dynamixel_driver/goal|-:J3:-985.706839:eff_
1549449674.569906,cobot_dynamixel_driver/goal|-:J3:0.000000:eff_
1549449674.650966,cobot_dynamixel_driver/goal|-:J1,J2,J3,J4,J5,J6:0.000000,0.000000,-0.349066,0.000000,0.000000,0.000000:0.250000,0.250000,0.250000,0.250000,0.250000,0.250000:pos_vel_
1549449676.605000,cobot_dynamixel_driver/goal|-:J3:0.000000:eff_
1549449676.695721,cobot_dynamixel_driver/goal|-:J1,J2,J3,J4,J5,J6:0.000000,0.000000,-0.349066,0.000000,0.000000,0.000000:0.250000,0.250000,0.250000,0.250000,0.250000,0.250000:pos_vel_
1549449679.539059,cobot_dynamixel_driver/goal|-:J3:-711.229729:eff_
1549449680.142612,cobot_dynamixel_driver/goal|-:J3:-721.229729:eff_
1549449680.737429,cobot_dynamixel_driver/goal|-:J3:-731.229729:eff_
1549449681.359029,cobot_dynamixel_driver/goal|-:J3:-741.229729:eff_
1549449681.952715,cobot_dynamixel_driver/goal|-:J3:-751.229729:eff_
1549449682.546259,cobot_dynamixel_driver/goal|-:J3:-761.229729:eff_
1549449683.140906,cobot_dynamixel_driver/goal|-:J3:-771.229729:eff_
1549449683.762465,cobot_dynamixel_driver/goal|-:J3:-781.229729:eff_
1549449684.355867,cobot_dynamixel_driver/goal|-:J3:-791.229729:eff_
1549449684.950611,cobot_dynamixel_driver/goal|-:J3:-801.229729:eff_
1549449685.545224,cobot_dynamixel_driver/goal|-:J3:-811.229729:eff_
1549449686.167005,cobot_dynamixel_driver/goal|-:J3:-821.229729:eff_
1549449686.762362,cobot_dynamixel_driver/goal|-:J3:-831.229729:eff_
1549449687.356286,cobot_dynamixel_driver/goal|-:J3:-841.229729:eff_
1549449687.950743,cobot_dynamixel_driver/goal|-:J3:-851.229729:eff_
1549449688.572688,cobot_dynamixel_driver/goal|-:J3:-861.229729:eff_
1549449689.167114,cobot_dynamixel_driver/goal|-:J3:-871.229729:eff_
1549449689.761683,cobot_dynamixel_driver/goal|-:J3:-881.229729:eff_
1549449690.355494,cobot_dynamixel_driver/goal|-:J3:-891.229729:eff_
1549449690.976978,cobot_dynamixel_driver/goal|-:J3:-901.229729:eff_
1549449691.571776,cobot_dynamixel_driver/goal|-:J3:-911.229729:eff_
1549449692.166451,cobot_dynamixel_driver/goal|-:J3:-921.229729:eff_
1549449692.763083,cobot_dynamixel_driver/goal|-:J3:-931.229729:eff_
1549449693.356689,cobot_dynamixel_driver/goal|-:J3:-941.229729:eff_
1549449693.977487,cobot_dynamixel_driver/goal|-:J3:-951.229729:eff_
1549449694.571024,cobot_dynamixel_driver/goal|-:J3:0.000000:eff_
1549449694.678943,cobot_dynamixel_driver/goal|-:J1,J2,J3,J4,J5,J6:0.000000,0.000000,-0.349066,0.000000,0.000000,0.000000:0.250000,0.250000,0.250000,0.250000,0.250000,0.250000:pos_vel_
1549449696.713700,cobot_dynamixel_driver/goal|-:J3:0.000000:eff_
1549449696.804411,cobot_dynamixel_driver/goal|-:J1,J2,J3,J4,J5,J6:0.000000,0.000000,-0.436332,0.000000,0.000000,0.000000:0.250000,0.250000,0.250000,0.250000,0.250000,0.250000:pos_vel_
1549449699.944288,cobot_dynamixel_driver/goal|-:J3:-758.566912:eff_
1549449700.548204,cobot_dynamixel_driver/goal|-:J3:-768.566912:eff_
1549449701.142848,cobot_dynamixel_driver/goal|-:J3:-778.566912:eff_
1549449701.736428,cobot_dynamixel_driver/goal|-:J3:-788.566912:eff_
1549449702.358169,cobot_dynamixel_driver/goal|-:J3:-798.566912:eff_
1549449702.952877,cobot_dynamixel_driver/goal|-:J3:-808.566912:eff_
1549449703.546481,cobot_dynamixel_driver/goal|-:J3:-818.566912:eff_
1549449704.142186,cobot_dynamixel_driver/goal|-:J3:-828.566912:eff_
1549449704.764133,cobot_dynamixel_driver/goal|-:J3:-838.566912:eff_
1549449705.358487,cobot_dynamixel_driver/goal|-:J3:-848.566912:eff_
1549449705.952126,cobot_dynamixel_driver/goal|-:J3:-858.566912:eff_
1549449706.545922,cobot_dynamixel_driver/goal|-:J3:-868.566912:eff_
1549449707.167798,cobot_dynamixel_driver/goal|-:J3:-878.566912:eff_
1549449707.761451,cobot_dynamixel_driver/goal|-:J3:-888.566912:eff_
1549449708.354805,cobot_dynamixel_driver/goal|-:J3:-898.566912:eff_
1549449708.948372,cobot_dynamixel_driver/goal|-:J3:-908.566912:eff_
1549449709.568989,cobot_dynamixel_driver/goal|-:J3:-918.566912:eff_
1549449710.163771,cobot_dynamixel_driver/goal|-:J3:-928.566912:eff_
1549449710.758106,cobot_dynamixel_driver/goal|-:J3:-938.566912:eff_
1549449711.351804,cobot_dynamixel_driver/goal|-:J3:0.000000:eff_
1549449711.459748,cobot_dynamixel_driver/goal|-:J1,J2,J3,J4,J5,J6:0.000000,0.000000,-0.436332,0.000000,0.000000,0.000000:0.250000,0.250000,0.250000,0.250000,0.250000,0.250000:pos_vel_
1549449713.412632,cobot_dynamixel_driver/goal|-:J3:0.000000:eff_
1549449713.503519,cobot_dynamixel_driver/goal|-:J1,J2,J3,J4,J5,J6:0.000000,0.000000,-0.436332,0.000000,0.000000,0.000000:0.250000,0.250000,0.250000,0.250000,0.250000,0.250000:pos_vel_
1549449716.130906,cobot_dynamixel_driver/goal|-:J3:-545.752255:eff_
1549449716.734569,cobot_dynamixel_driver/goal|-:J3:-555.752255:eff_
1549449717.329304,cobot_dynamixel_driver/goal|-:J3:-565.752255:eff_
1549449717.950112,cobot_dynamixel_driver/goal|-:J3:-575.752255:eff_
1549449718.545872,cobot_dynamixel_driver/goal|-:J3:-585.752255:eff_
1549449719.139254,cobot_dynamixel_driver/goal|-:J3:-595.752255:eff_
1549449719.734983,cobot_dynamixel_driver/goal|-:J3:-605.752255:eff_
1549449720.355580,cobot_dynamixel_driver/goal|-:J3:-615.752255:eff_
1549449720.949390,cobot_dynamixel_driver/goal|-:J3:-625.752255:eff_
1549449721.543034,cobot_dynamixel_driver/goal|-:J3:-635.752255:eff_
1549449722.136526,cobot_dynamixel_driver/goal|-:J3:-645.752255:eff_
1549449722.757322,cobot_dynamixel_driver/goal|-:J3:-655.752255:eff_
1549449723.351558,cobot_dynamixel_driver/goal|-:J3:-665.752255:eff_
1549449723.945089,cobot_dynamixel_driver/goal|-:J3:-675.752255:eff_
1549449724.539672,cobot_dynamixel_driver/goal|-:J3:-685.752255:eff_
1549449725.161286,cobot_dynamixel_driver/goal|-:J3:-695.752255:eff_
1549449725.756855,cobot_dynamixel_driver/goal|-:J3:-705.752255:eff_
1549449726.350472,cobot_dynamixel_driver/goal|-:J3:-715.752255:eff_
1549449726.945203,cobot_dynamixel_driver/goal|-:J3:-725.752255:eff_
1549449727.566901,cobot_dynamixel_driver/goal|-:J3:-735.752255:eff_
1549449728.160384,cobot_dynamixel_driver/goal|-:J3:-745.752255:eff_
1549449728.754166,cobot_dynamixel_driver/goal|-:J3:-755.752255:eff_
1549449729.347907,cobot_dynamixel_driver/goal|-:J3:-765.752255:eff_
1549449729.969569,cobot_dynamixel_driver/goal|-:J3:-775.752255:eff_
1549449730.563238,cobot_dynamixel_driver/goal|-:J3:-785.752255:eff_
1549449731.156948,cobot_dynamixel_driver/goal|-:J3:-795.752255:eff_
1549449731.750685,cobot_dynamixel_driver/goal|-:J3:-805.752255:eff_
1549449732.372250,cobot_dynamixel_driver/goal|-:J3:-815.752255:eff_
1549449732.966990,cobot_dynamixel_driver/goal|-:J3:-825.752255:eff_
1549449733.561507,cobot_dynamixel_driver/goal|-:J3:-835.752255:eff_
1549449734.155116,cobot_dynamixel_driver/goal|-:J3:-845.752255:eff_
1549449735.776015,cobot_dynamixel_driver/goal|-:J3:0.000000:eff_
1549449735.857023,cobot_dynamixel_driver/goal|-:J1,J2,J3,J4,J5,J6:0.000000,0.000000,-0.436332,0.000000,0.000000,0.000000:0.250000,0.250000,0.250000,0.250000,0.250000,0.250000:pos_vel_
1549449736.352622,cobot_dynamixel_driver/goal|-:J3:-855.752255:eff_
1549449736.956320,cobot_dynamixel_driver/goal|-:J3:0.000000:eff_
1549449737.064181,cobot_dynamixel_driver/goal|-:J1,J2,J3,J4,J5,J6:0.000000,0.000000,-0.436332,0.000000,0.000000,0.000000:0.250000,0.250000,0.250000,0.250000,0.250000,0.250000:pos_vel_
1549449738.694976,cobot_dynamixel_driver/goal|-:J3:0.000000:eff_
1549449738.785880,cobot_dynamixel_driver/goal|-:J1,J2,J3,J4,J5,J6:0.000000,0.000000,-0.523599,0.000000,0.000000,0.000000:0.250000,0.250000,0.250000,0.250000,0.250000,0.250000:pos_vel_
1549449742.115010,cobot_dynamixel_driver/goal|-:J3:-676.973898:eff_
1549449742.719006,cobot_dynamixel_driver/goal|-:J3:-686.973898:eff_
1549449743.312434,cobot_dynamixel_driver/goal|-:J3:-696.973898:eff_
1549449743.934229,cobot_dynamixel_driver/goal|-:J3:-706.973898:eff_
1549449744.528869,cobot_dynamixel_driver/goal|-:J3:-716.973898:eff_
1549449745.123470,cobot_dynamixel_driver/goal|-:J3:-726.973898:eff_
1549449745.717113,cobot_dynamixel_driver/goal|-:J3:-736.973898:eff_
1549449746.337880,cobot_dynamixel_driver/goal|-:J3:-746.973898:eff_
1549449746.931252,cobot_dynamixel_driver/goal|-:J3:-756.973898:eff_
1549449747.524951,cobot_dynamixel_driver/goal|-:J3:-766.973898:eff_
1549449748.118623,cobot_dynamixel_driver/goal|-:J3:-776.973898:eff_
1549449748.739082,cobot_dynamixel_driver/goal|-:J3:-786.973898:eff_
1549449749.333690,cobot_dynamixel_driver/goal|-:J3:-796.973898:eff_
1549449749.928191,cobot_dynamixel_driver/goal|-:J3:-806.973898:eff_
1549449750.522068,cobot_dynamixel_driver/goal|-:J3:-816.973898:eff_
1549449751.142582,cobot_dynamixel_driver/goal|-:J3:-826.973898:eff_
1549449752.736454,cobot_dynamixel_driver/goal|-:J3:0.000000:eff_
1549449752.844362,cobot_dynamixel_driver/goal|-:J1,J2,J3,J4,J5,J6:0.000000,0.000000,-0.523599,0.000000,0.000000,0.000000:0.250000,0.250000,0.250000,0.250000,0.250000,0.250000:pos_vel_
1549449753.530397,cobot_dynamixel_driver/goal|-:J3:-836.973898:eff_
1549449754.241708,cobot_dynamixel_driver/goal|-:J3:0.000000:eff_
1549449754.322673,cobot_dynamixel_driver/goal|-:J1,J2,J3,J4,J5,J6:0.000000,0.000000,-0.523599,0.000000,0.000000,0.000000:0.250000,0.250000,0.250000,0.250000,0.250000,0.250000:pos_vel_
1549449755.762874,cobot_dynamixel_driver/goal|-:J3:0.000000:eff_
1549449755.853774,cobot_dynamixel_driver/goal|-:J1,J2,J3,J4,J5,J6:0.000000,0.000000,-0.523599,0.000000,0.000000,0.000000:0.250000,0.250000,0.250000,0.250000,0.250000,0.250000:pos_vel_
1549449758.698226,cobot_dynamixel_driver/goal|-:J3:-424.509895:eff_
1549449759.301956,cobot_dynamixel_driver/goal|-:J3:-434.509895:eff_
1549449759.895679,cobot_dynamixel_driver/goal|-:J3:-444.509895:eff_
1549449760.489554,cobot_dynamixel_driver/goal|-:J3:-454.509895:eff_
1549449761.110868,cobot_dynamixel_driver/goal|-:J3:-464.509895:eff_
1549449761.704461,cobot_dynamixel_driver/goal|-:J3:-474.509895:eff_
1549449762.298867,cobot_dynamixel_driver/goal|-:J3:-484.509895:eff_
1549449762.893513,cobot_dynamixel_driver/goal|-:J3:-494.509895:eff_
1549449763.489355,cobot_dynamixel_driver/goal|-:J3:-504.509895:eff_
1549449764.109466,cobot_dynamixel_driver/goal|-:J3:-514.509895:eff_
1549449764.703195,cobot_dynamixel_driver/goal|-:J3:-524.509895:eff_
1549449765.296850,cobot_dynamixel_driver/goal|-:J3:-534.509895:eff_
1549449765.917598,cobot_dynamixel_driver/goal|-:J3:-544.509895:eff_
1549449766.512368,cobot_dynamixel_driver/goal|-:J3:-554.509895:eff_
1549449767.105918,cobot_dynamixel_driver/goal|-:J3:-564.509895:eff_
1549449767.700558,cobot_dynamixel_driver/goal|-:J3:-574.509895:eff_
1549449768.321218,cobot_dynamixel_driver/goal|-:J3:-584.509895:eff_
1549449768.915926,cobot_dynamixel_driver/goal|-:J3:-594.509895:eff_
1549449769.510634,cobot_dynamixel_driver/goal|-:J3:-604.509895:eff_
1549449770.104306,cobot_dynamixel_driver/goal|-:J3:-614.509895:eff_
1549449770.700979,cobot_dynamixel_driver/goal|-:J3:-624.509895:eff_
1549449771.321622,cobot_dynamixel_driver/goal|-:J3:-634.509895:eff_
1549449771.915226,cobot_dynamixel_driver/goal|-:J3:-644.509895:eff_
1549449772.508842,cobot_dynamixel_driver/goal|-:J3:-654.509895:eff_
1549449773.102669,cobot_dynamixel_driver/goal|-:J3:-664.509895:eff_
1549449774.722398,cobot_dynamixel_driver/goal|-:J3:0.000000:eff_
1549449774.803583,cobot_dynamixel_driver/goal|-:J1,J2,J3,J4,J5,J6:0.000000,0.000000,-0.523599,0.000000,0.000000,0.000000:0.250000,0.250000,0.250000,0.250000,0.250000,0.250000:pos_vel_
1549449775.407037,cobot_dynamixel_driver/goal|-:J3:-674.509895:eff_
1549449776.010649,cobot_dynamixel_driver/goal|-:J3:-684.509895:eff_
1549449776.605542,cobot_dynamixel_driver/goal|-:J3:-694.509895:eff_
1549449777.227726,cobot_dynamixel_driver/goal|-:J3:-704.509895:eff_
1549449777.822490,cobot_dynamixel_driver/goal|-:J3:-714.509895:eff_
1549449778.415873,cobot_dynamixel_driver/goal|-:J3:-724.509895:eff_
1549449779.009796,cobot_dynamixel_driver/goal|-:J3:-734.509895:eff_
1549449779.631340,cobot_dynamixel_driver/goal|-:J3:-744.509895:eff_
1549449780.224972,cobot_dynamixel_driver/goal|-:J3:-754.509895:eff_
1549449780.819709,cobot_dynamixel_driver/goal|-:J3:-764.509895:eff_
1549449781.413566,cobot_dynamixel_driver/goal|-:J3:-774.509895:eff_
1549449782.034274,cobot_dynamixel_driver/goal|-:J3:-784.509895:eff_
1549449782.628690,cobot_dynamixel_driver/goal|-:J3:-794.509895:eff_
1549449783.223383,cobot_dynamixel_driver/goal|-:J3:-804.509895:eff_
1549449783.817396,cobot_dynamixel_driver/goal|-:J3:-814.509895:eff_
1549449784.437735,cobot_dynamixel_driver/goal|-:J3:-824.509895:eff_
1549449786.030630,cobot_dynamixel_driver/goal|-:J3:0.000000:eff_
1549449786.139031,cobot_dynamixel_driver/goal|-:J1,J2,J3,J4,J5,J6:0.000000,0.000000,-0.523599,0.000000,0.000000,0.000000:0.250000,0.250000,0.250000,0.250000,0.250000,0.250000:pos_vel_
1549449786.931157,cobot_dynamixel_driver/goal|-:J3:-834.509895:eff_
1549449787.751554,cobot_dynamixel_driver/goal|-:J3:0.000000:eff_
1549449787.832552,cobot_dynamixel_driver/goal|-:J1,J2,J3,J4,J5,J6:0.000000,0.000000,-0.523599,0.000000,0.000000,0.000000:0.250000,0.250000,0.250000,0.250000,0.250000,0.250000:pos_vel_
1549449810.784115,cobot_dynamixel_driver/goal|-:J1,J2,J3,J4,J5,J6:0.000000,0.000000,0.000000,0.000000,0.000000,0.000000:0.500000,0.500000,0.500000,0.500000,0.500000,0.500000:pos_vel_
1549449816.616345,cobot_dynamixel_driver/goal|-:J3:0.000000:eff_
1549449816.707231,cobot_dynamixel_driver/goal|-:J1,J2,J3,J4,J5,J6:0.000000,0.000000,0.523599,0.000000,0.000000,0.000000:0.250000,0.250000,0.250000,0.250000,0.250000,0.250000:pos_vel_
1549449821.657417,cobot_dynamixel_driver/goal|-:J3:-201.472124:eff_
1549449822.261223,cobot_dynamixel_driver/goal|-:J3:-211.472124:eff_
1549449822.855903,cobot_dynamixel_driver/goal|-:J3:-221.472124:eff_
1549449823.476422,cobot_dynamixel_driver/goal|-:J3:-231.472124:eff_
1549449824.070237,cobot_dynamixel_driver/goal|-:J3:-241.472124:eff_
1549449824.664861,cobot_dynamixel_driver/goal|-:J3:-251.472124:eff_
1549449825.259712,cobot_dynamixel_driver/goal|-:J3:-261.472124:eff_
1549449825.854107,cobot_dynamixel_driver/goal|-:J3:-271.472124:eff_
1549449826.474719,cobot_dynamixel_driver/goal|-:J3:-281.472124:eff_
1549449827.068573,cobot_dynamixel_driver/goal|-:J3:-291.472124:eff_
1549449827.661941,cobot_dynamixel_driver/goal|-:J3:-301.472124:eff_
1549449828.258883,cobot_dynamixel_driver/goal|-:J3:-311.472124:eff_
1549449828.880344,cobot_dynamixel_driver/goal|-:J3:-321.472124:eff_
1549449829.474956,cobot_dynamixel_driver/goal|-:J3:-331.472124:eff_
1549449830.069154,cobot_dynamixel_driver/goal|-:J3:-341.472124:eff_
1549449830.662791,cobot_dynamixel_driver/goal|-:J3:-351.472124:eff_
1549449831.283575,cobot_dynamixel_driver/goal|-:J3:-361.472124:eff_
1549449831.877285,cobot_dynamixel_driver/goal|-:J3:-371.472124:eff_
1549449832.471116,cobot_dynamixel_driver/goal|-:J3:-381.472124:eff_
1549449833.064408,cobot_dynamixel_driver/goal|-:J3:-391.472124:eff_
1549449833.685401,cobot_dynamixel_driver/goal|-:J3:-401.472124:eff_
1549449834.278930,cobot_dynamixel_driver/goal|-:J3:-411.472124:eff_
1549449834.873507,cobot_dynamixel_driver/goal|-:J3:-421.472124:eff_
1549449835.467509,cobot_dynamixel_driver/goal|-:J3:-431.472124:eff_
1549449836.088095,cobot_dynamixel_driver/goal|-:J3:-441.472124:eff_
1549449836.682941,cobot_dynamixel_driver/goal|-:J3:-451.472124:eff_
1549449837.276275,cobot_dynamixel_driver/goal|-:J3:-461.472124:eff_
1549449837.896812,cobot_dynamixel_driver/goal|-:J3:-471.472124:eff_
1549449838.490813,cobot_dynamixel_driver/goal|-:J3:-481.472124:eff_
1549449839.084149,cobot_dynamixel_driver/goal|-:J3:-491.472124:eff_
1549449839.678876,cobot_dynamixel_driver/goal|-:J3:-501.472124:eff_
1549449840.300321,cobot_dynamixel_driver/goal|-:J3:-511.472124:eff_
1549449840.894145,cobot_dynamixel_driver/goal|-:J3:-521.472124:eff_
1549449841.489550,cobot_dynamixel_driver/goal|-:J3:-531.472124:eff_
1549449842.083196,cobot_dynamixel_driver/goal|-:J3:-541.472124:eff_
1549449842.703678,cobot_dynamixel_driver/goal|-:J3:-551.472124:eff_
1549449843.298321,cobot_dynamixel_driver/goal|-:J3:-561.472124:eff_
1549449843.892922,cobot_dynamixel_driver/goal|-:J3:-571.472124:eff_
1549449844.486840,cobot_dynamixel_driver/goal|-:J3:-581.472124:eff_
1549449845.107726,cobot_dynamixel_driver/goal|-:J3:-591.472124:eff_
1549449845.701931,cobot_dynamixel_driver/goal|-:J3:-601.472124:eff_
1549449846.296871,cobot_dynamixel_driver/goal|-:J3:-611.472124:eff_
1549449846.890364,cobot_dynamixel_driver/goal|-:J3:-621.472124:eff_
1549449847.512090,cobot_dynamixel_driver/goal|-:J3:-631.472124:eff_
1549449848.106153,cobot_dynamixel_driver/goal|-:J3:-641.472124:eff_
1549449848.700470,cobot_dynamixel_driver/goal|-:J3:-651.472124:eff_
1549449849.295163,cobot_dynamixel_driver/goal|-:J3:-661.472124:eff_
1549449849.888893,cobot_dynamixel_driver/goal|-:J3:-671.472124:eff_
1549449850.509322,cobot_dynamixel_driver/goal|-:J3:-681.472124:eff_
1549449851.103187,cobot_dynamixel_driver/goal|-:J3:-691.472124:eff_
1549449851.697716,cobot_dynamixel_driver/goal|-:J3:-701.472124:eff_
1549449852.292457,cobot_dynamixel_driver/goal|-:J3:-711.472124:eff_
1549449852.912973,cobot_dynamixel_driver/goal|-:J3:-721.472124:eff_
1549449853.507509,cobot_dynamixel_driver/goal|-:J3:-731.472124:eff_
1549449854.103054,cobot_dynamixel_driver/goal|-:J3:-741.472124:eff_
1549449854.696586,cobot_dynamixel_driver/goal|-:J3:-751.472124:eff_
1549449855.318159,cobot_dynamixel_driver/goal|-:J3:-761.472124:eff_
1549449855.912068,cobot_dynamixel_driver/goal|-:J3:-771.472124:eff_
1549449856.506300,cobot_dynamixel_driver/goal|-:J3:-781.472124:eff_
1549449857.100147,cobot_dynamixel_driver/goal|-:J3:-791.472124:eff_
1549449857.721726,cobot_dynamixel_driver/goal|-:J3:-801.472124:eff_
1549449858.315341,cobot_dynamixel_driver/goal|-:J3:-811.472124:eff_
1549449858.909018,cobot_dynamixel_driver/goal|-:J3:-821.472124:eff_
1549449859.503585,cobot_dynamixel_driver/goal|-:J3:-831.472124:eff_
1549449860.206147,cobot_dynamixel_driver/goal|-:J3:0.000000:eff_
1549449860.287434,cobot_dynamixel_driver/goal|-:J1,J2,J3,J4,J5,J6:0.000000,0.000000,0.523599,0.000000,0.000000,0.000000:0.250000,0.250000,0.250000,0.250000,0.250000,0.250000:pos_vel_
1549449862.216097,cobot_dynamixel_driver/goal|-:J3:0.000000:eff_
1549449862.334493,cobot_dynamixel_driver/goal|-:J1,J2,J3,J4,J5,J6:0.000000,0.000000,0.523599,0.000000,0.000000,0.000000:0.250000,0.250000,0.250000,0.250000,0.250000,0.250000:pos_vel_
1549449865.150522,cobot_dynamixel_driver/goal|-:J3:-332.217772:eff_
1549449865.754241,cobot_dynamixel_driver/goal|-:J3:-342.217772:eff_
1549449866.348825,cobot_dynamixel_driver/goal|-:J3:-352.217772:eff_
1549449866.971550,cobot_dynamixel_driver/goal|-:J3:-362.217772:eff_
1549449867.565006,cobot_dynamixel_driver/goal|-:J3:-372.217772:eff_
1549449868.158356,cobot_dynamixel_driver/goal|-:J3:-382.217772:eff_
1549449868.751975,cobot_dynamixel_driver/goal|-:J3:-392.217772:eff_
1549449869.373479,cobot_dynamixel_driver/goal|-:J3:-402.217772:eff_
1549449869.968295,cobot_dynamixel_driver/goal|-:J3:-412.217772:eff_
1549449870.562984,cobot_dynamixel_driver/goal|-:J3:-422.217772:eff_
1549449871.156763,cobot_dynamixel_driver/goal|-:J3:-432.217772:eff_
1549449871.778292,cobot_dynamixel_driver/goal|-:J3:-442.217772:eff_
1549449872.373126,cobot_dynamixel_driver/goal|-:J3:-452.217772:eff_
1549449872.967609,cobot_dynamixel_driver/goal|-:J3:-462.217772:eff_
1549449873.562324,cobot_dynamixel_driver/goal|-:J3:-472.217772:eff_
1549449874.182980,cobot_dynamixel_driver/goal|-:J3:-482.217772:eff_
1549449874.776760,cobot_dynamixel_driver/goal|-:J3:-492.217772:eff_
1549449875.370277,cobot_dynamixel_driver/goal|-:J3:-502.217772:eff_
1549449875.965986,cobot_dynamixel_driver/goal|-:J3:-512.217772:eff_
1549449876.587612,cobot_dynamixel_driver/goal|-:J3:-522.217772:eff_
1549449877.181209,cobot_dynamixel_driver/goal|-:J3:-532.217772:eff_
1549449877.776265,cobot_dynamixel_driver/goal|-:J3:-542.217772:eff_
1549449878.370859,cobot_dynamixel_driver/goal|-:J3:-552.217772:eff_
1549449878.992153,cobot_dynamixel_driver/goal|-:J3:-562.217772:eff_
1549449879.586685,cobot_dynamixel_driver/goal|-:J3:-572.217772:eff_
1549449880.180430,cobot_dynamixel_driver/goal|-:J3:-582.217772:eff_
1549449880.774127,cobot_dynamixel_driver/goal|-:J3:-592.217772:eff_
1549449881.395417,cobot_dynamixel_driver/goal|-:J3:-602.217772:eff_
1549449881.988960,cobot_dynamixel_driver/goal|-:J3:-612.217772:eff_
1549449882.583673,cobot_dynamixel_driver/goal|-:J3:-622.217772:eff_
1549449883.177397,cobot_dynamixel_driver/goal|-:J3:-632.217772:eff_
1549449883.798014,cobot_dynamixel_driver/goal|-:J3:-642.217772:eff_
1549449884.391507,cobot_dynamixel_driver/goal|-:J3:-652.217772:eff_
1549449884.986273,cobot_dynamixel_driver/goal|-:J3:-662.217772:eff_
1549449885.580949,cobot_dynamixel_driver/goal|-:J3:-672.217772:eff_
1549449886.201441,cobot_dynamixel_driver/goal|-:J3:-682.217772:eff_
1549449886.796138,cobot_dynamixel_driver/goal|-:J3:-692.217772:eff_
1549449887.389803,cobot_dynamixel_driver/goal|-:J3:-702.217772:eff_
1549449887.983537,cobot_dynamixel_driver/goal|-:J3:-712.217772:eff_
1549449888.605229,cobot_dynamixel_driver/goal|-:J3:-722.217772:eff_
1549449889.198880,cobot_dynamixel_driver/goal|-:J3:-732.217772:eff_
1549449889.793437,cobot_dynamixel_driver/goal|-:J3:-742.217772:eff_
1549449890.388170,cobot_dynamixel_driver/goal|-:J3:-752.217772:eff_
1549449891.009278,cobot_dynamixel_driver/goal|-:J3:-762.217772:eff_
1549449891.604483,cobot_dynamixel_driver/goal|-:J3:-772.217772:eff_
1549449892.198965,cobot_dynamixel_driver/goal|-:J3:-782.217772:eff_
1549449892.900468,cobot_dynamixel_driver/goal|-:J3:0.000000:eff_
1549449892.981348,cobot_dynamixel_driver/goal|-:J1,J2,J3,J4,J5,J6:0.000000,0.000000,0.523599,0.000000,0.000000,0.000000:0.250000,0.250000,0.250000,0.250000,0.250000,0.250000:pos_vel_
1549449894.799068,cobot_dynamixel_driver/goal|-:J3:0.000000:eff_
1549449894.917207,cobot_dynamixel_driver/goal|-:J1,J2,J3,J4,J5,J6:0.000000,0.000000,0.436332,0.000000,0.000000,0.000000:0.250000,0.250000,0.250000,0.250000,0.250000,0.250000:pos_vel_
1549449898.057066,cobot_dynamixel_driver/goal|-:J3:-773.059342:eff_
1549449899.632129,cobot_dynamixel_driver/goal|-:J3:0.000000:eff_
1549449899.740185,cobot_dynamixel_driver/goal|-:J1,J2,J3,J4,J5,J6:0.000000,0.000000,0.436332,0.000000,0.000000,0.000000:0.250000,0.250000,0.250000,0.250000,0.250000,0.250000:pos_vel_
1549449900.343833,cobot_dynamixel_driver/goal|-:J3:-783.059342:eff_
1549449901.945821,cobot_dynamixel_driver/goal|-:J3:0.000000:eff_
1549449902.054060,cobot_dynamixel_driver/goal|-:J1,J2,J3,J4,J5,J6:0.000000,0.000000,0.436332,0.000000,0.000000,0.000000:0.250000,0.250000,0.250000,0.250000,0.250000,0.250000:pos_vel_
1549449902.441886,cobot_dynamixel_driver/goal|-:J3:-793.059342:eff_
1549449903.045575,cobot_dynamixel_driver/goal|-:J3:0.000000:eff_
1549449903.154207,cobot_dynamixel_driver/goal|-:J1,J2,J3,J4,J5,J6:0.000000,0.000000,0.436332,0.000000,0.000000,0.000000:0.250000,0.250000,0.250000,0.250000,0.250000,0.250000:pos_vel_
1549449904.787339,cobot_dynamixel_driver/goal|-:J3:0.000000:eff_
1549449904.878298,cobot_dynamixel_driver/goal|-:J1,J2,J3,J4,J5,J6:0.000000,0.000000,0.436332,0.000000,0.000000,0.000000:0.250000,0.250000,0.250000,0.250000,0.250000,0.250000:pos_vel_
1549449907.614360,cobot_dynamixel_driver/goal|-:J3:-538.495966:eff_
1549449908.218165,cobot_dynamixel_driver/goal|-:J3:-548.495966:eff_
1549449908.811581,cobot_dynamixel_driver/goal|-:J3:-558.495966:eff_
1549449909.406241,cobot_dynamixel_driver/goal|-:J3:-568.495966:eff_
1549449909.999883,cobot_dynamixel_driver/goal|-:J3:-578.495966:eff_
1549449910.621569,cobot_dynamixel_driver/goal|-:J3:-588.495966:eff_
1549449911.215221,cobot_dynamixel_driver/goal|-:J3:-598.495966:eff_
1549449911.810099,cobot_dynamixel_driver/goal|-:J3:-608.495966:eff_
1549449912.404605,cobot_dynamixel_driver/goal|-:J3:-618.495966:eff_
1549449913.025422,cobot_dynamixel_driver/goal|-:J3:-628.495966:eff_
1549449913.620057,cobot_dynamixel_driver/goal|-:J3:-638.495966:eff_
1549449914.214770,cobot_dynamixel_driver/goal|-:J3:-648.495966:eff_
1549449914.811044,cobot_dynamixel_driver/goal|-:J3:-658.495966:eff_
1549449915.405447,cobot_dynamixel_driver/goal|-:J3:-668.495966:eff_
1549449916.025865,cobot_dynamixel_driver/goal|-:J3:-678.495966:eff_
1549449916.620505,cobot_dynamixel_driver/goal|-:J3:-688.495966:eff_
1549449917.214374,cobot_dynamixel_driver/goal|-:J3:-698.495966:eff_
1549449917.808879,cobot_dynamixel_driver/goal|-:J3:-708.495966:eff_
1549449918.430674,cobot_dynamixel_driver/goal|-:J3:-718.495966:eff_
1549449919.023991,cobot_dynamixel_driver/goal|-:J3:-728.495966:eff_
1549449920.616747,cobot_dynamixel_driver/goal|-:J3:0.000000:eff_
1549449920.724876,cobot_dynamixel_driver/goal|-:J1,J2,J3,J4,J5,J6:0.000000,0.000000,0.436332,0.000000,0.000000,0.000000:0.250000,0.250000,0.250000,0.250000,0.250000,0.250000:pos_vel_
1549449921.436110,cobot_dynamixel_driver/goal|-:J3:-738.495966:eff_
1549449923.012140,cobot_dynamixel_driver/goal|-:J3:0.000000:eff_
1549449923.120277,cobot_dynamixel_driver/goal|-:J1,J2,J3,J4,J5,J6:0.000000,0.000000,0.436332,0.000000,0.000000,0.000000:0.250000,0.250000,0.250000,0.250000,0.250000,0.250000:pos_vel_
1549449923.724085,cobot_dynamixel_driver/goal|-:J3:-748.495966:eff_
1549449924.327699,cobot_dynamixel_driver/goal|-:J3:-758.495966:eff_
1549449924.921412,cobot_dynamixel_driver/goal|-:J3:-768.495966:eff_
1549449925.515064,cobot_dynamixel_driver/goal|-:J3:-778.495966:eff_
1549449926.135529,cobot_dynamixel_driver/goal|-:J3:-788.495966:eff_
1549449926.729240,cobot_dynamixel_driver/goal|-:J3:-798.495966:eff_
1549449927.324106,cobot_dynamixel_driver/goal|-:J3:-808.495966:eff_
1549449927.944497,cobot_dynamixel_driver/goal|-:J3:-818.495966:eff_
1549449928.539224,cobot_dynamixel_driver/goal|-:J3:-828.495966:eff_
1549449929.132812,cobot_dynamixel_driver/goal|-:J3:0.000000:eff_
1549449929.240978,cobot_dynamixel_driver/goal|-:J1,J2,J3,J4,J5,J6:0.000000,0.000000,0.436332,0.000000,0.000000,0.000000:0.250000,0.250000,0.250000,0.250000,0.250000,0.250000:pos_vel_
1549449930.869787,cobot_dynamixel_driver/goal|-:J3:0.000000:eff_
1549449930.960768,cobot_dynamixel_driver/goal|-:J1,J2,J3,J4,J5,J6:0.000000,0.000000,0.349066,0.000000,0.000000,0.000000:0.250000,0.250000,0.250000,0.250000,0.250000,0.250000:pos_vel_
1549449934.182395,cobot_dynamixel_driver/goal|-:J3:-864.026736:eff_
1549449934.786001,cobot_dynamixel_driver/goal|-:J1,J2,J3,J4,J5,J6:0.000000,0.000000,0.349066,0.000000,0.000000,0.000000:0.250000,0.250000,0.250000,0.250000,0.250000,0.250000:pos_vel_
1549449935.686677,cobot_dynamixel_driver/goal|-:J3:-854.026736:eff_
1549449936.290370,cobot_dynamixel_driver/goal|-:J1,J2,J3,J4,J5,J6:0.000000,0.000000,0.349066,0.000000,0.000000,0.000000:0.250000,0.250000,0.250000,0.250000,0.250000,0.250000:pos_vel_
1549449937.192791,cobot_dynamixel_driver/goal|-:J3:-844.026736:eff_
1549449937.796688,cobot_dynamixel_driver/goal|-:J1,J2,J3,J4,J5,J6:0.000000,0.000000,0.349066,0.000000,0.000000,0.000000:0.250000,0.250000,0.250000,0.250000,0.250000,0.250000:pos_vel_
1549449938.697214,cobot_dynamixel_driver/goal|-:J3:-834.026736:eff_
1549449939.301789,cobot_dynamixel_driver/goal|-:J1,J2,J3,J4,J5,J6:0.000000,0.000000,0.349066,0.000000,0.000000,0.000000:0.250000,0.250000,0.250000,0.250000,0.250000,0.250000:pos_vel_
1549449940.202245,cobot_dynamixel_driver/goal|-:J3:-824.026736:eff_
1549449940.805835,cobot_dynamixel_driver/goal|-:J1,J2,J3,J4,J5,J6:0.000000,0.000000,0.349066,0.000000,0.000000,0.000000:0.250000,0.250000,0.250000,0.250000,0.250000,0.250000:pos_vel_
1549449941.598365,cobot_dynamixel_driver/goal|-:J3:-814.026736:eff_
1549449942.202108,cobot_dynamixel_driver/goal|-:J1,J2,J3,J4,J5,J6:0.000000,0.000000,0.349066,0.000000,0.000000,0.000000:0.250000,0.250000,0.250000,0.250000,0.250000,0.250000:pos_vel_
1549449942.805663,cobot_dynamixel_driver/goal|-:J3:-804.026736:eff_
1549449943.463295,cobot_dynamixel_driver/goal|-:J3:0.000000:eff_
1549449943.544444,cobot_dynamixel_driver/goal|-:J1,J2,J3,J4,J5,J6:0.000000,0.000000,0.349066,0.000000,0.000000,0.000000:0.250000,0.250000,0.250000,0.250000,0.250000,0.250000:pos_vel_
1549449945.470040,cobot_dynamixel_driver/goal|-:J3:0.000000:eff_
1549449945.588279,cobot_dynamixel_driver/goal|-:J1,J2,J3,J4,J5,J6:0.000000,0.000000,0.349066,0.000000,0.000000,0.000000:0.250000,0.250000,0.250000,0.250000,0.250000,0.250000:pos_vel_
1549449948.215139,cobot_dynamixel_driver/goal|-:J3:-814.115168:eff_
1549449948.872719,cobot_dynamixel_driver/goal|-:J3:0.000000:eff_
1549449948.953975,cobot_dynamixel_driver/goal|-:J1,J2,J3,J4,J5,J6:0.000000,0.000000,0.349066,0.000000,0.000000,0.000000:0.250000,0.250000,0.250000,0.250000,0.250000,0.250000:pos_vel_
1549449950.393909,cobot_dynamixel_driver/goal|-:J3:0.000000:eff_
1549449950.484985,cobot_dynamixel_driver/goal|-:J1,J2,J3,J4,J5,J6:0.000000,0.000000,0.261799,0.000000,0.000000,0.000000:0.250000,0.250000,0.250000,0.250000,0.250000,0.250000:pos_vel_
1549449953.706081,cobot_dynamixel_driver/goal|-:J3:-706.573562:eff_
1549449954.309871,cobot_dynamixel_driver/goal|-:J3:-716.573562:eff_
1549449954.931547,cobot_dynamixel_driver/goal|-:J3:-726.573562:eff_
1549449955.525116,cobot_dynamixel_driver/goal|-:J3:-736.573562:eff_
1549449956.118744,cobot_dynamixel_driver/goal|-:J3:-746.573562:eff_
1549449956.712558,cobot_dynamixel_driver/goal|-:J3:-756.573562:eff_
1549449957.333112,cobot_dynamixel_driver/goal|-:J3:-766.573562:eff_
1549449957.926733,cobot_dynamixel_driver/goal|-:J3:-776.573562:eff_
1549449958.520357,cobot_dynamixel_driver/goal|-:J3:-786.573562:eff_
1549449959.114873,cobot_dynamixel_driver/goal|-:J3:-796.573562:eff_
1549449959.735349,cobot_dynamixel_driver/goal|-:J3:-806.573562:eff_
1549449960.329021,cobot_dynamixel_driver/goal|-:J3:-816.573562:eff_
1549449960.923460,cobot_dynamixel_driver/goal|-:J3:-826.573562:eff_
1549449961.517395,cobot_dynamixel_driver/goal|-:J3:-836.573562:eff_
1549449962.137907,cobot_dynamixel_driver/goal|-:J3:-846.573562:eff_
1549449963.730909,cobot_dynamixel_driver/goal|-:J3:0.000000:eff_
1549449963.839928,cobot_dynamixel_driver/goal|-:J1,J2,J3,J4,J5,J6:0.000000,0.000000,0.261799,0.000000,0.000000,0.000000:0.250000,0.250000,0.250000,0.250000,0.250000,0.250000:pos_vel_
1549449964.335594,cobot_dynamixel_driver/goal|-:J3:-856.573562:eff_
1549449964.939317,cobot_dynamixel_driver/goal|-:J3:0.000000:eff_
1549449965.020203,cobot_dynamixel_driver/goal|-:J1,J2,J3,J4,J5,J6:0.000000,0.000000,0.261799,0.000000,0.000000,0.000000:0.250000,0.250000,0.250000,0.250000,0.250000,0.250000:pos_vel_
1549449966.758617,cobot_dynamixel_driver/goal|-:J3:0.000000:eff_
1549449966.849409,cobot_dynamixel_driver/goal|-:J1,J2,J3,J4,J5,J6:0.000000,0.000000,0.261799,0.000000,0.000000,0.000000:0.250000,0.250000,0.250000,0.250000,0.250000,0.250000:pos_vel_
1549449969.503845,cobot_dynamixel_driver/goal|-:J3:-750.456715:eff_
1549449970.080516,cobot_dynamixel_driver/goal|-:J3:-760.456715:eff_
1549449970.701120,cobot_dynamixel_driver/goal|-:J3:-770.456715:eff_
1549449971.295705,cobot_dynamixel_driver/goal|-:J3:-780.456715:eff_
1549449971.890679,cobot_dynamixel_driver/goal|-:J3:-790.456715:eff_
1549449972.483999,cobot_dynamixel_driver/goal|-:J3:-800.456715:eff_
1549449973.104470,cobot_dynamixel_driver/goal|-:J3:-810.456715:eff_
1549449973.698048,cobot_dynamixel_driver/goal|-:J3:-820.456715:eff_
1549449974.291644,cobot_dynamixel_driver/goal|-:J3:-830.456715:eff_
1549449975.910620,cobot_dynamixel_driver/goal|-:J3:0.000000:eff_
1549449975.991591,cobot_dynamixel_driver/goal|-:J1,J2,J3,J4,J5,J6:0.000000,0.000000,0.261799,0.000000,0.000000,0.000000:0.250000,0.250000,0.250000,0.250000,0.250000,0.250000:pos_vel_
1549449976.786079,cobot_dynamixel_driver/goal|-:J3:-840.456715:eff_
1549449978.388144,cobot_dynamixel_driver/goal|-:J3:0.000000:eff_
1549449978.496349,cobot_dynamixel_driver/goal|-:J1,J2,J3,J4,J5,J6:0.000000,0.000000,0.261799,0.000000,0.000000,0.000000:0.250000,0.250000,0.250000,0.250000,0.250000,0.250000:pos_vel_
1549449979.100967,cobot_dynamixel_driver/goal|-:J3:-850.456715:eff_
1549449979.704515,cobot_dynamixel_driver/goal|-:J3:0.000000:eff_
1549449979.812868,cobot_dynamixel_driver/goal|-:J1,J2,J3,J4,J5,J6:0.000000,0.000000,0.261799,0.000000,0.000000,0.000000:0.250000,0.250000,0.250000,0.250000,0.250000,0.250000:pos_vel_
1549449981.225907,cobot_dynamixel_driver/goal|-:J3:0.000000:eff_
1549449981.316661,cobot_dynamixel_driver/goal|-:J1,J2,J3,J4,J5,J6:0.000000,0.000000,0.174533,0.000000,0.000000,0.000000:0.250000,0.250000,0.250000,0.250000,0.250000,0.250000:pos_vel_
1549449984.753493,cobot_dynamixel_driver/goal|-:J3:-388.940606:eff_
1549449985.357086,cobot_dynamixel_driver/goal|-:J3:-398.940606:eff_
1549449985.950724,cobot_dynamixel_driver/goal|-:J3:-408.940606:eff_
1549449986.544129,cobot_dynamixel_driver/goal|-:J3:-418.940606:eff_
1549449987.164838,cobot_dynamixel_driver/goal|-:J3:-428.940606:eff_
1549449987.758525,cobot_dynamixel_driver/goal|-:J3:-438.940606:eff_
1549449988.352525,cobot_dynamixel_driver/goal|-:J3:-448.940606:eff_
1549449988.972886,cobot_dynamixel_driver/goal|-:J3:-458.940606:eff_
1549449989.567684,cobot_dynamixel_driver/goal|-:J3:-468.940606:eff_
1549449990.162108,cobot_dynamixel_driver/goal|-:J3:-478.940606:eff_
1549449990.755842,cobot_dynamixel_driver/goal|-:J3:-488.940606:eff_
1549449991.376624,cobot_dynamixel_driver/goal|-:J3:-498.940606:eff_
1549449991.970477,cobot_dynamixel_driver/goal|-:J3:-508.940606:eff_
1549449992.565097,cobot_dynamixel_driver/goal|-:J3:-518.940606:eff_
1549449993.159540,cobot_dynamixel_driver/goal|-:J3:-528.940606:eff_
1549449993.780266,cobot_dynamixel_driver/goal|-:J3:-538.940606:eff_
1549449994.375211,cobot_dynamixel_driver/goal|-:J3:-548.940606:eff_
1549449994.968844,cobot_dynamixel_driver/goal|-:J3:-558.940606:eff_
1549449995.563131,cobot_dynamixel_driver/goal|-:J3:-568.940606:eff_
1549449996.183935,cobot_dynamixel_driver/goal|-:J3:-578.940606:eff_
1549449996.777569,cobot_dynamixel_driver/goal|-:J3:-588.940606:eff_
1549449997.372293,cobot_dynamixel_driver/goal|-:J3:-598.940606:eff_
1549449997.966796,cobot_dynamixel_driver/goal|-:J3:-608.940606:eff_
1549449998.561366,cobot_dynamixel_driver/goal|-:J3:-618.940606:eff_
1549449999.181878,cobot_dynamixel_driver/goal|-:J3:-628.940606:eff_
1549449999.776747,cobot_dynamixel_driver/goal|-:J3:-638.940606:eff_
1549450000.370980,cobot_dynamixel_driver/goal|-:J3:-648.940606:eff_
1549450000.965082,cobot_dynamixel_driver/goal|-:J3:-658.940606:eff_
1549450001.586317,cobot_dynamixel_driver/goal|-:J3:-668.940606:eff_
1549450002.181069,cobot_dynamixel_driver/goal|-:J3:-678.940606:eff_
1549450002.775961,cobot_dynamixel_driver/goal|-:J3:-688.940606:eff_
1549450003.369821,cobot_dynamixel_driver/goal|-:J3:-698.940606:eff_
1549450003.990028,cobot_dynamixel_driver/goal|-:J3:-708.940606:eff_
1549450004.584730,cobot_dynamixel_driver/goal|-:J3:-718.940606:eff_
1549450005.179455,cobot_dynamixel_driver/goal|-:J3:-728.940606:eff_
1549450005.774342,cobot_dynamixel_driver/goal|-:J3:-738.940606:eff_
1549450006.395815,cobot_dynamixel_driver/goal|-:J3:-748.940606:eff_
1549450006.989337,cobot_dynamixel_driver/goal|-:J3:-758.940606:eff_
1549450007.585086,cobot_dynamixel_driver/goal|-:J3:-768.940606:eff_
1549450008.179684,cobot_dynamixel_driver/goal|-:J3:-778.940606:eff_
1549450008.801598,cobot_dynamixel_driver/goal|-:J3:-788.940606:eff_
1549450009.395347,cobot_dynamixel_driver/goal|-:J3:-798.940606:eff_
1549450009.989655,cobot_dynamixel_driver/goal|-:J3:-808.940606:eff_
1549450010.583223,cobot_dynamixel_driver/goal|-:J3:-818.940606:eff_
1549450011.203802,cobot_dynamixel_driver/goal|-:J3:-828.940606:eff_
1549450011.798576,cobot_dynamixel_driver/goal|-:J3:-838.940606:eff_
1549450012.391828,cobot_dynamixel_driver/goal|-:J3:-848.940606:eff_
1549450012.985488,cobot_dynamixel_driver/goal|-:J3:-858.940606:eff_
1549450013.606091,cobot_dynamixel_driver/goal|-:J3:-868.940606:eff_
1549450014.199697,cobot_dynamixel_driver/goal|-:J3:-878.940606:eff_
1549450014.793873,cobot_dynamixel_driver/goal|-:J3:-888.940606:eff_
1549450015.388109,cobot_dynamixel_driver/goal|-:J3:-898.940606:eff_
1549450016.008898,cobot_dynamixel_driver/goal|-:J3:-908.940606:eff_
1549450016.603522,cobot_dynamixel_driver/goal|-:J3:-918.940606:eff_
1549450017.197273,cobot_dynamixel_driver/goal|-:J3:0.000000:eff_
1549450017.305210,cobot_dynamixel_driver/goal|-:J1,J2,J3,J4,J5,J6:0.000000,0.000000,0.174533,0.000000,0.000000,0.000000:0.250000,0.250000,0.250000,0.250000,0.250000,0.250000:pos_vel_
1549450019.152220,cobot_dynamixel_driver/goal|-:J3:0.000000:eff_
1549450019.243222,cobot_dynamixel_driver/goal|-:J1,J2,J3,J4,J5,J6:0.000000,0.000000,0.174533,0.000000,0.000000,0.000000:0.250000,0.250000,0.250000,0.250000,0.250000,0.250000:pos_vel_
1549450022.194371,cobot_dynamixel_driver/goal|-:J3:-432.162543:eff_
1549450022.798108,cobot_dynamixel_driver/goal|-:J3:-442.162543:eff_
1549450023.391704,cobot_dynamixel_driver/goal|-:J3:-452.162543:eff_
1549450023.986337,cobot_dynamixel_driver/goal|-:J3:-462.162543:eff_
1549450024.581057,cobot_dynamixel_driver/goal|-:J3:-472.162543:eff_
1549450025.202377,cobot_dynamixel_driver/goal|-:J3:-482.162543:eff_
1549450025.796201,cobot_dynamixel_driver/goal|-:J3:-492.162543:eff_
1549450026.389512,cobot_dynamixel_driver/goal|-:J3:-502.162543:eff_
1549450026.983111,cobot_dynamixel_driver/goal|-:J3:-512.162543:eff_
1549450027.604184,cobot_dynamixel_driver/goal|-:J3:-522.162543:eff_
1549450028.197825,cobot_dynamixel_driver/goal|-:J3:-532.162543:eff_
1549450028.791222,cobot_dynamixel_driver/goal|-:J3:-542.162543:eff_
1549450029.412835,cobot_dynamixel_driver/goal|-:J3:-552.162543:eff_
1549450030.007724,cobot_dynamixel_driver/goal|-:J3:-562.162543:eff_
1549450030.601117,cobot_dynamixel_driver/goal|-:J3:-572.162543:eff_
1549450031.195956,cobot_dynamixel_driver/goal|-:J3:-582.162543:eff_
1549450031.790434,cobot_dynamixel_driver/goal|-:J3:-592.162543:eff_
1549450032.411308,cobot_dynamixel_driver/goal|-:J3:-602.162543:eff_
1549450033.006091,cobot_dynamixel_driver/goal|-:J3:-612.162543:eff_
1549450033.600435,cobot_dynamixel_driver/goal|-:J3:-622.162543:eff_
1549450034.194208,cobot_dynamixel_driver/goal|-:J3:-632.162543:eff_
1549450034.814754,cobot_dynamixel_driver/goal|-:J3:-642.162543:eff_
1549450035.409379,cobot_dynamixel_driver/goal|-:J3:-652.162543:eff_
1549450036.005132,cobot_dynamixel_driver/goal|-:J3:-662.162543:eff_
1549450036.598692,cobot_dynamixel_driver/goal|-:J3:-672.162543:eff_
1549450037.219315,cobot_dynamixel_driver/goal|-:J3:-682.162543:eff_
1549450037.813967,cobot_dynamixel_driver/goal|-:J3:-692.162543:eff_
1549450038.408386,cobot_dynamixel_driver/goal|-:J3:-702.162543:eff_
1549450039.002969,cobot_dynamixel_driver/goal|-:J3:-712.162543:eff_
1549450039.623771,cobot_dynamixel_driver/goal|-:J3:-722.162543:eff_
1549450040.217249,cobot_dynamixel_driver/goal|-:J3:-732.162543:eff_
1549450040.811951,cobot_dynamixel_driver/goal|-:J3:-742.162543:eff_
1549450041.406478,cobot_dynamixel_driver/goal|-:J3:-752.162543:eff_
1549450042.029020,cobot_dynamixel_driver/goal|-:J3:-762.162543:eff_
1549450042.622760,cobot_dynamixel_driver/goal|-:J3:-772.162543:eff_
1549450043.217339,cobot_dynamixel_driver/goal|-:J3:-782.162543:eff_
1549450043.812153,cobot_dynamixel_driver/goal|-:J3:-792.162543:eff_
1549450044.406846,cobot_dynamixel_driver/goal|-:J3:-802.162543:eff_
1549450045.027353,cobot_dynamixel_driver/goal|-:J3:-812.162543:eff_
1549450045.622114,cobot_dynamixel_driver/goal|-:J3:-822.162543:eff_
1549450046.215993,cobot_dynamixel_driver/goal|-:J3:-832.162543:eff_
1549450046.809448,cobot_dynamixel_driver/goal|-:J3:-842.162543:eff_
1549450047.430032,cobot_dynamixel_driver/goal|-:J3:-852.162543:eff_
1549450048.024781,cobot_dynamixel_driver/goal|-:J3:-862.162543:eff_
1549450048.618390,cobot_dynamixel_driver/goal|-:J3:-872.162543:eff_
1549450049.213191,cobot_dynamixel_driver/goal|-:J3:-882.162543:eff_
1549450049.833646,cobot_dynamixel_driver/goal|-:J3:-892.162543:eff_
1549450050.427220,cobot_dynamixel_driver/goal|-:J3:-902.162543:eff_
1549450051.021835,cobot_dynamixel_driver/goal|-:J3:-912.162543:eff_
1549450051.858989,cobot_dynamixel_driver/goal|-:J3:0.000000:eff_
1549450051.940089,cobot_dynamixel_driver/goal|-:J1,J2,J3,J4,J5,J6:0.000000,0.000000,0.174533,0.000000,0.000000,0.000000:0.250000,0.250000,0.250000,0.250000,0.250000,0.250000:pos_vel_
1549450053.865777,cobot_dynamixel_driver/goal|-:J3:0.000000:eff_
1549450053.984016,cobot_dynamixel_driver/goal|-:J1,J2,J3,J4,J5,J6:0.000000,0.000000,0.087266,0.000000,0.000000,0.000000:0.250000,0.250000,0.250000,0.250000,0.250000,0.250000:pos_vel_
1549450057.204940,cobot_dynamixel_driver/goal|-:J3:-673.506832:eff_
1549450057.808725,cobot_dynamixel_driver/goal|-:J3:-683.506832:eff_
1549450058.402361,cobot_dynamixel_driver/goal|-:J3:-693.506832:eff_
1549450058.996033,cobot_dynamixel_driver/goal|-:J3:-703.506832:eff_
1549450059.617662,cobot_dynamixel_driver/goal|-:J3:-713.506832:eff_
1549450060.213336,cobot_dynamixel_driver/goal|-:J3:-723.506832:eff_
1549450060.809265,cobot_dynamixel_driver/goal|-:J3:-733.506832:eff_
1549450061.403696,cobot_dynamixel_driver/goal|-:J3:-743.506832:eff_
1549450062.024360,cobot_dynamixel_driver/goal|-:J3:-753.506832:eff_
1549450062.618088,cobot_dynamixel_driver/goal|-:J3:-763.506832:eff_
1549450063.211418,cobot_dynamixel_driver/goal|-:J3:-773.506832:eff_
1549450063.805966,cobot_dynamixel_driver/goal|-:J3:-783.506832:eff_
1549450064.426576,cobot_dynamixel_driver/goal|-:J3:-793.506832:eff_
1549450065.020302,cobot_dynamixel_driver/goal|-:J3:-803.506832:eff_
1549450065.613743,cobot_dynamixel_driver/goal|-:J3:-813.506832:eff_
1549450066.208779,cobot_dynamixel_driver/goal|-:J3:-823.506832:eff_
1549450066.829018,cobot_dynamixel_driver/goal|-:J3:-833.506832:eff_
1549450067.423737,cobot_dynamixel_driver/goal|-:J3:-843.506832:eff_
1549450068.017407,cobot_dynamixel_driver/goal|-:J3:-853.506832:eff_
1549450068.612062,cobot_dynamixel_driver/goal|-:J3:-863.506832:eff_
1549450069.233663,cobot_dynamixel_driver/goal|-:J3:-873.506832:eff_
1549450069.828331,cobot_dynamixel_driver/goal|-:J3:-883.506832:eff_
1549450070.424026,cobot_dynamixel_driver/goal|-:J3:-893.506832:eff_
1549450071.019855,cobot_dynamixel_driver/goal|-:J3:-903.506832:eff_
1549450071.613623,cobot_dynamixel_driver/goal|-:J3:-913.506832:eff_
1549450072.236305,cobot_dynamixel_driver/goal|-:J3:-923.506832:eff_
1549450072.829938,cobot_dynamixel_driver/goal|-:J3:-933.506832:eff_
1549450073.423683,cobot_dynamixel_driver/goal|-:J3:-943.506832:eff_
1549450074.018352,cobot_dynamixel_driver/goal|-:J3:-953.506832:eff_
1549450074.638834,cobot_dynamixel_driver/goal|-:J3:-963.506832:eff_
1549450075.233658,cobot_dynamixel_driver/goal|-:J3:0.000000:eff_
1549450075.342399,cobot_dynamixel_driver/goal|-:J1,J2,J3,J4,J5,J6:0.000000,0.000000,0.087266,0.000000,0.000000,0.000000:0.250000,0.250000,0.250000,0.250000,0.250000,0.250000:pos_vel_
1549450077.457137,cobot_dynamixel_driver/goal|-:J3:0.000000:eff_
1549450077.547940,cobot_dynamixel_driver/goal|-:J1,J2,J3,J4,J5,J6:0.000000,0.000000,0.087266,0.000000,0.000000,0.000000:0.250000,0.250000,0.250000,0.250000,0.250000,0.250000:pos_vel_
1549450080.391215,cobot_dynamixel_driver/goal|-:J3:-638.392448:eff_
1549450080.994851,cobot_dynamixel_driver/goal|-:J3:-648.392448:eff_
1549450081.588613,cobot_dynamixel_driver/goal|-:J3:-658.392448:eff_
