surachairobotic/cobot/cobot_dynamixel_driver/log/2019-06-20T09:27:23.059949_driver_cmd.txt
1561022845.939003,cobot_dynamixel_driver/goal|-:J1,J2,J3,J4,J5,J6:0.000000,0.000000,0.000000,0.000000,0.000000,0.000000:0.500000,0.500000,0.500000,0.500000,0.500000,0.500000:pos_vel_
1561022889.789080,cobot_dynamixel_driver/goal|-:J1,J2,J3,J4,J5,J6:0.020648,0.031919,0.101038,0.014813,-0.118075,0.535578:vel_
1561022890.221159,cobot_dynamixel_driver/goal|-:J1,J2,J3,J4,J5,J6:0.021414,0.025684,0.087106,0.015171,-0.120012,0.566532:vel_
1561022890.252788,cobot_dynamixel_driver/goal|-:J1,J2,J3,J4,J5,J6:0.022561,0.025966,0.083684,0.016053,-0.117928,0.603688:vel_
1561022890.284855,cobot_dynamixel_driver/goal|-:J1,J2,J3,J4,J5,J6:0.023752,0.026519,0.082996,0.016848,-0.119477,0.628064:vel_
1561022890.317122,cobot_dynamixel_driver/goal|-:J1,J2,J3,J4,J5,J6:0.033061,0.050059,0.146120,0.027007,-0.190042,0.785398:vel_
1561022890.348788,cobot_dynamixel_driver/goal|-:J1,J2,J3,J4,J5,J6:0.034184,0.052612,0.154218,0.028260,-0.198141,0.785398:vel_
1561022890.380791,cobot_dynamixel_driver/goal|-:J1,J2,J3,J4,J5,J6:0.034770,0.053489,0.156475,0.028762,-0.199429,0.785398:vel_
1561022890.412790,cobot_dynamixel_driver/goal|-:J1,J2,J3,J4,J5,J6:0.034694,0.052171,0.155589,0.029025,-0.198143,0.785398:vel_
1561022890.444826,cobot_dynamixel_driver/goal|-:J1,J2,J3,J4,J5,J6:0.034814,0.051884,0.155605,0.029674,-0.199808,0.785398:vel_
1561022890.476833,cobot_dynamixel_driver/goal|-:J1,J2,J3,J4,J5,J6:0.035446,0.050684,0.156523,0.030576,-0.203475,0.785398:vel_
1561022890.508790,cobot_dynamixel_driver/goal|-:J1,J2,J3,J4,J5,J6:0.042988,0.080893,0.217652,0.043506,-0.282627,0.785398:vel_
1561022890.540837,cobot_dynamixel_driver/goal|-:J1,J2,J3,J4,J5,J6:0.044052,0.087482,0.230049,0.046574,-0.299015,0.785398:vel_
1561022890.572773,cobot_dynamixel_driver/goal|-:J1,J2,J3,J4,J5,J6:0.045013,0.090912,0.235858,0.047596,-0.303003,0.785398:vel_
1561022890.604762,cobot_dynamixel_driver/goal|-:J1,J2,J3,J4,J5,J6:0.045948,0.091675,0.236140,0.047177,-0.301485,0.785398:vel_
1561022890.636706,cobot_dynamixel_driver/goal|-:J1,J2,J3,J4,J5,J6:0.047321,0.106063,0.255456,0.053781,-0.341628,0.785398:vel_
1561022890.668707,cobot_dynamixel_driver/goal|-:J1,J2,J3,J4,J5,J6:0.047400,0.109990,0.262711,0.055530,-0.355460,0.785398:vel_
1561022890.700751,cobot_dynamixel_driver/goal|-:J1,J2,J3,J4,J5,J6:0.046675,0.111667,0.266791,0.055201,-0.358057,0.785398:vel_
1561022890.732733,cobot_dynamixel_driver/goal|-:J1,J2,J3,J4,J5,J6:0.046538,0.112685,0.274565,0.056249,-0.365859,0.785398:vel_
1561022890.764782,cobot_dynamixel_driver/goal|-:J1,J2,J3,J4,J5,J6:0.044508,0.121766,0.265617,0.061345,-0.375274,0.785398:vel_
1561022890.797371,cobot_dynamixel_driver/goal|-:J1,J2,J3,J4,J5,J6:0.043803,0.124706,0.264461,0.063775,-0.380770,0.785398:vel_
1561022890.828732,cobot_dynamixel_driver/goal|-:J1,J2,J3,J4,J5,J6:0.044374,0.128884,0.266799,0.065099,-0.388633,0.785398:vel_
1561022890.860777,cobot_dynamixel_driver/goal|-:J1,J2,J3,J4,J5,J6:0.044202,0.131890,0.260995,0.064964,-0.386396,0.785398:vel_
1561022890.892739,cobot_dynamixel_driver/goal|-:J1,J2,J3,J4,J5,J6:0.045601,0.133393,0.260270,0.063856,-0.385985,0.785398:vel_
1561022890.924792,cobot_dynamixel_driver/goal|-:J1,J2,J3,J4,J5,J6:0.048784,0.136562,0.261580,0.062375,-0.395111,0.785398:vel_
1561022890.956791,cobot_dynamixel_driver/goal|-:J1,J2,J3,J4,J5,J6:0.043640,0.138700,0.251505,0.065652,-0.396331,0.785398:vel_
1561022890.988770,cobot_dynamixel_driver/goal|-:J1,J2,J3,J4,J5,J6:0.042421,0.140155,0.252470,0.068680,-0.402875,0.785398:vel_
1561022891.020842,cobot_dynamixel_driver/goal|-:J1,J2,J3,J4,J5,J6:0.042115,0.140776,0.257461,0.068751,-0.412646,0.785398:vel_
1561022891.052836,cobot_dynamixel_driver/goal|-:J1,J2,J3,J4,J5,J6:0.043430,0.145528,0.246506,0.066733,-0.408760,0.785398:vel_
1561022891.084867,cobot_dynamixel_driver/goal|-:J1,J2,J3,J4,J5,J6:0.044460,0.148329,0.245605,0.066987,-0.410664,0.785398:vel_
1561022891.116884,cobot_dynamixel_driver/goal|-:J1,J2,J3,J4,J5,J6:0.044468,0.151549,0.247525,0.065228,-0.417770,0.785398:vel_
1561022891.148948,cobot_dynamixel_driver/goal|-:J1,J2,J3,J4,J5,J6:0.046171,0.154724,0.240554,0.065493,-0.416342,0.785398:vel_
1561022891.180914,cobot_dynamixel_driver/goal|-:J1,J2,J3,J4,J5,J6:0.048675,0.158816,0.241910,0.066059,-0.422905,0.785398:vel_
1561022891.212840,cobot_dynamixel_driver/goal|-:J1,J2,J3,J4,J5,J6:0.050211,0.163072,0.244091,0.065312,-0.429040,0.785398:vel_
1561022891.244802,cobot_dynamixel_driver/goal|-:J1,J2,J3,J4,J5,J6:0.047415,0.162700,0.232794,0.062712,-0.424435,0.785398:vel_
1561022891.276808,cobot_dynamixel_driver/goal|-:J1,J2,J3,J4,J5,J6:0.047182,0.162631,0.232211,0.061923,-0.427200,0.785398:vel_
1561022891.308920,cobot_dynamixel_driver/goal|-:J1,J2,J3,J4,J5,J6:0.047517,0.163471,0.239067,0.064089,-0.437291,0.785398:vel_
1561022891.340852,cobot_dynamixel_driver/goal|-:J1,J2,J3,J4,J5,J6:0.050232,0.169268,0.228929,0.063015,-0.436383,0.785398:vel_
1561022891.372876,cobot_dynamixel_driver/goal|-:J1,J2,J3,J4,J5,J6:0.051164,0.172041,0.228748,0.065101,-0.440787,0.785398:vel_
1561022891.404749,cobot_dynamixel_driver/goal|-:J1,J2,J3,J4,J5,J6:0.052814,0.174726,0.231721,0.067318,-0.447484,0.785398:vel_
1561022891.436867,cobot_dynamixel_driver/goal|-:J1,J2,J3,J4,J5,J6:0.055399,0.179995,0.219058,0.060070,-0.445122,0.785398:vel_
1561022891.468788,cobot_dynamixel_driver/goal|-:J1,J2,J3,J4,J5,J6:0.055962,0.182604,0.217742,0.057569,-0.447240,0.785398:vel_
1561022891.500982,cobot_dynamixel_driver/goal|-:J1,J2,J3,J4,J5,J6:0.057681,0.186943,0.221026,0.056766,-0.454838,0.785398:vel_
1561022891.532767,cobot_dynamixel_driver/goal|-:J1,J2,J3,J4,J5,J6:0.059535,0.190670,0.211150,0.054945,-0.451915,0.785398:vel_
1561022891.564793,cobot_dynamixel_driver/goal|-:J1,J2,J3,J4,J5,J6:0.061794,0.193938,0.209097,0.055636,-0.454462,0.785398:vel_
1561022891.596881,cobot_dynamixel_driver/goal|-:J1,J2,J3,J4,J5,J6:0.063679,0.197712,0.212126,0.057114,-0.465110,0.785398:vel_
1561022891.628813,cobot_dynamixel_driver/goal|-:J1,J2,J3,J4,J5,J6:0.064639,0.202041,0.200615,0.050682,-0.459663,0.785398:vel_
1561022891.661014,cobot_dynamixel_driver/goal|-:J1,J2,J3,J4,J5,J6:0.067084,0.207817,0.201848,0.050347,-0.468204,0.785398:vel_
1561022891.692838,cobot_dynamixel_driver/goal|-:J1,J2,J3,J4,J5,J6:0.068030,0.205597,0.198492,0.050667,-0.463021,0.785398:vel_
1561022891.724708,cobot_dynamixel_driver/goal|-:J1,J2,J3,J4,J5,J6:0.070726,0.211765,0.188992,0.045510,-0.463091,0.785398:vel_
1561022891.756574,cobot_dynamixel_driver/goal|-:J1,J2,J3,J4,J5,J6:0.071573,0.212998,0.185928,0.043791,-0.463036,0.785398:vel_
1561022891.788583,cobot_dynamixel_driver/goal|-:J1,J2,J3,J4,J5,J6:0.075706,0.220825,0.190483,0.042809,-0.478380,0.785398:vel_
1561022891.820611,cobot_dynamixel_driver/goal|-:J1,J2,J3,J4,J5,J6:0.075732,0.226091,0.180372,0.036638,-0.468755,0.785398:vel_
1561022891.852703,cobot_dynamixel_driver/goal|-:J1,J2,J3,J4,J5,J6:0.076175,0.227743,0.178336,0.035244,-0.465295,0.785398:vel_
1561022891.884613,cobot_dynamixel_driver/goal|-:J1,J2,J3,J4,J5,J6:0.078453,0.233398,0.182761,0.035357,-0.478411,0.785398:vel_
1561022891.917108,cobot_dynamixel_driver/goal|-:J1,J2,J3,J4,J5,J6:0.081501,0.237125,0.164758,0.028160,-0.468240,0.785398:vel_
1561022891.948625,cobot_dynamixel_driver/goal|-:J1,J2,J3,J4,J5,J6:0.083380,0.240662,0.161098,0.026176,-0.472072,0.785398:vel_
1561022891.987429,cobot_dynamixel_driver/goal|-:J1,J2,J3,J4,J5,J6:0.098379,0.282548,0.186051,0.028998,-0.556081,0.785398:vel_
1561022892.028609,cobot_dynamixel_driver/goal|-:J1,J2,J3,J4,J5,J6:0.074556,0.211862,0.125662,0.013546,-0.393318,0.785398:vel_
1561022892.060633,cobot_dynamixel_driver/goal|-:J1,J2,J3,J4,J5,J6:0.068537,0.192373,0.108109,0.008774,-0.340750,0.785398:vel_
1561022892.092557,cobot_dynamixel_driver/goal|-:J1,J2,J3,J4,J5,J6:0.037409,0.105783,0.053416,0.002641,-0.182017,0.785398:vel_
1561022892.124558,cobot_dynamixel_driver/goal|-:J1,J2,J3,J4,J5,J6:0.034774,0.098074,0.049596,0.001962,-0.169556,0.785398:vel_
1561022892.156594,cobot_dynamixel_driver/goal|-:J1,J2,J3,J4,J5,J6:0.034327,0.096488,0.049174,0.001920,-0.168614,0.785398:vel_
1561022892.188621,cobot_dynamixel_driver/goal|-:J1,J2,J3,J4,J5,J6:0.034630,0.098221,0.050666,0.001913,-0.171044,0.785398:vel_
1561022892.220572,cobot_dynamixel_driver/goal|-:J1,J2,J3,J4,J5,J6:0.034642,0.099924,0.051705,0.001728,-0.172622,0.785398:vel_
1561022892.252592,cobot_dynamixel_driver/goal|-:J1,J2,J3,J4,J5,J6:0.035067,0.101553,0.052586,0.001828,-0.173218,0.785398:vel_
1561022892.284531,cobot_dynamixel_driver/goal|-:J1,J2,J3,J4,J5,J6:0.035104,0.101910,0.053170,0.001616,-0.174580,0.785398:vel_
1561022892.316577,cobot_dynamixel_driver/goal|-:J1,J2,J3,J4,J5,J6:0.034948,0.104463,0.052627,0.001168,-0.176237,0.785398:vel_
1561022892.348527,cobot_dynamixel_driver/goal|-:J1,J2,J3,J4,J5,J6:0.013711,0.092879,0.043555,0.008580,-0.140416,0.785398:vel_
1561022892.380575,cobot_dynamixel_driver/goal|-:J1,J2,J3,J4,J5,J6:0.012007,0.092996,0.043024,0.009021,-0.138908,0.785398:vel_
1561022892.412514,cobot_dynamixel_driver/goal|-:J1,J2,J3,J4,J5,J6:0.011473,0.093022,0.043472,0.008819,-0.140600,0.785398:vel_
1561022892.444509,cobot_dynamixel_driver/goal|-:J1,J2,J3,J4,J5,J6:0.011733,0.093170,0.043615,0.008729,-0.141189,0.785398:vel_
1561022892.476472,cobot_dynamixel_driver/goal|-:J1,J2,J3,J4,J5,J6:0.012323,0.093202,0.044262,0.008678,-0.142176,0.785398:vel_
1561022892.508461,cobot_dynamixel_driver/goal|-:J1,J2,J3,J4,J5,J6:0.012908,0.092778,0.045267,0.008178,-0.142167,0.785398:vel_
1561022892.540558,cobot_dynamixel_driver/goal|-:J1,J2,J3,J4,J5,J6:0.015967,0.150534,0.064757,0.017315,-0.218081,0.785398:vel_
1561022892.572511,cobot_dynamixel_driver/goal|-:J1,J2,J3,J4,J5,J6:0.017063,0.157876,0.067660,0.018546,-0.227978,0.785398:vel_
1561022892.604487,cobot_dynamixel_driver/goal|-:J1,J2,J3,J4,J5,J6:0.017468,0.159439,0.067506,0.018801,-0.227324,0.785398:vel_
1561022892.636461,cobot_dynamixel_driver/goal|-:J1,J2,J3,J4,J5,J6:0.017674,0.159972,0.068246,0.019766,-0.228769,0.785398:vel_
1561022892.668512,cobot_dynamixel_driver/goal|-:J1,J2,J3,J4,J5,J6:0.017808,0.160398,0.067836,0.020243,-0.230955,0.785398:vel_
1561022892.700538,cobot_dynamixel_driver/goal|-:J1,J2,J3,J4,J5,J6:0.017568,0.161753,0.068289,0.019911,-0.236266,0.785398:vel_
1561022892.732508,cobot_dynamixel_driver/goal|-:J1,J2,J3,J4,J5,J6:0.021451,0.242640,0.088346,0.031963,-0.331785,0.785398:vel_
1561022892.764485,cobot_dynamixel_driver/goal|-:J1,J2,J3,J4,J5,J6:0.022884,0.263990,0.094231,0.033996,-0.356503,0.785398:vel_
1561022892.797292,cobot_dynamixel_driver/goal|-:J1,J2,J3,J4,J5,J6:0.023799,0.276723,0.097077,0.035709,-0.363819,0.785398:vel_
1561022892.828571,cobot_dynamixel_driver/goal|-:J1,J2,J3,J4,J5,J6:0.024017,0.298222,0.091092,0.042463,-0.383995,0.785398:vel_
1561022892.860472,cobot_dynamixel_driver/goal|-:J1,J2,J3,J4,J5,J6:0.024545,0.305375,0.089739,0.044369,-0.391096,0.785398:vel_
1561022892.892514,cobot_dynamixel_driver/goal|-:J1,J2,J3,J4,J5,J6:0.025449,0.306409,0.090008,0.045827,-0.395114,0.785398:vel_
1561022892.924577,cobot_dynamixel_driver/goal|-:J1,J2,J3,J4,J5,J6:0.021512,0.264566,0.067935,0.042281,-0.333867,0.785398:vel_
1561022892.956479,cobot_dynamixel_driver/goal|-:J1,J2,J3,J4,J5,J6:0.021212,0.254114,0.063719,0.040455,-0.319592,0.785398:vel_
1561022892.988512,cobot_dynamixel_driver/goal|-:J1,J2,J3,J4,J5,J6:0.019807,0.253967,0.062885,0.040812,-0.325427,0.785398:vel_
1561022893.020450,cobot_dynamixel_driver/goal|-:J1,J2,J3,J4,J5,J6:0.009191,0.129606,0.027405,0.021857,-0.158229,0.785398:vel_
1561022893.052403,cobot_dynamixel_driver/goal|-:J1,J2,J3,J4,J5,J6:0.007640,0.116064,0.024016,0.019934,-0.139544,0.785398:vel_
1561022893.084470,cobot_dynamixel_driver/goal|-:J1,J2,J3,J4,J5,J6:0.007271,0.111928,0.023630,0.019619,-0.135425,0.785398:vel_
1561022893.116429,cobot_dynamixel_driver/goal|-:J1,J2,J3,J4,J5,J6:0.007034,0.113316,0.024080,0.018999,-0.138483,0.785398:vel_
1561022893.148503,cobot_dynamixel_driver/goal|-:J1,J2,J3,J4,J5,J6:0.006559,0.115958,0.024967,0.018672,-0.141138,0.785398:vel_
1561022893.180455,cobot_dynamixel_driver/goal|-:J1,J2,J3,J4,J5,J6:0.005840,0.117538,0.025515,0.019394,-0.141538,0.785398:vel_
1561022893.212502,cobot_dynamixel_driver/goal|-:J1,J2,J3,J4,J5,J6:0.005537,0.121106,0.027144,0.020136,-0.144076,0.785398:vel_
1561022893.244499,cobot_dynamixel_driver/goal|-:J1,J2,J3,J4,J5,J6:-0.005184,-0.062584,-0.010770,-0.010684,0.074987,0.785398:vel_
1561022893.276471,cobot_dynamixel_driver/goal|-:J1,J2,J3,J4,J5,J6:-0.005943,-0.079527,-0.014248,-0.013664,0.095598,0.785398:vel_
1561022893.308462,cobot_dynamixel_driver/goal|-:J1,J2,J3,J4,J5,J6:-0.006570,-0.088256,-0.015544,-0.014856,0.104315,0.785398:vel_
1561022893.340514,cobot_dynamixel_driver/goal|-:J1,J2,J3,J4,J5,J6:-0.007375,-0.092099,-0.016653,-0.015694,0.104343,0.785398:vel_
1561022893.372437,cobot_dynamixel_driver/goal|-:J1,J2,J3,J4,J5,J6:-0.008317,-0.094917,-0.017997,-0.016644,0.105264,0.785398:vel_
1561022893.404433,cobot_dynamixel_driver/goal|-:J1,J2,J3,J4,J5,J6:-0.009174,-0.096728,-0.018452,-0.017624,0.106051,0.785398:vel_
1561022893.436428,cobot_dynamixel_driver/goal|-:J1,J2,J3,J4,J5,J6:-0.009841,-0.099232,-0.020675,-0.018245,0.106320,0.785398:vel_
1561022893.468414,cobot_dynamixel_driver/goal|-:J1,J2,J3,J4,J5,J6:-0.015165,-0.178343,-0.043793,-0.029648,0.211638,0.785398:vel_
1561022893.500413,cobot_dynamixel_driver/goal|-:J1,J2,J3,J4,J5,J6:-0.016292,-0.190191,-0.046381,-0.031418,0.225624,0.785398:vel_
1561022893.532367,cobot_dynamixel_driver/goal|-:J1,J2,J3,J4,J5,J6:-0.016964,-0.194954,-0.047650,-0.032110,0.227444,0.785398:vel_
1561022893.564451,cobot_dynamixel_driver/goal|-:J1,J2,J3,J4,J5,J6:-0.017719,-0.193730,-0.046493,-0.033110,0.225755,0.785398:vel_
1561022893.596405,cobot_dynamixel_driver/goal|-:J1,J2,J3,J4,J5,J6:-0.018903,-0.193251,-0.046124,-0.034306,0.228190,0.785398:vel_
1561022893.628423,cobot_dynamixel_driver/goal|-:J1,J2,J3,J4,J5,J6:-0.020648,-0.191512,-0.044724,-0.034481,0.232357,0.785398:vel_
1561022893.660437,cobot_dynamixel_driver/goal|-:J1,J2,J3,J4,J5,J6:-0.023795,-0.262054,-0.075857,-0.041045,0.335791,0.785398:vel_
1561022893.692416,cobot_dynamixel_driver/goal|-:J1,J2,J3,J4,J5,J6:-0.024577,-0.277875,-0.084254,-0.042646,0.360048,0.785398:vel_
1561022893.724296,cobot_dynamixel_driver/goal|-:J1,J2,J3,J4,J5,J6:-0.025432,-0.286536,-0.086513,-0.043691,0.364955,0.785398:vel_
1561022893.756321,cobot_dynamixel_driver/goal|-:J1,J2,J3,J4,J5,J6:-0.026899,-0.286410,-0.086224,-0.045353,0.363332,0.785398:vel_
1561022893.788354,cobot_dynamixel_driver/goal|-:J1,J2,J3,J4,J5,J6:-0.023128,-0.260804,-0.093367,-0.037509,0.351848,0.373928:vel_
1561022893.820364,cobot_dynamixel_driver/goal|-:J1,J2,J3,J4,J5,J6:-0.021922,-0.255814,-0.094622,-0.036248,0.354171,0.273734:vel_
1561022893.852377,cobot_dynamixel_driver/goal|-:J1,J2,J3,J4,J5,J6:-0.022133,-0.253715,-0.096931,-0.036498,0.357340,0.157141:vel_
1561022893.887364,cobot_dynamixel_driver/goal|-:J1,J2,J3,J4,J5,J6:-0.024262,-0.274445,-0.106138,-0.040250,0.387388,0.033931:vel_
1561022893.916327,cobot_dynamixel_driver/goal|-:J1,J2,J3,J4,J5,J6:-0.009917,-0.112912,-0.050192,-0.014826,0.162989,-0.004932:vel_
1561022893.948399,cobot_dynamixel_driver/goal|-:J1,J2,J3,J4,J5,J6:-0.008777,-0.095165,-0.043836,-0.011957,0.138287,-0.007375:vel_
1561022893.982775,cobot_dynamixel_driver/goal|-:J1,J2,J3,J4,J5,J6:-0.008517,-0.086444,-0.043045,-0.011560,0.128277,-0.007262:vel_
1561022894.028285,cobot_dynamixel_driver/goal|-:J1,J2,J3,J4,J5,J6:-0.008884,-0.092569,-0.047648,-0.012773,0.140186,-0.008979:vel_
1561022894.060324,cobot_dynamixel_driver/goal|-:J1,J2,J3,J4,J5,J6:-0.007738,-0.091354,-0.045793,-0.012533,0.136069,-0.010723:vel_
1561022894.092284,cobot_dynamixel_driver/goal|-:J1,J2,J3,J4,J5,J6:-0.007375,-0.093685,-0.046470,-0.013439,0.135652,-0.013350:vel_
1561022894.124364,cobot_dynamixel_driver/goal|-:J1,J2,J3,J4,J5,J6:-0.179347,-0.040426,-0.008913,-0.029127,0.054339,-0.107047:vel_
1561022894.156450,cobot_dynamixel_driver/goal|-:J1,J2,J3,J4,J5,J6:-0.187987,-0.038115,-0.007146,-0.029675,0.050548,-0.111552:vel_
1561022894.188423,cobot_dynamixel_driver/goal|-:J1,J2,J3,J4,J5,J6:-0.192115,-0.037576,-0.007033,-0.029711,0.051187,-0.111508:vel_
1561022894.220365,cobot_dynamixel_driver/goal|-:J1,J2,J3,J4,J5,J6:-0.191880,-0.038308,-0.007089,-0.029708,0.051224,-0.111461:vel_
1561022894.252773,cobot_dynamixel_driver/goal|-:J1,J2,J3,J4,J5,J6:-0.192294,-0.038875,-0.006836,-0.029835,0.051211,-0.111878:vel_
1561022894.284277,cobot_dynamixel_driver/goal|-:J1,J2,J3,J4,J5,J6:-0.192221,-0.039311,-0.006714,-0.029791,0.051177,-0.112249:vel_
1561022894.316276,cobot_dynamixel_driver/goal|-:J1,J2,J3,J4,J5,J6:-0.192741,-0.039655,-0.006988,-0.029886,0.051063,-0.112480:vel_
1561022894.348274,cobot_dynamixel_driver/goal|-:J1,J2,J3,J4,J5,J6:-0.192274,-0.039257,-0.006515,-0.029811,0.050823,-0.112051:vel_
1561022894.380253,cobot_dynamixel_driver/goal|-:J1,J2,J3,J4,J5,J6:-0.193431,-0.039345,-0.005872,-0.030081,0.050977,-0.112682:vel_
1561022894.412234,cobot_dynamixel_driver/goal|-:J1,J2,J3,J4,J5,J6:-0.194345,-0.039089,-0.006119,-0.030243,0.050901,-0.112915:vel_
1561022894.444260,cobot_dynamixel_driver/goal|-:J1,J2,J3,J4,J5,J6:-0.194787,-0.038668,-0.006705,-0.030376,0.050771,-0.112844:vel_
1561022894.476278,cobot_dynamixel_driver/goal|-:J1,J2,J3,J4,J5,J6:-0.195091,-0.038530,-0.007354,-0.030632,0.050911,-0.113388:vel_
1561022894.524243,cobot_dynamixel_driver/goal|-:J1,J2,J3,J4,J5,J6:-0.204991,-0.040717,-0.007645,-0.032225,0.053187,-0.118806:vel_
1561022894.556249,cobot_dynamixel_driver/goal|-:J1,J2,J3,J4,J5,J6:-0.196063,-0.039704,-0.005979,-0.031375,0.050444,-0.113382:vel_
1561022894.588343,cobot_dynamixel_driver/goal|-:J1,J2,J3,J4,J5,J6:-0.194570,-0.039180,-0.006443,-0.031667,0.049918,-0.111985:vel_
1561022894.620265,cobot_dynamixel_driver/goal|-:J1,J2,J3,J4,J5,J6:-0.195416,-0.038951,-0.007791,-0.032297,0.049786,-0.112388:vel_
1561022894.655992,cobot_dynamixel_driver/goal|-:J1,J2,J3,J4,J5,J6:-0.203630,-0.040108,-0.010184,-0.034907,0.052122,-0.116971:vel_
1561022894.700218,cobot_dynamixel_driver/goal|-:J1,J2,J3,J4,J5,J6:-0.309777,-0.046164,-0.005502,-0.047895,0.059695,-0.181320:vel_
1561022894.732291,cobot_dynamixel_driver/goal|-:J1,J2,J3,J4,J5,J6:-0.318308,-0.046476,-0.005371,-0.048700,0.060136,-0.186320:vel_
1561022894.764307,cobot_dynamixel_driver/goal|-:J1,J2,J3,J4,J5,J6:-0.322247,-0.046491,-0.005092,-0.048918,0.060372,-0.186065:vel_
1561022894.796263,cobot_dynamixel_driver/goal|-:J1,J2,J3,J4,J5,J6:-0.322693,-0.046204,-0.004704,-0.048943,0.060712,-0.186423:vel_
1561022894.828273,cobot_dynamixel_driver/goal|-:J1,J2,J3,J4,J5,J6:-0.322625,-0.045890,-0.004868,-0.048965,0.060833,-0.186404:vel_
1561022894.860324,cobot_dynamixel_driver/goal|-:J1,J2,J3,J4,J5,J6:-0.324598,-0.045778,-0.005236,-0.049141,0.061306,-0.187443:vel_
1561022894.892420,cobot_dynamixel_driver/goal|-:J1,J2,J3,J4,J5,J6:-0.326293,-0.045339,-0.005909,-0.049278,0.061825,-0.188051:vel_
1561022894.924346,cobot_dynamixel_driver/goal|-:J1,J2,J3,J4,J5,J6:-0.326534,-0.045034,-0.006541,-0.049352,0.062455,-0.188267:vel_
1561022894.956436,cobot_dynamixel_driver/goal|-:J1,J2,J3,J4,J5,J6:-0.327837,-0.045168,-0.007721,-0.049864,0.063244,-0.188816:vel_
1561022894.988436,cobot_dynamixel_driver/goal|-:J1,J2,J3,J4,J5,J6:-0.332109,-0.046534,-0.008872,-0.050510,0.063161,-0.190665:vel_
1561022895.020382,cobot_dynamixel_driver/goal|-:J1,J2,J3,J4,J5,J6:-0.333299,-0.048071,-0.007795,-0.051061,0.062699,-0.191266:vel_
1561022895.052367,cobot_dynamixel_driver/goal|-:J1,J2,J3,J4,J5,J6:-0.335662,-0.048463,-0.004734,-0.052450,0.061950,-0.193692:vel_
1561022895.084260,cobot_dynamixel_driver/goal|-:J1,J2,J3,J4,J5,J6:-0.336500,-0.048164,-0.003616,-0.050995,0.061913,-0.197550:vel_
1561022895.116252,cobot_dynamixel_driver/goal|-:J1,J2,J3,J4,J5,J6:-0.336469,-0.048122,-0.003944,-0.050712,0.062474,-0.198012:vel_
1561022895.148221,cobot_dynamixel_driver/goal|-:J1,J2,J3,J4,J5,J6:-0.338714,-0.048096,-0.004346,-0.051224,0.062957,-0.199054:vel_
1561022895.180268,cobot_dynamixel_driver/goal|-:J1,J2,J3,J4,J5,J6:-0.339412,-0.048046,-0.004781,-0.051649,0.062563,-0.199713:vel_
1561022895.212262,cobot_dynamixel_driver/goal|-:J1,J2,J3,J4,J5,J6:-0.340101,-0.047755,-0.005271,-0.052435,0.062352,-0.199430:vel_
1561022895.244249,cobot_dynamixel_driver/goal|-:J1,J2,J3,J4,J5,J6:-0.341308,-0.047659,-0.005627,-0.052946,0.062244,-0.199474:vel_
1561022895.276238,cobot_dynamixel_driver/goal|-:J1,J2,J3,J4,J5,J6:-0.343837,-0.047406,-0.005930,-0.052937,0.063331,-0.201666:vel_
1561022895.308175,cobot_dynamixel_driver/goal|-:J1,J2,J3,J4,J5,J6:-0.345166,-0.047136,-0.005771,-0.052586,0.062898,-0.200990:vel_
1561022895.340183,cobot_dynamixel_driver/goal|-:J1,J2,J3,J4,J5,J6:-0.349550,-0.047399,-0.005294,-0.052780,0.063203,-0.203285:vel_
1561022895.372186,cobot_dynamixel_driver/goal|-:J1,J2,J3,J4,J5,J6:-0.351858,-0.048118,-0.005485,-0.051890,0.063039,-0.205392:vel_
1561022895.404155,cobot_dynamixel_driver/goal|-:J1,J2,J3,J4,J5,J6:-0.354302,-0.048795,-0.007238,-0.050728,0.062099,-0.210353:vel_
1561022895.436177,cobot_dynamixel_driver/goal|-:J1,J2,J3,J4,J5,J6:-0.338858,-0.048602,-0.004101,-0.050807,0.061915,-0.199536:vel_
1561022895.468148,cobot_dynamixel_driver/goal|-:J1,J2,J3,J4,J5,J6:-0.338242,-0.048739,-0.003715,-0.051110,0.062134,-0.199599:vel_
1561022895.500134,cobot_dynamixel_driver/goal|-:J1,J2,J3,J4,J5,J6:-0.339343,-0.048888,-0.003300,-0.051466,0.062715,-0.200399:vel_
1561022895.532170,cobot_dynamixel_driver/goal|-:J1,J2,J3,J4,J5,J6:-0.339628,-0.049179,-0.002692,-0.051869,0.062413,-0.199840:vel_
1561022895.564144,cobot_dynamixel_driver/goal|-:J1,J2,J3,J4,J5,J6:-0.341724,-0.049788,-0.002642,-0.052479,0.062277,-0.200756:vel_
1561022895.596121,cobot_dynamixel_driver/goal|-:J1,J2,J3,J4,J5,J6:-0.343247,-0.050494,-0.002682,-0.052828,0.061948,-0.200756:vel_
1561022895.628203,cobot_dynamixel_driver/goal|-:J1,J2,J3,J4,J5,J6:-0.344355,-0.051181,-0.002868,-0.052289,0.062552,-0.201421:vel_
1561022895.660131,cobot_dynamixel_driver/goal|-:J1,J2,J3,J4,J5,J6:-0.346754,-0.052032,-0.003236,-0.051816,0.063452,-0.201367:vel_
1561022895.692143,cobot_dynamixel_driver/goal|-:J1,J2,J3,J4,J5,J6:-0.349493,-0.052847,-0.003782,-0.051432,0.063287,-0.202422:vel_
1561022895.724120,cobot_dynamixel_driver/goal|-:J1,J2,J3,J4,J5,J6:-0.351679,-0.052932,-0.004989,-0.051717,0.063712,-0.206305:vel_
1561022895.756157,cobot_dynamixel_driver/goal|-:J1,J2,J3,J4,J5,J6:-0.354288,-0.050101,-0.006471,-0.053705,0.062052,-0.206578:vel_
1561022895.788064,cobot_dynamixel_driver/goal|-:J1,J2,J3,J4,J5,J6:-0.340112,-0.048391,-0.003703,-0.051585,0.062432,-0.200225:vel_
1561022895.820082,cobot_dynamixel_driver/goal|-:J1,J2,J3,J4,J5,J6:-0.340521,-0.048377,-0.003054,-0.051545,0.062746,-0.200322:vel_
1561022895.852096,cobot_dynamixel_driver/goal|-:J1,J2,J3,J4,J5,J6:-0.341146,-0.048314,-0.002590,-0.051937,0.062415,-0.200726:vel_
1561022895.884051,cobot_dynamixel_driver/goal|-:J1,J2,J3,J4,J5,J6:-0.342794,-0.048532,-0.002624,-0.052405,0.062436,-0.201572:vel_
1561022895.916104,cobot_dynamixel_driver/goal|-:J1,J2,J3,J4,J5,J6:-0.344205,-0.048197,-0.002764,-0.052691,0.061850,-0.201282:vel_
1561022895.948092,cobot_dynamixel_driver/goal|-:J1,J2,J3,J4,J5,J6:-0.346281,-0.048119,-0.002948,-0.052398,0.062080,-0.201796:vel_
1561022895.980844,cobot_dynamixel_driver/goal|-:J1,J2,J3,J4,J5,J6:-0.348703,-0.048359,-0.003278,-0.052070,0.063036,-0.203165:vel_
1561022896.012137,cobot_dynamixel_driver/goal|-:J1,J2,J3,J4,J5,J6:-0.350101,-0.048411,-0.003829,-0.051284,0.063138,-0.204131:vel_
1561022896.044014,cobot_dynamixel_driver/goal|-:J1,J2,J3,J4,J5,J6:-0.352057,-0.048302,-0.004911,-0.050641,0.063195,-0.207720:vel_
1561022896.076008,cobot_dynamixel_driver/goal|-:J1,J2,J3,J4,J5,J6:-0.355550,-0.047889,-0.006567,-0.052266,0.062854,-0.211893:vel_
1561022896.108042,cobot_dynamixel_driver/goal|-:J1,J2,J3,J4,J5,J6:-0.366644,-0.050391,-0.009235,-0.054335,0.062781,-0.217672:vel_
1561022896.140102,cobot_dynamixel_driver/goal|-:J1,J2,J3,J4,J5,J6:-0.342871,-0.049024,-0.003695,-0.051459,0.062532,-0.201327:vel_
1561022896.172014,cobot_dynamixel_driver/goal|-:J1,J2,J3,J4,J5,J6:-0.341294,-0.048791,-0.002629,-0.051387,0.062322,-0.199806:vel_
1561022896.204463,cobot_dynamixel_driver/goal|-:J1,J2,J3,J4,J5,J6:-0.342669,-0.049169,-0.002622,-0.052097,0.062536,-0.200889:vel_
1561022896.236070,cobot_dynamixel_driver/goal|-:J1,J2,J3,J4,J5,J6:-0.343125,-0.048787,-0.002892,-0.052357,0.062654,-0.201421:vel_
1561022896.267998,cobot_dynamixel_driver/goal|-:J1,J2,J3,J4,J5,J6:-0.345376,-0.048833,-0.003304,-0.052199,0.062706,-0.202680:vel_
1561022896.300003,cobot_dynamixel_driver/goal|-:J1,J2,J3,J4,J5,J6:-0.346635,-0.048740,-0.003900,-0.052012,0.062285,-0.203344:vel_
1561022896.332075,cobot_dynamixel_driver/goal|-:J1,J2,J3,J4,J5,J6:-0.349850,-0.048892,-0.004600,-0.051593,0.062437,-0.205566:vel_
1561022896.364033,cobot_dynamixel_driver/goal|-:J1,J2,J3,J4,J5,J6:-0.350482,-0.049009,-0.005685,-0.050648,0.062666,-0.206195:vel_
1561022896.396009,cobot_dynamixel_driver/goal|-:J1,J2,J3,J4,J5,J6:-0.352795,-0.049391,-0.007383,-0.052179,0.062162,-0.207221:vel_
1561022896.427989,cobot_dynamixel_driver/goal|-:J1,J2,J3,J4,J5,J6:-0.356260,-0.049942,-0.009875,-0.054379,0.060425,-0.205849:vel_
1561022896.459990,cobot_dynamixel_driver/goal|-:J1,J2,J3,J4,J5,J6:-0.344282,-0.049412,-0.003918,-0.051939,0.062984,-0.202295:vel_
1561022896.493560,cobot_dynamixel_driver/goal|-:J1,J2,J3,J4,J5,J6:-0.345463,-0.049776,-0.002804,-0.051966,0.063682,-0.202438:vel_
1561022896.524091,cobot_dynamixel_driver/goal|-:J1,J2,J3,J4,J5,J6:-0.345163,-0.049805,-0.002642,-0.051932,0.063401,-0.202336:vel_
1561022896.556151,cobot_dynamixel_driver/goal|-:J1,J2,J3,J4,J5,J6:-0.345974,-0.050098,-0.002898,-0.051706,0.063586,-0.203754:vel_
1561022896.589293,cobot_dynamixel_driver/goal|-:J1,J2,J3,J4,J5,J6:-0.346723,-0.050762,-0.003270,-0.051716,0.063556,-0.204244:vel_
1561022896.620030,cobot_dynamixel_driver/goal|-:J1,J2,J3,J4,J5,J6:-0.347779,-0.051426,-0.003754,-0.052290,0.063372,-0.205319:vel_
1561022896.652033,cobot_dynamixel_driver/goal|-:J1,J2,J3,J4,J5,J6:-0.351029,-0.052438,-0.004428,-0.053183,0.063656,-0.207655:vel_
1561022896.684082,cobot_dynamixel_driver/goal|-:J1,J2,J3,J4,J5,J6:-0.351822,-0.053161,-0.005332,-0.052902,0.063428,-0.206832:vel_
1561022896.717061,cobot_dynamixel_driver/goal|-:J1,J2,J3,J4,J5,J6:-0.358548,-0.053856,-0.006634,-0.053101,0.064467,-0.210451:vel_
1561022896.747933,cobot_dynamixel_driver/goal|-:J1,J2,J3,J4,J5,J6:-0.357667,-0.053020,-0.008534,-0.052000,0.063459,-0.210102:vel_
1561022896.779963,cobot_dynamixel_driver/goal|-:J1,J2,J3,J4,J5,J6:-0.363374,-0.050823,-0.011184,-0.051919,0.062328,-0.209852:vel_
1561022896.811962,cobot_dynamixel_driver/goal|-:J1,J2,J3,J4,J5,J6:-0.345916,-0.049209,-0.003572,-0.051682,0.063338,-0.203828:vel_
1561022896.843949,cobot_dynamixel_driver/goal|-:J1,J2,J3,J4,J5,J6:-0.345664,-0.049381,-0.002670,-0.051871,0.063786,-0.204403:vel_
1561022896.875922,cobot_dynamixel_driver/goal|-:J1,J2,J3,J4,J5,J6:-0.345817,-0.049619,-0.002954,-0.052164,0.063678,-0.205189:vel_
1561022896.908050,cobot_dynamixel_driver/goal|-:J1,J2,J3,J4,J5,J6:-0.347959,-0.050067,-0.003319,-0.052642,0.063485,-0.206047:vel_
1561022896.939965,cobot_dynamixel_driver/goal|-:J1,J2,J3,J4,J5,J6:-0.348838,-0.050341,-0.003715,-0.052243,0.063375,-0.205608:vel_
1561022896.972006,cobot_dynamixel_driver/goal|-:J1,J2,J3,J4,J5,J6:-0.351426,-0.051106,-0.004321,-0.051880,0.063890,-0.207506:vel_
1561022897.004126,cobot_dynamixel_driver/goal|-:J1,J2,J3,J4,J5,J6:-0.353183,-0.051443,-0.005061,-0.051470,0.063397,-0.206923:vel_
1561022897.036171,cobot_dynamixel_driver/goal|-:J1,J2,J3,J4,J5,J6:-0.356148,-0.051967,-0.006067,-0.051909,0.063432,-0.208080:vel_
1561022897.068087,cobot_dynamixel_driver/goal|-:J1,J2,J3,J4,J5,J6:-0.359299,-0.052613,-0.007200,-0.053256,0.062995,-0.209227:vel_
1561022897.100073,cobot_dynamixel_driver/goal|-:J1,J2,J3,J4,J5,J6:-0.361957,-0.051955,-0.008471,-0.054090,0.062205,-0.212633:vel_
1561022897.132070,cobot_dynamixel_driver/goal|-:J1,J2,J3,J4,J5,J6:-0.348744,-0.049587,-0.003479,-0.052379,0.063583,-0.205218:vel_
1561022897.164090,cobot_dynamixel_driver/goal|-:J1,J2,J3,J4,J5,J6:-0.348505,-0.049120,-0.002710,-0.052353,0.063758,-0.204799:vel_
1561022897.196107,cobot_dynamixel_driver/goal|-:J1,J2,J3,J4,J5,J6:-0.349258,-0.049246,-0.002986,-0.052047,0.063712,-0.205178:vel_
1561022897.228096,cobot_dynamixel_driver/goal|-:J1,J2,J3,J4,J5,J6:-0.351632,-0.049618,-0.003338,-0.052076,0.063951,-0.206585:vel_
1561022897.260133,cobot_dynamixel_driver/goal|-:J1,J2,J3,J4,J5,J6:-0.352305,-0.049744,-0.003757,-0.051654,0.063813,-0.206270:vel_
1561022897.292128,cobot_dynamixel_driver/goal|-:J1,J2,J3,J4,J5,J6:-0.354460,-0.050164,-0.004318,-0.051605,0.063769,-0.206824:vel_
1561022897.324105,cobot_dynamixel_driver/goal|-:J1,J2,J3,J4,J5,J6:-0.355719,-0.050359,-0.005067,-0.052050,0.063474,-0.206829:vel_
1561022897.356077,cobot_dynamixel_driver/goal|-:J1,J2,J3,J4,J5,J6:-0.358080,-0.051023,-0.006137,-0.052742,0.063534,-0.207344:vel_
1561022897.388052,cobot_dynamixel_driver/goal|-:J1,J2,J3,J4,J5,J6:-0.362010,-0.051534,-0.007766,-0.052459,0.062999,-0.207943:vel_
1561022897.420024,cobot_dynamixel_driver/goal|-:J1,J2,J3,J4,J5,J6:-0.366279,-0.053195,-0.010018,-0.051754,0.062393,-0.210188:vel_
1561022897.452049,cobot_dynamixel_driver/goal|-:J1,J2,J3,J4,J5,J6:-0.374912,-0.055882,-0.009933,-0.050716,0.061123,-0.214350:vel_
1561022897.484054,cobot_dynamixel_driver/goal|-:J1,J2,J3,J4,J5,J6:-0.351382,-0.050781,-0.003252,-0.052439,0.063878,-0.206194:vel_
1561022897.516070,cobot_dynamixel_driver/goal|-:J1,J2,J3,J4,J5,J6:-0.350460,-0.050481,-0.003109,-0.053031,0.064472,-0.205654:vel_
1561022897.548003,cobot_dynamixel_driver/goal|-:J1,J2,J3,J4,J5,J6:-0.351138,-0.050794,-0.003406,-0.053026,0.064610,-0.206208:vel_
1561022897.580046,cobot_dynamixel_driver/goal|-:J1,J2,J3,J4,J5,J6:-0.353159,-0.051237,-0.002875,-0.053030,0.065131,-0.207425:vel_
1561022897.612003,cobot_dynamixel_driver/goal|-:J1,J2,J3,J4,J5,J6:-0.353418,-0.050711,-0.002283,-0.052693,0.063867,-0.207244:vel_
1561022897.644226,cobot_dynamixel_driver/goal|-:J1,J2,J3,J4,J5,J6:-0.356532,-0.051420,-0.001456,-0.053097,0.066124,-0.208853:vel_
1561022897.676011,cobot_dynamixel_driver/goal|-:J1,J2,J3,J4,J5,J6:-0.358095,-0.052714,-0.001510,-0.052589,0.066122,-0.209618:vel_
1561022897.708008,cobot_dynamixel_driver/goal|-:J1,J2,J3,J4,J5,J6:-0.359389,-0.054268,-0.001779,-0.052325,0.066916,-0.211126:vel_
1561022897.740053,cobot_dynamixel_driver/goal|-:J1,J2,J3,J4,J5,J6:-0.362960,-0.054960,-0.002342,-0.052031,0.067207,-0.213644:vel_
1561022897.771976,cobot_dynamixel_driver/goal|-:J1,J2,J3,J4,J5,J6:-0.368424,-0.055839,-0.003431,-0.051184,0.069373,-0.220037:vel_
1561022897.803785,cobot_dynamixel_driver/goal|-:J1,J2,J3,J4,J5,J6:-0.352510,-0.050754,-0.003711,-0.052243,0.065407,-0.207749:vel_
1561022897.835778,cobot_dynamixel_driver/goal|-:J1,J2,J3,J4,J5,J6:-0.351885,-0.050091,-0.003911,-0.052648,0.064975,-0.206735:vel_
1561022897.867857,cobot_dynamixel_driver/goal|-:J1,J2,J3,J4,J5,J6:-0.353360,-0.050653,-0.004289,-0.052703,0.065217,-0.207913:vel_
1561022897.899823,cobot_dynamixel_driver/goal|-:J1,J2,J3,J4,J5,J6:-0.353890,-0.051476,-0.004695,-0.052479,0.065800,-0.208279:vel_
1561022897.931881,cobot_dynamixel_driver/goal|-:J1,J2,J3,J4,J5,J6:-0.355071,-0.052153,-0.005056,-0.052094,0.065658,-0.208864:vel_
1561022897.963880,cobot_dynamixel_driver/goal|-:J1,J2,J3,J4,J5,J6:-0.356250,-0.052682,-0.005700,-0.051897,0.065803,-0.209513:vel_
1561022898.011813,cobot_dynamixel_driver/goal|-:J1,J2,J3,J4,J5,J6:-0.383892,-0.056190,-0.007253,-0.055480,0.070882,-0.224653:vel_
1561022898.043957,cobot_dynamixel_driver/goal|-:J1,J2,J3,J4,J5,J6:-0.363653,-0.052765,-0.008810,-0.051873,0.067679,-0.214562:vel_
1561022898.075922,cobot_dynamixel_driver/goal|-:J1,J2,J3,J4,J5,J6:-0.365987,-0.053443,-0.009545,-0.052368,0.066927,-0.213102:vel_
1561022898.107758,cobot_dynamixel_driver/goal|-:J1,J2,J3,J4,J5,J6:-0.359678,-0.052390,-0.006056,-0.051589,0.068342,-0.214450:vel_
1561022898.139736,cobot_dynamixel_driver/goal|-:J1,J2,J3,J4,J5,J6:-0.352855,-0.050656,-0.003271,-0.052740,0.065691,-0.207870:vel_
1561022898.171786,cobot_dynamixel_driver/goal|-:J1,J2,J3,J4,J5,J6:-0.353718,-0.050457,-0.003555,-0.053201,0.065591,-0.207944:vel_
1561022898.203786,cobot_dynamixel_driver/goal|-:J1,J2,J3,J4,J5,J6:-0.354606,-0.050738,-0.003891,-0.053228,0.065622,-0.208184:vel_
1561022898.235779,cobot_dynamixel_driver/goal|-:J1,J2,J3,J4,J5,J6:-0.355414,-0.051312,-0.004165,-0.053112,0.065728,-0.208682:vel_
1561022898.283907,cobot_dynamixel_driver/goal|-:J1,J2,J3,J4,J5,J6:-0.376570,-0.054738,-0.004507,-0.055618,0.069664,-0.221028:vel_
1561022898.315772,cobot_dynamixel_driver/goal|-:J1,J2,J3,J4,J5,J6:-0.363104,-0.053121,-0.003770,-0.053010,0.066902,-0.212583:vel_
1561022898.347783,cobot_dynamixel_driver/goal|-:J1,J2,J3,J4,J5,J6:-0.358744,-0.052316,-0.003379,-0.052264,0.065479,-0.209445:vel_
1561022898.379712,cobot_dynamixel_driver/goal|-:J1,J2,J3,J4,J5,J6:-0.358869,-0.050775,-0.003343,-0.051628,0.066225,-0.210192:vel_
1561022898.411807,cobot_dynamixel_driver/goal|-:J1,J2,J3,J4,J5,J6:-0.372733,-0.050970,-0.004243,-0.052448,0.069192,-0.220131:vel_
1561022898.443728,cobot_dynamixel_driver/goal|-:J1,J2,J3,J4,J5,J6:-0.371157,-0.049183,-0.005330,-0.053139,0.069250,-0.219946:vel_
1561022898.475806,cobot_dynamixel_driver/goal|-:J1,J2,J3,J4,J5,J6:-0.227537,-0.032561,-0.002580,-0.034072,0.041759,-0.133608:vel_
1561022898.507839,cobot_dynamixel_driver/goal|-:J1,J2,J3,J4,J5,J6:-0.219437,-0.031702,-0.002668,-0.032899,0.040267,-0.129012:vel_
1561022898.541856,cobot_dynamixel_driver/goal|-:J1,J2,J3,J4,J5,J6:-0.217786,-0.031468,-0.002803,-0.033031,0.040862,-0.130353:vel_
1561022898.571881,cobot_dynamixel_driver/goal|-:J1,J2,J3,J4,J5,J6:-0.217442,-0.031536,-0.002957,-0.032817,0.040841,-0.130339:vel_
1561022898.603904,cobot_dynamixel_driver/goal|-:J1,J2,J3,J4,J5,J6:-0.218203,-0.031919,-0.003177,-0.032738,0.040974,-0.130786:vel_
1561022898.635895,cobot_dynamixel_driver/goal|-:J1,J2,J3,J4,J5,J6:-0.219315,-0.032235,-0.003312,-0.032644,0.040996,-0.130767:vel_
1561022898.667723,cobot_dynamixel_driver/goal|-:J1,J2,J3,J4,J5,J6:-0.219958,-0.032768,-0.003155,-0.032382,0.041363,-0.131012:vel_
1561022898.699712,cobot_dynamixel_driver/goal|-:J1,J2,J3,J4,J5,J6:-0.220534,-0.033061,-0.002737,-0.031955,0.041563,-0.130831:vel_
1561022898.731772,cobot_dynamixel_driver/goal|-:J1,J2,J3,J4,J5,J6:-0.221881,-0.032852,-0.002027,-0.032173,0.041734,-0.131184:vel_
1561022898.763745,cobot_dynamixel_driver/goal|-:J1,J2,J3,J4,J5,J6:-0.222035,-0.032440,-0.001703,-0.032575,0.042046,-0.131121:vel_
1561022898.795692,cobot_dynamixel_driver/goal|-:J1,J2,J3,J4,J5,J6:-0.222155,-0.031852,-0.001719,-0.033021,0.042339,-0.130995:vel_
1561022898.827836,cobot_dynamixel_driver/goal|-:J1,J2,J3,J4,J5,J6:-0.223802,-0.031822,-0.001813,-0.032932,0.042666,-0.131083:vel_
1561022898.859846,cobot_dynamixel_driver/goal|-:J1,J2,J3,J4,J5,J6:-0.224929,-0.032546,-0.002084,-0.032165,0.043322,-0.131436:vel_
1561022898.891836,cobot_dynamixel_driver/goal|-:J1,J2,J3,J4,J5,J6:-0.226394,-0.033086,-0.002569,-0.031704,0.044196,-0.131836:vel_
1561022898.923909,cobot_dynamixel_driver/goal|-:J1,J2,J3,J4,J5,J6:-0.229050,-0.033386,-0.003350,-0.032774,0.044849,-0.132190:vel_
1561022898.955879,cobot_dynamixel_driver/goal|-:J1,J2,J3,J4,J5,J6:-0.243601,-0.026329,-0.011014,-0.021442,0.053097,-0.161643:vel_
1561022898.987841,cobot_dynamixel_driver/goal|-:J1,J2,J3,J4,J5,J6:-0.048494,0.052620,0.067584,-0.011107,-0.118200,-0.018979:vel_
1561022899.019817,cobot_dynamixel_driver/goal|-:J1,J2,J3,J4,J5,J6:-0.027215,0.061679,0.075818,-0.010073,-0.137204,-0.002688:vel_
1561022899.051793,cobot_dynamixel_driver/goal|-:J1,J2,J3,J4,J5,J6:-0.015665,0.066430,0.082249,-0.010468,-0.145028,0.000056:vel_
1561022899.083779,cobot_dynamixel_driver/goal|-:J1,J2,J3,J4,J5,J6:-0.014217,0.069916,0.086577,-0.010455,-0.144989,-0.000031:vel_
1561022899.115801,cobot_dynamixel_driver/goal|-:J1,J2,J3,J4,J5,J6:-0.014651,0.072499,0.089134,-0.010642,-0.145716,-0.000149:vel_
1561022899.147817,cobot_dynamixel_driver/goal|-:J1,J2,J3,J4,J5,J6:-0.015604,0.074787,0.089403,-0.011077,-0.146511,-0.000181:vel_
1561022899.179814,cobot_dynamixel_driver/goal|-:J1,J2,J3,J4,J5,J6:-0.027510,0.119975,0.136201,-0.020047,-0.246892,0.008509:vel_
1561022899.211828,cobot_dynamixel_driver/goal|-:J1,J2,J3,J4,J5,J6:-0.029163,0.126990,0.144188,-0.021130,-0.263183,0.009876:vel_
1561022899.243815,cobot_dynamixel_driver/goal|-:J1,J2,J3,J4,J5,J6:-0.030115,0.129709,0.145861,-0.020990,-0.265530,0.010906:vel_
1561022899.275768,cobot_dynamixel_driver/goal|-:J1,J2,J3,J4,J5,J6:-0.030840,0.129514,0.144944,-0.020669,-0.264601,0.011493:vel_
1561022899.307836,cobot_dynamixel_driver/goal|-:J1,J2,J3,J4,J5,J6:-0.030978,0.128946,0.145420,-0.020187,-0.266587,0.012869:vel_
1561022899.339743,cobot_dynamixel_driver/goal|-:J1,J2,J3,J4,J5,J6:-0.041381,0.179738,0.184219,-0.031088,-0.363421,0.020660:vel_
1561022899.371771,cobot_dynamixel_driver/goal|-:J1,J2,J3,J4,J5,J6:-0.044408,0.192768,0.194512,-0.033107,-0.388358,0.021323:vel_
1561022899.403838,cobot_dynamixel_driver/goal|-:J1,J2,J3,J4,J5,J6:-0.045526,0.198947,0.197947,-0.034135,-0.398424,0.021696:vel_
1561022899.435830,cobot_dynamixel_driver/goal|-:J1,J2,J3,J4,J5,J6:-0.047094,0.201269,0.197714,-0.033233,-0.395952,0.021867:vel_
1561022899.467625,cobot_dynamixel_driver/goal|-:J1,J2,J3,J4,J5,J6:-0.048586,0.226325,0.200964,-0.041680,-0.430685,0.028456:vel_
1561022899.499722,cobot_dynamixel_driver/goal|-:J1,J2,J3,J4,J5,J6:-0.048507,0.237894,0.204315,-0.044166,-0.449195,0.031085:vel_
1561022899.531629,cobot_dynamixel_driver/goal|-:J1,J2,J3,J4,J5,J6:-0.048903,0.246063,0.206529,-0.045175,-0.457971,0.031652:vel_
1561022899.563650,cobot_dynamixel_driver/goal|-:J1,J2,J3,J4,J5,J6:-0.049474,0.251646,0.194178,-0.051323,-0.446472,0.035034:vel_
1561022899.595571,cobot_dynamixel_driver/goal|-:J1,J2,J3,J4,J5,J6:-0.050086,0.250313,0.192902,-0.054289,-0.446597,0.034967:vel_
1561022899.627635,cobot_dynamixel_driver/goal|-:J1,J2,J3,J4,J5,J6:-0.052056,0.260092,0.198001,-0.058041,-0.460955,0.036174:vel_
1561022899.659676,cobot_dynamixel_driver/goal|-:J1,J2,J3,J4,J5,J6:-0.050499,0.268807,0.183220,-0.059161,-0.452442,0.041738:vel_
1561022899.691774,cobot_dynamixel_driver/goal|-:J1,J2,J3,J4,J5,J6:-0.049990,0.272647,0.180160,-0.060612,-0.452520,0.044796:vel_
1561022899.723558,cobot_dynamixel_driver/goal|-:J1,J2,J3,J4,J5,J6:-0.050650,0.274620,0.179116,-0.060042,-0.459005,0.046686:vel_
1561022899.755572,cobot_dynamixel_driver/goal|-:J1,J2,J3,J4,J5,J6:-0.049807,0.280991,0.166667,-0.064133,-0.451214,0.048174:vel_
1561022899.787586,cobot_dynamixel_driver/goal|-:J1,J2,J3,J4,J5,J6:-0.051288,0.286470,0.166438,-0.066123,-0.458001,0.049406:vel_
1561022899.819587,cobot_dynamixel_driver/goal|-:J1,J2,J3,J4,J5,J6:-0.050985,0.296312,0.155684,-0.072525,-0.453335,0.054901:vel_
1561022899.851689,cobot_dynamixel_driver/goal|-:J1,J2,J3,J4,J5,J6:-0.051653,0.299226,0.153626,-0.073352,-0.454528,0.057619:vel_
1561022899.883582,cobot_dynamixel_driver/goal|-:J1,J2,J3,J4,J5,J6:-0.052882,0.302348,0.152825,-0.072828,-0.458589,0.058998:vel_
1561022899.915571,cobot_dynamixel_driver/goal|-:J1,J2,J3,J4,J5,J6:-0.051485,0.309830,0.140488,-0.080074,-0.451596,0.063406:vel_
1561022899.947744,cobot_dynamixel_driver/goal|-:J1,J2,J3,J4,J5,J6:-0.050974,0.311052,0.138108,-0.081466,-0.450810,0.064294:vel_
1561022899.981754,cobot_dynamixel_driver/goal|-:J1,J2,J3,J4,J5,J6:-0.054465,0.322672,0.144214,-0.085047,-0.467363,0.065035:vel_
1561022900.011669,cobot_dynamixel_driver/goal|-:J1,J2,J3,J4,J5,J6:-0.044095,0.279393,0.108806,-0.078532,-0.386877,0.062481:vel_
1561022900.043482,cobot_dynamixel_driver/goal|-:J1,J2,J3,J4,J5,J6:-0.041592,0.273078,0.101995,-0.076929,-0.369341,0.061926:vel_
1561022900.091542,cobot_dynamixel_driver/goal|-:J1,J2,J3,J4,J5,J6:-0.049149,0.314701,0.118710,-0.088124,-0.431043,0.071561:vel_
1561022900.123507,cobot_dynamixel_driver/goal|-:J1,J2,J3,J4,J5,J6:-0.019636,0.132599,0.043111,-0.040906,-0.176875,0.033856:vel_
1561022900.155560,cobot_dynamixel_driver/goal|-:J1,J2,J3,J4,J5,J6:-0.016505,0.112994,0.035059,-0.035981,-0.147968,0.029604:vel_
1561022900.187518,cobot_dynamixel_driver/goal|-:J1,J2,J3,J4,J5,J6:-0.015717,0.102225,0.033803,-0.035622,-0.131512,0.030318:vel_
1561022900.219501,cobot_dynamixel_driver/goal|-:J1,J2,J3,J4,J5,J6:-0.015642,0.103144,0.035379,-0.035923,-0.134976,0.031242:vel_
1561022900.251507,cobot_dynamixel_driver/goal|-:J1,J2,J3,J4,J5,J6:-0.015899,0.106462,0.036433,-0.036442,-0.138041,0.031724:vel_
1561022900.283664,cobot_dynamixel_driver/goal|-:J1,J2,J3,J4,J5,J6:-0.015736,0.109756,0.037449,-0.036947,-0.139121,0.031640:vel_
1561022900.315567,cobot_dynamixel_driver/goal|-:J1,J2,J3,J4,J5,J6:0.007728,-0.052555,-0.015172,0.015989,0.070240,-0.012969:vel_
1561022900.347477,cobot_dynamixel_driver/goal|-:J1,J2,J3,J4,J5,J6:0.009657,-0.065710,-0.019415,0.020203,0.088278,-0.016627:vel_
1561022900.379494,cobot_dynamixel_driver/goal|-:J1,J2,J3,J4,J5,J6:0.010459,-0.072425,-0.020540,0.021403,0.096145,-0.017706:vel_
1561022900.411501,cobot_dynamixel_driver/goal|-:J1,J2,J3,J4,J5,J6:0.011480,-0.074006,-0.021629,0.022333,0.095655,-0.018683:vel_
1561022900.443513,cobot_dynamixel_driver/goal|-:J1,J2,J3,J4,J5,J6:0.012171,-0.075697,-0.022897,0.023313,0.096303,-0.019251:vel_
1561022900.475486,cobot_dynamixel_driver/goal|-:J1,J2,J3,J4,J5,J6:0.013283,-0.077997,-0.023449,0.024359,0.098447,-0.019625:vel_
1561022900.507680,cobot_dynamixel_driver/goal|-:J1,J2,J3,J4,J5,J6:0.024269,-0.149888,-0.052336,0.044084,0.198890,-0.035035:vel_
1561022900.539547,cobot_dynamixel_driver/goal|-:J1,J2,J3,J4,J5,J6:0.025675,-0.158872,-0.055599,0.046539,0.211820,-0.036683:vel_
1561022900.571512,cobot_dynamixel_driver/goal|-:J1,J2,J3,J4,J5,J6:0.026197,-0.160328,-0.055675,0.046740,0.211208,-0.036486:vel_
1561022900.603505,cobot_dynamixel_driver/goal|-:J1,J2,J3,J4,J5,J6:0.027195,-0.159229,-0.056082,0.046785,0.209122,-0.036911:vel_
1561022900.635445,cobot_dynamixel_driver/goal|-:J1,J2,J3,J4,J5,J6:0.027434,-0.160130,-0.056973,0.047472,0.210403,-0.037880:vel_
1561022900.667500,cobot_dynamixel_driver/goal|-:J1,J2,J3,J4,J5,J6:0.027622,-0.160535,-0.057219,0.047946,0.211455,-0.038392:vel_
1561022900.699488,cobot_dynamixel_driver/goal|-:J1,J2,J3,J4,J5,J6:0.027792,-0.161449,-0.058711,0.048149,0.212446,-0.037867:vel_
1561022900.731522,cobot_dynamixel_driver/goal|-:J1,J2,J3,J4,J5,J6:0.028846,-0.164472,-0.061090,0.049319,0.213961,-0.037352:vel_
1561022900.763538,cobot_dynamixel_driver/goal|-:J1,J2,J3,J4,J5,J6:0.040975,-0.251541,-0.106880,0.068567,0.351945,-0.052431:vel_
1561022900.795532,cobot_dynamixel_driver/goal|-:J1,J2,J3,J4,J5,J6:0.043606,-0.273508,-0.117220,0.074020,0.387510,-0.056135:vel_
1561022900.827597,cobot_dynamixel_driver/goal|-:J1,J2,J3,J4,J5,J6:0.044331,-0.284850,-0.121327,0.075071,0.402135,-0.056261:vel_
1561022900.859431,cobot_dynamixel_driver/goal|-:J1,J2,J3,J4,J5,J6:0.045577,-0.284384,-0.118639,0.074363,0.398461,-0.055753:vel_
1561022900.891592,cobot_dynamixel_driver/goal|-:J1,J2,J3,J4,J5,J6:0.049225,-0.289443,-0.143390,0.072137,0.433619,-0.053992:vel_
1561022900.923456,cobot_dynamixel_driver/goal|-:J1,J2,J3,J4,J5,J6:0.049451,-0.289170,-0.149035,0.071385,0.443462,-0.054821:vel_
1561022900.955445,cobot_dynamixel_driver/goal|-:J1,J2,J3,J4,J5,J6:0.050233,-0.295791,-0.152358,0.071496,0.453816,-0.056860:vel_
1561022900.987458,cobot_dynamixel_driver/goal|-:J1,J2,J3,J4,J5,J6:0.049689,-0.282051,-0.162213,0.064141,0.448284,-0.049505:vel_
1561022901.019426,cobot_dynamixel_driver/goal|-:J1,J2,J3,J4,J5,J6:0.050626,-0.281359,-0.166495,0.061813,0.449252,-0.047309:vel_
1561022901.051426,cobot_dynamixel_driver/goal|-:J1,J2,J3,J4,J5,J6:0.051818,-0.281340,-0.167845,0.062266,0.451317,-0.049064:vel_
1561022901.083436,cobot_dynamixel_driver/goal|-:J1,J2,J3,J4,J5,J6:0.050299,-0.266537,-0.179191,0.057200,0.446165,-0.042554:vel_
1561022901.115424,cobot_dynamixel_driver/goal|-:J1,J2,J3,J4,J5,J6:0.050910,-0.265341,-0.185758,0.056937,0.452384,-0.042073:vel_
1561022901.147462,cobot_dynamixel_driver/goal|-:J1,J2,J3,J4,J5,J6:0.052165,-0.264182,-0.189551,0.058066,0.457572,-0.043868:vel_
1561022901.179463,cobot_dynamixel_driver/goal|-:J1,J2,J3,J4,J5,J6:0.055557,-0.272511,-0.197171,0.062044,0.472605,-0.046341:vel_
1561022901.211458,cobot_dynamixel_driver/goal|-:J1,J2,J3,J4,J5,J6:0.050248,-0.249781,-0.199667,0.051768,0.450245,-0.033991:vel_
1561022901.243464,cobot_dynamixel_driver/goal|-:J1,J2,J3,J4,J5,J6:0.048933,-0.242095,-0.200451,0.048545,0.443376,-0.030388:vel_
1561022901.275427,cobot_dynamixel_driver/goal|-:J1,J2,J3,J4,J5,J6:0.050353,-0.240890,-0.205722,0.048333,0.454501,-0.031836:vel_
1561022901.307579,cobot_dynamixel_driver/goal|-:J1,J2,J3,J4,J5,J6:0.049895,-0.226410,-0.213397,0.043276,0.444993,-0.028901:vel_
1561022901.339697,cobot_dynamixel_driver/goal|-:J1,J2,J3,J4,J5,J6:0.051422,-0.227144,-0.219654,0.042720,0.447845,-0.027246:vel_
1561022901.371618,cobot_dynamixel_driver/goal|-:J1,J2,J3,J4,J5,J6:0.052938,-0.225454,-0.226749,0.043657,0.450155,-0.027617:vel_
1561022901.403690,cobot_dynamixel_driver/goal|-:J1,J2,J3,J4,J5,J6:0.045057,-0.185861,-0.199512,0.034302,0.386175,-0.020809:vel_
1561022901.435661,cobot_dynamixel_driver/goal|-:J1,J2,J3,J4,J5,J6:0.043185,-0.178436,-0.193367,0.032906,0.373284,-0.019041:vel_
1561022901.467588,cobot_dynamixel_driver/goal|-:J1,J2,J3,J4,J5,J6:0.042480,-0.174702,-0.194399,0.031634,0.372646,-0.018961:vel_
1561022901.499417,cobot_dynamixel_driver/goal|-:J1,J2,J3,J4,J5,J6:0.021015,-0.083377,-0.101798,0.014100,0.185431,-0.008110:vel_
1561022901.531410,cobot_dynamixel_driver/goal|-:J1,J2,J3,J4,J5,J6:0.019054,-0.075165,-0.092524,0.012746,0.167568,-0.007031:vel_
1561022901.563420,cobot_dynamixel_driver/goal|-:J1,J2,J3,J4,J5,J6:0.018735,-0.072123,-0.090560,0.012571,0.161255,-0.007479:vel_
1561022901.595381,cobot_dynamixel_driver/goal|-:J1,J2,J3,J4,J5,J6:0.019114,-0.074262,-0.092607,0.013156,0.165824,-0.007023:vel_
1561022901.627417,cobot_dynamixel_driver/goal|-:J1,J2,J3,J4,J5,J6:0.019573,-0.075812,-0.094185,0.013485,0.167880,-0.006794:vel_
1561022901.659490,cobot_dynamixel_driver/goal|-:J1,J2,J3,J4,J5,J6:0.020309,-0.078902,-0.097075,0.013593,0.172546,-0.006386:vel_
1561022901.691361,cobot_dynamixel_driver/goal|-:J1,J2,J3,J4,J5,J6:0.019614,-0.078187,-0.095235,0.012718,0.168667,-0.005582:vel_
1561022901.723495,cobot_dynamixel_driver/goal|-:J1,J2,J3,J4,J5,J6:0.019067,-0.079589,-0.096122,0.012281,0.170117,-0.005944:vel_
1561022910.666539,cobot_dynamixel_driver/goal|-:J1,J2,J3,J4,J5,J6:0.000000,0.000000,0.000000,0.000000,0.000000,0.000000:0.500000,0.500000,0.500000,0.500000,0.500000,0.500000:pos_vel_
1561022941.734356,cobot_dynamixel_driver/goal|-:J1,J2,J3,J4,J5,J6:0.007562,0.006789,0.131212,0.025721,-0.139615,0.510880:vel_
1561022942.166162,cobot_dynamixel_driver/goal|-:J1,J2,J3,J4,J5,J6:0.007858,-0.003499,0.122280,0.026690,-0.142008,0.534183:vel_
1561022942.198200,cobot_dynamixel_driver/goal|-:J1,J2,J3,J4,J5,J6:0.008492,-0.004399,0.119681,0.027892,-0.140543,0.570344:vel_
1561022942.230221,cobot_dynamixel_driver/goal|-:J1,J2,J3,J4,J5,J6:0.008997,-0.005173,0.119122,0.028309,-0.142052,0.587445:vel_
1561022942.262245,cobot_dynamixel_driver/goal|-:J1,J2,J3,J4,J5,J6:0.013487,0.005417,0.197355,0.041768,-0.226001,0.785398:vel_
1561022942.294221,cobot_dynamixel_driver/goal|-:J1,J2,J3,J4,J5,J6:0.014026,0.006038,0.206586,0.043299,-0.236583,0.785398:vel_
1561022942.326275,cobot_dynamixel_driver/goal|-:J1,J2,J3,J4,J5,J6:0.014061,0.006813,0.209311,0.043978,-0.236939,0.785398:vel_
1561022942.358128,cobot_dynamixel_driver/goal|-:J1,J2,J3,J4,J5,J6:0.014154,0.007348,0.208939,0.044030,-0.236967,0.785398:vel_
1561022942.390153,cobot_dynamixel_driver/goal|-:J1,J2,J3,J4,J5,J6:0.013743,0.007990,0.208569,0.044307,-0.235778,0.785398:vel_
1561022942.422150,cobot_dynamixel_driver/goal|-:J1,J2,J3,J4,J5,J6:0.013530,0.008609,0.209930,0.045131,-0.237533,0.785398:vel_
1561022942.454406,cobot_dynamixel_driver/goal|-:J1,J2,J3,J4,J5,J6:0.012388,0.010178,0.211017,0.046801,-0.242585,0.785398:vel_
1561022942.535534,cobot_dynamixel_driver/goal|-:J1,J2,J3,J4,J5,J6:0.021645,0.031882,0.351193,0.070982,-0.406939,0.785398:vel_
1561022942.566192,cobot_dynamixel_driver/goal|-:J1,J2,J3,J4,J5,J6:0.025759,0.039523,0.398092,0.077752,-0.460871,0.785398:vel_
1561022942.598173,cobot_dynamixel_driver/goal|-:J1,J2,J3,J4,J5,J6:0.028996,0.047694,0.455291,0.085255,-0.512992,0.785398:vel_
1561022942.630116,cobot_dynamixel_driver/goal|-:J1,J2,J3,J4,J5,J6:0.029860,0.043841,0.385479,0.071134,-0.455207,0.785398:vel_
1561022942.662112,cobot_dynamixel_driver/goal|-:J1,J2,J3,J4,J5,J6:0.029256,0.039861,0.359122,0.065015,-0.438187,0.785398:vel_
1561022942.694096,cobot_dynamixel_driver/goal|-:J1,J2,J3,J4,J5,J6:0.029486,0.036405,0.348026,0.064730,-0.444302,0.785398:vel_
1561022942.726199,cobot_dynamixel_driver/goal|-:J1,J2,J3,J4,J5,J6:0.032200,0.045898,0.349753,0.061939,-0.448408,0.785398:vel_
1561022942.758095,cobot_dynamixel_driver/goal|-:J1,J2,J3,J4,J5,J6:0.033763,0.049569,0.357543,0.062281,-0.451974,0.785398:vel_
1561022942.790321,cobot_dynamixel_driver/goal|-:J1,J2,J3,J4,J5,J6:0.037058,0.050709,0.366211,0.064912,-0.466561,0.785398:vel_
1561022942.822094,cobot_dynamixel_driver/goal|-:J1,J2,J3,J4,J5,J6:0.038338,0.057189,0.350125,0.058753,-0.458493,0.785398:vel_
1561022942.870066,cobot_dynamixel_driver/goal|-:J1,J2,J3,J4,J5,J6:0.045547,0.070634,0.405376,0.065019,-0.540903,0.785398:vel_
1561022942.902109,cobot_dynamixel_driver/goal|-:J1,J2,J3,J4,J5,J6:0.043275,0.068913,0.339429,0.050136,-0.466696,0.785398:vel_
1561022942.934432,cobot_dynamixel_driver/goal|-:J1,J2,J3,J4,J5,J6:0.042608,0.069627,0.326326,0.046138,-0.448442,0.785398:vel_
1561022942.966142,cobot_dynamixel_driver/goal|-:J1,J2,J3,J4,J5,J6:0.043841,0.070941,0.322642,0.046247,-0.455700,0.785398:vel_
1561022942.998080,cobot_dynamixel_driver/goal|-:J1,J2,J3,J4,J5,J6:0.049017,0.078283,0.327148,0.043685,-0.468765,0.785398:vel_
1561022943.030119,cobot_dynamixel_driver/goal|-:J1,J2,J3,J4,J5,J6:0.050715,0.081003,0.331222,0.042223,-0.478929,0.785398:vel_
1561022943.062203,cobot_dynamixel_driver/goal|-:J1,J2,J3,J4,J5,J6:0.052987,0.082835,0.339151,0.043530,-0.489922,0.785398:vel_
1561022943.094144,cobot_dynamixel_driver/goal|-:J1,J2,J3,J4,J5,J6:0.055666,0.082736,0.344060,0.044460,-0.494876,0.785398:vel_
1561022943.126216,cobot_dynamixel_driver/goal|-:J1,J2,J3,J4,J5,J6:0.058757,0.093692,0.324995,0.036523,-0.491595,0.785398:vel_
1561022943.158068,cobot_dynamixel_driver/goal|-:J1,J2,J3,J4,J5,J6:0.060196,0.099387,0.323851,0.035539,-0.497692,0.785398:vel_
1561022943.190098,cobot_dynamixel_driver/goal|-:J1,J2,J3,J4,J5,J6:0.059173,0.102923,0.325200,0.035203,-0.503868,0.785398:vel_
1561022943.222102,cobot_dynamixel_driver/goal|-:J1,J2,J3,J4,J5,J6:0.065383,0.108819,0.312267,0.026191,-0.495858,0.785398:vel_
1561022943.254084,cobot_dynamixel_driver/goal|-:J1,J2,J3,J4,J5,J6:0.066999,0.112756,0.313103,0.023614,-0.500649,0.785398:vel_
1561022943.286128,cobot_dynamixel_driver/goal|-:J1,J2,J3,J4,J5,J6:0.067436,0.117080,0.315623,0.021991,-0.504936,0.785398:vel_
1561022943.318101,cobot_dynamixel_driver/goal|-:J1,J2,J3,J4,J5,J6:0.074440,0.124939,0.302914,0.015697,-0.507543,0.785398:vel_
1561022943.350072,cobot_dynamixel_driver/goal|-:J1,J2,J3,J4,J5,J6:0.076937,0.127507,0.304715,0.014004,-0.514450,0.785398:vel_
1561022943.382107,cobot_dynamixel_driver/goal|-:J1,J2,J3,J4,J5,J6:0.078780,0.128025,0.309351,0.011716,-0.523443,0.785398:vel_
1561022943.414055,cobot_dynamixel_driver/goal|-:J1,J2,J3,J4,J5,J6:0.084677,0.140438,0.292380,0.003231,-0.513154,0.785398:vel_
1561022943.446168,cobot_dynamixel_driver/goal|-:J1,J2,J3,J4,J5,J6:0.086791,0.145026,0.291676,0.001124,-0.512960,0.785398:vel_
1561022943.478360,cobot_dynamixel_driver/goal|-:J1,J2,J3,J4,J5,J6:0.087331,0.150728,0.294652,0.000475,-0.529009,0.785398:vel_
1561022943.510342,cobot_dynamixel_driver/goal|-:J1,J2,J3,J4,J5,J6:0.092149,0.160638,0.276473,-0.009062,-0.517392,0.785398:vel_
1561022943.542463,cobot_dynamixel_driver/goal|-:J1,J2,J3,J4,J5,J6:0.094765,0.164508,0.275088,-0.012822,-0.519458,0.785398:vel_
1561022943.574251,cobot_dynamixel_driver/goal|-:J1,J2,J3,J4,J5,J6:0.095339,0.166335,0.277201,-0.018942,-0.521705,0.785398:vel_
1561022943.606044,cobot_dynamixel_driver/goal|-:J1,J2,J3,J4,J5,J6:0.100676,0.180929,0.264004,-0.027520,-0.515928,0.785398:vel_
1561022943.638026,cobot_dynamixel_driver/goal|-:J1,J2,J3,J4,J5,J6:0.103270,0.186113,0.262798,-0.031971,-0.522491,0.785398:vel_
1561022943.670016,cobot_dynamixel_driver/goal|-:J1,J2,J3,J4,J5,J6:0.102438,0.183488,0.255994,-0.035645,-0.507309,0.785398:vel_
1561022943.702125,cobot_dynamixel_driver/goal|-:J1,J2,J3,J4,J5,J6:0.109813,0.202853,0.247204,-0.041357,-0.517351,0.785398:vel_
1561022943.733999,cobot_dynamixel_driver/goal|-:J1,J2,J3,J4,J5,J6:0.112584,0.208692,0.246256,-0.043430,-0.524515,0.785398:vel_
1561022943.765979,cobot_dynamixel_driver/goal|-:J1,J2,J3,J4,J5,J6:0.117318,0.215269,0.250889,-0.045864,-0.537534,0.785398:vel_
1561022943.798037,cobot_dynamixel_driver/goal|-:J1,J2,J3,J4,J5,J6:0.117446,0.224498,0.227181,-0.054873,-0.517220,0.785398:vel_
1561022943.829967,cobot_dynamixel_driver/goal|-:J1,J2,J3,J4,J5,J6:0.117044,0.226752,0.222405,-0.058147,-0.513204,0.785398:vel_
1561022943.861944,cobot_dynamixel_driver/goal|-:J1,J2,J3,J4,J5,J6:0.117758,0.230744,0.224801,-0.061083,-0.522872,0.785398:vel_
1561022943.893977,cobot_dynamixel_driver/goal|-:J1,J2,J3,J4,J5,J6:0.107410,0.217791,0.183232,-0.063837,-0.453060,0.785398:vel_
1561022943.925985,cobot_dynamixel_driver/goal|-:J1,J2,J3,J4,J5,J6:0.104868,0.213405,0.172951,-0.064039,-0.432519,0.785398:vel_
1561022943.958096,cobot_dynamixel_driver/goal|-:J1,J2,J3,J4,J5,J6:0.106135,0.218371,0.176781,-0.066728,-0.439631,0.785398:vel_
1561022943.990000,cobot_dynamixel_driver/goal|-:J1,J2,J3,J4,J5,J6:0.107654,0.225208,0.184361,-0.068905,-0.462386,0.785398:vel_
1561022944.022006,cobot_dynamixel_driver/goal|-:J1,J2,J3,J4,J5,J6:0.050765,0.109391,0.073127,-0.035905,-0.201591,0.785398:vel_
1561022944.053971,cobot_dynamixel_driver/goal|-:J1,J2,J3,J4,J5,J6:0.045419,0.097556,0.061530,-0.032853,-0.173471,0.785398:vel_
1561022944.085992,cobot_dynamixel_driver/goal|-:J1,J2,J3,J4,J5,J6:0.044778,0.093982,0.059214,-0.032842,-0.157979,0.785398:vel_
1561022944.117985,cobot_dynamixel_driver/goal|-:J1,J2,J3,J4,J5,J6:0.044720,0.094789,0.061100,-0.032475,-0.160175,0.785398:vel_
1561022944.149993,cobot_dynamixel_driver/goal|-:J1,J2,J3,J4,J5,J6:0.046138,0.096663,0.062021,-0.032253,-0.164017,0.785398:vel_
1561022944.182018,cobot_dynamixel_driver/goal|-:J1,J2,J3,J4,J5,J6:0.046354,0.098510,0.062746,-0.032213,-0.165641,0.785398:vel_
1561022944.213971,cobot_dynamixel_driver/goal|-:J1,J2,J3,J4,J5,J6:0.045755,0.100107,0.063872,-0.033627,-0.166615,0.785398:vel_
1561022944.245975,cobot_dynamixel_driver/goal|-:J1,J2,J3,J4,J5,J6:0.013182,0.104207,0.044981,-0.005907,-0.149572,0.785398:vel_
1561022944.277905,cobot_dynamixel_driver/goal|-:J1,J2,J3,J4,J5,J6:0.010083,0.104499,0.043306,-0.003029,-0.148422,0.785398:vel_
1561022944.309939,cobot_dynamixel_driver/goal|-:J1,J2,J3,J4,J5,J6:0.009122,0.104415,0.043974,-0.003101,-0.148726,0.785398:vel_
1561022944.341961,cobot_dynamixel_driver/goal|-:J1,J2,J3,J4,J5,J6:0.008965,0.104278,0.044733,-0.003157,-0.150185,0.785398:vel_
1561022944.373975,cobot_dynamixel_driver/goal|-:J1,J2,J3,J4,J5,J6:0.008837,0.104101,0.045117,-0.003216,-0.150939,0.785398:vel_
1561022944.405926,cobot_dynamixel_driver/goal|-:J1,J2,J3,J4,J5,J6:0.008856,0.103934,0.045439,-0.003426,-0.150532,0.785398:vel_
1561022944.437948,cobot_dynamixel_driver/goal|-:J1,J2,J3,J4,J5,J6:0.008783,0.104111,0.046466,-0.003257,-0.151435,0.785398:vel_
1561022944.469911,cobot_dynamixel_driver/goal|-:J1,J2,J3,J4,J5,J6:0.007215,0.177604,0.063140,0.003547,-0.241266,0.785398:vel_
1561022944.501915,cobot_dynamixel_driver/goal|-:J1,J2,J3,J4,J5,J6:0.007098,0.188761,0.065242,0.004688,-0.255120,0.785398:vel_
1561022944.533906,cobot_dynamixel_driver/goal|-:J1,J2,J3,J4,J5,J6:0.006983,0.193676,0.065689,0.005543,-0.257888,0.785398:vel_
1561022944.565896,cobot_dynamixel_driver/goal|-:J1,J2,J3,J4,J5,J6:0.006194,0.193461,0.064848,0.006867,-0.256892,0.785398:vel_
1561022944.597886,cobot_dynamixel_driver/goal|-:J1,J2,J3,J4,J5,J6:0.005531,0.193242,0.064971,0.009024,-0.257334,0.785398:vel_
1561022944.629912,cobot_dynamixel_driver/goal|-:J1,J2,J3,J4,J5,J6:0.006821,0.276354,0.077820,0.014564,-0.354620,0.785398:vel_
1561022944.661956,cobot_dynamixel_driver/goal|-:J1,J2,J3,J4,J5,J6:0.007882,0.298480,0.080841,0.017030,-0.380527,0.785398:vel_
1561022944.693878,cobot_dynamixel_driver/goal|-:J1,J2,J3,J4,J5,J6:0.007534,0.313234,0.083185,0.019901,-0.392174,0.785398:vel_
1561022944.725872,cobot_dynamixel_driver/goal|-:J1,J2,J3,J4,J5,J6:0.005785,0.317978,0.083123,0.024311,-0.391937,0.785398:vel_
1561022944.757869,cobot_dynamixel_driver/goal|-:J1,J2,J3,J4,J5,J6:0.006131,0.343805,0.077851,0.020710,-0.418237,0.785398:vel_
1561022944.789865,cobot_dynamixel_driver/goal|-:J1,J2,J3,J4,J5,J6:0.007258,0.356757,0.077402,0.019753,-0.435448,0.785398:vel_
1561022944.821901,cobot_dynamixel_driver/goal|-:J1,J2,J3,J4,J5,J6:0.007229,0.310367,0.056782,0.016452,-0.367422,0.785398:vel_
1561022944.853855,cobot_dynamixel_driver/goal|-:J1,J2,J3,J4,J5,J6:0.006861,0.298254,0.053357,0.015415,-0.351240,0.785398:vel_
1561022944.885889,cobot_dynamixel_driver/goal|-:J1,J2,J3,J4,J5,J6:0.005654,0.293843,0.053099,0.016122,-0.351113,0.785398:vel_
1561022944.917954,cobot_dynamixel_driver/goal|-:J1,J2,J3,J4,J5,J6:0.002637,0.153451,0.022325,0.009344,-0.177990,0.785398:vel_
1561022944.949907,cobot_dynamixel_driver/goal|-:J1,J2,J3,J4,J5,J6:0.002670,0.138654,0.019277,0.008853,-0.160120,0.785398:vel_
1561022944.981864,cobot_dynamixel_driver/goal|-:J1,J2,J3,J4,J5,J6:0.002658,0.132255,0.019172,0.008627,-0.153919,0.785398:vel_
1561022945.013809,cobot_dynamixel_driver/goal|-:J1,J2,J3,J4,J5,J6:0.002699,0.133433,0.020105,0.008613,-0.158065,0.785398:vel_
1561022945.045834,cobot_dynamixel_driver/goal|-:J1,J2,J3,J4,J5,J6:0.002366,0.136671,0.021199,0.008708,-0.160832,0.785398:vel_
1561022945.077791,cobot_dynamixel_driver/goal|-:J1,J2,J3,J4,J5,J6:0.002364,0.139040,0.020923,0.008629,-0.159898,0.785398:vel_
1561022945.109875,cobot_dynamixel_driver/goal|-:J1,J2,J3,J4,J5,J6:0.001869,0.141084,0.019938,0.008263,-0.163482,0.785398:vel_
1561022945.141794,cobot_dynamixel_driver/goal|-:J1,J2,J3,J4,J5,J6:-0.001481,-0.065484,-0.008373,-0.004159,0.073117,0.785398:vel_
1561022945.173795,cobot_dynamixel_driver/goal|-:J1,J2,J3,J4,J5,J6:-0.001874,-0.084204,-0.010721,-0.005129,0.094757,0.785398:vel_
1561022945.205857,cobot_dynamixel_driver/goal|-:J1,J2,J3,J4,J5,J6:-0.002074,-0.095125,-0.011627,-0.005679,0.106109,0.785398:vel_
1561022945.237778,cobot_dynamixel_driver/goal|-:J1,J2,J3,J4,J5,J6:-0.002310,-0.099077,-0.012812,-0.006323,0.106169,0.785398:vel_
1561022945.269774,cobot_dynamixel_driver/goal|-:J1,J2,J3,J4,J5,J6:-0.002606,-0.101558,-0.014251,-0.007134,0.105580,0.785398:vel_
1561022945.301999,cobot_dynamixel_driver/goal|-:J1,J2,J3,J4,J5,J6:-0.002936,-0.103358,-0.015730,-0.008138,0.105660,0.785398:vel_
1561022945.333845,cobot_dynamixel_driver/goal|-:J1,J2,J3,J4,J5,J6:-0.003447,-0.105854,-0.016754,-0.009075,0.106151,0.785398:vel_
1561022945.381815,cobot_dynamixel_driver/goal|-:J1,J2,J3,J4,J5,J6:-0.005239,-0.208041,-0.037213,-0.013567,0.233928,0.785398:vel_
1561022945.413861,cobot_dynamixel_driver/goal|-:J1,J2,J3,J4,J5,J6:-0.005825,-0.217352,-0.038885,-0.014559,0.245784,0.785398:vel_
1561022945.445857,cobot_dynamixel_driver/goal|-:J1,J2,J3,J4,J5,J6:-0.006729,-0.222984,-0.040297,-0.014866,0.250562,0.785398:vel_
1561022945.477781,cobot_dynamixel_driver/goal|-:J1,J2,J3,J4,J5,J6:-0.007903,-0.220866,-0.039746,-0.014913,0.248185,0.785398:vel_
1561022945.509844,cobot_dynamixel_driver/goal|-:J1,J2,J3,J4,J5,J6:-0.008127,-0.215044,-0.038590,-0.014621,0.244157,0.785398:vel_
1561022945.541807,cobot_dynamixel_driver/goal|-:J1,J2,J3,J4,J5,J6:-0.008480,-0.207996,-0.036088,-0.014077,0.242598,0.785398:vel_
1561022945.573745,cobot_dynamixel_driver/goal|-:J1,J2,J3,J4,J5,J6:-0.008131,-0.302588,-0.067400,-0.016137,0.370468,0.529530:vel_
1561022945.605751,cobot_dynamixel_driver/goal|-:J1,J2,J3,J4,J5,J6:-0.007986,-0.323939,-0.075190,-0.016604,0.401695,0.469095:vel_
1561022945.637903,cobot_dynamixel_driver/goal|-:J1,J2,J3,J4,J5,J6:-0.007926,-0.341205,-0.078268,-0.017750,0.415446,0.422339:vel_
1561022945.669767,cobot_dynamixel_driver/goal|-:J1,J2,J3,J4,J5,J6:-0.006941,-0.326839,-0.075021,-0.019091,0.395418,0.400853:vel_
1561022945.703717,cobot_dynamixel_driver/goal|-:J1,J2,J3,J4,J5,J6:-0.006226,-0.299818,-0.082892,-0.015155,0.383638,0.096455:vel_
1561022945.733892,cobot_dynamixel_driver/goal|-:J1,J2,J3,J4,J5,J6:-0.005684,-0.296980,-0.085391,-0.014771,0.389150,0.027899:vel_
1561022945.766533,cobot_dynamixel_driver/goal|-:J1,J2,J3,J4,J5,J6:-0.007435,-0.294321,-0.087995,-0.014667,0.393771,-0.049310:vel_
1561022945.797888,cobot_dynamixel_driver/goal|-:J1,J2,J3,J4,J5,J6:-0.003653,-0.143927,-0.048745,-0.005938,0.194814,-0.010801:vel_
1561022945.829708,cobot_dynamixel_driver/goal|-:J1,J2,J3,J4,J5,J6:-0.003128,-0.129434,-0.045093,-0.005115,0.174686,-0.005869:vel_
1561022945.861713,cobot_dynamixel_driver/goal|-:J1,J2,J3,J4,J5,J6:-0.003180,-0.123031,-0.045006,-0.005451,0.167489,-0.006115:vel_
1561022945.893735,cobot_dynamixel_driver/goal|-:J1,J2,J3,J4,J5,J6:-0.003076,-0.124434,-0.046590,-0.005698,0.171310,-0.006919:vel_
1561022945.925778,cobot_dynamixel_driver/goal|-:J1,J2,J3,J4,J5,J6:-0.003318,-0.127337,-0.047697,-0.006111,0.174303,-0.007907:vel_
1561022945.957743,cobot_dynamixel_driver/goal|-:J1,J2,J3,J4,J5,J6:-0.003489,-0.129216,-0.047537,-0.006572,0.175485,-0.007214:vel_
1561022945.989702,cobot_dynamixel_driver/goal|-:J1,J2,J3,J4,J5,J6:-0.003672,-0.131453,-0.046908,-0.007546,0.178465,-0.007268:vel_
1561022946.021806,cobot_dynamixel_driver/goal|-:J1,J2,J3,J4,J5,J6:-0.003829,-0.135203,-0.047245,-0.007918,0.178886,-0.006569:vel_
1561022946.053723,cobot_dynamixel_driver/goal|-:J1,J2,J3,J4,J5,J6:-0.198951,-0.043872,-0.013671,-0.016799,0.064465,-0.107669:vel_
1561022946.085785,cobot_dynamixel_driver/goal|-:J1,J2,J3,J4,J5,J6:-0.209621,-0.039086,-0.012110,-0.017071,0.058208,-0.112815:vel_
1561022946.117803,cobot_dynamixel_driver/goal|-:J1,J2,J3,J4,J5,J6:-0.215406,-0.038102,-0.012313,-0.017066,0.058222,-0.112702:vel_
1561022946.149824,cobot_dynamixel_driver/goal|-:J1,J2,J3,J4,J5,J6:-0.216055,-0.038552,-0.012858,-0.017217,0.058875,-0.112230:vel_
1561022946.229884,cobot_dynamixel_driver/goal|-:J1,J2,J3,J4,J5,J6:-0.215896,-0.040111,-0.014283,-0.017585,0.059831,-0.112057:vel_
1561022946.262236,cobot_dynamixel_driver/goal|-:J1,J2,J3,J4,J5,J6:-0.216376,-0.040801,-0.013977,-0.017899,0.060125,-0.111859:vel_
1561022946.294014,cobot_dynamixel_driver/goal|-:J1,J2,J3,J4,J5,J6:-0.216113,-0.040742,-0.013980,-0.017871,0.060062,-0.112012:vel_
1561022946.326159,cobot_dynamixel_driver/goal|-:J1,J2,J3,J4,J5,J6:-0.217070,-0.040664,-0.013477,-0.017931,0.060045,-0.112382:vel_
1561022946.358016,cobot_dynamixel_driver/goal|-:J1,J2,J3,J4,J5,J6:-0.217190,-0.040459,-0.013429,-0.018015,0.060335,-0.112363:vel_
1561022946.389965,cobot_dynamixel_driver/goal|-:J1,J2,J3,J4,J5,J6:-0.217842,-0.040224,-0.013079,-0.018354,0.060628,-0.112340:vel_
1561022946.421856,cobot_dynamixel_driver/goal|-:J1,J2,J3,J4,J5,J6:-0.218679,-0.040455,-0.012953,-0.018787,0.061441,-0.112926:vel_
1561022946.453875,cobot_dynamixel_driver/goal|-:J1,J2,J3,J4,J5,J6:-0.219567,-0.040318,-0.012274,-0.019198,0.062194,-0.112988:vel_
1561022946.485761,cobot_dynamixel_driver/goal|-:J1,J2,J3,J4,J5,J6:-0.220374,-0.040354,-0.011998,-0.019618,0.062515,-0.113085:vel_
1561022946.517784,cobot_dynamixel_driver/goal|-:J1,J2,J3,J4,J5,J6:-0.222347,-0.040462,-0.012299,-0.020301,0.062051,-0.113284:vel_
1561022946.549780,cobot_dynamixel_driver/goal|-:J1,J2,J3,J4,J5,J6:-0.223054,-0.040236,-0.012336,-0.019693,0.061600,-0.113581:vel_
1561022946.581746,cobot_dynamixel_driver/goal|-:J1,J2,J3,J4,J5,J6:-0.341884,-0.047118,-0.014405,-0.027462,0.074219,-0.182877:vel_
1561022946.613731,cobot_dynamixel_driver/goal|-:J1,J2,J3,J4,J5,J6:-0.353186,-0.047664,-0.015546,-0.027962,0.075584,-0.189162:vel_
1561022946.645701,cobot_dynamixel_driver/goal|-:J1,J2,J3,J4,J5,J6:-0.358292,-0.047986,-0.015571,-0.027864,0.075937,-0.189051:vel_
1561022946.677804,cobot_dynamixel_driver/goal|-:J1,J2,J3,J4,J5,J6:-0.358027,-0.047765,-0.015153,-0.027503,0.075491,-0.188397:vel_
1561022946.709711,cobot_dynamixel_driver/goal|-:J1,J2,J3,J4,J5,J6:-0.358128,-0.047751,-0.014814,-0.027278,0.075370,-0.189342:vel_
1561022946.741740,cobot_dynamixel_driver/goal|-:J1,J2,J3,J4,J5,J6:-0.358743,-0.047775,-0.014590,-0.027194,0.075799,-0.190065:vel_
1561022946.773730,cobot_dynamixel_driver/goal|-:J1,J2,J3,J4,J5,J6:-0.359608,-0.047579,-0.014403,-0.026998,0.075495,-0.191016:vel_
1561022946.805780,cobot_dynamixel_driver/goal|-:J1,J2,J3,J4,J5,J6:-0.362546,-0.048063,-0.014388,-0.026986,0.075947,-0.193273:vel_
1561022946.837688,cobot_dynamixel_driver/goal|-:J1,J2,J3,J4,J5,J6:-0.362054,-0.047607,-0.013919,-0.026355,0.075168,-0.193390:vel_
1561022946.869750,cobot_dynamixel_driver/goal|-:J1,J2,J3,J4,J5,J6:-0.366613,-0.047654,-0.012966,-0.025569,0.075513,-0.195011:vel_
1561022946.901792,cobot_dynamixel_driver/goal|-:J1,J2,J3,J4,J5,J6:-0.371659,-0.047444,-0.010827,-0.024224,0.074406,-0.196343:vel_
1561022946.933770,cobot_dynamixel_driver/goal|-:J1,J2,J3,J4,J5,J6:-0.379221,-0.046685,-0.008703,-0.024929,0.075594,-0.199706:vel_
1561022946.965724,cobot_dynamixel_driver/goal|-:J1,J2,J3,J4,J5,J6:-0.373242,-0.048568,-0.013858,-0.029695,0.077303,-0.200797:vel_
1561022946.997649,cobot_dynamixel_driver/goal|-:J1,J2,J3,J4,J5,J6:-0.373778,-0.048599,-0.013830,-0.030493,0.077519,-0.200843:vel_
1561022947.029688,cobot_dynamixel_driver/goal|-:J1,J2,J3,J4,J5,J6:-0.374331,-0.048573,-0.013971,-0.030648,0.077529,-0.200669:vel_
1561022947.061547,cobot_dynamixel_driver/goal|-:J1,J2,J3,J4,J5,J6:-0.376973,-0.048713,-0.013797,-0.030959,0.077997,-0.200872:vel_
1561022947.093587,cobot_dynamixel_driver/goal|-:J1,J2,J3,J4,J5,J6:-0.380237,-0.048864,-0.014083,-0.031397,0.078448,-0.201829:vel_
1561022947.125593,cobot_dynamixel_driver/goal|-:J1,J2,J3,J4,J5,J6:-0.381856,-0.049248,-0.014056,-0.031631,0.078681,-0.202495:vel_
1561022947.157497,cobot_dynamixel_driver/goal|-:J1,J2,J3,J4,J5,J6:-0.380448,-0.049311,-0.012764,-0.031892,0.079736,-0.203243:vel_
1561022947.189588,cobot_dynamixel_driver/goal|-:J1,J2,J3,J4,J5,J6:-0.387097,-0.049853,-0.012028,-0.033483,0.081386,-0.205798:vel_
1561022947.221520,cobot_dynamixel_driver/goal|-:J1,J2,J3,J4,J5,J6:-0.392237,-0.050158,-0.012973,-0.035349,0.081764,-0.207732:vel_
1561022947.253590,cobot_dynamixel_driver/goal|-:J1,J2,J3,J4,J5,J6:-0.406505,-0.052557,-0.018451,-0.036627,0.082657,-0.211842:vel_
1561022947.285593,cobot_dynamixel_driver/goal|-:J1,J2,J3,J4,J5,J6:-0.376064,-0.049652,-0.015329,-0.030292,0.077672,-0.202065:vel_
1561022947.317593,cobot_dynamixel_driver/goal|-:J1,J2,J3,J4,J5,J6:-0.375480,-0.049353,-0.014885,-0.030012,0.077318,-0.201942:vel_
1561022947.355119,cobot_dynamixel_driver/goal|-:J1,J2,J3,J4,J5,J6:-0.385403,-0.050432,-0.014851,-0.030810,0.079486,-0.207954:vel_
1561022947.397518,cobot_dynamixel_driver/goal|-:J1,J2,J3,J4,J5,J6:-0.375825,-0.049660,-0.013669,-0.030216,0.078069,-0.203440:vel_
1561022947.429562,cobot_dynamixel_driver/goal|-:J1,J2,J3,J4,J5,J6:-0.374626,-0.050230,-0.012958,-0.030574,0.077853,-0.203493:vel_
1561022947.461563,cobot_dynamixel_driver/goal|-:J1,J2,J3,J4,J5,J6:-0.375611,-0.050415,-0.013644,-0.030889,0.077667,-0.203612:vel_
1561022947.493489,cobot_dynamixel_driver/goal|-:J1,J2,J3,J4,J5,J6:-0.377280,-0.051013,-0.014085,-0.031139,0.078088,-0.204830:vel_
1561022947.525517,cobot_dynamixel_driver/goal|-:J1,J2,J3,J4,J5,J6:-0.386228,-0.052490,-0.013564,-0.032391,0.080165,-0.210561:vel_
1561022947.557500,cobot_dynamixel_driver/goal|-:J1,J2,J3,J4,J5,J6:-0.394051,-0.054195,-0.015079,-0.033713,0.080892,-0.214472:vel_
1561022947.589547,cobot_dynamixel_driver/goal|-:J1,J2,J3,J4,J5,J6:-0.377892,-0.049908,-0.014043,-0.030434,0.078518,-0.203907:vel_
1561022947.621482,cobot_dynamixel_driver/goal|-:J1,J2,J3,J4,J5,J6:-0.376338,-0.049375,-0.013886,-0.029961,0.078336,-0.203639:vel_
1561022947.654441,cobot_dynamixel_driver/goal|-:J1,J2,J3,J4,J5,J6:-0.381368,-0.049875,-0.013445,-0.030627,0.079270,-0.206304:vel_
1561022947.685579,cobot_dynamixel_driver/goal|-:J1,J2,J3,J4,J5,J6:-0.386068,-0.050570,-0.013817,-0.031173,0.080335,-0.209370:vel_
1561022947.717474,cobot_dynamixel_driver/goal|-:J1,J2,J3,J4,J5,J6:-0.380903,-0.049993,-0.013042,-0.030916,0.079709,-0.206010:vel_
1561022947.751573,cobot_dynamixel_driver/goal|-:J1,J2,J3,J4,J5,J6:-0.387333,-0.050756,-0.012866,-0.031614,0.081405,-0.209441:vel_
1561022947.781438,cobot_dynamixel_driver/goal|-:J1,J2,J3,J4,J5,J6:-0.382260,-0.050041,-0.011800,-0.031775,0.079919,-0.205764:vel_
1561022947.813459,cobot_dynamixel_driver/goal|-:J1,J2,J3,J4,J5,J6:-0.380624,-0.051172,-0.012378,-0.032091,0.079446,-0.205155:vel_
1561022947.846577,cobot_dynamixel_driver/goal|-:J1,J2,J3,J4,J5,J6:-0.392779,-0.053624,-0.013071,-0.034135,0.083668,-0.211139:vel_
1561022947.877633,cobot_dynamixel_driver/goal|-:J1,J2,J3,J4,J5,J6:-0.395849,-0.055588,-0.013590,-0.036083,0.084118,-0.209916:vel_
1561022947.909488,cobot_dynamixel_driver/goal|-:J1,J2,J3,J4,J5,J6:-0.380713,-0.050724,-0.014964,-0.030814,0.079173,-0.204224:vel_
1561022947.941488,cobot_dynamixel_driver/goal|-:J1,J2,J3,J4,J5,J6:-0.378150,-0.050348,-0.015303,-0.030156,0.078798,-0.204186:vel_
1561022947.973470,cobot_dynamixel_driver/goal|-:J1,J2,J3,J4,J5,J6:-0.378704,-0.050349,-0.014783,-0.030262,0.079016,-0.204365:vel_
1561022948.005480,cobot_dynamixel_driver/goal|-:J1,J2,J3,J4,J5,J6:-0.383710,-0.051331,-0.015086,-0.030809,0.080278,-0.207178:vel_
1561022948.037909,cobot_dynamixel_driver/goal|-:J1,J2,J3,J4,J5,J6:-0.382832,-0.051794,-0.014269,-0.030958,0.080598,-0.207112:vel_
1561022948.069489,cobot_dynamixel_driver/goal|-:J1,J2,J3,J4,J5,J6:-0.385244,-0.052824,-0.014660,-0.031366,0.081812,-0.208117:vel_
1561022948.101445,cobot_dynamixel_driver/goal|-:J1,J2,J3,J4,J5,J6:-0.387096,-0.053238,-0.013908,-0.032217,0.082326,-0.208650:vel_
1561022948.133512,cobot_dynamixel_driver/goal|-:J1,J2,J3,J4,J5,J6:-0.391132,-0.053540,-0.014482,-0.033122,0.082535,-0.210794:vel_
1561022948.165426,cobot_dynamixel_driver/goal|-:J1,J2,J3,J4,J5,J6:-0.393203,-0.053042,-0.012945,-0.033919,0.082107,-0.212121:vel_
1561022948.197492,cobot_dynamixel_driver/goal|-:J1,J2,J3,J4,J5,J6:-0.403622,-0.052561,-0.012360,-0.033279,0.083183,-0.218048:vel_
1561022948.229455,cobot_dynamixel_driver/goal|-:J1,J2,J3,J4,J5,J6:-0.382954,-0.049946,-0.013850,-0.030578,0.078961,-0.206174:vel_
1561022948.261640,cobot_dynamixel_driver/goal|-:J1,J2,J3,J4,J5,J6:-0.381253,-0.049600,-0.014565,-0.030160,0.078860,-0.205823:vel_
1561022948.293772,cobot_dynamixel_driver/goal|-:J1,J2,J3,J4,J5,J6:-0.381915,-0.049724,-0.014274,-0.030599,0.079152,-0.206583:vel_
1561022948.325666,cobot_dynamixel_driver/goal|-:J1,J2,J3,J4,J5,J6:-0.384141,-0.049917,-0.013871,-0.031073,0.079414,-0.206238:vel_
1561022948.357704,cobot_dynamixel_driver/goal|-:J1,J2,J3,J4,J5,J6:-0.383462,-0.049836,-0.013945,-0.031068,0.079592,-0.206502:vel_
1561022948.389575,cobot_dynamixel_driver/goal|-:J1,J2,J3,J4,J5,J6:-0.384493,-0.050142,-0.013606,-0.031303,0.080495,-0.206114:vel_
1561022948.421571,cobot_dynamixel_driver/goal|-:J1,J2,J3,J4,J5,J6:-0.388727,-0.050639,-0.014277,-0.032081,0.081732,-0.209045:vel_
1561022948.453412,cobot_dynamixel_driver/goal|-:J1,J2,J3,J4,J5,J6:-0.391260,-0.051042,-0.012746,-0.032530,0.082416,-0.208300:vel_
1561022948.485350,cobot_dynamixel_driver/goal|-:J1,J2,J3,J4,J5,J6:-0.395730,-0.052165,-0.012384,-0.033632,0.083422,-0.211882:vel_
1561022948.517434,cobot_dynamixel_driver/goal|-:J1,J2,J3,J4,J5,J6:-0.400668,-0.053456,-0.012629,-0.035517,0.082675,-0.215024:vel_
1561022948.549475,cobot_dynamixel_driver/goal|-:J1,J2,J3,J4,J5,J6:-0.385021,-0.050597,-0.015002,-0.030887,0.079629,-0.207397:vel_
1561022948.581430,cobot_dynamixel_driver/goal|-:J1,J2,J3,J4,J5,J6:-0.384216,-0.050131,-0.016346,-0.030384,0.079570,-0.207073:vel_
1561022948.613385,cobot_dynamixel_driver/goal|-:J1,J2,J3,J4,J5,J6:-0.384472,-0.050199,-0.016533,-0.030459,0.079973,-0.207531:vel_
1561022948.645359,cobot_dynamixel_driver/goal|-:J1,J2,J3,J4,J5,J6:-0.385732,-0.050514,-0.015839,-0.030818,0.080364,-0.207993:vel_
1561022948.677391,cobot_dynamixel_driver/goal|-:J1,J2,J3,J4,J5,J6:-0.388361,-0.050921,-0.015013,-0.031251,0.081326,-0.209340:vel_
1561022948.709385,cobot_dynamixel_driver/goal|-:J1,J2,J3,J4,J5,J6:-0.389545,-0.051221,-0.014562,-0.031682,0.082332,-0.209806:vel_
1561022948.741418,cobot_dynamixel_driver/goal|-:J1,J2,J3,J4,J5,J6:-0.390729,-0.051568,-0.013669,-0.032240,0.081786,-0.210291:vel_
1561022948.773396,cobot_dynamixel_driver/goal|-:J1,J2,J3,J4,J5,J6:-0.392551,-0.052123,-0.014428,-0.033200,0.081344,-0.211314:vel_
1561022948.805385,cobot_dynamixel_driver/goal|-:J1,J2,J3,J4,J5,J6:-0.398216,-0.053601,-0.013436,-0.034360,0.081882,-0.215233:vel_
1561022948.837332,cobot_dynamixel_driver/goal|-:J1,J2,J3,J4,J5,J6:-0.405023,-0.052958,-0.014265,-0.034377,0.082082,-0.216628:vel_
1561022948.869328,cobot_dynamixel_driver/goal|-:J1,J2,J3,J4,J5,J6:-0.386422,-0.050436,-0.014635,-0.030868,0.079662,-0.208051:vel_
1561022948.901328,cobot_dynamixel_driver/goal|-:J1,J2,J3,J4,J5,J6:-0.386299,-0.050273,-0.014363,-0.030696,0.079870,-0.208544:vel_
1561022948.933291,cobot_dynamixel_driver/goal|-:J1,J2,J3,J4,J5,J6:-0.385291,-0.050391,-0.014159,-0.031098,0.080443,-0.209242:vel_
1561022948.965361,cobot_dynamixel_driver/goal|-:J1,J2,J3,J4,J5,J6:-0.387106,-0.050756,-0.013818,-0.031389,0.081014,-0.210217:vel_
1561022948.997350,cobot_dynamixel_driver/goal|-:J1,J2,J3,J4,J5,J6:-0.390126,-0.051156,-0.014114,-0.031604,0.081638,-0.210984:vel_
1561022949.029367,cobot_dynamixel_driver/goal|-:J1,J2,J3,J4,J5,J6:-0.391181,-0.051943,-0.013478,-0.032014,0.081189,-0.211795:vel_
1561022949.061335,cobot_dynamixel_driver/goal|-:J1,J2,J3,J4,J5,J6:-0.395347,-0.053409,-0.012824,-0.033314,0.081220,-0.213520:vel_
1561022949.093313,cobot_dynamixel_driver/goal|-:J1,J2,J3,J4,J5,J6:-0.397980,-0.054130,-0.011063,-0.033852,0.080706,-0.214245:vel_
1561022949.125279,cobot_dynamixel_driver/goal|-:J1,J2,J3,J4,J5,J6:-0.399226,-0.054426,-0.011354,-0.033086,0.081102,-0.215503:vel_
1561022949.157310,cobot_dynamixel_driver/goal|-:J1,J2,J3,J4,J5,J6:-0.411111,-0.055574,-0.010334,-0.032921,0.084173,-0.221307:vel_
1561022949.189330,cobot_dynamixel_driver/goal|-:J1,J2,J3,J4,J5,J6:-0.389319,-0.051225,-0.014960,-0.030668,0.080185,-0.209765:vel_
1561022949.221278,cobot_dynamixel_driver/goal|-:J1,J2,J3,J4,J5,J6:-0.387786,-0.050976,-0.016288,-0.030163,0.080195,-0.209160:vel_
1561022949.253279,cobot_dynamixel_driver/goal|-:J1,J2,J3,J4,J5,J6:-0.389318,-0.051371,-0.016536,-0.030368,0.081053,-0.210698:vel_
1561022949.285265,cobot_dynamixel_driver/goal|-:J1,J2,J3,J4,J5,J6:-0.389323,-0.051912,-0.016005,-0.030579,0.081608,-0.211683:vel_
1561022949.317930,cobot_dynamixel_driver/goal|-:J1,J2,J3,J4,J5,J6:-0.393389,-0.052638,-0.015918,-0.031340,0.081639,-0.213484:vel_
1561022949.349316,cobot_dynamixel_driver/goal|-:J1,J2,J3,J4,J5,J6:-0.393864,-0.052894,-0.015996,-0.031551,0.081209,-0.213283:vel_
1561022949.381312,cobot_dynamixel_driver/goal|-:J1,J2,J3,J4,J5,J6:-0.398703,-0.052755,-0.016580,-0.032261,0.081311,-0.215248:vel_
1561022949.413325,cobot_dynamixel_driver/goal|-:J1,J2,J3,J4,J5,J6:-0.402191,-0.051525,-0.016223,-0.033123,0.080994,-0.216221:vel_
1561022949.445276,cobot_dynamixel_driver/goal|-:J1,J2,J3,J4,J5,J6:-0.410809,-0.050738,-0.016921,-0.034808,0.081716,-0.221048:vel_
1561022949.477312,cobot_dynamixel_driver/goal|-:J1,J2,J3,J4,J5,J6:-0.392347,-0.051296,-0.015081,-0.031474,0.081034,-0.211999:vel_
1561022949.509343,cobot_dynamixel_driver/goal|-:J1,J2,J3,J4,J5,J6:-0.391098,-0.051624,-0.015083,-0.031257,0.080567,-0.211272:vel_
1561022949.541311,cobot_dynamixel_driver/goal|-:J1,J2,J3,J4,J5,J6:-0.390708,-0.052003,-0.014729,-0.031404,0.080311,-0.210763:vel_
1561022949.573277,cobot_dynamixel_driver/goal|-:J1,J2,J3,J4,J5,J6:-0.392691,-0.052534,-0.014637,-0.031844,0.081143,-0.211900:vel_
1561022949.605299,cobot_dynamixel_driver/goal|-:J1,J2,J3,J4,J5,J6:-0.397951,-0.052953,-0.014285,-0.032368,0.082453,-0.215023:vel_
1561022949.638483,cobot_dynamixel_driver/goal|-:J1,J2,J3,J4,J5,J6:-0.397729,-0.052295,-0.015256,-0.032843,0.081847,-0.214169:vel_
1561022949.669290,cobot_dynamixel_driver/goal|-:J1,J2,J3,J4,J5,J6:-0.398464,-0.051733,-0.014848,-0.032871,0.081683,-0.214548:vel_
1561022949.701257,cobot_dynamixel_driver/goal|-:J1,J2,J3,J4,J5,J6:-0.399362,-0.051479,-0.016131,-0.032750,0.080956,-0.215146:vel_
1561022949.733292,cobot_dynamixel_driver/goal|-:J1,J2,J3,J4,J5,J6:-0.404319,-0.051958,-0.015156,-0.032484,0.080649,-0.217601:vel_
1561022949.765232,cobot_dynamixel_driver/goal|-:J1,J2,J3,J4,J5,J6:-0.417407,-0.055032,-0.013423,-0.032228,0.084043,-0.224343:vel_
1561022949.797241,cobot_dynamixel_driver/goal|-:J1,J2,J3,J4,J5,J6:-0.394297,-0.052041,-0.014405,-0.031281,0.082005,-0.212757:vel_
1561022949.829197,cobot_dynamixel_driver/goal|-:J1,J2,J3,J4,J5,J6:-0.394018,-0.051593,-0.014658,-0.031715,0.081528,-0.211482:vel_
1561022949.861278,cobot_dynamixel_driver/goal|-:J1,J2,J3,J4,J5,J6:-0.396510,-0.052006,-0.014421,-0.032129,0.081750,-0.213549:vel_
1561022949.893268,cobot_dynamixel_driver/goal|-:J1,J2,J3,J4,J5,J6:-0.397860,-0.052122,-0.013821,-0.032520,0.081756,-0.213063:vel_
1561022949.925289,cobot_dynamixel_driver/goal|-:J1,J2,J3,J4,J5,J6:-0.399830,-0.052103,-0.012667,-0.033075,0.081745,-0.214105:vel_
1561022949.957212,cobot_dynamixel_driver/goal|-:J1,J2,J3,J4,J5,J6:-0.401075,-0.051374,-0.012526,-0.033523,0.081612,-0.214215:vel_
1561022949.994469,cobot_dynamixel_driver/goal|-:J1,J2,J3,J4,J5,J6:-0.414580,-0.052597,-0.012619,-0.033627,0.083795,-0.222519:vel_
1561022950.037255,cobot_dynamixel_driver/goal|-:J1,J2,J3,J4,J5,J6:-0.409616,-0.051701,-0.016029,-0.031584,0.081597,-0.217767:vel_
1561022950.075223,cobot_dynamixel_driver/goal|-:J1,J2,J3,J4,J5,J6:-0.436489,-0.054086,-0.024371,-0.032557,0.086517,-0.232649:vel_
1561022950.133148,cobot_dynamixel_driver/goal|-:J1,J2,J3,J4,J5,J6:-0.250689,-0.033056,-0.010097,-0.020154,0.051627,-0.134913:vel_
1561022950.185671,cobot_dynamixel_driver/goal|-:J1,J2,J3,J4,J5,J6:-0.229950,-0.030683,-0.008705,-0.018425,0.048298,-0.124021:vel_
1561022950.235533,cobot_dynamixel_driver/goal|-:J1,J2,J3,J4,J5,J6:-0.220934,-0.029579,-0.008276,-0.017703,0.048085,-0.123523:vel_
1561022950.293131,cobot_dynamixel_driver/goal|-:J1,J2,J3,J4,J5,J6:-0.225521,-0.030687,-0.008959,-0.018361,0.049726,-0.126925:vel_
1561022950.344954,cobot_dynamixel_driver/goal|-:J1,J2,J3,J4,J5,J6:-0.226004,-0.031292,-0.010083,-0.018766,0.050022,-0.127664:vel_
1561022950.389203,cobot_dynamixel_driver/goal|-:J1,J2,J3,J4,J5,J6:-0.218028,-0.030854,-0.008994,-0.018700,0.047746,-0.122434:vel_
1561022950.421185,cobot_dynamixel_driver/goal|-:J1,J2,J3,J4,J5,J6:-0.217829,-0.031310,-0.008980,-0.019170,0.047473,-0.122005:vel_
1561022950.453260,cobot_dynamixel_driver/goal|-:J1,J2,J3,J4,J5,J6:-0.218989,-0.031631,-0.008775,-0.019759,0.047831,-0.122693:vel_
1561022950.485143,cobot_dynamixel_driver/goal|-:J1,J2,J3,J4,J5,J6:-0.220224,-0.032161,-0.006953,-0.020536,0.048081,-0.123088:vel_
1561022950.517153,cobot_dynamixel_driver/goal|-:J1,J2,J3,J4,J5,J6:-0.223378,-0.033671,-0.006769,-0.019598,0.049413,-0.124851:vel_
1561022950.549152,cobot_dynamixel_driver/goal|-:J1,J2,J3,J4,J5,J6:-0.224588,-0.034904,-0.005440,-0.017790,0.050221,-0.126209:vel_
1561022950.581191,cobot_dynamixel_driver/goal|-:J1,J2,J3,J4,J5,J6:-0.242453,-0.033080,-0.007847,0.003203,0.064899,-0.155518:vel_
1561022950.613206,cobot_dynamixel_driver/goal|-:J1,J2,J3,J4,J5,J6:-0.037721,0.061692,0.070786,-0.005471,-0.129780,-0.014128:vel_
1561022950.645290,cobot_dynamixel_driver/goal|-:J1,J2,J3,J4,J5,J6:-0.014072,0.072809,0.079460,-0.006120,-0.152691,0.003203:vel_
1561022950.677222,cobot_dynamixel_driver/goal|-:J1,J2,J3,J4,J5,J6:0.000493,0.079141,0.087230,-0.006952,-0.164121,0.006723:vel_
1561022950.709285,cobot_dynamixel_driver/goal|-:J1,J2,J3,J4,J5,J6:0.002483,0.083468,0.089987,-0.008043,-0.164267,0.006859:vel_
1561022950.741231,cobot_dynamixel_driver/goal|-:J1,J2,J3,J4,J5,J6:0.002668,0.087000,0.091613,-0.009522,-0.165460,0.008062:vel_
1561022950.773333,cobot_dynamixel_driver/goal|-:J1,J2,J3,J4,J5,J6:0.003009,0.088884,0.091661,-0.010352,-0.164136,0.007970:vel_
1561022950.805297,cobot_dynamixel_driver/goal|-:J1,J2,J3,J4,J5,J6:-0.013750,0.140667,0.138899,-0.017205,-0.271873,0.010584:vel_
1561022950.837193,cobot_dynamixel_driver/goal|-:J1,J2,J3,J4,J5,J6:-0.016168,0.149650,0.146099,-0.018667,-0.289012,0.010949:vel_
1561022950.869236,cobot_dynamixel_driver/goal|-:J1,J2,J3,J4,J5,J6:-0.017904,0.153451,0.147700,-0.019134,-0.294835,0.011210:vel_
1561022950.901189,cobot_dynamixel_driver/goal|-:J1,J2,J3,J4,J5,J6:-0.019707,0.152407,0.147717,-0.019824,-0.294737,0.012104:vel_
1561022950.933287,cobot_dynamixel_driver/goal|-:J1,J2,J3,J4,J5,J6:-0.022385,0.152262,0.149519,-0.020877,-0.296390,0.013180:vel_
1561022950.965197,cobot_dynamixel_driver/goal|-:J1,J2,J3,J4,J5,J6:-0.032599,0.209409,0.188176,-0.027488,-0.396255,0.017964:vel_
1561022950.997180,cobot_dynamixel_driver/goal|-:J1,J2,J3,J4,J5,J6:-0.035317,0.224804,0.197768,-0.028490,-0.422016,0.018288:vel_
1561022951.029231,cobot_dynamixel_driver/goal|-:J1,J2,J3,J4,J5,J6:-0.036479,0.232921,0.200341,-0.027983,-0.436371,0.020026:vel_
1561022951.061061,cobot_dynamixel_driver/goal|-:J1,J2,J3,J4,J5,J6:-0.036845,0.237368,0.200432,-0.027053,-0.439892,0.022244:vel_
1561022951.093181,cobot_dynamixel_driver/goal|-:J1,J2,J3,J4,J5,J6:-0.037626,0.260497,0.202103,-0.034511,-0.462356,0.023700:vel_
1561022951.125152,cobot_dynamixel_driver/goal|-:J1,J2,J3,J4,J5,J6:-0.038941,0.269814,0.205009,-0.036621,-0.474395,0.024828:vel_
1561022951.157111,cobot_dynamixel_driver/goal|-:J1,J2,J3,J4,J5,J6:-0.042068,0.274493,0.206766,-0.037218,-0.481515,0.026900:vel_
1561022951.189150,cobot_dynamixel_driver/goal|-:J1,J2,J3,J4,J5,J6:-0.039128,0.282687,0.191193,-0.041935,-0.475100,0.028827:vel_
1561022951.221049,cobot_dynamixel_driver/goal|-:J1,J2,J3,J4,J5,J6:-0.036797,0.283928,0.185952,-0.043872,-0.469256,0.028874:vel_
1561022951.253116,cobot_dynamixel_driver/goal|-:J1,J2,J3,J4,J5,J6:-0.036088,0.295670,0.177112,-0.046738,-0.473913,0.033083:vel_
1561022951.285125,cobot_dynamixel_driver/goal|-:J1,J2,J3,J4,J5,J6:-0.036271,0.300154,0.176633,-0.048267,-0.478799,0.034247:vel_
1561022951.317176,cobot_dynamixel_driver/goal|-:J1,J2,J3,J4,J5,J6:-0.037323,0.304197,0.178179,-0.047974,-0.482743,0.034110:vel_
1561022951.349042,cobot_dynamixel_driver/goal|-:J1,J2,J3,J4,J5,J6:-0.037745,0.314064,0.164704,-0.052694,-0.479790,0.039015:vel_
1561022951.381118,cobot_dynamixel_driver/goal|-:J1,J2,J3,J4,J5,J6:-0.038172,0.317427,0.161999,-0.053604,-0.481551,0.040423:vel_
1561022951.413021,cobot_dynamixel_driver/goal|-:J1,J2,J3,J4,J5,J6:-0.038794,0.319244,0.162487,-0.052879,-0.484998,0.039071:vel_
1561022951.445053,cobot_dynamixel_driver/goal|-:J1,J2,J3,J4,J5,J6:-0.038460,0.330027,0.148981,-0.059500,-0.480500,0.045697:vel_
1561022951.477050,cobot_dynamixel_driver/goal|-:J1,J2,J3,J4,J5,J6:-0.039841,0.333559,0.144991,-0.060904,-0.480257,0.048133:vel_
1561022951.509051,cobot_dynamixel_driver/goal|-:J1,J2,J3,J4,J5,J6:-0.042692,0.343529,0.146492,-0.061204,-0.491674,0.049091:vel_
1561022951.540981,cobot_dynamixel_driver/goal|-:J1,J2,J3,J4,J5,J6:-0.038182,0.346897,0.132476,-0.068670,-0.477479,0.056357:vel_
1561022951.572949,cobot_dynamixel_driver/goal|-:J1,J2,J3,J4,J5,J6:-0.037261,0.347888,0.129758,-0.071886,-0.473126,0.059936:vel_
1561022951.605077,cobot_dynamixel_driver/goal|-:J1,J2,J3,J4,J5,J6:-0.038736,0.351103,0.130317,-0.073345,-0.479788,0.058871:vel_
1561022951.636993,cobot_dynamixel_driver/goal|-:J1,J2,J3,J4,J5,J6:-0.032560,0.308930,0.099473,-0.067932,-0.405806,0.056387:vel_
1561022951.669090,cobot_dynamixel_driver/goal|-:J1,J2,J3,J4,J5,J6:-0.032168,0.298449,0.091678,-0.066567,-0.387685,0.056547:vel_
1561022951.701011,cobot_dynamixel_driver/goal|-:J1,J2,J3,J4,J5,J6:-0.031200,0.294598,0.089966,-0.065625,-0.386926,0.055877:vel_
1561022951.733030,cobot_dynamixel_driver/goal|-:J1,J2,J3,J4,J5,J6:-0.014743,0.147839,0.039404,-0.036052,-0.188373,0.030577:vel_
1561022951.764925,cobot_dynamixel_driver/goal|-:J1,J2,J3,J4,J5,J6:-0.013194,0.131948,0.034697,-0.032946,-0.167298,0.028288:vel_
1561022951.796996,cobot_dynamixel_driver/goal|-:J1,J2,J3,J4,J5,J6:-0.012745,0.125830,0.034202,-0.032634,-0.159104,0.029472:vel_
1561022951.829016,cobot_dynamixel_driver/goal|-:J1,J2,J3,J4,J5,J6:-0.012168,0.128093,0.035144,-0.032689,-0.163920,0.029999:vel_
1561022951.861140,cobot_dynamixel_driver/goal|-:J1,J2,J3,J4,J5,J6:-0.013115,0.131019,0.035519,-0.032275,-0.166674,0.030483:vel_
1561022951.893103,cobot_dynamixel_driver/goal|-:J1,J2,J3,J4,J5,J6:-0.014231,0.133740,0.036705,-0.031928,-0.167072,0.030871:vel_
1561022951.927754,cobot_dynamixel_driver/goal|-:J1,J2,J3,J4,J5,J6:-0.015337,0.138614,0.038333,-0.033760,-0.172290,0.032561:vel_
1561022951.957020,cobot_dynamixel_driver/goal|-:J1,J2,J3,J4,J5,J6:0.006396,-0.069531,-0.017194,0.017630,0.087790,-0.013975:vel_
1561022951.990828,cobot_dynamixel_driver/goal|-:J1,J2,J3,J4,J5,J6:0.008460,-0.089121,-0.022063,0.022506,0.112557,-0.018346:vel_
1561022952.020901,cobot_dynamixel_driver/goal|-:J1,J2,J3,J4,J5,J6:0.009291,-0.099307,-0.023529,0.023973,0.125846,-0.019807:vel_
1561022952.052981,cobot_dynamixel_driver/goal|-:J1,J2,J3,J4,J5,J6:0.010245,-0.102294,-0.024732,0.025413,0.126131,-0.020996:vel_
1561022952.084959,cobot_dynamixel_driver/goal|-:J1,J2,J3,J4,J5,J6:0.011083,-0.103824,-0.026031,0.026855,0.126242,-0.021370:vel_
1561022952.116997,cobot_dynamixel_driver/goal|-:J1,J2,J3,J4,J5,J6:0.012036,-0.105213,-0.027098,0.028051,0.126712,-0.021732:vel_
1561022952.148895,cobot_dynamixel_driver/goal|-:J1,J2,J3,J4,J5,J6:0.013130,-0.106679,-0.027057,0.027896,0.126548,-0.021873:vel_
1561022952.180975,cobot_dynamixel_driver/goal|-:J1,J2,J3,J4,J5,J6:0.022135,-0.196177,-0.058229,0.046115,0.250532,-0.037567:vel_
1561022952.212895,cobot_dynamixel_driver/goal|-:J1,J2,J3,J4,J5,J6:0.023877,-0.208871,-0.062329,0.048270,0.267580,-0.039681:vel_
1561022952.244978,cobot_dynamixel_driver/goal|-:J1,J2,J3,J4,J5,J6:0.024946,-0.214003,-0.064004,0.048648,0.272117,-0.039697:vel_
1561022952.276950,cobot_dynamixel_driver/goal|-:J1,J2,J3,J4,J5,J6:0.025592,-0.212845,-0.064682,0.049243,0.270008,-0.039842:vel_
1561022952.308885,cobot_dynamixel_driver/goal|-:J1,J2,J3,J4,J5,J6:0.026415,-0.212716,-0.065216,0.049677,0.269775,-0.039999:vel_
1561022952.340912,cobot_dynamixel_driver/goal|-:J1,J2,J3,J4,J5,J6:0.028133,-0.212337,-0.066355,0.050277,0.270312,-0.039863:vel_
1561022952.372899,cobot_dynamixel_driver/goal|-:J1,J2,J3,J4,J5,J6:0.033789,-0.289679,-0.104883,0.061790,0.389080,-0.048630:vel_
1561022952.404953,cobot_dynamixel_driver/goal|-:J1,J2,J3,J4,J5,J6:0.035775,-0.313327,-0.114685,0.066146,0.423663,-0.051311:vel_
1561022952.436941,cobot_dynamixel_driver/goal|-:J1,J2,J3,J4,J5,J6:0.035145,-0.320274,-0.117059,0.066421,0.429246,-0.051558:vel_
1561022952.469044,cobot_dynamixel_driver/goal|-:J1,J2,J3,J4,J5,J6:0.035709,-0.323149,-0.115640,0.065844,0.429341,-0.050186:vel_
1561022952.502631,cobot_dynamixel_driver/goal|-:J1,J2,J3,J4,J5,J6:0.037125,-0.328325,-0.139329,0.061914,0.465770,-0.047135:vel_
1561022952.532948,cobot_dynamixel_driver/goal|-:J1,J2,J3,J4,J5,J6:0.037403,-0.327093,-0.145340,0.059768,0.472829,-0.045651:vel_
1561022952.564911,cobot_dynamixel_driver/goal|-:J1,J2,J3,J4,J5,J6:0.038582,-0.328411,-0.149281,0.058885,0.472267,-0.045813:vel_
1561022952.597914,cobot_dynamixel_driver/goal|-:J1,J2,J3,J4,J5,J6:0.037951,-0.313729,-0.158802,0.052743,0.470466,-0.040225:vel_
1561022952.628904,cobot_dynamixel_driver/goal|-:J1,J2,J3,J4,J5,J6:0.038298,-0.311170,-0.161814,0.051378,0.472343,-0.038706:vel_
1561022952.660865,cobot_dynamixel_driver/goal|-:J1,J2,J3,J4,J5,J6:0.039880,-0.311899,-0.161693,0.050544,0.477514,-0.039093:vel_
1561022952.692867,cobot_dynamixel_driver/goal|-:J1,J2,J3,J4,J5,J6:0.043064,-0.321304,-0.166150,0.053708,0.495163,-0.039918:vel_
1561022952.724916,cobot_dynamixel_driver/goal|-:J1,J2,J3,J4,J5,J6:0.038868,-0.295505,-0.180806,0.047251,0.479505,-0.032611:vel_
1561022952.756879,cobot_dynamixel_driver/goal|-:J1,J2,J3,J4,J5,J6:0.038708,-0.293416,-0.187808,0.045009,0.481461,-0.030586:vel_
1561022952.788908,cobot_dynamixel_driver/goal|-:J1,J2,J3,J4,J5,J6:0.040048,-0.306824,-0.201592,0.045889,0.506677,-0.032396:vel_
1561022952.820868,cobot_dynamixel_driver/goal|-:J1,J2,J3,J4,J5,J6:0.037868,-0.273178,-0.194574,0.039625,0.467469,-0.027398:vel_
1561022952.852880,cobot_dynamixel_driver/goal|-:J1,J2,J3,J4,J5,J6:0.039909,-0.287028,-0.208757,0.040672,0.496910,-0.027255:vel_
1561022952.884846,cobot_dynamixel_driver/goal|-:J1,J2,J3,J4,J5,J6:0.038303,-0.260974,-0.193652,0.036109,0.463316,-0.024261:vel_
1561022952.916877,cobot_dynamixel_driver/goal|-:J1,J2,J3,J4,J5,J6:0.036939,-0.247803,-0.202716,0.032029,0.452858,-0.021235:vel_
1561022952.948828,cobot_dynamixel_driver/goal|-:J1,J2,J3,J4,J5,J6:0.036799,-0.243954,-0.207485,0.031287,0.454417,-0.021608:vel_
1561022952.980857,cobot_dynamixel_driver/goal|-:J1,J2,J3,J4,J5,J6:0.038033,-0.247836,-0.211536,0.032883,0.466643,-0.021868:vel_
1561022953.012822,cobot_dynamixel_driver/goal|-:J1,J2,J3,J4,J5,J6:0.033743,-0.210439,-0.195138,0.026920,0.408196,-0.015626:vel_
1561022953.044842,cobot_dynamixel_driver/goal|-:J1,J2,J3,J4,J5,J6:0.033881,-0.203320,-0.193122,0.025230,0.396366,-0.014438:vel_
1561022953.076823,cobot_dynamixel_driver/goal|-:J1,J2,J3,J4,J5,J6:0.033865,-0.199732,-0.193366,0.023548,0.397401,-0.014979:vel_
1561022953.108856,cobot_dynamixel_driver/goal|-:J1,J2,J3,J4,J5,J6:0.016079,-0.094278,-0.100567,0.010923,0.196044,-0.006096:vel_
1561022953.140936,cobot_dynamixel_driver/goal|-:J1,J2,J3,J4,J5,J6:0.014204,-0.084787,-0.092528,0.010081,0.176920,-0.005435:vel_
1561022953.172899,cobot_dynamixel_driver/goal|-:J1,J2,J3,J4,J5,J6:0.013829,-0.082069,-0.091415,0.010244,0.169158,-0.005997:vel_
1561022953.204888,cobot_dynamixel_driver/goal|-:J1,J2,J3,J4,J5,J6:0.013567,-0.083591,-0.093748,0.010333,0.173409,-0.006909:vel_
1561022953.236792,cobot_dynamixel_driver/goal|-:J1,J2,J3,J4,J5,J6:0.013356,-0.085413,-0.094829,0.010413,0.175348,-0.007881:vel_
1561022953.268836,cobot_dynamixel_driver/goal|-:J1,J2,J3,J4,J5,J6:0.012766,-0.087237,-0.095416,0.010728,0.176862,-0.009321:vel_
1561022953.300845,cobot_dynamixel_driver/goal|-:J1,J2,J3,J4,J5,J6:0.012271,-0.087452,-0.096581,0.010661,0.177254,-0.010973:vel_
1561022953.332874,cobot_dynamixel_driver/goal|-:J1,J2,J3,J4,J5,J6:0.013548,-0.089391,-0.099312,0.010879,0.180242,-0.011615:vel_
1561022958.148231,cobot_dynamixel_driver/goal|-:J1,J2,J3,J4,J5,J6:0.000000,0.000000,0.000000,0.000000,0.000000,0.000000:0.500000,0.500000,0.500000,0.500000,0.500000,0.500000:pos_vel_
1561022994.367941,cobot_dynamixel_driver/goal|-:J1,J2,J3,J4,J5,J6:0.007562,0.006744,0.131168,0.025588,-0.139468,0.511100:vel_
1561022994.799664,cobot_dynamixel_driver/goal|-:J1,J2,J3,J4,J5,J6:0.008056,-0.002813,0.120030,0.026597,-0.142949,0.538173:vel_
1561022994.831814,cobot_dynamixel_driver/goal|-:J1,J2,J3,J4,J5,J6:0.008734,-0.003610,0.116647,0.027717,-0.140741,0.572495:vel_
1561022994.863795,cobot_dynamixel_driver/goal|-:J1,J2,J3,J4,J5,J6:0.009440,-0.004246,0.115196,0.027900,-0.141055,0.588090:vel_
1561022994.895728,cobot_dynamixel_driver/goal|-:J1,J2,J3,J4,J5,J6:0.013842,0.006075,0.194635,0.041522,-0.225584,0.785398:vel_
1561022994.927679,cobot_dynamixel_driver/goal|-:J1,J2,J3,J4,J5,J6:0.014534,0.006805,0.205902,0.043398,-0.237013,0.785398:vel_
1561022994.959848,cobot_dynamixel_driver/goal|-:J1,J2,J3,J4,J5,J6:0.014633,0.007549,0.207976,0.043667,-0.237273,0.785398:vel_
1561022994.991666,cobot_dynamixel_driver/goal|-:J1,J2,J3,J4,J5,J6:0.014608,0.008008,0.208901,0.043949,-0.237932,0.785398:vel_
1561022995.026984,cobot_dynamixel_driver/goal|-:J1,J2,J3,J4,J5,J6:0.014693,0.009055,0.212275,0.045202,-0.242710,0.785398:vel_
1561022995.071608,cobot_dynamixel_driver/goal|-:J1,J2,J3,J4,J5,J6:0.014161,0.008629,0.207603,0.045537,-0.239522,0.785398:vel_
1561022995.103663,cobot_dynamixel_driver/goal|-:J1,J2,J3,J4,J5,J6:0.019789,0.022720,0.292401,0.059725,-0.340126,0.785398:vel_
1561022995.135612,cobot_dynamixel_driver/goal|-:J1,J2,J3,J4,J5,J6:0.020491,0.025263,0.311847,0.061481,-0.361403,0.785398:vel_
1561022995.167652,cobot_dynamixel_driver/goal|-:J1,J2,J3,J4,J5,J6:0.019554,0.026813,0.322327,0.061881,-0.369884,0.785398:vel_
1561022995.199612,cobot_dynamixel_driver/goal|-:J1,J2,J3,J4,J5,J6:0.017912,0.027213,0.322139,0.062501,-0.368475,0.785398:vel_
1561022995.231627,cobot_dynamixel_driver/goal|-:J1,J2,J3,J4,J5,J6:0.024205,0.035565,0.344439,0.065417,-0.410948,0.785398:vel_
1561022995.263701,cobot_dynamixel_driver/goal|-:J1,J2,J3,J4,J5,J6:0.026586,0.037258,0.351542,0.066229,-0.426675,0.785398:vel_
1561022995.295780,cobot_dynamixel_driver/goal|-:J1,J2,J3,J4,J5,J6:0.027834,0.037179,0.351594,0.064736,-0.420722,0.785398:vel_
1561022995.327859,cobot_dynamixel_driver/goal|-:J1,J2,J3,J4,J5,J6:0.029059,0.038776,0.366098,0.065924,-0.444476,0.785398:vel_
1561022995.359825,cobot_dynamixel_driver/goal|-:J1,J2,J3,J4,J5,J6:0.031943,0.048865,0.358181,0.062981,-0.450166,0.785398:vel_
1561022995.391885,cobot_dynamixel_driver/goal|-:J1,J2,J3,J4,J5,J6:0.033292,0.053378,0.355241,0.062061,-0.449289,0.785398:vel_
1561022995.423912,cobot_dynamixel_driver/goal|-:J1,J2,J3,J4,J5,J6:0.034251,0.056472,0.358078,0.063849,-0.455702,0.785398:vel_
1561022995.455857,cobot_dynamixel_driver/goal|-:J1,J2,J3,J4,J5,J6:0.036602,0.058579,0.350187,0.058816,-0.459274,0.785398:vel_
1561022995.487842,cobot_dynamixel_driver/goal|-:J1,J2,J3,J4,J5,J6:0.037805,0.058982,0.350345,0.058192,-0.464609,0.785398:vel_
1561022995.519945,cobot_dynamixel_driver/goal|-:J1,J2,J3,J4,J5,J6:0.039309,0.057968,0.354156,0.057819,-0.482154,0.785398:vel_
1561022995.551850,cobot_dynamixel_driver/goal|-:J1,J2,J3,J4,J5,J6:0.044548,0.066057,0.342278,0.052441,-0.476483,0.785398:vel_
1561022995.583769,cobot_dynamixel_driver/goal|-:J1,J2,J3,J4,J5,J6:0.045751,0.069486,0.343612,0.052477,-0.474425,0.785398:vel_
1561022995.615774,cobot_dynamixel_driver/goal|-:J1,J2,J3,J4,J5,J6:0.046939,0.071823,0.350609,0.052462,-0.480810,0.785398:vel_
1561022995.647824,cobot_dynamixel_driver/goal|-:J1,J2,J3,J4,J5,J6:0.049977,0.079840,0.334570,0.043968,-0.478032,0.785398:vel_
1561022995.679892,cobot_dynamixel_driver/goal|-:J1,J2,J3,J4,J5,J6:0.051020,0.082325,0.333741,0.041169,-0.482496,0.785398:vel_
1561022995.711825,cobot_dynamixel_driver/goal|-:J1,J2,J3,J4,J5,J6:0.053794,0.083327,0.337620,0.041771,-0.498062,0.785398:vel_
1561022995.743899,cobot_dynamixel_driver/goal|-:J1,J2,J3,J4,J5,J6:0.057847,0.092101,0.326296,0.036323,-0.490590,0.785398:vel_
1561022995.775787,cobot_dynamixel_driver/goal|-:J1,J2,J3,J4,J5,J6:0.059247,0.095937,0.326044,0.035391,-0.492096,0.785398:vel_
1561022995.807781,cobot_dynamixel_driver/goal|-:J1,J2,J3,J4,J5,J6:0.062617,0.099401,0.335597,0.035407,-0.504982,0.785398:vel_
1561022995.839908,cobot_dynamixel_driver/goal|-:J1,J2,J3,J4,J5,J6:0.066147,0.107090,0.317712,0.027108,-0.497837,0.785398:vel_
1561022995.871653,cobot_dynamixel_driver/goal|-:J1,J2,J3,J4,J5,J6:0.067846,0.109911,0.316580,0.025218,-0.503840,0.785398:vel_
1561022995.903595,cobot_dynamixel_driver/goal|-:J1,J2,J3,J4,J5,J6:0.068160,0.111091,0.316193,0.024591,-0.508375,0.785398:vel_
1561022995.935551,cobot_dynamixel_driver/goal|-:J1,J2,J3,J4,J5,J6:0.073878,0.122177,0.306435,0.017908,-0.504013,0.785398:vel_
1561022995.967515,cobot_dynamixel_driver/goal|-:J1,J2,J3,J4,J5,J6:0.075400,0.125215,0.303642,0.017146,-0.506495,0.785398:vel_
1561022995.999580,cobot_dynamixel_driver/goal|-:J1,J2,J3,J4,J5,J6:0.077024,0.129370,0.312923,0.017605,-0.516899,0.785398:vel_
1561022996.031552,cobot_dynamixel_driver/goal|-:J1,J2,J3,J4,J5,J6:0.082895,0.139472,0.296366,0.006783,-0.512139,0.785398:vel_
1561022996.063544,cobot_dynamixel_driver/goal|-:J1,J2,J3,J4,J5,J6:0.086067,0.144382,0.296046,0.004081,-0.515672,0.785398:vel_
1561022996.095621,cobot_dynamixel_driver/goal|-:J1,J2,J3,J4,J5,J6:0.088617,0.144391,0.298255,0.002173,-0.521079,0.785398:vel_
1561022996.127568,cobot_dynamixel_driver/goal|-:J1,J2,J3,J4,J5,J6:0.092441,0.157606,0.283036,-0.006578,-0.517389,0.785398:vel_
1561022996.159522,cobot_dynamixel_driver/goal|-:J1,J2,J3,J4,J5,J6:0.094051,0.160394,0.279147,-0.008443,-0.519303,0.785398:vel_
1561022996.191517,cobot_dynamixel_driver/goal|-:J1,J2,J3,J4,J5,J6:0.094484,0.161253,0.279725,-0.011637,-0.523313,0.785398:vel_
1561022996.223619,cobot_dynamixel_driver/goal|-:J1,J2,J3,J4,J5,J6:0.100190,0.177668,0.265465,-0.022629,-0.519514,0.785398:vel_
1561022996.255840,cobot_dynamixel_driver/goal|-:J1,J2,J3,J4,J5,J6:0.102010,0.182676,0.262734,-0.026927,-0.520221,0.785398:vel_
1561022996.289497,cobot_dynamixel_driver/goal|-:J1,J2,J3,J4,J5,J6:0.103894,0.187071,0.265679,-0.030459,-0.530959,0.785398:vel_
1561022996.319554,cobot_dynamixel_driver/goal|-:J1,J2,J3,J4,J5,J6:0.106938,0.188393,0.271705,-0.033481,-0.544303,0.785398:vel_
1561022996.351532,cobot_dynamixel_driver/goal|-:J1,J2,J3,J4,J5,J6:0.109069,0.203052,0.243309,-0.040144,-0.518483,0.785398:vel_
1561022996.383542,cobot_dynamixel_driver/goal|-:J1,J2,J3,J4,J5,J6:0.110171,0.207425,0.234524,-0.042100,-0.511919,0.785398:vel_
1561022996.415536,cobot_dynamixel_driver/goal|-:J1,J2,J3,J4,J5,J6:0.114503,0.218512,0.236841,-0.044883,-0.525611,0.785398:vel_
1561022996.447581,cobot_dynamixel_driver/goal|-:J1,J2,J3,J4,J5,J6:0.116481,0.225721,0.222131,-0.056201,-0.513728,0.785398:vel_
1561022996.479492,cobot_dynamixel_driver/goal|-:J1,J2,J3,J4,J5,J6:0.118505,0.229437,0.219921,-0.062467,-0.512656,0.785398:vel_
1561022996.511520,cobot_dynamixel_driver/goal|-:J1,J2,J3,J4,J5,J6:0.121703,0.236120,0.225101,-0.067478,-0.526376,0.785398:vel_
1561022996.543483,cobot_dynamixel_driver/goal|-:J1,J2,J3,J4,J5,J6:0.107969,0.218281,0.178959,-0.064950,-0.444461,0.785398:vel_
1561022996.575519,cobot_dynamixel_driver/goal|-:J1,J2,J3,J4,J5,J6:0.105297,0.214301,0.167596,-0.064333,-0.424951,0.785398:vel_
1561022996.607520,cobot_dynamixel_driver/goal|-:J1,J2,J3,J4,J5,J6:0.106121,0.215567,0.167795,-0.063755,-0.431763,0.785398:vel_
1561022996.639499,cobot_dynamixel_driver/goal|-:J1,J2,J3,J4,J5,J6:0.053568,0.112960,0.076850,-0.037071,-0.209935,0.785398:vel_
1561022996.671503,cobot_dynamixel_driver/goal|-:J1,J2,J3,J4,J5,J6:0.048267,0.102604,0.068076,-0.034956,-0.187059,0.785398:vel_
1561022996.703513,cobot_dynamixel_driver/goal|-:J1,J2,J3,J4,J5,J6:0.047428,0.100109,0.066896,-0.035269,-0.178424,0.785398:vel_
1561022996.735511,cobot_dynamixel_driver/goal|-:J1,J2,J3,J4,J5,J6:0.047861,0.102036,0.068638,-0.035143,-0.182528,0.785398:vel_
1561022996.767434,cobot_dynamixel_driver/goal|-:J1,J2,J3,J4,J5,J6:0.047952,0.104049,0.069153,-0.035217,-0.184746,0.785398:vel_
1561022996.799446,cobot_dynamixel_driver/goal|-:J1,J2,J3,J4,J5,J6:0.047712,0.104658,0.070069,-0.035271,-0.184827,0.785398:vel_
1561022996.831426,cobot_dynamixel_driver/goal|-:J1,J2,J3,J4,J5,J6:0.047525,0.104971,0.070872,-0.035126,-0.186300,0.785398:vel_
1561022996.863475,cobot_dynamixel_driver/goal|-:J1,J2,J3,J4,J5,J6:0.048129,0.106409,0.072563,-0.035568,-0.190347,0.785398:vel_
1561022996.895520,cobot_dynamixel_driver/goal|-:J1,J2,J3,J4,J5,J6:0.012270,0.104844,0.046129,-0.004446,-0.153348,0.785398:vel_
1561022996.928560,cobot_dynamixel_driver/goal|-:J1,J2,J3,J4,J5,J6:0.008538,0.105646,0.043544,-0.001348,-0.151283,0.785398:vel_
1561022996.959476,cobot_dynamixel_driver/goal|-:J1,J2,J3,J4,J5,J6:0.008145,0.105033,0.042765,-0.001219,-0.151429,0.785398:vel_
1561022996.991449,cobot_dynamixel_driver/goal|-:J1,J2,J3,J4,J5,J6:0.007958,0.104629,0.043284,-0.001008,-0.151052,0.785398:vel_
1561022997.023603,cobot_dynamixel_driver/goal|-:J1,J2,J3,J4,J5,J6:0.008132,0.105460,0.044350,-0.000549,-0.152475,0.785398:vel_
1561022997.055478,cobot_dynamixel_driver/goal|-:J1,J2,J3,J4,J5,J6:0.007986,0.105596,0.045000,-0.000059,-0.153300,0.785398:vel_
1561022997.087451,cobot_dynamixel_driver/goal|-:J1,J2,J3,J4,J5,J6:0.006635,0.173523,0.060854,0.005309,-0.236035,0.785398:vel_
1561022997.119507,cobot_dynamixel_driver/goal|-:J1,J2,J3,J4,J5,J6:0.006414,0.184621,0.063598,0.006126,-0.249209,0.785398:vel_
1561022997.151504,cobot_dynamixel_driver/goal|-:J1,J2,J3,J4,J5,J6:0.006427,0.187046,0.064188,0.007200,-0.250770,0.785398:vel_
