surachairobotic/cobot/cobot_dynamixel_driver/log/2019-02-08T03:17:00.544994_driver_cmd.txt
1549595827.513697,cobot_dynamixel_driver/goal|-:J1,J2,J3,J4,J5,J6:0.000000,0.000000,0.000000,0.000000,0.000000,0.000000:0.500000,0.500000,0.500000,0.500000,0.500000,0.500000:pos_vel_
1549595845.038378,cobot_dynamixel_driver/goal|-:J1,J2,J3,J4,J5,J6:0.000000,0.000000,0.000000,0.000000,-1.570796,0.000000:0.250000,0.250000,0.250000,0.250000,0.250000,0.250000:pos_vel_
1549595845.065698,cobot_dynamixel_driver/goal|-:J1,J2,J3,J4,J5,J6:0.000000,0.000000,0.000000,0.000000,-1.570796,0.000000:0.250000,0.250000,0.250000,0.250000,0.250000,0.250000:pos_vel_
1549595845.092825,cobot_dynamixel_driver/goal|-:J1,J2,J3,J4,J5,J6:0.000000,0.000000,0.000000,0.000000,-1.570796,0.000000:0.250000,0.250000,0.250000,0.250000,0.250000,0.250000:pos_vel_
1549595845.121318,cobot_dynamixel_driver/goal|-:J1,J2,J3,J4,J5,J6:0.000000,0.000000,0.000000,0.000000,-1.570796,0.000000:0.250000,0.250000,0.250000,0.250000,0.250000,0.250000:pos_vel_
1549595845.148663,cobot_dynamixel_driver/goal|-:J1,J2,J3,J4,J5,J6:0.000000,0.000000,0.000000,0.000000,-1.570796,0.000000:0.250000,0.250000,0.250000,0.250000,0.250000,0.250000:pos_vel_
1549595845.175955,cobot_dynamixel_driver/goal|-:J1,J2,J3,J4,J5,J6:0.000000,0.000000,0.000000,0.000000,-1.570796,0.000000:0.250000,0.250000,0.250000,0.250000,0.250000,0.250000:pos_vel_
1549595845.203923,cobot_dynamixel_driver/goal|-:J1,J2,J3,J4,J5,J6:0.000000,0.000000,0.000000,0.000000,-1.570796,0.000000:0.250000,0.250000,0.250000,0.250000,0.250000,0.250000:pos_vel_
1549595845.231629,cobot_dynamixel_driver/goal|-:J1,J2,J3,J4,J5,J6:0.000000,0.000000,0.000000,0.000000,-1.570796,0.000000:0.250000,0.250000,0.250000,0.250000,0.250000,0.250000:pos_vel_
1549595845.258900,cobot_dynamixel_driver/goal|-:J1,J2,J3,J4,J5,J6:0.000000,0.000000,0.000000,0.000000,-1.570796,0.000000:0.250000,0.250000,0.250000,0.250000,0.250000,0.250000:pos_vel_
1549595845.286852,cobot_dynamixel_driver/goal|-:J1,J2,J3,J4,J5,J6:0.000000,0.000000,0.000000,0.000000,-1.570796,0.000000:0.250000,0.250000,0.250000,0.250000,0.250000,0.250000:pos_vel_
1549595845.314555,cobot_dynamixel_driver/goal|-:J1,J2,J3,J4,J5,J6:0.000000,0.000000,0.000000,0.000000,-1.570796,0.000000:0.250000,0.250000,0.250000,0.250000,0.250000,0.250000:pos_vel_
1549595845.342243,cobot_dynamixel_driver/goal|-:J1,J2,J3,J4,J5,J6:0.000000,0.000000,0.000000,0.000000,-1.570796,0.000000:0.250000,0.250000,0.250000,0.250000,0.250000,0.250000:pos_vel_
1549595845.369678,cobot_dynamixel_driver/goal|-:J1,J2,J3,J4,J5,J6:0.000000,0.000000,0.000000,0.000000,-1.570796,0.000000:0.250000,0.250000,0.250000,0.250000,0.250000,0.250000:pos_vel_
1549595845.396827,cobot_dynamixel_driver/goal|-:J1,J2,J3,J4,J5,J6:0.000000,0.000000,0.000000,0.000000,-1.570796,0.000000:0.250000,0.250000,0.250000,0.250000,0.250000,0.250000:pos_vel_
1549595845.424570,cobot_dynamixel_driver/goal|-:J1,J2,J3,J4,J5,J6:0.000000,0.000000,0.000000,0.000000,-1.570796,0.000000:0.250000,0.250000,0.250000,0.250000,0.250000,0.250000:pos_vel_
1549595845.451619,cobot_dynamixel_driver/goal|-:J1,J2,J3,J4,J5,J6:0.000000,0.000000,0.000000,0.000000,-1.570796,0.000000:0.250000,0.250000,0.250000,0.250000,0.250000,0.250000:pos_vel_
1549595845.478813,cobot_dynamixel_driver/goal|-:J1,J2,J3,J4,J5,J6:0.000000,0.000000,0.000000,0.000000,-1.570796,0.000000:0.250000,0.250000,0.250000,0.250000,0.250000,0.250000:pos_vel_
1549595845.506716,cobot_dynamixel_driver/goal|-:J1,J2,J3,J4,J5,J6:0.000000,0.000000,0.000000,0.000000,-1.570796,0.000000:0.250000,0.250000,0.250000,0.250000,0.250000,0.250000:pos_vel_
1549595845.534784,cobot_dynamixel_driver/goal|-:J1,J2,J3,J4,J5,J6:0.000000,0.000000,0.000000,0.000000,-1.570796,0.000000:0.250000,0.250000,0.250000,0.250000,0.250000,0.250000:pos_vel_
1549595845.563280,cobot_dynamixel_driver/goal|-:J1,J2,J3,J4,J5,J6:0.000000,0.000000,0.000000,0.000000,-1.570796,0.000000:0.250000,0.250000,0.250000,0.250000,0.250000,0.250000:pos_vel_
1549595845.590713,cobot_dynamixel_driver/goal|-:J1,J2,J3,J4,J5,J6:0.000000,0.000000,0.000000,0.000000,-1.570796,0.000000:0.250000,0.250000,0.250000,0.250000,0.250000,0.250000:pos_vel_
1549595845.618794,cobot_dynamixel_driver/goal|-:J1,J2,J3,J4,J5,J6:0.000000,0.000000,0.000000,0.000000,-1.570796,0.000000:0.250000,0.250000,0.250000,0.250000,0.250000,0.250000:pos_vel_
1549595845.646529,cobot_dynamixel_driver/goal|-:J1,J2,J3,J4,J5,J6:0.000000,0.000000,0.000000,0.000000,-1.570796,0.000000:0.250000,0.250000,0.250000,0.250000,0.250000,0.250000:pos_vel_
1549595845.673485,cobot_dynamixel_driver/goal|-:J1,J2,J3,J4,J5,J6:0.000000,0.000000,0.000000,0.000000,-1.570796,0.000000:0.250000,0.250000,0.250000,0.250000,0.250000,0.250000:pos_vel_
1549595845.700793,cobot_dynamixel_driver/goal|-:J1,J2,J3,J4,J5,J6:0.000000,0.000000,0.000000,0.000000,-1.570796,0.000000:0.250000,0.250000,0.250000,0.250000,0.250000,0.250000:pos_vel_
1549595845.728432,cobot_dynamixel_driver/goal|-:J1,J2,J3,J4,J5,J6:0.000000,0.000000,0.000000,0.000000,-1.570796,0.000000:0.250000,0.250000,0.250000,0.250000,0.250000,0.250000:pos_vel_
1549595845.756087,cobot_dynamixel_driver/goal|-:J1,J2,J3,J4,J5,J6:0.000000,0.000000,0.000000,0.000000,-1.570796,0.000000:0.250000,0.250000,0.250000,0.250000,0.250000,0.250000:pos_vel_
1549595845.783686,cobot_dynamixel_driver/goal|-:J1,J2,J3,J4,J5,J6:0.000000,0.000000,0.000000,0.000000,-1.570796,0.000000:0.250000,0.250000,0.250000,0.250000,0.250000,0.250000:pos_vel_
1549595845.811537,cobot_dynamixel_driver/goal|-:J1,J2,J3,J4,J5,J6:0.000000,0.000000,0.000000,0.000000,-1.570796,0.000000:0.250000,0.250000,0.250000,0.250000,0.250000,0.250000:pos_vel_
1549595845.838944,cobot_dynamixel_driver/goal|-:J1,J2,J3,J4,J5,J6:0.000000,0.000000,0.000000,0.000000,-1.570796,0.000000:0.250000,0.250000,0.250000,0.250000,0.250000,0.250000:pos_vel_
1549595845.866399,cobot_dynamixel_driver/goal|-:J1,J2,J3,J4,J5,J6:0.000000,0.000000,0.000000,0.000000,-1.570796,0.000000:0.250000,0.250000,0.250000,0.250000,0.250000,0.250000:pos_vel_
1549595845.893480,cobot_dynamixel_driver/goal|-:J1,J2,J3,J4,J5,J6:0.000000,0.000000,0.000000,0.000000,-1.570796,0.000000:0.250000,0.250000,0.250000,0.250000,0.250000,0.250000:pos_vel_
1549595845.920752,cobot_dynamixel_driver/goal|-:J1,J2,J3,J4,J5,J6:0.000000,0.000000,0.000000,0.000000,-1.570796,0.000000:0.250000,0.250000,0.250000,0.250000,0.250000,0.250000:pos_vel_
1549595845.948457,cobot_dynamixel_driver/goal|-:J1,J2,J3,J4,J5,J6:0.000000,0.000000,0.000000,0.000000,-1.570796,0.000000:0.250000,0.250000,0.250000,0.250000,0.250000,0.250000:pos_vel_
1549595845.975821,cobot_dynamixel_driver/goal|-:J1,J2,J3,J4,J5,J6:0.000000,0.000000,0.000000,0.000000,-1.570796,0.000000:0.250000,0.250000,0.250000,0.250000,0.250000,0.250000:pos_vel_
1549595846.003683,cobot_dynamixel_driver/goal|-:J1,J2,J3,J4,J5,J6:0.000000,0.000000,0.000000,0.000000,-1.570796,0.000000:0.250000,0.250000,0.250000,0.250000,0.250000,0.250000:pos_vel_
1549595846.031492,cobot_dynamixel_driver/goal|-:J1,J2,J3,J4,J5,J6:0.000000,0.000000,0.000000,0.000000,-1.570796,0.000000:0.250000,0.250000,0.250000,0.250000,0.250000,0.250000:pos_vel_
1549595846.059827,cobot_dynamixel_driver/goal|-:J1,J2,J3,J4,J5,J6:0.000000,0.000000,0.000000,0.000000,-1.570796,0.000000:0.250000,0.250000,0.250000,0.250000,0.250000,0.250000:pos_vel_
1549595846.087609,cobot_dynamixel_driver/goal|-:J1,J2,J3,J4,J5,J6:0.000000,0.000000,0.000000,0.000000,-1.570796,0.000000:0.250000,0.250000,0.250000,0.250000,0.250000,0.250000:pos_vel_
1549595846.115680,cobot_dynamixel_driver/goal|-:J1,J2,J3,J4,J5,J6:0.000000,0.000000,0.000000,0.000000,-1.570796,0.000000:0.250000,0.250000,0.250000,0.250000,0.250000,0.250000:pos_vel_
1549595846.143386,cobot_dynamixel_driver/goal|-:J1,J2,J3,J4,J5,J6:0.000000,0.000000,0.000000,0.000000,-1.570796,0.000000:0.250000,0.250000,0.250000,0.250000,0.250000,0.250000:pos_vel_
1549595846.170462,cobot_dynamixel_driver/goal|-:J1,J2,J3,J4,J5,J6:0.000000,0.000000,0.000000,0.000000,-1.570796,0.000000:0.250000,0.250000,0.250000,0.250000,0.250000,0.250000:pos_vel_
1549595846.198626,cobot_dynamixel_driver/goal|-:J1,J2,J3,J4,J5,J6:0.000000,0.000000,0.000000,0.000000,-1.570796,0.000000:0.250000,0.250000,0.250000,0.250000,0.250000,0.250000:pos_vel_
1549595846.226366,cobot_dynamixel_driver/goal|-:J1,J2,J3,J4,J5,J6:0.000000,0.000000,0.000000,0.000000,-1.570796,0.000000:0.250000,0.250000,0.250000,0.250000,0.250000,0.250000:pos_vel_
1549595846.253584,cobot_dynamixel_driver/goal|-:J1,J2,J3,J4,J5,J6:0.000000,0.000000,0.000000,0.000000,-1.570796,0.000000:0.250000,0.250000,0.250000,0.250000,0.250000,0.250000:pos_vel_
1549595846.281590,cobot_dynamixel_driver/goal|-:J1,J2,J3,J4,J5,J6:0.000000,0.000000,0.000000,0.000000,-1.570796,0.000000:0.250000,0.250000,0.250000,0.250000,0.250000,0.250000:pos_vel_
1549595846.309443,cobot_dynamixel_driver/goal|-:J1,J2,J3,J4,J5,J6:0.000000,0.000000,0.000000,0.000000,-1.570796,0.000000:0.250000,0.250000,0.250000,0.250000,0.250000,0.250000:pos_vel_
1549595846.336987,cobot_dynamixel_driver/goal|-:J1,J2,J3,J4,J5,J6:0.000000,0.000000,0.000000,0.000000,-1.570796,0.000000:0.250000,0.250000,0.250000,0.250000,0.250000,0.250000:pos_vel_
1549595846.364314,cobot_dynamixel_driver/goal|-:J1,J2,J3,J4,J5,J6:0.000000,0.000000,0.000000,0.000000,-1.570796,0.000000:0.250000,0.250000,0.250000,0.250000,0.250000,0.250000:pos_vel_
1549595846.391245,cobot_dynamixel_driver/goal|-:J1,J2,J3,J4,J5,J6:0.000000,0.000000,0.000000,0.000000,-1.570796,0.000000:0.250000,0.250000,0.250000,0.250000,0.250000,0.250000:pos_vel_
1549595846.418595,cobot_dynamixel_driver/goal|-:J1,J2,J3,J4,J5,J6:0.000000,0.000000,0.000000,0.000000,-1.570796,0.000000:0.250000,0.250000,0.250000,0.250000,0.250000,0.250000:pos_vel_
1549595846.446347,cobot_dynamixel_driver/goal|-:J1,J2,J3,J4,J5,J6:0.000000,0.000000,0.000000,0.000000,-1.570796,0.000000:0.250000,0.250000,0.250000,0.250000,0.250000,0.250000:pos_vel_
1549595846.473235,cobot_dynamixel_driver/goal|-:J1,J2,J3,J4,J5,J6:0.000000,0.000000,0.000000,0.000000,-1.570796,0.000000:0.250000,0.250000,0.250000,0.250000,0.250000,0.250000:pos_vel_
1549595846.500530,cobot_dynamixel_driver/goal|-:J1,J2,J3,J4,J5,J6:0.000000,0.000000,0.000000,0.000000,-1.570796,0.000000:0.250000,0.250000,0.250000,0.250000,0.250000,0.250000:pos_vel_
1549595846.528190,cobot_dynamixel_driver/goal|-:J1,J2,J3,J4,J5,J6:0.000000,0.000000,0.000000,0.000000,-1.570796,0.000000:0.250000,0.250000,0.250000,0.250000,0.250000,0.250000:pos_vel_
1549595846.555760,cobot_dynamixel_driver/goal|-:J1,J2,J3,J4,J5,J6:0.000000,0.000000,0.000000,0.000000,-1.570796,0.000000:0.250000,0.250000,0.250000,0.250000,0.250000,0.250000:pos_vel_
1549595846.583202,cobot_dynamixel_driver/goal|-:J1,J2,J3,J4,J5,J6:0.000000,0.000000,0.000000,0.000000,-1.570796,0.000000:0.250000,0.250000,0.250000,0.250000,0.250000,0.250000:pos_vel_
1549595846.610278,cobot_dynamixel_driver/goal|-:J1,J2,J3,J4,J5,J6:0.000000,0.000000,0.000000,0.000000,-1.570796,0.000000:0.250000,0.250000,0.250000,0.250000,0.250000,0.250000:pos_vel_
1549595846.637571,cobot_dynamixel_driver/goal|-:J1,J2,J3,J4,J5,J6:0.000000,0.000000,0.000000,0.000000,-1.570796,0.000000:0.250000,0.250000,0.250000,0.250000,0.250000,0.250000:pos_vel_
1549595846.665152,cobot_dynamixel_driver/goal|-:J1,J2,J3,J4,J5,J6:0.000000,0.000000,0.000000,0.000000,-1.570796,0.000000:0.250000,0.250000,0.250000,0.250000,0.250000,0.250000:pos_vel_
1549595846.692133,cobot_dynamixel_driver/goal|-:J1,J2,J3,J4,J5,J6:0.000000,0.000000,0.000000,0.000000,-1.570796,0.000000:0.250000,0.250000,0.250000,0.250000,0.250000,0.250000:pos_vel_
1549595846.719531,cobot_dynamixel_driver/goal|-:J1,J2,J3,J4,J5,J6:0.000000,0.000000,0.000000,0.000000,-1.570796,0.000000:0.250000,0.250000,0.250000,0.250000,0.250000,0.250000:pos_vel_
1549595846.747514,cobot_dynamixel_driver/goal|-:J1,J2,J3,J4,J5,J6:0.000000,0.000000,0.000000,0.000000,-1.570796,0.000000:0.250000,0.250000,0.250000,0.250000,0.250000,0.250000:pos_vel_
1549595846.775711,cobot_dynamixel_driver/goal|-:J1,J2,J3,J4,J5,J6:0.000000,0.000000,0.000000,0.000000,-1.570796,0.000000:0.250000,0.250000,0.250000,0.250000,0.250000,0.250000:pos_vel_
1549595846.803445,cobot_dynamixel_driver/goal|-:J1,J2,J3,J4,J5,J6:0.000000,0.000000,0.000000,0.000000,-1.570796,0.000000:0.250000,0.250000,0.250000,0.250000,0.250000,0.250000:pos_vel_
1549595846.831189,cobot_dynamixel_driver/goal|-:J1,J2,J3,J4,J5,J6:0.000000,0.000000,0.000000,0.000000,-1.570796,0.000000:0.250000,0.250000,0.250000,0.250000,0.250000,0.250000:pos_vel_
1549595846.858390,cobot_dynamixel_driver/goal|-:J1,J2,J3,J4,J5,J6:0.000000,0.000000,0.000000,0.000000,-1.570796,0.000000:0.250000,0.250000,0.250000,0.250000,0.250000,0.250000:pos_vel_
1549595846.886390,cobot_dynamixel_driver/goal|-:J1,J2,J3,J4,J5,J6:0.000000,0.000000,0.000000,0.000000,-1.570796,0.000000:0.250000,0.250000,0.250000,0.250000,0.250000,0.250000:pos_vel_
1549595846.914092,cobot_dynamixel_driver/goal|-:J1,J2,J3,J4,J5,J6:0.000000,0.000000,0.000000,0.000000,-1.570796,0.000000:0.250000,0.250000,0.250000,0.250000,0.250000,0.250000:pos_vel_
1549595846.941480,cobot_dynamixel_driver/goal|-:J1,J2,J3,J4,J5,J6:0.000000,0.000000,0.000000,0.000000,-1.570796,0.000000:0.250000,0.250000,0.250000,0.250000,0.250000,0.250000:pos_vel_
1549595846.969242,cobot_dynamixel_driver/goal|-:J1,J2,J3,J4,J5,J6:0.000000,0.000000,0.000000,0.000000,-1.570796,0.000000:0.250000,0.250000,0.250000,0.250000,0.250000,0.250000:pos_vel_
1549595846.997672,cobot_dynamixel_driver/goal|-:J1,J2,J3,J4,J5,J6:0.000000,0.000000,0.000000,0.000000,-1.570796,0.000000:0.250000,0.250000,0.250000,0.250000,0.250000,0.250000:pos_vel_
1549595847.025270,cobot_dynamixel_driver/goal|-:J1,J2,J3,J4,J5,J6:0.000000,0.000000,0.000000,0.000000,-1.570796,0.000000:0.250000,0.250000,0.250000,0.250000,0.250000,0.250000:pos_vel_
1549595847.053993,cobot_dynamixel_driver/goal|-:J1,J2,J3,J4,J5,J6:0.000000,0.000000,0.000000,0.000000,-1.570796,0.000000:0.250000,0.250000,0.250000,0.250000,0.250000,0.250000:pos_vel_
1549595847.081384,cobot_dynamixel_driver/goal|-:J1,J2,J3,J4,J5,J6:0.000000,0.000000,0.000000,0.000000,-1.570796,0.000000:0.250000,0.250000,0.250000,0.250000,0.250000,0.250000:pos_vel_
1549595847.109020,cobot_dynamixel_driver/goal|-:J1,J2,J3,J4,J5,J6:0.000000,0.000000,0.000000,0.000000,-1.570796,0.000000:0.250000,0.250000,0.250000,0.250000,0.250000,0.250000:pos_vel_
1549595847.136391,cobot_dynamixel_driver/goal|-:J1,J2,J3,J4,J5,J6:0.000000,0.000000,0.000000,0.000000,-1.570796,0.000000:0.250000,0.250000,0.250000,0.250000,0.250000,0.250000:pos_vel_
1549595847.164264,cobot_dynamixel_driver/goal|-:J1,J2,J3,J4,J5,J6:0.000000,0.000000,0.000000,0.000000,-1.570796,0.000000:0.250000,0.250000,0.250000,0.250000,0.250000,0.250000:pos_vel_
1549595847.192048,cobot_dynamixel_driver/goal|-:J1,J2,J3,J4,J5,J6:0.000000,0.000000,0.000000,0.000000,-1.570796,0.000000:0.250000,0.250000,0.250000,0.250000,0.250000,0.250000:pos_vel_
1549595847.219422,cobot_dynamixel_driver/goal|-:J1,J2,J3,J4,J5,J6:0.000000,0.000000,0.000000,0.000000,-1.570796,0.000000:0.250000,0.250000,0.250000,0.250000,0.250000,0.250000:pos_vel_
1549595847.246994,cobot_dynamixel_driver/goal|-:J1,J2,J3,J4,J5,J6:0.000000,0.000000,0.000000,0.000000,-1.570796,0.000000:0.250000,0.250000,0.250000,0.250000,0.250000,0.250000:pos_vel_
1549595847.273985,cobot_dynamixel_driver/goal|-:J1,J2,J3,J4,J5,J6:0.000000,0.000000,0.000000,0.000000,-1.570796,0.000000:0.250000,0.250000,0.250000,0.250000,0.250000,0.250000:pos_vel_
1549595847.301273,cobot_dynamixel_driver/goal|-:J1,J2,J3,J4,J5,J6:0.000000,0.000000,0.000000,0.000000,-1.570796,0.000000:0.250000,0.250000,0.250000,0.250000,0.250000,0.250000:pos_vel_
1549595847.328927,cobot_dynamixel_driver/goal|-:J1,J2,J3,J4,J5,J6:0.000000,0.000000,0.000000,0.000000,-1.570796,0.000000:0.250000,0.250000,0.250000,0.250000,0.250000,0.250000:pos_vel_
1549595847.356339,cobot_dynamixel_driver/goal|-:J1,J2,J3,J4,J5,J6:0.000000,0.000000,0.000000,0.000000,-1.570796,0.000000:0.250000,0.250000,0.250000,0.250000,0.250000,0.250000:pos_vel_
1549595847.384137,cobot_dynamixel_driver/goal|-:J1,J2,J3,J4,J5,J6:0.000000,0.000000,0.000000,0.000000,-1.570796,0.000000:0.250000,0.250000,0.250000,0.250000,0.250000,0.250000:pos_vel_
1549595847.411926,cobot_dynamixel_driver/goal|-:J1,J2,J3,J4,J5,J6:0.000000,0.000000,0.000000,0.000000,-1.570796,0.000000:0.250000,0.250000,0.250000,0.250000,0.250000,0.250000:pos_vel_
1549595847.439354,cobot_dynamixel_driver/goal|-:J1,J2,J3,J4,J5,J6:0.000000,0.000000,0.000000,0.000000,-1.570796,0.000000:0.250000,0.250000,0.250000,0.250000,0.250000,0.250000:pos_vel_
1549595847.466963,cobot_dynamixel_driver/goal|-:J1,J2,J3,J4,J5,J6:0.000000,0.000000,0.000000,0.000000,-1.570796,0.000000:0.250000,0.250000,0.250000,0.250000,0.250000,0.250000:pos_vel_
1549595847.493886,cobot_dynamixel_driver/goal|-:J1,J2,J3,J4,J5,J6:0.000000,0.000000,0.000000,0.000000,-1.570796,0.000000:0.250000,0.250000,0.250000,0.250000,0.250000,0.250000:pos_vel_
1549595847.521523,cobot_dynamixel_driver/goal|-:J1,J2,J3,J4,J5,J6:0.000000,0.000000,0.000000,0.000000,-1.570796,0.000000:0.250000,0.250000,0.250000,0.250000,0.250000,0.250000:pos_vel_
1549595847.548871,cobot_dynamixel_driver/goal|-:J1,J2,J3,J4,J5,J6:0.000000,0.000000,0.000000,0.000000,-1.570796,0.000000:0.250000,0.250000,0.250000,0.250000,0.250000,0.250000:pos_vel_
1549595847.576191,cobot_dynamixel_driver/goal|-:J1,J2,J3,J4,J5,J6:0.000000,0.000000,0.000000,0.000000,-1.570796,0.000000:0.250000,0.250000,0.250000,0.250000,0.250000,0.250000:pos_vel_
1549595847.604017,cobot_dynamixel_driver/goal|-:J1,J2,J3,J4,J5,J6:0.000000,0.000000,0.000000,0.000000,-1.570796,0.000000:0.250000,0.250000,0.250000,0.250000,0.250000,0.250000:pos_vel_
1549595847.631836,cobot_dynamixel_driver/goal|-:J1,J2,J3,J4,J5,J6:0.000000,0.000000,0.000000,0.000000,-1.570796,0.000000:0.250000,0.250000,0.250000,0.250000,0.250000,0.250000:pos_vel_
1549595847.659161,cobot_dynamixel_driver/goal|-:J1,J2,J3,J4,J5,J6:0.000000,0.000000,0.000000,0.000000,-1.570796,0.000000:0.250000,0.250000,0.250000,0.250000,0.250000,0.250000:pos_vel_
1549595847.687482,cobot_dynamixel_driver/goal|-:J1,J2,J3,J4,J5,J6:0.000000,0.000000,0.000000,0.000000,-1.570796,0.000000:0.250000,0.250000,0.250000,0.250000,0.250000,0.250000:pos_vel_
1549595847.714890,cobot_dynamixel_driver/goal|-:J1,J2,J3,J4,J5,J6:0.000000,0.000000,0.000000,0.000000,-1.570796,0.000000:0.250000,0.250000,0.250000,0.250000,0.250000,0.250000:pos_vel_
1549595847.742179,cobot_dynamixel_driver/goal|-:J1,J2,J3,J4,J5,J6:0.000000,0.000000,0.000000,0.000000,-1.570796,0.000000:0.250000,0.250000,0.250000,0.250000,0.250000,0.250000:pos_vel_
1549595847.769976,cobot_dynamixel_driver/goal|-:J1,J2,J3,J4,J5,J6:0.000000,0.000000,0.000000,0.000000,-1.570796,0.000000:0.250000,0.250000,0.250000,0.250000,0.250000,0.250000:pos_vel_
1549595847.798208,cobot_dynamixel_driver/goal|-:J1,J2,J3,J4,J5,J6:0.000000,0.000000,0.000000,0.000000,-1.570796,0.000000:0.250000,0.250000,0.250000,0.250000,0.250000,0.250000:pos_vel_
1549595847.825791,cobot_dynamixel_driver/goal|-:J1,J2,J3,J4,J5,J6:0.000000,0.000000,0.000000,0.000000,-1.570796,0.000000:0.250000,0.250000,0.250000,0.250000,0.250000,0.250000:pos_vel_
1549595847.852923,cobot_dynamixel_driver/goal|-:J1,J2,J3,J4,J5,J6:0.000000,0.000000,0.000000,0.000000,-1.570796,0.000000:0.250000,0.250000,0.250000,0.250000,0.250000,0.250000:pos_vel_
1549595847.880148,cobot_dynamixel_driver/goal|-:J1,J2,J3,J4,J5,J6:0.000000,0.000000,0.000000,0.000000,-1.570796,0.000000:0.250000,0.250000,0.250000,0.250000,0.250000,0.250000:pos_vel_
1549595847.907914,cobot_dynamixel_driver/goal|-:J1,J2,J3,J4,J5,J6:0.000000,0.000000,0.000000,0.000000,-1.570796,0.000000:0.250000,0.250000,0.250000,0.250000,0.250000,0.250000:pos_vel_
1549595847.936220,cobot_dynamixel_driver/goal|-:J1,J2,J3,J4,J5,J6:0.000000,0.000000,0.000000,0.000000,-1.570796,0.000000:0.250000,0.250000,0.250000,0.250000,0.250000,0.250000:pos_vel_
1549595847.963884,cobot_dynamixel_driver/goal|-:J1,J2,J3,J4,J5,J6:0.000000,0.000000,0.000000,0.000000,-1.570796,0.000000:0.250000,0.250000,0.250000,0.250000,0.250000,0.250000:pos_vel_
1549595847.991985,cobot_dynamixel_driver/goal|-:J1,J2,J3,J4,J5,J6:0.000000,0.000000,0.000000,0.000000,-1.570796,0.000000:0.250000,0.250000,0.250000,0.250000,0.250000,0.250000:pos_vel_
1549595848.020126,cobot_dynamixel_driver/goal|-:J1,J2,J3,J4,J5,J6:0.000000,0.000000,0.000000,0.000000,-1.570796,0.000000:0.250000,0.250000,0.250000,0.250000,0.250000,0.250000:pos_vel_
1549595848.047791,cobot_dynamixel_driver/goal|-:J1,J2,J3,J4,J5,J6:0.000000,0.000000,0.000000,0.000000,-1.570796,0.000000:0.250000,0.250000,0.250000,0.250000,0.250000,0.250000:pos_vel_
1549595848.074761,cobot_dynamixel_driver/goal|-:J1,J2,J3,J4,J5,J6:0.000000,0.000000,0.000000,0.000000,-1.570796,0.000000:0.250000,0.250000,0.250000,0.250000,0.250000,0.250000:pos_vel_
1549595848.102140,cobot_dynamixel_driver/goal|-:J1,J2,J3,J4,J5,J6:0.000000,0.000000,0.000000,0.000000,-1.570796,0.000000:0.250000,0.250000,0.250000,0.250000,0.250000,0.250000:pos_vel_
1549595848.129961,cobot_dynamixel_driver/goal|-:J1,J2,J3,J4,J5,J6:0.000000,0.000000,0.000000,0.000000,-1.570796,0.000000:0.250000,0.250000,0.250000,0.250000,0.250000,0.250000:pos_vel_
1549595848.158147,cobot_dynamixel_driver/goal|-:J1,J2,J3,J4,J5,J6:0.000000,0.000000,0.000000,0.000000,-1.570796,0.000000:0.250000,0.250000,0.250000,0.250000,0.250000,0.250000:pos_vel_
1549595848.185773,cobot_dynamixel_driver/goal|-:J1,J2,J3,J4,J5,J6:0.000000,0.000000,0.000000,0.000000,-1.570796,0.000000:0.250000,0.250000,0.250000,0.250000,0.250000,0.250000:pos_vel_
1549595848.212742,cobot_dynamixel_driver/goal|-:J1,J2,J3,J4,J5,J6:0.000000,0.000000,0.000000,0.000000,-1.570796,0.000000:0.250000,0.250000,0.250000,0.250000,0.250000,0.250000:pos_vel_
1549595848.240086,cobot_dynamixel_driver/goal|-:J1,J2,J3,J4,J5,J6:0.000000,0.000000,0.000000,0.000000,-1.570796,0.000000:0.250000,0.250000,0.250000,0.250000,0.250000,0.250000:pos_vel_
1549595848.267737,cobot_dynamixel_driver/goal|-:J1,J2,J3,J4,J5,J6:0.000000,0.000000,0.000000,0.000000,-1.570796,0.000000:0.250000,0.250000,0.250000,0.250000,0.250000,0.250000:pos_vel_
1549595848.294779,cobot_dynamixel_driver/goal|-:J1,J2,J3,J4,J5,J6:0.000000,0.000000,0.000000,0.000000,-1.570796,0.000000:0.250000,0.250000,0.250000,0.250000,0.250000,0.250000:pos_vel_
1549595848.322129,cobot_dynamixel_driver/goal|-:J1,J2,J3,J4,J5,J6:0.000000,0.000000,0.000000,0.000000,-1.570796,0.000000:0.250000,0.250000,0.250000,0.250000,0.250000,0.250000:pos_vel_
1549595848.349826,cobot_dynamixel_driver/goal|-:J1,J2,J3,J4,J5,J6:0.000000,0.000000,0.000000,0.000000,-1.570796,0.000000:0.250000,0.250000,0.250000,0.250000,0.250000,0.250000:pos_vel_
1549595848.378061,cobot_dynamixel_driver/goal|-:J1,J2,J3,J4,J5,J6:0.000000,0.000000,0.000000,0.000000,-1.570796,0.000000:0.250000,0.250000,0.250000,0.250000,0.250000,0.250000:pos_vel_
1549595848.405723,cobot_dynamixel_driver/goal|-:J1,J2,J3,J4,J5,J6:0.000000,0.000000,0.000000,0.000000,-1.570796,0.000000:0.250000,0.250000,0.250000,0.250000,0.250000,0.250000:pos_vel_
1549595848.432799,cobot_dynamixel_driver/goal|-:J1,J2,J3,J4,J5,J6:0.000000,0.000000,0.000000,0.000000,-1.570796,0.000000:0.250000,0.250000,0.250000,0.250000,0.250000,0.250000:pos_vel_
1549595848.461031,cobot_dynamixel_driver/goal|-:J1,J2,J3,J4,J5,J6:0.000000,0.000000,0.000000,0.000000,-1.570796,0.000000:0.250000,0.250000,0.250000,0.250000,0.250000,0.250000:pos_vel_
1549595848.488756,cobot_dynamixel_driver/goal|-:J1,J2,J3,J4,J5,J6:0.000000,0.000000,0.000000,0.000000,-1.570796,0.000000:0.250000,0.250000,0.250000,0.250000,0.250000,0.250000:pos_vel_
1549595848.516903,cobot_dynamixel_driver/goal|-:J1,J2,J3,J4,J5,J6:0.000000,0.000000,0.000000,0.000000,-1.570796,0.000000:0.250000,0.250000,0.250000,0.250000,0.250000,0.250000:pos_vel_
1549595848.544717,cobot_dynamixel_driver/goal|-:J1,J2,J3,J4,J5,J6:0.000000,0.000000,0.000000,0.000000,-1.570796,0.000000:0.250000,0.250000,0.250000,0.250000,0.250000,0.250000:pos_vel_
1549595848.571651,cobot_dynamixel_driver/goal|-:J1,J2,J3,J4,J5,J6:0.000000,0.000000,0.000000,0.000000,-1.570796,0.000000:0.250000,0.250000,0.250000,0.250000,0.250000,0.250000:pos_vel_
1549595848.598915,cobot_dynamixel_driver/goal|-:J1,J2,J3,J4,J5,J6:0.000000,0.000000,0.000000,0.000000,-1.570796,0.000000:0.250000,0.250000,0.250000,0.250000,0.250000,0.250000:pos_vel_
1549595848.626838,cobot_dynamixel_driver/goal|-:J1,J2,J3,J4,J5,J6:0.000000,0.000000,0.000000,0.000000,-1.570796,0.000000:0.250000,0.250000,0.250000,0.250000,0.250000,0.250000:pos_vel_
1549595848.654644,cobot_dynamixel_driver/goal|-:J1,J2,J3,J4,J5,J6:0.000000,0.000000,0.000000,0.000000,-1.570796,0.000000:0.250000,0.250000,0.250000,0.250000,0.250000,0.250000:pos_vel_
1549595848.681897,cobot_dynamixel_driver/goal|-:J1,J2,J3,J4,J5,J6:0.000000,0.000000,0.000000,0.000000,-1.570796,0.000000:0.250000,0.250000,0.250000,0.250000,0.250000,0.250000:pos_vel_
1549595848.709661,cobot_dynamixel_driver/goal|-:J1,J2,J3,J4,J5,J6:0.000000,0.000000,0.000000,0.000000,-1.570796,0.000000:0.250000,0.250000,0.250000,0.250000,0.250000,0.250000:pos_vel_
1549595848.736834,cobot_dynamixel_driver/goal|-:J1,J2,J3,J4,J5,J6:0.000000,0.000000,0.000000,0.000000,-1.570796,0.000000:0.250000,0.250000,0.250000,0.250000,0.250000,0.250000:pos_vel_
1549595848.764653,cobot_dynamixel_driver/goal|-:J1,J2,J3,J4,J5,J6:0.000000,0.000000,0.000000,0.000000,-1.570796,0.000000:0.250000,0.250000,0.250000,0.250000,0.250000,0.250000:pos_vel_
1549595848.791529,cobot_dynamixel_driver/goal|-:J1,J2,J3,J4,J5,J6:0.000000,0.000000,0.000000,0.000000,-1.570796,0.000000:0.250000,0.250000,0.250000,0.250000,0.250000,0.250000:pos_vel_
1549595848.818801,cobot_dynamixel_driver/goal|-:J1,J2,J3,J4,J5,J6:0.000000,0.000000,0.000000,0.000000,-1.570796,0.000000:0.250000,0.250000,0.250000,0.250000,0.250000,0.250000:pos_vel_
1549595848.846499,cobot_dynamixel_driver/goal|-:J1,J2,J3,J4,J5,J6:0.000000,0.000000,0.000000,0.000000,-1.570796,0.000000:0.250000,0.250000,0.250000,0.250000,0.250000,0.250000:pos_vel_
1549595848.873515,cobot_dynamixel_driver/goal|-:J1,J2,J3,J4,J5,J6:0.000000,0.000000,0.000000,0.000000,-1.570796,0.000000:0.250000,0.250000,0.250000,0.250000,0.250000,0.250000:pos_vel_
1549595848.900811,cobot_dynamixel_driver/goal|-:J1,J2,J3,J4,J5,J6:0.000000,0.000000,0.000000,0.000000,-1.570796,0.000000:0.250000,0.250000,0.250000,0.250000,0.250000,0.250000:pos_vel_
1549595848.928539,cobot_dynamixel_driver/goal|-:J1,J2,J3,J4,J5,J6:0.000000,0.000000,0.000000,0.000000,-1.570796,0.000000:0.250000,0.250000,0.250000,0.250000,0.250000,0.250000:pos_vel_
1549595848.955958,cobot_dynamixel_driver/goal|-:J1,J2,J3,J4,J5,J6:0.000000,0.000000,0.000000,0.000000,-1.570796,0.000000:0.250000,0.250000,0.250000,0.250000,0.250000,0.250000:pos_vel_
1549595848.983691,cobot_dynamixel_driver/goal|-:J1,J2,J3,J4,J5,J6:0.000000,0.000000,0.000000,0.000000,-1.570796,0.000000:0.250000,0.250000,0.250000,0.250000,0.250000,0.250000:pos_vel_
1549595849.011527,cobot_dynamixel_driver/goal|-:J1,J2,J3,J4,J5,J6:0.000000,0.000000,0.000000,0.000000,-1.570796,0.000000:0.250000,0.250000,0.250000,0.250000,0.250000,0.250000:pos_vel_
1549595849.038860,cobot_dynamixel_driver/goal|-:J1,J2,J3,J4,J5,J6:0.000000,0.000000,0.000000,0.000000,-1.570796,0.000000:0.250000,0.250000,0.250000,0.250000,0.250000,0.250000:pos_vel_
1549595849.066470,cobot_dynamixel_driver/goal|-:J1,J2,J3,J4,J5,J6:0.000000,0.000000,0.000000,0.000000,-1.570796,0.000000:0.250000,0.250000,0.250000,0.250000,0.250000,0.250000:pos_vel_
1549595849.093495,cobot_dynamixel_driver/goal|-:J1,J2,J3,J4,J5,J6:0.000000,0.000000,0.000000,0.000000,-1.570796,0.000000:0.250000,0.250000,0.250000,0.250000,0.250000,0.250000:pos_vel_
1549595849.121026,cobot_dynamixel_driver/goal|-:J1,J2,J3,J4,J5,J6:0.000000,0.000000,0.000000,0.000000,-1.570796,0.000000:0.250000,0.250000,0.250000,0.250000,0.250000,0.250000:pos_vel_
1549595849.148442,cobot_dynamixel_driver/goal|-:J1,J2,J3,J4,J5,J6:0.000000,0.000000,0.000000,0.000000,-1.570796,0.000000:0.250000,0.250000,0.250000,0.250000,0.250000,0.250000:pos_vel_
1549595849.175681,cobot_dynamixel_driver/goal|-:J1,J2,J3,J4,J5,J6:0.000000,0.000000,0.000000,0.000000,-1.570796,0.000000:0.250000,0.250000,0.250000,0.250000,0.250000,0.250000:pos_vel_
1549595849.203399,cobot_dynamixel_driver/goal|-:J1,J2,J3,J4,J5,J6:0.000000,0.000000,0.000000,0.000000,-1.570796,0.000000:0.250000,0.250000,0.250000,0.250000,0.250000,0.250000:pos_vel_
1549595849.230457,cobot_dynamixel_driver/goal|-:J1,J2,J3,J4,J5,J6:0.000000,0.000000,0.000000,0.000000,-1.570796,0.000000:0.250000,0.250000,0.250000,0.250000,0.250000,0.250000:pos_vel_
1549595849.257673,cobot_dynamixel_driver/goal|-:J1,J2,J3,J4,J5,J6:0.000000,0.000000,0.000000,0.000000,-1.570796,0.000000:0.250000,0.250000,0.250000,0.250000,0.250000,0.250000:pos_vel_
1549595849.285480,cobot_dynamixel_driver/goal|-:J1,J2,J3,J4,J5,J6:0.000000,0.000000,0.000000,0.000000,-1.570796,0.000000:0.250000,0.250000,0.250000,0.250000,0.250000,0.250000:pos_vel_
1549595849.312366,cobot_dynamixel_driver/goal|-:J1,J2,J3,J4,J5,J6:0.000000,0.000000,0.000000,0.000000,-1.570796,0.000000:0.250000,0.250000,0.250000,0.250000,0.250000,0.250000:pos_vel_
1549595849.339854,cobot_dynamixel_driver/goal|-:J1,J2,J3,J4,J5,J6:0.000000,0.000000,0.000000,0.000000,-1.570796,0.000000:0.250000,0.250000,0.250000,0.250000,0.250000,0.250000:pos_vel_
1549595849.367374,cobot_dynamixel_driver/goal|-:J1,J2,J3,J4,J5,J6:0.000000,0.000000,0.000000,0.000000,-1.570796,0.000000:0.250000,0.250000,0.250000,0.250000,0.250000,0.250000:pos_vel_
1549595849.394375,cobot_dynamixel_driver/goal|-:J1,J2,J3,J4,J5,J6:0.000000,0.000000,0.000000,0.000000,-1.570796,0.000000:0.250000,0.250000,0.250000,0.250000,0.250000,0.250000:pos_vel_
1549595849.422415,cobot_dynamixel_driver/goal|-:J1,J2,J3,J4,J5,J6:0.000000,0.000000,0.000000,0.000000,-1.570796,0.000000:0.250000,0.250000,0.250000,0.250000,0.250000,0.250000:pos_vel_
1549595849.449309,cobot_dynamixel_driver/goal|-:J1,J2,J3,J4,J5,J6:0.000000,0.000000,0.000000,0.000000,-1.570796,0.000000:0.250000,0.250000,0.250000,0.250000,0.250000,0.250000:pos_vel_
1549595849.476644,cobot_dynamixel_driver/goal|-:J1,J2,J3,J4,J5,J6:0.000000,0.000000,0.000000,0.000000,-1.570796,0.000000:0.250000,0.250000,0.250000,0.250000,0.250000,0.250000:pos_vel_
1549595849.504620,cobot_dynamixel_driver/goal|-:J1,J2,J3,J4,J5,J6:0.000000,0.000000,0.000000,0.000000,-1.570796,0.000000:0.250000,0.250000,0.250000,0.250000,0.250000,0.250000:pos_vel_
1549595849.532507,cobot_dynamixel_driver/goal|-:J1,J2,J3,J4,J5,J6:0.000000,0.000000,0.000000,0.000000,-1.570796,0.000000:0.250000,0.250000,0.250000,0.250000,0.250000,0.250000:pos_vel_
1549595849.560752,cobot_dynamixel_driver/goal|-:J1,J2,J3,J4,J5,J6:0.000000,0.000000,0.000000,0.000000,-1.570796,0.000000:0.250000,0.250000,0.250000,0.250000,0.250000,0.250000:pos_vel_
1549595849.588330,cobot_dynamixel_driver/goal|-:J1,J2,J3,J4,J5,J6:0.000000,0.000000,0.000000,0.000000,-1.570796,0.000000:0.250000,0.250000,0.250000,0.250000,0.250000,0.250000:pos_vel_
1549595849.615671,cobot_dynamixel_driver/goal|-:J1,J2,J3,J4,J5,J6:0.000000,0.000000,0.000000,0.000000,-1.570796,0.000000:0.250000,0.250000,0.250000,0.250000,0.250000,0.250000:pos_vel_
1549595849.643300,cobot_dynamixel_driver/goal|-:J1,J2,J3,J4,J5,J6:0.000000,0.000000,0.000000,0.000000,-1.570796,0.000000:0.250000,0.250000,0.250000,0.250000,0.250000,0.250000:pos_vel_
1549595849.670679,cobot_dynamixel_driver/goal|-:J1,J2,J3,J4,J5,J6:0.000000,0.000000,0.000000,0.000000,-1.570796,0.000000:0.250000,0.250000,0.250000,0.250000,0.250000,0.250000:pos_vel_
1549595849.698595,cobot_dynamixel_driver/goal|-:J1,J2,J3,J4,J5,J6:0.000000,0.000000,0.000000,0.000000,-1.570796,0.000000:0.250000,0.250000,0.250000,0.250000,0.250000,0.250000:pos_vel_
1549595849.726314,cobot_dynamixel_driver/goal|-:J1,J2,J3,J4,J5,J6:0.000000,0.000000,0.000000,0.000000,-1.570796,0.000000:0.250000,0.250000,0.250000,0.250000,0.250000,0.250000:pos_vel_
1549595849.753803,cobot_dynamixel_driver/goal|-:J1,J2,J3,J4,J5,J6:0.000000,0.000000,0.000000,0.000000,-1.570796,0.000000:0.250000,0.250000,0.250000,0.250000,0.250000,0.250000:pos_vel_
1549595849.781591,cobot_dynamixel_driver/goal|-:J1,J2,J3,J4,J5,J6:0.000000,0.000000,0.000000,0.000000,-1.570796,0.000000:0.250000,0.250000,0.250000,0.250000,0.250000,0.250000:pos_vel_
1549595849.809367,cobot_dynamixel_driver/goal|-:J1,J2,J3,J4,J5,J6:0.000000,0.000000,0.000000,0.000000,-1.570796,0.000000:0.250000,0.250000,0.250000,0.250000,0.250000,0.250000:pos_vel_
1549595849.836828,cobot_dynamixel_driver/goal|-:J1,J2,J3,J4,J5,J6:0.000000,0.000000,0.000000,0.000000,-1.570796,0.000000:0.250000,0.250000,0.250000,0.250000,0.250000,0.250000:pos_vel_
1549595849.864203,cobot_dynamixel_driver/goal|-:J1,J2,J3,J4,J5,J6:0.000000,0.000000,0.000000,0.000000,-1.570796,0.000000:0.250000,0.250000,0.250000,0.250000,0.250000,0.250000:pos_vel_
1549595849.891280,cobot_dynamixel_driver/goal|-:J1,J2,J3,J4,J5,J6:0.000000,0.000000,0.000000,0.000000,-1.570796,0.000000:0.250000,0.250000,0.250000,0.250000,0.250000,0.250000:pos_vel_
1549595849.918582,cobot_dynamixel_driver/goal|-:J1,J2,J3,J4,J5,J6:0.000000,0.000000,0.000000,0.000000,-1.570796,0.000000:0.250000,0.250000,0.250000,0.250000,0.250000,0.250000:pos_vel_
1549595849.946582,cobot_dynamixel_driver/goal|-:J1,J2,J3,J4,J5,J6:0.000000,0.000000,0.000000,0.000000,-1.570796,0.000000:0.250000,0.250000,0.250000,0.250000,0.250000,0.250000:pos_vel_
1549595849.974208,cobot_dynamixel_driver/goal|-:J1,J2,J3,J4,J5,J6:0.000000,0.000000,0.000000,0.000000,-1.570796,0.000000:0.250000,0.250000,0.250000,0.250000,0.250000,0.250000:pos_vel_
1549595850.001427,cobot_dynamixel_driver/goal|-:J1,J2,J3,J4,J5,J6:0.000000,0.000000,0.000000,0.000000,-1.570796,0.000000:0.250000,0.250000,0.250000,0.250000,0.250000,0.250000:pos_vel_
1549595850.029165,cobot_dynamixel_driver/goal|-:J1,J2,J3,J4,J5,J6:0.000000,0.000000,0.000000,0.000000,-1.570796,0.000000:0.250000,0.250000,0.250000,0.250000,0.250000,0.250000:pos_vel_
1549595850.056689,cobot_dynamixel_driver/goal|-:J1,J2,J3,J4,J5,J6:0.000000,0.000000,0.000000,0.000000,-1.570796,0.000000:0.250000,0.250000,0.250000,0.250000,0.250000,0.250000:pos_vel_
1549595850.084188,cobot_dynamixel_driver/goal|-:J1,J2,J3,J4,J5,J6:0.000000,0.000000,0.000000,0.000000,-1.570796,0.000000:0.250000,0.250000,0.250000,0.250000,0.250000,0.250000:pos_vel_
1549595850.111175,cobot_dynamixel_driver/goal|-:J1,J2,J3,J4,J5,J6:0.000000,0.000000,0.000000,0.000000,-1.570796,0.000000:0.250000,0.250000,0.250000,0.250000,0.250000,0.250000:pos_vel_
1549595850.138797,cobot_dynamixel_driver/goal|-:J1,J2,J3,J4,J5,J6:0.000000,0.000000,0.000000,0.000000,-1.570796,0.000000:0.250000,0.250000,0.250000,0.250000,0.250000,0.250000:pos_vel_
1549595850.166128,cobot_dynamixel_driver/goal|-:J1,J2,J3,J4,J5,J6:0.000000,0.000000,0.000000,0.000000,-1.570796,0.000000:0.250000,0.250000,0.250000,0.250000,0.250000,0.250000:pos_vel_
1549595850.193192,cobot_dynamixel_driver/goal|-:J1,J2,J3,J4,J5,J6:0.000000,0.000000,0.000000,0.000000,-1.570796,0.000000:0.250000,0.250000,0.250000,0.250000,0.250000,0.250000:pos_vel_
1549595850.220688,cobot_dynamixel_driver/goal|-:J1,J2,J3,J4,J5,J6:0.000000,0.000000,0.000000,0.000000,-1.570796,0.000000:0.250000,0.250000,0.250000,0.250000,0.250000,0.250000:pos_vel_
1549595850.248236,cobot_dynamixel_driver/goal|-:J1,J2,J3,J4,J5,J6:0.000000,0.000000,0.000000,0.000000,-1.570796,0.000000:0.250000,0.250000,0.250000,0.250000,0.250000,0.250000:pos_vel_
1549595850.275358,cobot_dynamixel_driver/goal|-:J1,J2,J3,J4,J5,J6:0.000000,0.000000,0.000000,0.000000,-1.570796,0.000000:0.250000,0.250000,0.250000,0.250000,0.250000,0.250000:pos_vel_
1549595850.303192,cobot_dynamixel_driver/goal|-:J1,J2,J3,J4,J5,J6:0.000000,0.000000,0.000000,0.000000,-1.570796,0.000000:0.250000,0.250000,0.250000,0.250000,0.250000,0.250000:pos_vel_
1549595850.331178,cobot_dynamixel_driver/goal|-:J1,J2,J3,J4,J5,J6:0.000000,0.000000,0.000000,0.000000,-1.570796,0.000000:0.250000,0.250000,0.250000,0.250000,0.250000,0.250000:pos_vel_
1549595850.358383,cobot_dynamixel_driver/goal|-:J1,J2,J3,J4,J5,J6:0.000000,0.000000,0.000000,0.000000,-1.570796,0.000000:0.250000,0.250000,0.250000,0.250000,0.250000,0.250000:pos_vel_
1549595850.386193,cobot_dynamixel_driver/goal|-:J1,J2,J3,J4,J5,J6:0.000000,0.000000,0.000000,0.000000,-1.570796,0.000000:0.250000,0.250000,0.250000,0.250000,0.250000,0.250000:pos_vel_
1549595850.413218,cobot_dynamixel_driver/goal|-:J1,J2,J3,J4,J5,J6:0.000000,0.000000,0.000000,0.000000,-1.570796,0.000000:0.250000,0.250000,0.250000,0.250000,0.250000,0.250000:pos_vel_
1549595850.441349,cobot_dynamixel_driver/goal|-:J1,J2,J3,J4,J5,J6:0.000000,0.000000,0.000000,0.000000,-1.570796,0.000000:0.250000,0.250000,0.250000,0.250000,0.250000,0.250000:pos_vel_
1549595850.469055,cobot_dynamixel_driver/goal|-:J1,J2,J3,J4,J5,J6:0.000000,0.000000,0.000000,0.000000,-1.570796,0.000000:0.250000,0.250000,0.250000,0.250000,0.250000,0.250000:pos_vel_
1549595850.496334,cobot_dynamixel_driver/goal|-:J1,J2,J3,J4,J5,J6:0.000000,0.000000,0.000000,0.000000,-1.570796,0.000000:0.250000,0.250000,0.250000,0.250000,0.250000,0.250000:pos_vel_
1549595850.524267,cobot_dynamixel_driver/goal|-:J1,J2,J3,J4,J5,J6:0.000000,0.000000,0.000000,0.000000,-1.570796,0.000000:0.250000,0.250000,0.250000,0.250000,0.250000,0.250000:pos_vel_
1549595850.552113,cobot_dynamixel_driver/goal|-:J1,J2,J3,J4,J5,J6:0.000000,0.000000,0.000000,0.000000,-1.570796,0.000000:0.250000,0.250000,0.250000,0.250000,0.250000,0.250000:pos_vel_
1549595850.579457,cobot_dynamixel_driver/goal|-:J1,J2,J3,J4,J5,J6:0.000000,0.000000,0.000000,0.000000,-1.570796,0.000000:0.250000,0.250000,0.250000,0.250000,0.250000,0.250000:pos_vel_
1549595850.607634,cobot_dynamixel_driver/goal|-:J1,J2,J3,J4,J5,J6:0.000000,0.000000,0.000000,0.000000,-1.570796,0.000000:0.250000,0.250000,0.250000,0.250000,0.250000,0.250000:pos_vel_
1549595850.635508,cobot_dynamixel_driver/goal|-:J1,J2,J3,J4,J5,J6:0.000000,0.000000,0.000000,0.000000,-1.570796,0.000000:0.250000,0.250000,0.250000,0.250000,0.250000,0.250000:pos_vel_
1549595850.663031,cobot_dynamixel_driver/goal|-:J1,J2,J3,J4,J5,J6:0.000000,0.000000,0.000000,0.000000,-1.570796,0.000000:0.250000,0.250000,0.250000,0.250000,0.250000,0.250000:pos_vel_
1549595850.690014,cobot_dynamixel_driver/goal|-:J1,J2,J3,J4,J5,J6:0.000000,0.000000,0.000000,0.000000,-1.570796,0.000000:0.250000,0.250000,0.250000,0.250000,0.250000,0.250000:pos_vel_
1549595850.717316,cobot_dynamixel_driver/goal|-:J1,J2,J3,J4,J5,J6:0.000000,0.000000,0.000000,0.000000,-1.570796,0.000000:0.250000,0.250000,0.250000,0.250000,0.250000,0.250000:pos_vel_
1549595850.745181,cobot_dynamixel_driver/goal|-:J1,J2,J3,J4,J5,J6:0.000000,0.000000,0.000000,0.000000,-1.570796,0.000000:0.250000,0.250000,0.250000,0.250000,0.250000,0.250000:pos_vel_
1549595850.773122,cobot_dynamixel_driver/goal|-:J1,J2,J3,J4,J5,J6:0.000000,0.000000,0.000000,0.000000,-1.570796,0.000000:0.250000,0.250000,0.250000,0.250000,0.250000,0.250000:pos_vel_
1549595850.800219,cobot_dynamixel_driver/goal|-:J1,J2,J3,J4,J5,J6:0.000000,0.000000,0.000000,0.000000,-1.570796,0.000000:0.250000,0.250000,0.250000,0.250000,0.250000,0.250000:pos_vel_
1549595850.827959,cobot_dynamixel_driver/goal|-:J1,J2,J3,J4,J5,J6:0.000000,0.000000,0.000000,0.000000,-1.570796,0.000000:0.250000,0.250000,0.250000,0.250000,0.250000,0.250000:pos_vel_
1549595850.855315,cobot_dynamixel_driver/goal|-:J1,J2,J3,J4,J5,J6:0.000000,0.000000,0.000000,0.000000,-1.570796,0.000000:0.250000,0.250000,0.250000,0.250000,0.250000,0.250000:pos_vel_
1549595850.882910,cobot_dynamixel_driver/goal|-:J1,J2,J3,J4,J5,J6:0.000000,0.000000,0.000000,0.000000,-1.570796,0.000000:0.250000,0.250000,0.250000,0.250000,0.250000,0.250000:pos_vel_
1549595850.909952,cobot_dynamixel_driver/goal|-:J1,J2,J3,J4,J5,J6:0.000000,0.000000,0.000000,0.000000,-1.570796,0.000000:0.250000,0.250000,0.250000,0.250000,0.250000,0.250000:pos_vel_
1549595850.937220,cobot_dynamixel_driver/goal|-:J1,J2,J3,J4,J5,J6:0.000000,0.000000,0.000000,0.000000,-1.570796,0.000000:0.250000,0.250000,0.250000,0.250000,0.250000,0.250000:pos_vel_
1549595850.965044,cobot_dynamixel_driver/goal|-:J1,J2,J3,J4,J5,J6:0.000000,0.000000,0.000000,0.000000,-1.570796,0.000000:0.250000,0.250000,0.250000,0.250000,0.250000,0.250000:pos_vel_
1549595850.991884,cobot_dynamixel_driver/goal|-:J1,J2,J3,J4,J5,J6:0.000000,0.000000,0.000000,0.000000,-1.570796,0.000000:0.250000,0.250000,0.250000,0.250000,0.250000,0.250000:pos_vel_
1549595851.019564,cobot_dynamixel_driver/goal|-:J1,J2,J3,J4,J5,J6:0.000000,0.000000,0.000000,0.000000,-1.570796,0.000000:0.250000,0.250000,0.250000,0.250000,0.250000,0.250000:pos_vel_
1549595851.046912,cobot_dynamixel_driver/goal|-:J1,J2,J3,J4,J5,J6:0.000000,0.000000,0.000000,0.000000,-1.570796,0.000000:0.250000,0.250000,0.250000,0.250000,0.250000,0.250000:pos_vel_
1549595851.073894,cobot_dynamixel_driver/goal|-:J1,J2,J3,J4,J5,J6:0.000000,0.000000,0.000000,0.000000,-1.570796,0.000000:0.250000,0.250000,0.250000,0.250000,0.250000,0.250000:pos_vel_
1549595851.101488,cobot_dynamixel_driver/goal|-:J1,J2,J3,J4,J5,J6:0.000000,0.000000,0.000000,0.000000,-1.570796,0.000000:0.250000,0.250000,0.250000,0.250000,0.250000,0.250000:pos_vel_
1549595851.129069,cobot_dynamixel_driver/goal|-:J1,J2,J3,J4,J5,J6:0.000000,0.000000,0.000000,0.000000,-1.570796,0.000000:0.250000,0.250000,0.250000,0.250000,0.250000,0.250000:pos_vel_
1549595851.157645,cobot_dynamixel_driver/goal|-:J1,J2,J3,J4,J5,J6:0.000000,0.000000,0.000000,0.000000,-1.570796,0.000000:0.250000,0.250000,0.250000,0.250000,0.250000,0.250000:pos_vel_
1549595851.185051,cobot_dynamixel_driver/goal|-:J1,J2,J3,J4,J5,J6:0.000000,0.000000,0.000000,0.000000,-1.570796,0.000000:0.250000,0.250000,0.250000,0.250000,0.250000,0.250000:pos_vel_
1549595851.212873,cobot_dynamixel_driver/goal|-:J1,J2,J3,J4,J5,J6:0.000000,0.000000,0.000000,0.000000,-1.570796,0.000000:0.250000,0.250000,0.250000,0.250000,0.250000,0.250000:pos_vel_
1549595851.240127,cobot_dynamixel_driver/goal|-:J1,J2,J3,J4,J5,J6:0.000000,0.000000,0.000000,0.000000,-1.570796,0.000000:0.250000,0.250000,0.250000,0.250000,0.250000,0.250000:pos_vel_
1549595851.267959,cobot_dynamixel_driver/goal|-:J1,J2,J3,J4,J5,J6:0.000000,0.000000,0.000000,0.000000,-1.570796,0.000000:0.250000,0.250000,0.250000,0.250000,0.250000,0.250000:pos_vel_
1549595851.294843,cobot_dynamixel_driver/goal|-:J1,J2,J3,J4,J5,J6:0.000000,0.000000,0.000000,0.000000,-1.570796,0.000000:0.250000,0.250000,0.250000,0.250000,0.250000,0.250000:pos_vel_
1549595851.322235,cobot_dynamixel_driver/goal|-:J1,J2,J3,J4,J5,J6:0.000000,0.000000,0.000000,0.000000,-1.570796,0.000000:0.250000,0.250000,0.250000,0.250000,0.250000,0.250000:pos_vel_
1549595851.349976,cobot_dynamixel_driver/goal|-:J1,J2,J3,J4,J5,J6:0.000000,0.000000,0.000000,0.000000,-1.570796,0.000000:0.250000,0.250000,0.250000,0.250000,0.250000,0.250000:pos_vel_
1549595851.378207,cobot_dynamixel_driver/goal|-:J1,J2,J3,J4,J5,J6:0.000000,0.000000,0.000000,0.000000,-1.570796,0.000000:0.250000,0.250000,0.250000,0.250000,0.250000,0.250000:pos_vel_
1549595851.405894,cobot_dynamixel_driver/goal|-:J1,J2,J3,J4,J5,J6:0.000000,0.000000,0.000000,0.000000,-1.570796,0.000000:0.250000,0.250000,0.250000,0.250000,0.250000,0.250000:pos_vel_
1549595851.432785,cobot_dynamixel_driver/goal|-:J1,J2,J3,J4,J5,J6:0.000000,0.000000,0.000000,0.000000,-1.570796,0.000000:0.250000,0.250000,0.250000,0.250000,0.250000,0.250000:pos_vel_
1549595851.460236,cobot_dynamixel_driver/goal|-:J1,J2,J3,J4,J5,J6:0.000000,0.000000,0.000000,0.000000,-1.570796,0.000000:0.250000,0.250000,0.250000,0.250000,0.250000,0.250000:pos_vel_
1549595851.487772,cobot_dynamixel_driver/goal|-:J1,J2,J3,J4,J5,J6:0.000000,0.000000,0.000000,0.000000,-1.570796,0.000000:0.250000,0.250000,0.250000,0.250000,0.250000,0.250000:pos_vel_
1549595851.514786,cobot_dynamixel_driver/goal|-:J1,J2,J3,J4,J5,J6:0.000000,0.000000,0.000000,0.000000,-1.570796,0.000000:0.250000,0.250000,0.250000,0.250000,0.250000,0.250000:pos_vel_
1549595851.542743,cobot_dynamixel_driver/goal|-:J1,J2,J3,J4,J5,J6:0.000000,0.000000,0.000000,0.000000,-1.570796,0.000000:0.250000,0.250000,0.250000,0.250000,0.250000,0.250000:pos_vel_
1549595851.569844,cobot_dynamixel_driver/goal|-:J1,J2,J3,J4,J5,J6:0.000000,0.000000,0.000000,0.000000,-1.570796,0.000000:0.250000,0.250000,0.250000,0.250000,0.250000,0.250000:pos_vel_
1549595851.597173,cobot_dynamixel_driver/goal|-:J1,J2,J3,J4,J5,J6:0.000000,0.000000,0.000000,0.000000,-1.570796,0.000000:0.250000,0.250000,0.250000,0.250000,0.250000,0.250000:pos_vel_
1549595851.624942,cobot_dynamixel_driver/goal|-:J1,J2,J3,J4,J5,J6:0.000000,0.000000,0.000000,0.000000,-1.570796,0.000000:0.250000,0.250000,0.250000,0.250000,0.250000,0.250000:pos_vel_
1549595851.652675,cobot_dynamixel_driver/goal|-:J1,J2,J3,J4,J5,J6:0.000000,0.000000,0.000000,0.000000,-1.570796,0.000000:0.250000,0.250000,0.250000,0.250000,0.250000,0.250000:pos_vel_
1549595851.680086,cobot_dynamixel_driver/goal|-:J1,J2,J3,J4,J5,J6:0.000000,0.000000,0.000000,0.000000,-1.570796,0.000000:0.250000,0.250000,0.250000,0.250000,0.250000,0.250000:pos_vel_
1549595851.708135,cobot_dynamixel_driver/goal|-:J1,J2,J3,J4,J5,J6:0.000000,0.000000,0.000000,0.000000,-1.570796,0.000000:0.250000,0.250000,0.250000,0.250000,0.250000,0.250000:pos_vel_
1549595851.736074,cobot_dynamixel_driver/goal|-:J1,J2,J3,J4,J5,J6:0.000000,0.000000,0.000000,0.000000,-1.570796,0.000000:0.250000,0.250000,0.250000,0.250000,0.250000,0.250000:pos_vel_
1549595851.763771,cobot_dynamixel_driver/goal|-:J1,J2,J3,J4,J5,J6:0.000000,0.000000,0.000000,0.000000,-1.570796,0.000000:0.250000,0.250000,0.250000,0.250000,0.250000,0.250000:pos_vel_
1549595851.791795,cobot_dynamixel_driver/goal|-:J1,J2,J3,J4,J5,J6:0.000000,0.000000,0.000000,0.000000,-1.570796,0.000000:0.250000,0.250000,0.250000,0.250000,0.250000,0.250000:pos_vel_
1549595851.819042,cobot_dynamixel_driver/goal|-:J1,J2,J3,J4,J5,J6:0.000000,0.000000,0.000000,0.000000,-1.570796,0.000000:0.250000,0.250000,0.250000,0.250000,0.250000,0.250000:pos_vel_
1549595851.846733,cobot_dynamixel_driver/goal|-:J1,J2,J3,J4,J5,J6:0.000000,0.000000,0.000000,0.000000,-1.570796,0.000000:0.250000,0.250000,0.250000,0.250000,0.250000,0.250000:pos_vel_
1549595851.873802,cobot_dynamixel_driver/goal|-:J1,J2,J3,J4,J5,J6:0.000000,0.000000,0.000000,0.000000,-1.570796,0.000000:0.250000,0.250000,0.250000,0.250000,0.250000,0.250000:pos_vel_
1549595851.900990,cobot_dynamixel_driver/goal|-:J1,J2,J3,J4,J5,J6:0.000000,0.000000,0.000000,0.000000,-1.570796,0.000000:0.250000,0.250000,0.250000,0.250000,0.250000,0.250000:pos_vel_
1549595851.929174,cobot_dynamixel_driver/goal|-:J1,J2,J3,J4,J5,J6:0.000000,0.000000,0.000000,0.000000,-1.570796,0.000000:0.250000,0.250000,0.250000,0.250000,0.250000,0.250000:pos_vel_
1549595851.957365,cobot_dynamixel_driver/goal|-:J1,J2,J3,J4,J5,J6:0.000000,0.000000,0.000000,0.000000,-1.570796,0.000000:0.250000,0.250000,0.250000,0.250000,0.250000,0.250000:pos_vel_
1549595851.984663,cobot_dynamixel_driver/goal|-:J1,J2,J3,J4,J5,J6:0.000000,0.000000,0.000000,0.000000,-1.570796,0.000000:0.250000,0.250000,0.250000,0.250000,0.250000,0.250000:pos_vel_
1549595852.011612,cobot_dynamixel_driver/goal|-:J1,J2,J3,J4,J5,J6:0.000000,0.000000,0.000000,0.000000,-1.570796,0.000000:0.250000,0.250000,0.250000,0.250000,0.250000,0.250000:pos_vel_
1549595852.039169,cobot_dynamixel_driver/goal|-:J1,J2,J3,J4,J5,J6:0.000000,0.000000,0.000000,0.000000,-1.570796,0.000000:0.250000,0.250000,0.250000,0.250000,0.250000,0.250000:pos_vel_
1549595852.066815,cobot_dynamixel_driver/goal|-:J1,J2,J3,J4,J5,J6:0.000000,0.000000,0.000000,0.000000,-1.570796,0.000000:0.250000,0.250000,0.250000,0.250000,0.250000,0.250000:pos_vel_
1549595852.094774,cobot_dynamixel_driver/goal|-:J1,J2,J3,J4,J5,J6:0.000000,0.000000,0.000000,0.000000,-1.570796,0.000000:0.250000,0.250000,0.250000,0.250000,0.250000,0.250000:pos_vel_
1549595852.122048,cobot_dynamixel_driver/goal|-:J1,J2,J3,J4,J5,J6:0.000000,0.000000,0.000000,0.000000,-1.570796,0.000000:0.250000,0.250000,0.250000,0.250000,0.250000,0.250000:pos_vel_
1549595852.149675,cobot_dynamixel_driver/goal|-:J1,J2,J3,J4,J5,J6:0.000000,0.000000,0.000000,0.000000,-1.570796,0.000000:0.250000,0.250000,0.250000,0.250000,0.250000,0.250000:pos_vel_
1549595852.176972,cobot_dynamixel_driver/goal|-:J1,J2,J3,J4,J5,J6:0.000000,0.000000,0.000000,0.000000,-1.570796,0.000000:0.250000,0.250000,0.250000,0.250000,0.250000,0.250000:pos_vel_
1549595852.204700,cobot_dynamixel_driver/goal|-:J1,J2,J3,J4,J5,J6:0.000000,0.000000,0.000000,0.000000,-1.570796,0.000000:0.250000,0.250000,0.250000,0.250000,0.250000,0.250000:pos_vel_
1549595852.231657,cobot_dynamixel_driver/goal|-:J1,J2,J3,J4,J5,J6:0.000000,0.000000,0.000000,0.000000,-1.570796,0.000000:0.250000,0.250000,0.250000,0.250000,0.250000,0.250000:pos_vel_
1549595852.258955,cobot_dynamixel_driver/goal|-:J1,J2,J3,J4,J5,J6:0.000000,0.000000,0.000000,0.000000,-1.570796,0.000000:0.250000,0.250000,0.250000,0.250000,0.250000,0.250000:pos_vel_
1549595852.286517,cobot_dynamixel_driver/goal|-:J1,J2,J3,J4,J5,J6:0.000000,0.000000,0.000000,0.000000,-1.570796,0.000000:0.250000,0.250000,0.250000,0.250000,0.250000,0.250000:pos_vel_
1549595852.313937,cobot_dynamixel_driver/goal|-:J1,J2,J3,J4,J5,J6:0.000000,0.000000,0.000000,0.000000,-1.570796,0.000000:0.250000,0.250000,0.250000,0.250000,0.250000,0.250000:pos_vel_
1549595852.341925,cobot_dynamixel_driver/goal|-:J1,J2,J3,J4,J5,J6:0.000000,0.000000,0.000000,0.000000,-1.570796,0.000000:0.250000,0.250000,0.250000,0.250000,0.250000,0.250000:pos_vel_
1549595852.369529,cobot_dynamixel_driver/goal|-:J1,J2,J3,J4,J5,J6:0.000000,0.000000,0.000000,0.000000,-1.570796,0.000000:0.250000,0.250000,0.250000,0.250000,0.250000,0.250000:pos_vel_
1549595852.396903,cobot_dynamixel_driver/goal|-:J1,J2,J3,J4,J5,J6:0.000000,0.000000,0.000000,0.000000,-1.570796,0.000000:0.250000,0.250000,0.250000,0.250000,0.250000,0.250000:pos_vel_
1549595852.424477,cobot_dynamixel_driver/goal|-:J1,J2,J3,J4,J5,J6:0.000000,0.000000,0.000000,0.000000,-1.570796,0.000000:0.250000,0.250000,0.250000,0.250000,0.250000,0.250000:pos_vel_
1549595852.451538,cobot_dynamixel_driver/goal|-:J1,J2,J3,J4,J5,J6:0.000000,0.000000,0.000000,0.000000,-1.570796,0.000000:0.250000,0.250000,0.250000,0.250000,0.250000,0.250000:pos_vel_
1549595852.478792,cobot_dynamixel_driver/goal|-:J1,J2,J3,J4,J5,J6:0.000000,0.000000,0.000000,0.000000,-1.570796,0.000000:0.250000,0.250000,0.250000,0.250000,0.250000,0.250000:pos_vel_
1549595852.506740,cobot_dynamixel_driver/goal|-:J1,J2,J3,J4,J5,J6:0.000000,0.000000,0.000000,0.000000,-1.570796,0.000000:0.250000,0.250000,0.250000,0.250000,0.250000,0.250000:pos_vel_
1549595852.534443,cobot_dynamixel_driver/goal|-:J1,J2,J3,J4,J5,J6:0.000000,0.000000,0.000000,0.000000,-1.570796,0.000000:0.250000,0.250000,0.250000,0.250000,0.250000,0.250000:pos_vel_
1549595852.561762,cobot_dynamixel_driver/goal|-:J1,J2,J3,J4,J5,J6:0.000000,0.000000,0.000000,0.000000,-1.570796,0.000000:0.250000,0.250000,0.250000,0.250000,0.250000,0.250000:pos_vel_
1549595852.589559,cobot_dynamixel_driver/goal|-:J1,J2,J3,J4,J5,J6:0.000000,0.000000,0.000000,0.000000,-1.570796,0.000000:0.250000,0.250000,0.250000,0.250000,0.250000,0.250000:pos_vel_
1549595852.617759,cobot_dynamixel_driver/goal|-:J1,J2,J3,J4,J5,J6:0.000000,0.000000,0.000000,0.000000,-1.570796,0.000000:0.250000,0.250000,0.250000,0.250000,0.250000,0.250000:pos_vel_
1549595852.645354,cobot_dynamixel_driver/goal|-:J1,J2,J3,J4,J5,J6:0.000000,0.000000,0.000000,0.000000,-1.570796,0.000000:0.250000,0.250000,0.250000,0.250000,0.250000,0.250000:pos_vel_
1549595852.672392,cobot_dynamixel_driver/goal|-:J1,J2,J3,J4,J5,J6:0.000000,0.000000,0.000000,0.000000,-1.570796,0.000000:0.250000,0.250000,0.250000,0.250000,0.250000,0.250000:pos_vel_
1549595852.699691,cobot_dynamixel_driver/goal|-:J1,J2,J3,J4,J5,J6:0.000000,0.000000,0.000000,0.000000,-1.570796,0.000000:0.250000,0.250000,0.250000,0.250000,0.250000,0.250000:pos_vel_
1549595852.727400,cobot_dynamixel_driver/goal|-:J1,J2,J3,J4,J5,J6:0.000000,0.000000,0.000000,0.000000,-1.570796,0.000000:0.250000,0.250000,0.250000,0.250000,0.250000,0.250000:pos_vel_
1549595852.754498,cobot_dynamixel_driver/goal|-:J1,J2,J3,J4,J5,J6:0.000000,0.000000,0.000000,0.000000,-1.570796,0.000000:0.250000,0.250000,0.250000,0.250000,0.250000,0.250000:pos_vel_
1549595852.782715,cobot_dynamixel_driver/goal|-:J1,J2,J3,J4,J5,J6:0.000000,0.000000,0.000000,0.000000,-1.570796,0.000000:0.250000,0.250000,0.250000,0.250000,0.250000,0.250000:pos_vel_
1549595852.810381,cobot_dynamixel_driver/goal|-:J1,J2,J3,J4,J5,J6:0.000000,0.000000,0.000000,0.000000,-1.570796,0.000000:0.250000,0.250000,0.250000,0.250000,0.250000,0.250000:pos_vel_
1549595852.837880,cobot_dynamixel_driver/goal|-:J1,J2,J3,J4,J5,J6:0.000000,0.000000,0.000000,0.000000,-1.570796,0.000000:0.250000,0.250000,0.250000,0.250000,0.250000,0.250000:pos_vel_
1549595852.865299,cobot_dynamixel_driver/goal|-:J1,J2,J3,J4,J5,J6:0.000000,0.000000,0.000000,0.000000,-1.570796,0.000000:0.250000,0.250000,0.250000,0.250000,0.250000,0.250000:pos_vel_
1549595852.892341,cobot_dynamixel_driver/goal|-:J1,J2,J3,J4,J5,J6:0.000000,0.000000,0.000000,0.000000,-1.570796,0.000000:0.250000,0.250000,0.250000,0.250000,0.250000,0.250000:pos_vel_
1549595852.919883,cobot_dynamixel_driver/goal|-:J1,J2,J3,J4,J5,J6:0.000000,0.000000,0.000000,0.000000,-1.570796,0.000000:0.250000,0.250000,0.250000,0.250000,0.250000,0.250000:pos_vel_
1549595852.947383,cobot_dynamixel_driver/goal|-:J1,J2,J3,J4,J5,J6:0.000000,0.000000,0.000000,0.000000,-1.570796,0.000000:0.250000,0.250000,0.250000,0.250000,0.250000,0.250000:pos_vel_
1549595852.974633,cobot_dynamixel_driver/goal|-:J1,J2,J3,J4,J5,J6:0.000000,0.000000,0.000000,0.000000,-1.570796,0.000000:0.250000,0.250000,0.250000,0.250000,0.250000,0.250000:pos_vel_
1549595853.002850,cobot_dynamixel_driver/goal|-:J1,J2,J3,J4,J5,J6:0.000000,0.000000,0.000000,0.000000,-1.570796,0.000000:0.250000,0.250000,0.250000,0.250000,0.250000,0.250000:pos_vel_
1549595853.030777,cobot_dynamixel_driver/goal|-:J1,J2,J3,J4,J5,J6:0.000000,0.000000,0.000000,0.000000,-1.570796,0.000000:0.250000,0.250000,0.250000,0.250000,0.250000,0.250000:pos_vel_
1549595853.058645,cobot_dynamixel_driver/goal|-:J1,J2,J3,J4,J5,J6:0.000000,0.000000,0.000000,0.000000,-1.570796,0.000000:0.250000,0.250000,0.250000,0.250000,0.250000,0.250000:pos_vel_
1549595853.086540,cobot_dynamixel_driver/goal|-:J1,J2,J3,J4,J5,J6:0.000000,0.000000,0.000000,0.000000,-1.570796,0.000000:0.250000,0.250000,0.250000,0.250000,0.250000,0.250000:pos_vel_
1549595853.114465,cobot_dynamixel_driver/goal|-:J1,J2,J3,J4,J5,J6:0.000000,0.000000,0.000000,0.000000,-1.570796,0.000000:0.250000,0.250000,0.250000,0.250000,0.250000,0.250000:pos_vel_
1549595853.142635,cobot_dynamixel_driver/goal|-:J1,J2,J3,J4,J5,J6:0.000000,0.000000,0.000000,0.000000,-1.570796,0.000000:0.250000,0.250000,0.250000,0.250000,0.250000,0.250000:pos_vel_
1549595853.170449,cobot_dynamixel_driver/goal|-:J1,J2,J3,J4,J5,J6:0.000000,0.000000,0.000000,0.000000,-1.570796,0.000000:0.250000,0.250000,0.250000,0.250000,0.250000,0.250000:pos_vel_
1549595853.198736,cobot_dynamixel_driver/goal|-:J1,J2,J3,J4,J5,J6:0.000000,0.000000,0.000000,0.000000,-1.570796,0.000000:0.250000,0.250000,0.250000,0.250000,0.250000,0.250000:pos_vel_
1549595853.226460,cobot_dynamixel_driver/goal|-:J1,J2,J3,J4,J5,J6:0.000000,0.000000,0.000000,0.000000,-1.570796,0.000000:0.250000,0.250000,0.250000,0.250000,0.250000,0.250000:pos_vel_
1549595853.254258,cobot_dynamixel_driver/goal|-:J1,J2,J3,J4,J5,J6:0.000000,0.000000,0.000000,0.000000,-1.570796,0.000000:0.250000,0.250000,0.250000,0.250000,0.250000,0.250000:pos_vel_
1549595853.281654,cobot_dynamixel_driver/goal|-:J1,J2,J3,J4,J5,J6:0.000000,0.000000,0.000000,0.000000,-1.570796,0.000000:0.250000,0.250000,0.250000,0.250000,0.250000,0.250000:pos_vel_
1549595853.309293,cobot_dynamixel_driver/goal|-:J1,J2,J3,J4,J5,J6:0.000000,0.000000,0.000000,0.000000,-1.570796,0.000000:0.250000,0.250000,0.250000,0.250000,0.250000,0.250000:pos_vel_
1549595853.336848,cobot_dynamixel_driver/goal|-:J1,J2,J3,J4,J5,J6:0.000000,0.000000,0.000000,0.000000,-1.570796,0.000000:0.250000,0.250000,0.250000,0.250000,0.250000,0.250000:pos_vel_
1549595853.364216,cobot_dynamixel_driver/goal|-:J1,J2,J3,J4,J5,J6:0.000000,0.000000,0.000000,0.000000,-1.570796,0.000000:0.250000,0.250000,0.250000,0.250000,0.250000,0.250000:pos_vel_
1549595853.391250,cobot_dynamixel_driver/goal|-:J1,J2,J3,J4,J5,J6:0.000000,0.000000,0.000000,0.000000,-1.570796,0.000000:0.250000,0.250000,0.250000,0.250000,0.250000,0.250000:pos_vel_
1549595853.418550,cobot_dynamixel_driver/goal|-:J1,J2,J3,J4,J5,J6:0.000000,0.000000,0.000000,0.000000,-1.570796,0.000000:0.250000,0.250000,0.250000,0.250000,0.250000,0.250000:pos_vel_
1549595853.446161,cobot_dynamixel_driver/goal|-:J1,J2,J3,J4,J5,J6:0.000000,0.000000,0.000000,0.000000,-1.570796,0.000000:0.250000,0.250000,0.250000,0.250000,0.250000,0.250000:pos_vel_
1549595853.473270,cobot_dynamixel_driver/goal|-:J1,J2,J3,J4,J5,J6:0.000000,0.000000,0.000000,0.000000,-1.570796,0.000000:0.250000,0.250000,0.250000,0.250000,0.250000,0.250000:pos_vel_
1549595853.500488,cobot_dynamixel_driver/goal|-:J1,J2,J3,J4,J5,J6:0.000000,0.000000,0.000000,0.000000,-1.570796,0.000000:0.250000,0.250000,0.250000,0.250000,0.250000,0.250000:pos_vel_
1549595853.528121,cobot_dynamixel_driver/goal|-:J1,J2,J3,J4,J5,J6:0.000000,0.000000,0.000000,0.000000,-1.570796,0.000000:0.250000,0.250000,0.250000,0.250000,0.250000,0.250000:pos_vel_
1549595853.555424,cobot_dynamixel_driver/goal|-:J1,J2,J3,J4,J5,J6:0.000000,0.000000,0.000000,0.000000,-1.570796,0.000000:0.250000,0.250000,0.250000,0.250000,0.250000,0.250000:pos_vel_
1549595853.583206,cobot_dynamixel_driver/goal|-:J1,J2,J3,J4,J5,J6:0.000000,0.000000,0.000000,0.000000,-1.570796,0.000000:0.250000,0.250000,0.250000,0.250000,0.250000,0.250000:pos_vel_
1549595853.610127,cobot_dynamixel_driver/goal|-:J1,J2,J3,J4,J5,J6:0.000000,0.000000,0.000000,0.000000,-1.570796,0.000000:0.250000,0.250000,0.250000,0.250000,0.250000,0.250000:pos_vel_
1549595853.637942,cobot_dynamixel_driver/goal|-:J1,J2,J3,J4,J5,J6:0.000000,0.000000,0.000000,0.000000,-1.570796,0.000000:0.250000,0.250000,0.250000,0.250000,0.250000,0.250000:pos_vel_
1549595853.665069,cobot_dynamixel_driver/goal|-:J1,J2,J3,J4,J5,J6:0.000000,0.000000,0.000000,0.000000,-1.570796,0.000000:0.250000,0.250000,0.250000,0.250000,0.250000,0.250000:pos_vel_
1549595853.692353,cobot_dynamixel_driver/goal|-:J1,J2,J3,J4,J5,J6:0.000000,0.000000,0.000000,0.000000,-1.570796,0.000000:0.250000,0.250000,0.250000,0.250000,0.250000,0.250000:pos_vel_
1549595853.720749,cobot_dynamixel_driver/goal|-:J1,J2,J3,J4,J5,J6:0.000000,0.000000,0.000000,0.000000,-1.570796,0.000000:0.250000,0.250000,0.250000,0.250000,0.250000,0.250000:pos_vel_
1549595853.748272,cobot_dynamixel_driver/goal|-:J1,J2,J3,J4,J5,J6:0.000000,0.000000,0.000000,0.000000,-1.570796,0.000000:0.250000,0.250000,0.250000,0.250000,0.250000,0.250000:pos_vel_
1549595853.775358,cobot_dynamixel_driver/goal|-:J1,J2,J3,J4,J5,J6:0.000000,0.000000,0.000000,0.000000,-1.570796,0.000000:0.250000,0.250000,0.250000,0.250000,0.250000,0.250000:pos_vel_
1549595853.803384,cobot_dynamixel_driver/goal|-:J1,J2,J3,J4,J5,J6:0.000000,0.000000,0.000000,0.000000,-1.570796,0.000000:0.250000,0.250000,0.250000,0.250000,0.250000,0.250000:pos_vel_
1549595853.831126,cobot_dynamixel_driver/goal|-:J1,J2,J3,J4,J5,J6:0.000000,0.000000,0.000000,0.000000,-1.570796,0.000000:0.250000,0.250000,0.250000,0.250000,0.250000,0.250000:pos_vel_
1549595853.858399,cobot_dynamixel_driver/goal|-:J1,J2,J3,J4,J5,J6:0.000000,0.000000,0.000000,0.000000,-1.570796,0.000000:0.250000,0.250000,0.250000,0.250000,0.250000,0.250000:pos_vel_
1549595853.886294,cobot_dynamixel_driver/goal|-:J1,J2,J3,J4,J5,J6:0.000000,0.000000,0.000000,0.000000,-1.570796,0.000000:0.250000,0.250000,0.250000,0.250000,0.250000,0.250000:pos_vel_
1549595853.914239,cobot_dynamixel_driver/goal|-:J1,J2,J3,J4,J5,J6:0.000000,0.000000,0.000000,0.000000,-1.570796,0.000000:0.250000,0.250000,0.250000,0.250000,0.250000,0.250000:pos_vel_
1549595853.942473,cobot_dynamixel_driver/goal|-:J1,J2,J3,J4,J5,J6:0.000000,0.000000,0.000000,0.000000,-1.570796,0.000000:0.250000,0.250000,0.250000,0.250000,0.250000,0.250000:pos_vel_
1549595853.970034,cobot_dynamixel_driver/goal|-:J1,J2,J3,J4,J5,J6:0.000000,0.000000,0.000000,0.000000,-1.570796,0.000000:0.250000,0.250000,0.250000,0.250000,0.250000,0.250000:pos_vel_
1549595853.997452,cobot_dynamixel_driver/goal|-:J1,J2,J3,J4,J5,J6:0.000000,0.000000,0.000000,0.000000,-1.570796,0.000000:0.250000,0.250000,0.250000,0.250000,0.250000,0.250000:pos_vel_
1549595854.025062,cobot_dynamixel_driver/goal|-:J1,J2,J3,J4,J5,J6:0.000000,0.000000,0.000000,0.000000,-1.570796,0.000000:0.250000,0.250000,0.250000,0.250000,0.250000,0.250000:pos_vel_
1549595854.052079,cobot_dynamixel_driver/goal|-:J1,J2,J3,J4,J5,J6:0.000000,0.000000,0.000000,0.000000,-1.570796,0.000000:0.250000,0.250000,0.250000,0.250000,0.250000,0.250000:pos_vel_
1549595854.079192,cobot_dynamixel_driver/goal|-:J1,J2,J3,J4,J5,J6:0.000000,0.000000,0.000000,0.000000,-1.570796,0.000000:0.250000,0.250000,0.250000,0.250000,0.250000,0.250000:pos_vel_
1549595854.107056,cobot_dynamixel_driver/goal|-:J1,J2,J3,J4,J5,J6:0.000000,0.000000,0.000000,0.000000,-1.570796,0.000000:0.250000,0.250000,0.250000,0.250000,0.250000,0.250000:pos_vel_
1549595854.134124,cobot_dynamixel_driver/goal|-:J1,J2,J3,J4,J5,J6:0.000000,0.000000,0.000000,0.000000,-1.570796,0.000000:0.250000,0.250000,0.250000,0.250000,0.250000,0.250000:pos_vel_
1549595854.162330,cobot_dynamixel_driver/goal|-:J1,J2,J3,J4,J5,J6:0.000000,0.000000,0.000000,0.000000,-1.570796,0.000000:0.250000,0.250000,0.250000,0.250000,0.250000,0.250000:pos_vel_
1549595854.190226,cobot_dynamixel_driver/goal|-:J1,J2,J3,J4,J5,J6:0.000000,0.000000,0.000000,0.000000,-1.570796,0.000000:0.250000,0.250000,0.250000,0.250000,0.250000,0.250000:pos_vel_
1549595854.218173,cobot_dynamixel_driver/goal|-:J1,J2,J3,J4,J5,J6:0.000000,0.000000,0.000000,0.000000,-1.570796,0.000000:0.250000,0.250000,0.250000,0.250000,0.250000,0.250000:pos_vel_
1549595854.245928,cobot_dynamixel_driver/goal|-:J1,J2,J3,J4,J5,J6:0.000000,0.000000,0.000000,0.000000,-1.570796,0.000000:0.250000,0.250000,0.250000,0.250000,0.250000,0.250000:pos_vel_
1549595854.273032,cobot_dynamixel_driver/goal|-:J1,J2,J3,J4,J5,J6:0.000000,0.000000,0.000000,0.000000,-1.570796,0.000000:0.250000,0.250000,0.250000,0.250000,0.250000,0.250000:pos_vel_
1549595854.300200,cobot_dynamixel_driver/goal|-:J1,J2,J3,J4,J5,J6:0.000000,0.000000,0.000000,0.000000,-1.570796,0.000000:0.250000,0.250000,0.250000,0.250000,0.250000,0.250000:pos_vel_
1549595854.328056,cobot_dynamixel_driver/goal|-:J1,J2,J3,J4,J5,J6:0.000000,0.000000,0.000000,0.000000,-1.570796,0.000000:0.250000,0.250000,0.250000,0.250000,0.250000,0.250000:pos_vel_
1549595854.356276,cobot_dynamixel_driver/goal|-:J1,J2,J3,J4,J5,J6:0.000000,0.000000,0.000000,0.000000,-1.570796,0.000000:0.250000,0.250000,0.250000,0.250000,0.250000,0.250000:pos_vel_
1549595854.384089,cobot_dynamixel_driver/goal|-:J1,J2,J3,J4,J5,J6:0.000000,0.000000,0.000000,0.000000,-1.570796,0.000000:0.250000,0.250000,0.250000,0.250000,0.250000,0.250000:pos_vel_
1549595854.411906,cobot_dynamixel_driver/goal|-:J1,J2,J3,J4,J5,J6:0.000000,0.000000,0.000000,0.000000,-1.570796,0.000000:0.250000,0.250000,0.250000,0.250000,0.250000,0.250000:pos_vel_
1549595854.439121,cobot_dynamixel_driver/goal|-:J1,J2,J3,J4,J5,J6:0.000000,0.000000,0.000000,0.000000,-1.570796,0.000000:0.250000,0.250000,0.250000,0.250000,0.250000,0.250000:pos_vel_
1549595854.466923,cobot_dynamixel_driver/goal|-:J1,J2,J3,J4,J5,J6:0.000000,0.000000,0.000000,0.000000,-1.570796,0.000000:0.250000,0.250000,0.250000,0.250000,0.250000,0.250000:pos_vel_
1549595854.493956,cobot_dynamixel_driver/goal|-:J1,J2,J3,J4,J5,J6:0.000000,0.000000,0.000000,0.000000,-1.570796,0.000000:0.250000,0.250000,0.250000,0.250000,0.250000,0.250000:pos_vel_
1549595854.522237,cobot_dynamixel_driver/goal|-:J1,J2,J3,J4,J5,J6:0.000000,0.000000,0.000000,0.000000,-1.570796,0.000000:0.250000,0.250000,0.250000,0.250000,0.250000,0.250000:pos_vel_
1549595854.549809,cobot_dynamixel_driver/goal|-:J1,J2,J3,J4,J5,J6:0.000000,0.000000,0.000000,0.000000,-1.570796,0.000000:0.250000,0.250000,0.250000,0.250000,0.250000,0.250000:pos_vel_
1549595854.577247,cobot_dynamixel_driver/goal|-:J1,J2,J3,J4,J5,J6:0.000000,0.000000,0.000000,0.000000,-1.570796,0.000000:0.250000,0.250000,0.250000,0.250000,0.250000,0.250000:pos_vel_
1549595854.605056,cobot_dynamixel_driver/goal|-:J1,J2,J3,J4,J5,J6:0.000000,0.000000,0.000000,0.000000,-1.570796,0.000000:0.250000,0.250000,0.250000,0.250000,0.250000,0.250000:pos_vel_
1549595854.632865,cobot_dynamixel_driver/goal|-:J1,J2,J3,J4,J5,J6:0.000000,0.000000,0.000000,0.000000,-1.570796,0.000000:0.250000,0.250000,0.250000,0.250000,0.250000,0.250000:pos_vel_
1549595854.660144,cobot_dynamixel_driver/goal|-:J1,J2,J3,J4,J5,J6:0.000000,0.000000,0.000000,0.000000,-1.570796,0.000000:0.250000,0.250000,0.250000,0.250000,0.250000,0.250000:pos_vel_
1549595854.687761,cobot_dynamixel_driver/goal|-:J1,J2,J3,J4,J5,J6:0.000000,0.000000,0.000000,0.000000,-1.570796,0.000000:0.250000,0.250000,0.250000,0.250000,0.250000,0.250000:pos_vel_
1549595854.715137,cobot_dynamixel_driver/goal|-:J1,J2,J3,J4,J5,J6:0.000000,0.000000,0.000000,0.000000,-1.570796,0.000000:0.250000,0.250000,0.250000,0.250000,0.250000,0.250000:pos_vel_
1549595854.743227,cobot_dynamixel_driver/goal|-:J3:-252.096547:eff_
1549595854.834413,cobot_dynamixel_driver/goal|-:J3:-252.096547:eff_
1549595854.862116,cobot_dynamixel_driver/goal|-:J3:-252.069662:eff_
1549595854.889490,cobot_dynamixel_driver/goal|-:J3:-252.051960:eff_
1549595854.916680,cobot_dynamixel_driver/goal|-:J3:-252.034503:eff_
1549595854.943565,cobot_dynamixel_driver/goal|-:J3:-252.016771:eff_
1549595854.970711,cobot_dynamixel_driver/goal|-:J3:-251.999082:eff_
1549595854.997631,cobot_dynamixel_driver/goal|-:J3:-251.979889:eff_
1549595855.024491,cobot_dynamixel_driver/goal|-:J3:-251.961632:eff_
1549595855.051566,cobot_dynamixel_driver/goal|-:J3:-251.943708:eff_
1549595855.078982,cobot_dynamixel_driver/goal|-:J3:-251.925255:eff_
1549595855.106457,cobot_dynamixel_driver/goal|-:J3:-251.905174:eff_
1549595855.133476,cobot_dynamixel_driver/goal|-:J3:-251.905174:eff_
1549595855.160585,cobot_dynamixel_driver/goal|-:J3:-251.864694:eff_
1549595855.187782,cobot_dynamixel_driver/goal|-:J3:-251.843577:eff_
1549595855.215568,cobot_dynamixel_driver/goal|-:J3:-251.821595:eff_
1549595855.242410,cobot_dynamixel_driver/goal|-:J3:-251.799573:eff_
1549595855.269838,cobot_dynamixel_driver/goal|-:J3:-251.799573:eff_
1549595855.297782,cobot_dynamixel_driver/goal|-:J3:-251.761665:eff_
1549595855.325509,cobot_dynamixel_driver/goal|-:J3:-251.742904:eff_
1549595855.352483,cobot_dynamixel_driver/goal|-:J3:-251.742904:eff_
1549595855.379677,cobot_dynamixel_driver/goal|-:J3:-251.705796:eff_
1549595855.407504,cobot_dynamixel_driver/goal|-:J3:-251.685134:eff_
1549595855.434384,cobot_dynamixel_driver/goal|-:J3:-251.685134:eff_
1549595855.461430,cobot_dynamixel_driver/goal|-:J3:-251.651810:eff_
1549595855.488430,cobot_dynamixel_driver/goal|-:J3:-251.634679:eff_
1549595855.515659,cobot_dynamixel_driver/goal|-:J3:-251.617235:eff_
1549595855.542392,cobot_dynamixel_driver/goal|-:J3:-251.598424:eff_
1549595855.569284,cobot_dynamixel_driver/goal|-:J3:-251.577650:eff_
1549595855.596496,cobot_dynamixel_driver/goal|-:J3:-251.556738:eff_
1549595855.623330,cobot_dynamixel_driver/goal|-:J3:-251.537937:eff_
1549595855.650322,cobot_dynamixel_driver/goal|-:J3:-251.521937:eff_
1549595855.677769,cobot_dynamixel_driver/goal|-:J3:-251.505717:eff_
1549595855.705815,cobot_dynamixel_driver/goal|-:J3:-251.486953:eff_
1549595855.733505,cobot_dynamixel_driver/goal|-:J3:-251.486953:eff_
1549595855.760621,cobot_dynamixel_driver/goal|-:J3:-251.447667:eff_
1549595855.788314,cobot_dynamixel_driver/goal|-:J3:-251.425291:eff_
1549595855.815307,cobot_dynamixel_driver/goal|-:J3:-251.402855:eff_
1549595855.842484,cobot_dynamixel_driver/goal|-:J3:-251.384458:eff_
1549595855.869267,cobot_dynamixel_driver/goal|-:J3:-251.366144:eff_
1549595855.896436,cobot_dynamixel_driver/goal|-:J3:-251.347602:eff_
1549595855.923295,cobot_dynamixel_driver/goal|-:J3:-251.328508:eff_
1549595855.950273,cobot_dynamixel_driver/goal|-:J3:-251.306869:eff_
1549595855.977400,cobot_dynamixel_driver/goal|-:J3:-251.285605:eff_
1549595856.004522,cobot_dynamixel_driver/goal|-:J3:-251.262708:eff_
1549595856.031211,cobot_dynamixel_driver/goal|-:J3:-251.241902:eff_
1549595856.058305,cobot_dynamixel_driver/goal|-:J3:-251.225354:eff_
1549595856.085240,cobot_dynamixel_driver/goal|-:J3:-251.212841:eff_
1549595856.112191,cobot_dynamixel_driver/goal|-:J3:-251.212841:eff_
1549595856.139376,cobot_dynamixel_driver/goal|-:J3:-251.181884:eff_
1549595856.166235,cobot_dynamixel_driver/goal|-:J3:-251.163703:eff_
1549595856.193159,cobot_dynamixel_driver/goal|-:J3:-251.163703:eff_
1549595856.220296,cobot_dynamixel_driver/goal|-:J3:-251.123526:eff_
1549595856.247150,cobot_dynamixel_driver/goal|-:J3:-251.099613:eff_
1549595856.274169,cobot_dynamixel_driver/goal|-:J3:-251.099613:eff_
1549595856.301617,cobot_dynamixel_driver/goal|-:J3:-251.048655:eff_
1549595856.329182,cobot_dynamixel_driver/goal|-:J3:-251.025394:eff_
1549595856.356274,cobot_dynamixel_driver/goal|-:J3:-250.998778:eff_
1549595856.383112,cobot_dynamixel_driver/goal|-:J3:-250.967517:eff_
1549595856.410210,cobot_dynamixel_driver/goal|-:J3:-250.934627:eff_
1549595856.437353,cobot_dynamixel_driver/goal|-:J3:-250.896005:eff_
1549595856.464085,cobot_dynamixel_driver/goal|-:J3:-250.855937:eff_
1549595856.491050,cobot_dynamixel_driver/goal|-:J3:-250.815639:eff_
1549595856.518178,cobot_dynamixel_driver/goal|-:J3:-250.771728:eff_
1549595856.545064,cobot_dynamixel_driver/goal|-:J3:-250.721401:eff_
1549595856.572101,cobot_dynamixel_driver/goal|-:J3:-250.721401:eff_
1549595856.599157,cobot_dynamixel_driver/goal|-:J3:-250.606373:eff_
1549595856.626046,cobot_dynamixel_driver/goal|-:J3:-250.545308:eff_
1549595856.653090,cobot_dynamixel_driver/goal|-:J3:-250.545308:eff_
1549595856.680125,cobot_dynamixel_driver/goal|-:J3:-250.409483:eff_
1549595856.707075,cobot_dynamixel_driver/goal|-:J3:-250.341172:eff_
1549595856.734064,cobot_dynamixel_driver/goal|-:J3:-250.341172:eff_
1549595856.761309,cobot_dynamixel_driver/goal|-:J3:-250.196395:eff_
1549595856.788007,cobot_dynamixel_driver/goal|-:J3:-250.123466:eff_
1549595856.815128,cobot_dynamixel_driver/goal|-:J3:-250.050762:eff_
1549595856.841924,cobot_dynamixel_driver/goal|-:J3:-249.977829:eff_
1549595856.868955,cobot_dynamixel_driver/goal|-:J3:-249.905271:eff_
1549595856.896158,cobot_dynamixel_driver/goal|-:J3:-249.840928:eff_
1549595856.923295,cobot_dynamixel_driver/goal|-:J3:-249.777910:eff_
1549595856.949928,cobot_dynamixel_driver/goal|-:J3:-249.714031:eff_
1549595856.977024,cobot_dynamixel_driver/goal|-:J3:-249.648717:eff_
1549595857.003945,cobot_dynamixel_driver/goal|-:J3:-249.588952:eff_
1549595857.031086,cobot_dynamixel_driver/goal|-:J3:-249.588952:eff_
1549595857.057958,cobot_dynamixel_driver/goal|-:J3:-249.482794:eff_
1549595857.084900,cobot_dynamixel_driver/goal|-:J3:-249.431304:eff_
1549595857.111913,cobot_dynamixel_driver/goal|-:J3:-249.431304:eff_
1549595857.139076,cobot_dynamixel_driver/goal|-:J3:-249.327445:eff_
1549595857.165754,cobot_dynamixel_driver/goal|-:J3:-249.282508:eff_
1549595857.192835,cobot_dynamixel_driver/goal|-:J3:-249.282508:eff_
1549595857.220086,cobot_dynamixel_driver/goal|-:J3:-249.199088:eff_
1549595857.247011,cobot_dynamixel_driver/goal|-:J3:-249.153135:eff_
1549595857.273925,cobot_dynamixel_driver/goal|-:J3:-249.153135:eff_
1549595857.300927,cobot_dynamixel_driver/goal|-:J3:-249.062720:eff_
1549595857.327755,cobot_dynamixel_driver/goal|-:J3:-249.018297:eff_
1549595857.354945,cobot_dynamixel_driver/goal|-:J3:-248.982008:eff_
1549595857.381847,cobot_dynamixel_driver/goal|-:J3:-248.948122:eff_
1549595857.408820,cobot_dynamixel_driver/goal|-:J3:-248.914054:eff_
1549595857.435935,cobot_dynamixel_driver/goal|-:J3:-248.876502:eff_
1549595857.462760,cobot_dynamixel_driver/goal|-:J3:-248.836073:eff_
1549595857.489751,cobot_dynamixel_driver/goal|-:J3:-248.790710:eff_
1549595857.516941,cobot_dynamixel_driver/goal|-:J3:-248.738292:eff_
1549595857.543658,cobot_dynamixel_driver/goal|-:J3:-248.680026:eff_
1549595857.570947,cobot_dynamixel_driver/goal|-:J3:-248.623320:eff_
1549595857.597826,cobot_dynamixel_driver/goal|-:J3:-248.565460:eff_
1549595857.624679,cobot_dynamixel_driver/goal|-:J3:-248.508521:eff_
1549595857.651623,cobot_dynamixel_driver/goal|-:J3:-248.508521:eff_
1549595857.678921,cobot_dynamixel_driver/goal|-:J3:-248.398951:eff_
1549595857.705703,cobot_dynamixel_driver/goal|-:J3:-248.347117:eff_
1549595857.732655,cobot_dynamixel_driver/goal|-:J3:-248.347117:eff_
1549595857.759907,cobot_dynamixel_driver/goal|-:J3:-248.259692:eff_
1549595857.787079,cobot_dynamixel_driver/goal|-:J3:-248.219227:eff_
1549595857.814718,cobot_dynamixel_driver/goal|-:J3:-248.219227:eff_
1549595857.841928,cobot_dynamixel_driver/goal|-:J3:-248.124481:eff_
1549595857.868697,cobot_dynamixel_driver/goal|-:J3:-248.079633:eff_
1549595857.895756,cobot_dynamixel_driver/goal|-:J3:-248.034535:eff_
1549595857.922647,cobot_dynamixel_driver/goal|-:J3:-247.992913:eff_
1549595857.949618,cobot_dynamixel_driver/goal|-:J3:-247.963055:eff_
1549595857.976937,cobot_dynamixel_driver/goal|-:J3:-247.939091:eff_
1549595858.004829,cobot_dynamixel_driver/goal|-:J3:-247.920322:eff_
1549595858.031616,cobot_dynamixel_driver/goal|-:J3:-247.920322:eff_
1549595858.058650,cobot_dynamixel_driver/goal|-:J3:-247.872080:eff_
1549595858.085729,cobot_dynamixel_driver/goal|-:J3:-247.844066:eff_
1549595858.112571,cobot_dynamixel_driver/goal|-:J3:-247.844066:eff_
1549595858.139804,cobot_dynamixel_driver/goal|-:J3:-247.768656:eff_
1549595858.166534,cobot_dynamixel_driver/goal|-:J3:-247.721865:eff_
1549595858.193599,cobot_dynamixel_driver/goal|-:J3:-247.721865:eff_
1549595858.220945,cobot_dynamixel_driver/goal|-:J3:-247.612753:eff_
1549595858.248599,cobot_dynamixel_driver/goal|-:J3:-247.559655:eff_
1549595858.275752,cobot_dynamixel_driver/goal|-:J3:-247.513334:eff_
1549595858.302743,cobot_dynamixel_driver/goal|-:J3:-247.462824:eff_
1549595858.329748,cobot_dynamixel_driver/goal|-:J3:-247.406469:eff_
1549595858.356585,cobot_dynamixel_driver/goal|-:J3:-247.347372:eff_
1549595858.383569,cobot_dynamixel_driver/goal|-:J3:-247.283072:eff_
1549595858.410534,cobot_dynamixel_driver/goal|-:J3:-247.218343:eff_
1549595858.437709,cobot_dynamixel_driver/goal|-:J3:-247.161354:eff_
1549595858.464380,cobot_dynamixel_driver/goal|-:J3:-247.107321:eff_
1549595858.491510,cobot_dynamixel_driver/goal|-:J3:-247.056297:eff_
1549595858.518537,cobot_dynamixel_driver/goal|-:J3:-246.991740:eff_
1549595858.545364,cobot_dynamixel_driver/goal|-:J3:-246.925105:eff_
1549595858.572372,cobot_dynamixel_driver/goal|-:J3:-246.925105:eff_
1549595858.599883,cobot_dynamixel_driver/goal|-:J3:-246.770220:eff_
1549595858.627462,cobot_dynamixel_driver/goal|-:J3:-246.691929:eff_
1549595858.654575,cobot_dynamixel_driver/goal|-:J3:-246.691929:eff_
1549595858.682694,cobot_dynamixel_driver/goal|-:J3:-246.541442:eff_
1549595858.710417,cobot_dynamixel_driver/goal|-:J3:-246.464996:eff_
1549595858.737488,cobot_dynamixel_driver/goal|-:J3:-246.388031:eff_
1549595858.764348,cobot_dynamixel_driver/goal|-:J3:-246.316732:eff_
1549595858.791490,cobot_dynamixel_driver/goal|-:J3:-246.259200:eff_
1549595858.818534,cobot_dynamixel_driver/goal|-:J3:-246.204059:eff_
1549595858.845489,cobot_dynamixel_driver/goal|-:J3:-246.146871:eff_
1549595858.872448,cobot_dynamixel_driver/goal|-:J3:-246.146871:eff_
1549595858.899475,cobot_dynamixel_driver/goal|-:J3:-246.036195:eff_
1549595858.926342,cobot_dynamixel_driver/goal|-:J3:-245.974574:eff_
1549595858.953550,cobot_dynamixel_driver/goal|-:J3:-245.974574:eff_
1549595858.980414,cobot_dynamixel_driver/goal|-:J3:-245.850407:eff_
1549595859.007235,cobot_dynamixel_driver/goal|-:J3:-245.801685:eff_
1549595859.034552,cobot_dynamixel_driver/goal|-:J3:-245.801685:eff_
1549595859.061286,cobot_dynamixel_driver/goal|-:J3:-245.684171:eff_
1549595859.088190,cobot_dynamixel_driver/goal|-:J3:-245.620808:eff_
1549595859.115339,cobot_dynamixel_driver/goal|-:J3:-245.552443:eff_
1549595859.142232,cobot_dynamixel_driver/goal|-:J3:-245.479002:eff_
1549595859.169287,cobot_dynamixel_driver/goal|-:J3:-245.414647:eff_
1549595859.196410,cobot_dynamixel_driver/goal|-:J3:-245.359511:eff_
1549595859.223232,cobot_dynamixel_driver/goal|-:J3:-245.306064:eff_
1549595859.250205,cobot_dynamixel_driver/goal|-:J3:-245.251448:eff_
1549595859.277309,cobot_dynamixel_driver/goal|-:J3:-245.190831:eff_
1549595859.304328,cobot_dynamixel_driver/goal|-:J3:-245.128013:eff_
1549595859.331147,cobot_dynamixel_driver/goal|-:J3:-245.064913:eff_
1549595859.358809,cobot_dynamixel_driver/goal|-:J3:-244.997622:eff_
1549595859.386161,cobot_dynamixel_driver/goal|-:J3:-244.935905:eff_
1549595859.413100,cobot_dynamixel_driver/goal|-:J3:-244.935905:eff_
1549595859.440295,cobot_dynamixel_driver/goal|-:J3:-244.858141:eff_
1549595859.467141,cobot_dynamixel_driver/goal|-:J3:-244.820588:eff_
1549595859.494114,cobot_dynamixel_driver/goal|-:J3:-244.820588:eff_
1549595859.521548,cobot_dynamixel_driver/goal|-:J3:-244.735243:eff_
1549595859.549039,cobot_dynamixel_driver/goal|-:J3:-244.689392:eff_
1549595859.576283,cobot_dynamixel_driver/goal|-:J3:-244.642398:eff_
1549595859.603076,cobot_dynamixel_driver/goal|-:J3:-244.594253:eff_
1549595859.630257,cobot_dynamixel_driver/goal|-:J3:-244.545955:eff_
1549595859.657568,cobot_dynamixel_driver/goal|-:J3:-244.494470:eff_
1549595859.685026,cobot_dynamixel_driver/goal|-:J3:-244.449912:eff_
1549595859.711995,cobot_dynamixel_driver/goal|-:J3:-244.449912:eff_
1549595859.739223,cobot_dynamixel_driver/goal|-:J3:-244.388944:eff_
1549595859.766038,cobot_dynamixel_driver/goal|-:J3:-244.367549:eff_
1549595859.792980,cobot_dynamixel_driver/goal|-:J3:-244.367549:eff_
1549595859.820118,cobot_dynamixel_driver/goal|-:J3:-244.326715:eff_
1549595859.847112,cobot_dynamixel_driver/goal|-:J3:-244.308305:eff_
1549595859.874032,cobot_dynamixel_driver/goal|-:J3:-244.308305:eff_
1549595859.901098,cobot_dynamixel_driver/goal|-:J3:-244.263212:eff_
1549595859.928116,cobot_dynamixel_driver/goal|-:J3:-244.242672:eff_
1549595859.955221,cobot_dynamixel_driver/goal|-:J3:-244.223135:eff_
1549595859.982044,cobot_dynamixel_driver/goal|-:J3:-244.201514:eff_
1549595860.008972,cobot_dynamixel_driver/goal|-:J3:-244.177800:eff_
1549595860.036178,cobot_dynamixel_driver/goal|-:J3:-244.147849:eff_
1549595860.063040,cobot_dynamixel_driver/goal|-:J3:-244.113699:eff_
1549595860.089990,cobot_dynamixel_driver/goal|-:J3:-244.068053:eff_
1549595860.117038,cobot_dynamixel_driver/goal|-:J3:-244.014985:eff_
1549595860.143968,cobot_dynamixel_driver/goal|-:J3:-243.962789:eff_
1549595860.171218,cobot_dynamixel_driver/goal|-:J3:-243.914622:eff_
1549595860.198028,cobot_dynamixel_driver/goal|-:J3:-243.871572:eff_
1549595860.224888,cobot_dynamixel_driver/goal|-:J3:-243.830519:eff_
1549595860.251947,cobot_dynamixel_driver/goal|-:J3:-243.830519:eff_
1549595860.279690,cobot_dynamixel_driver/goal|-:J3:-243.732215:eff_
1549595860.307117,cobot_dynamixel_driver/goal|-:J3:-243.668488:eff_
1549595860.333817,cobot_dynamixel_driver/goal|-:J3:-243.668488:eff_
1549595860.360999,cobot_dynamixel_driver/goal|-:J3:-243.522082:eff_
1549595860.388206,cobot_dynamixel_driver/goal|-:J3:-243.434936:eff_
1549595860.414934,cobot_dynamixel_driver/goal|-:J3:-243.352772:eff_
1549595860.441943,cobot_dynamixel_driver/goal|-:J3:-243.273492:eff_
1549595860.468805,cobot_dynamixel_driver/goal|-:J3:-243.185109:eff_
1549595860.496017,cobot_dynamixel_driver/goal|-:J3:-243.089694:eff_
1549595860.523258,cobot_dynamixel_driver/goal|-:J3:-242.984933:eff_
1549595860.550834,cobot_dynamixel_driver/goal|-:J3:-242.868449:eff_
1549595860.577948,cobot_dynamixel_driver/goal|-:J3:-242.751234:eff_
1549595860.605607,cobot_dynamixel_driver/goal|-:J3:-242.631034:eff_
1549595860.632849,cobot_dynamixel_driver/goal|-:J3:-242.631034:eff_
1549595860.659859,cobot_dynamixel_driver/goal|-:J3:-242.360957:eff_
1549595860.686793,cobot_dynamixel_driver/goal|-:J3:-242.226813:eff_
1549595860.713968,cobot_dynamixel_driver/goal|-:J3:-242.226813:eff_
1549595860.741133,cobot_dynamixel_driver/goal|-:J3:-241.974454:eff_
1549595860.768791,cobot_dynamixel_driver/goal|-:J3:-241.840063:eff_
1549595860.795831,cobot_dynamixel_driver/goal|-:J3:-241.692994:eff_
1549595860.823067,cobot_dynamixel_driver/goal|-:J3:-241.562719:eff_
1549595860.850741,cobot_dynamixel_driver/goal|-:J3:-241.434035:eff_
1549595860.877846,cobot_dynamixel_driver/goal|-:J3:-241.294961:eff_
1549595860.904746,cobot_dynamixel_driver/goal|-:J3:-241.153788:eff_
1549595860.931888,cobot_dynamixel_driver/goal|-:J3:-241.153788:eff_
1549595860.958707,cobot_dynamixel_driver/goal|-:J3:-240.894462:eff_
1549595860.985768,cobot_dynamixel_driver/goal|-:J3:-240.763061:eff_
1549595861.012674,cobot_dynamixel_driver/goal|-:J3:-240.763061:eff_
1549595861.039736,cobot_dynamixel_driver/goal|-:J3:-240.491765:eff_
1549595861.066631,cobot_dynamixel_driver/goal|-:J3:-240.366834:eff_
1549595861.093613,cobot_dynamixel_driver/goal|-:J3:-240.366834:eff_
1549595861.120714,cobot_dynamixel_driver/goal|-:J3:-240.122591:eff_
1549595861.147879,cobot_dynamixel_driver/goal|-:J3:-239.996996:eff_
1549595861.174580,cobot_dynamixel_driver/goal|-:J3:-239.996996:eff_
1549595861.201679,cobot_dynamixel_driver/goal|-:J3:-239.758002:eff_
1549595861.228546,cobot_dynamixel_driver/goal|-:J3:-239.652477:eff_
1549595861.255750,cobot_dynamixel_driver/goal|-:J3:-239.542625:eff_
1549595861.282586,cobot_dynamixel_driver/goal|-:J3:-239.428395:eff_
1549595861.309573,cobot_dynamixel_driver/goal|-:J3:-239.311042:eff_
1549595861.337878,cobot_dynamixel_driver/goal|-:J3:-239.194470:eff_
1549595861.365526,cobot_dynamixel_driver/goal|-:J3:-239.086606:eff_
1549595861.392575,cobot_dynamixel_driver/goal|-:J3:-239.086606:eff_
1549595861.420118,cobot_dynamixel_driver/goal|-:J3:-238.850943:eff_
1549595861.447496,cobot_dynamixel_driver/goal|-:J3:-238.710953:eff_
1549595861.474604,cobot_dynamixel_driver/goal|-:J3:-238.710953:eff_
1549595861.501726,cobot_dynamixel_driver/goal|-:J3:-238.403132:eff_
1549595861.528588,cobot_dynamixel_driver/goal|-:J3:-238.263559:eff_
1549595861.555588,cobot_dynamixel_driver/goal|-:J3:-238.126020:eff_
1549595861.582649,cobot_dynamixel_driver/goal|-:J3:-237.985070:eff_
1549595861.609470,cobot_dynamixel_driver/goal|-:J3:-237.846182:eff_
1549595861.637266,cobot_dynamixel_driver/goal|-:J3:-237.717704:eff_
1549595861.664469,cobot_dynamixel_driver/goal|-:J3:-237.594222:eff_
1549595861.691537,cobot_dynamixel_driver/goal|-:J3:-237.463240:eff_
1549595861.718765,cobot_dynamixel_driver/goal|-:J3:-237.340095:eff_
1549595861.746496,cobot_dynamixel_driver/goal|-:J3:-237.210811:eff_
1549595861.773452,cobot_dynamixel_driver/goal|-:J3:-237.210811:eff_
1549595861.800475,cobot_dynamixel_driver/goal|-:J3:-236.967621:eff_
1549595861.827389,cobot_dynamixel_driver/goal|-:J3:-236.836749:eff_
1549595861.854398,cobot_dynamixel_driver/goal|-:J3:-236.836749:eff_
1549595861.881577,cobot_dynamixel_driver/goal|-:J3:-236.553216:eff_
1549595861.908409,cobot_dynamixel_driver/goal|-:J3:-236.397482:eff_
1549595861.935819,cobot_dynamixel_driver/goal|-:J3:-236.258413:eff_
1549595861.963426,cobot_dynamixel_driver/goal|-:J3:-236.112911:eff_
1549595861.990470,cobot_dynamixel_driver/goal|-:J3:-235.959432:eff_
1549595862.017648,cobot_dynamixel_driver/goal|-:J3:-235.802289:eff_
1549595862.044357,cobot_dynamixel_driver/goal|-:J3:-235.653275:eff_
1549595862.071440,cobot_dynamixel_driver/goal|-:J3:-235.653275:eff_
1549595862.098428,cobot_dynamixel_driver/goal|-:J3:-235.354744:eff_
1549595862.125513,cobot_dynamixel_driver/goal|-:J3:-235.178262:eff_
1549595862.152350,cobot_dynamixel_driver/goal|-:J3:-235.178262:eff_
1549595862.179475,cobot_dynamixel_driver/goal|-:J3:-234.825610:eff_
1549595862.206325,cobot_dynamixel_driver/goal|-:J3:-234.663169:eff_
1549595862.233377,cobot_dynamixel_driver/goal|-:J3:-234.663169:eff_
1549595862.260362,cobot_dynamixel_driver/goal|-:J3:-234.336055:eff_
1549595862.287267,cobot_dynamixel_driver/goal|-:J3:-234.186804:eff_
1549595862.314269,cobot_dynamixel_driver/goal|-:J3:-234.186804:eff_
1549595862.341375,cobot_dynamixel_driver/goal|-:J3:-233.928415:eff_
1549595862.368300,cobot_dynamixel_driver/goal|-:J3:-233.793089:eff_
1549595862.395430,cobot_dynamixel_driver/goal|-:J3:-233.674471:eff_
1549595862.422262,cobot_dynamixel_driver/goal|-:J3:-233.552343:eff_
1549595862.449299,cobot_dynamixel_driver/goal|-:J3:-233.458130:eff_
1549595862.476400,cobot_dynamixel_driver/goal|-:J3:-233.384166:eff_
1549595862.503585,cobot_dynamixel_driver/goal|-:J3:-233.338458:eff_
1549595862.531225,cobot_dynamixel_driver/goal|-:J3:-233.308482:eff_
1549595862.558467,cobot_dynamixel_driver/goal|-:J3:-233.292695:eff_
1549595862.585523,cobot_dynamixel_driver/goal|-:J3:-233.292695:eff_
1549595862.612151,cobot_dynamixel_driver/goal|-:J3:-233.292695:eff_
1549595862.639266,cobot_dynamixel_driver/goal|-:J3:-233.292695:eff_
1549595862.666175,cobot_dynamixel_driver/goal|-:J3:-233.292695:eff_
1549595862.693120,cobot_dynamixel_driver/goal|-:J3:-233.292695:eff_
1549595862.720290,cobot_dynamixel_driver/goal|-:J3:-233.292695:eff_
1549595862.747191,cobot_dynamixel_driver/goal|-:J3:-233.300797:eff_
1549595862.774228,cobot_dynamixel_driver/goal|-:J3:-233.300797:eff_
1549595862.801311,cobot_dynamixel_driver/goal|-:J3:-233.325175:eff_
1549595862.828168,cobot_dynamixel_driver/goal|-:J3:-233.334640:eff_
1549595862.855222,cobot_dynamixel_driver/goal|-:J3:-233.353355:eff_
1549595862.882090,cobot_dynamixel_driver/goal|-:J3:-233.384871:eff_
1549595862.909114,cobot_dynamixel_driver/goal|-:J3:-233.439963:eff_
1549595862.936180,cobot_dynamixel_driver/goal|-:J3:-233.516958:eff_
1549595862.963112,cobot_dynamixel_driver/goal|-:J3:-233.595364:eff_
1549595862.990112,cobot_dynamixel_driver/goal|-:J3:-233.704860:eff_
1549595863.017178,cobot_dynamixel_driver/goal|-:J3:-233.871618:eff_
1549595863.044237,cobot_dynamixel_driver/goal|-:J3:-234.093323:eff_
1549595863.071154,cobot_dynamixel_driver/goal|-:J3:-234.093323:eff_
1549595863.098451,cobot_dynamixel_driver/goal|-:J3:-234.783850:eff_
1549595863.126065,cobot_dynamixel_driver/goal|-:J3:-235.240351:eff_
1549595863.153277,cobot_dynamixel_driver/goal|-:J3:-235.240351:eff_
1549595863.180309,cobot_dynamixel_driver/goal|-:J3:-236.286629:eff_
1549595863.207106,cobot_dynamixel_driver/goal|-:J3:-236.871574:eff_
1549595863.234024,cobot_dynamixel_driver/goal|-:J3:-236.871574:eff_
1549595863.261236,cobot_dynamixel_driver/goal|-:J3:-238.076071:eff_
1549595863.288146,cobot_dynamixel_driver/goal|-:J3:-238.686133:eff_
1549595863.315134,cobot_dynamixel_driver/goal|-:J3:-239.290698:eff_
1549595863.341959,cobot_dynamixel_driver/goal|-:J3:-239.876263:eff_
1549595863.369198,cobot_dynamixel_driver/goal|-:J3:-240.452078:eff_
1549595863.396126,cobot_dynamixel_driver/goal|-:J3:-241.008270:eff_
1549595863.422955,cobot_dynamixel_driver/goal|-:J3:-241.550887:eff_
1549595863.449983,cobot_dynamixel_driver/goal|-:J3:-242.076600:eff_
1549595863.477069,cobot_dynamixel_driver/goal|-:J3:-242.585658:eff_
1549595863.503916,cobot_dynamixel_driver/goal|-:J3:-243.088353:eff_
1549595863.530915,cobot_dynamixel_driver/goal|-:J3:-243.590257:eff_
1549595863.557988,cobot_dynamixel_driver/goal|-:J3:-244.092602:eff_
1549595863.584987,cobot_dynamixel_driver/goal|-:J3:-244.596913:eff_
1549595863.611949,cobot_dynamixel_driver/goal|-:J3:-244.596913:eff_
1549595863.639005,cobot_dynamixel_driver/goal|-:J3:-245.587622:eff_
1549595863.665889,cobot_dynamixel_driver/goal|-:J3:-246.061041:eff_
1549595863.692826,cobot_dynamixel_driver/goal|-:J3:-246.061041:eff_
1549595863.720056,cobot_dynamixel_driver/goal|-:J3:-246.954632:eff_
1549595863.746853,cobot_dynamixel_driver/goal|-:J3:-247.373177:eff_
1549595863.774005,cobot_dynamixel_driver/goal|-:J3:-247.373177:eff_
1549595863.800957,cobot_dynamixel_driver/goal|-:J3:-248.141420:eff_
1549595863.827964,cobot_dynamixel_driver/goal|-:J3:-248.497447:eff_
1549595863.855175,cobot_dynamixel_driver/goal|-:J3:-248.834162:eff_
1549595863.882740,cobot_dynamixel_driver/goal|-:J3:-249.150687:eff_
1549595863.909809,cobot_dynamixel_driver/goal|-:J3:-249.456588:eff_
1549595863.937069,cobot_dynamixel_driver/goal|-:J3:-249.733980:eff_
1549595863.963830,cobot_dynamixel_driver/goal|-:J3:-249.995513:eff_
1549595863.990840,cobot_dynamixel_driver/goal|-:J3:-250.243422:eff_
1549595864.017962,cobot_dynamixel_driver/goal|-:J3:-250.474986:eff_
1549595864.044716,cobot_dynamixel_driver/goal|-:J3:-250.692580:eff_
1549595864.071743,cobot_dynamixel_driver/goal|-:J3:-250.895907:eff_
1549595864.098806,cobot_dynamixel_driver/goal|-:J3:-251.084666:eff_
1549595864.125760,cobot_dynamixel_driver/goal|-:J3:-251.255833:eff_
1549595864.153223,cobot_dynamixel_driver/goal|-:J3:-251.255833:eff_
1549595864.180852,cobot_dynamixel_driver/goal|-:J3:-251.529846:eff_
1549595864.207825,cobot_dynamixel_driver/goal|-:J3:-251.625507:eff_
1549595864.234745,cobot_dynamixel_driver/goal|-:J3:-251.625507:eff_
1549595864.261815,cobot_dynamixel_driver/goal|-:J3:-251.702947:eff_
1549595864.288859,cobot_dynamixel_driver/goal|-:J3:-251.698883:eff_
1549595864.316131,cobot_dynamixel_driver/goal|-:J3:-251.694851:eff_
1549595864.343699,cobot_dynamixel_driver/goal|-:J3:-251.688648:eff_
1549595864.371111,cobot_dynamixel_driver/goal|-:J3:-251.688648:eff_
1549595864.398965,cobot_dynamixel_driver/goal|-:J3:-251.678315:eff_
1549595864.425623,cobot_dynamixel_driver/goal|-:J3:-251.673942:eff_
1549595864.452919,cobot_dynamixel_driver/goal|-:J3:-251.673942:eff_
1549595864.479952,cobot_dynamixel_driver/goal|-:J3:-251.663486:eff_
1549595864.506690,cobot_dynamixel_driver/goal|-:J3:-251.658818:eff_
1549595864.533605,cobot_dynamixel_driver/goal|-:J3:-251.658818:eff_
1549595864.560834,cobot_dynamixel_driver/goal|-:J3:-251.647601:eff_
1549595864.587628,cobot_dynamixel_driver/goal|-:J3:-251.642067:eff_
1549595864.614695,cobot_dynamixel_driver/goal|-:J3:-251.642067:eff_
1549595864.641740,cobot_dynamixel_driver/goal|-:J3:-251.631696:eff_
1549595864.668551,cobot_dynamixel_driver/goal|-:J3:-251.625556:eff_
1549595864.695760,cobot_dynamixel_driver/goal|-:J3:-251.620438:eff_
1549595864.722851,cobot_dynamixel_driver/goal|-:J3:-251.615813:eff_
1549595864.749654,cobot_dynamixel_driver/goal|-:J3:-251.610123:eff_
1549595864.776634,cobot_dynamixel_driver/goal|-:J3:-251.602564:eff_
1549595864.803754,cobot_dynamixel_driver/goal|-:J3:-251.590677:eff_
1549595864.830563,cobot_dynamixel_driver/goal|-:J3:-251.590677:eff_
1549595864.857816,cobot_dynamixel_driver/goal|-:J3:-251.557305:eff_
1549595864.884531,cobot_dynamixel_driver/goal|-:J3:-251.539071:eff_
1549595864.911456,cobot_dynamixel_driver/goal|-:J3:-251.521955:eff_
1549595864.938742,cobot_dynamixel_driver/goal|-:J3:-251.505735:eff_
1549595864.965439,cobot_dynamixel_driver/goal|-:J3:-251.487876:eff_
1549595864.992548,cobot_dynamixel_driver/goal|-:J3:-251.487876:eff_
1549595865.019835,cobot_dynamixel_driver/goal|-:J3:-251.445317:eff_
1549595865.047449,cobot_dynamixel_driver/goal|-:J3:-251.420150:eff_
1549595865.074525,cobot_dynamixel_driver/goal|-:J3:-251.420150:eff_
1549595865.101606,cobot_dynamixel_driver/goal|-:J3:-251.369053:eff_
1549595865.128448,cobot_dynamixel_driver/goal|-:J3:-251.344757:eff_
1549595865.155610,cobot_dynamixel_driver/goal|-:J3:-251.318800:eff_
1549595865.182486,cobot_dynamixel_driver/goal|-:J3:-251.292705:eff_
1549595865.209570,cobot_dynamixel_driver/goal|-:J3:-251.264535:eff_
1549595865.236685,cobot_dynamixel_driver/goal|-:J3:-251.241636:eff_
1549595865.263475,cobot_dynamixel_driver/goal|-:J3:-251.235489:eff_
1549595865.290471,cobot_dynamixel_driver/goal|-:J3:-251.239273:eff_
1549595865.317592,cobot_dynamixel_driver/goal|-:J3:-251.244763:eff_
1549595865.344400,cobot_dynamixel_driver/goal|-:J3:-251.249552:eff_
1549595865.371425,cobot_dynamixel_driver/goal|-:J3:-251.254669:eff_
1549595865.398546,cobot_dynamixel_driver/goal|-:J3:-251.262146:eff_
1549595865.425608,cobot_dynamixel_driver/goal|-:J3:-251.278010:eff_
1549595865.452388,cobot_dynamixel_driver/goal|-:J3:-251.278010:eff_
1549595865.479490,cobot_dynamixel_driver/goal|-:J3:-251.351566:eff_
1549595865.506385,cobot_dynamixel_driver/goal|-:J3:-251.406672:eff_
1549595865.533273,cobot_dynamixel_driver/goal|-:J3:-251.406672:eff_
1549595865.560642,cobot_dynamixel_driver/goal|-:J3:-251.550812:eff_
1549595865.588496,cobot_dynamixel_driver/goal|-:J3:-251.635553:eff_
1549595865.615409,cobot_dynamixel_driver/goal|-:J3:-251.722836:eff_
1549595865.642292,cobot_dynamixel_driver/goal|-:J3:-251.803964:eff_
1549595865.669297,cobot_dynamixel_driver/goal|-:J3:-251.878126:eff_
1549595865.696425,cobot_dynamixel_driver/goal|-:J3:-251.944369:eff_
1549595865.723300,cobot_dynamixel_driver/goal|-:J3:-252.000235:eff_
1549595865.750237,cobot_dynamixel_driver/goal|-:J3:-252.045595:eff_
1549595865.777370,cobot_dynamixel_driver/goal|-:J3:-252.079371:eff_
1549595865.804670,cobot_dynamixel_driver/goal|-:J3:-252.101811:eff_
1549595865.832265,cobot_dynamixel_driver/goal|-:J3:-252.101811:eff_
1549595865.859400,cobot_dynamixel_driver/goal|-:J3:-252.107874:eff_
1549595865.886248,cobot_dynamixel_driver/goal|-:J3:-252.089824:eff_
1549595865.913251,cobot_dynamixel_driver/goal|-:J3:-252.089824:eff_
1549595865.940380,cobot_dynamixel_driver/goal|-:J3:-252.009610:eff_
1549595865.967192,cobot_dynamixel_driver/goal|-:J3:-251.945543:eff_
1549595865.994272,cobot_dynamixel_driver/goal|-:J3:-251.945543:eff_
1549595866.021300,cobot_dynamixel_driver/goal|-:J3:-251.766057:eff_
1549595866.048182,cobot_dynamixel_driver/goal|-:J3:-251.647617:eff_
1549595866.075325,cobot_dynamixel_driver/goal|-:J3:-251.512930:eff_
1549595866.102381,cobot_dynamixel_driver/goal|-:J3:-251.343177:eff_
1549595866.129289,cobot_dynamixel_driver/goal|-:J3:-251.155183:eff_
1549595866.156280,cobot_dynamixel_driver/goal|-:J3:-250.941510:eff_
1549595866.183181,cobot_dynamixel_driver/goal|-:J3:-250.701120:eff_
1549595866.210241,cobot_dynamixel_driver/goal|-:J3:-250.445466:eff_
1549595866.237297,cobot_dynamixel_driver/goal|-:J3:-250.144938:eff_
1549595866.264207,cobot_dynamixel_driver/goal|-:J3:-249.834021:eff_
1549595866.291082,cobot_dynamixel_driver/goal|-:J3:-249.514599:eff_
1549595866.318209,cobot_dynamixel_driver/goal|-:J3:-249.163673:eff_
1549595866.345157,cobot_dynamixel_driver/goal|-:J3:-248.777773:eff_
1549595866.372172,cobot_dynamixel_driver/goal|-:J3:-248.777773:eff_
1549595866.399141,cobot_dynamixel_driver/goal|-:J3:-247.993539:eff_
1549595866.426116,cobot_dynamixel_driver/goal|-:J3:-247.568141:eff_
1549595866.453316,cobot_dynamixel_driver/goal|-:J3:-247.568141:eff_
1549595866.480911,cobot_dynamixel_driver/goal|-:J3:-246.699599:eff_
1549595866.508255,cobot_dynamixel_driver/goal|-:J3:-246.315452:eff_
1549595866.535288,cobot_dynamixel_driver/goal|-:J3:-245.967024:eff_
1549595866.562062,cobot_dynamixel_driver/goal|-:J3:-245.708814:eff_
1549595866.589247,cobot_dynamixel_driver/goal|-:J3:-245.560045:eff_
1549595866.616462,cobot_dynamixel_driver/goal|-:J3:-245.526205:eff_
1549595866.644003,cobot_dynamixel_driver/goal|-:J3:-245.553314:eff_
1549595866.671060,cobot_dynamixel_driver/goal|-:J3:-245.553314:eff_
1549595866.698122,cobot_dynamixel_driver/goal|-:J3:-245.594561:eff_
1549595866.725019,cobot_dynamixel_driver/goal|-:J3:-245.620610:eff_
1549595866.752265,cobot_dynamixel_driver/goal|-:J3:-245.620610:eff_
1549595866.779151,cobot_dynamixel_driver/goal|-:J3:-245.666170:eff_
1549595866.805959,cobot_dynamixel_driver/goal|-:J3:-245.682522:eff_
1549595866.832941,cobot_dynamixel_driver/goal|-:J3:-245.682522:eff_
1549595866.860397,cobot_dynamixel_driver/goal|-:J3:-245.725085:eff_
1549595866.887938,cobot_dynamixel_driver/goal|-:J3:-245.745194:eff_
1549595866.915044,cobot_dynamixel_driver/goal|-:J3:-245.767249:eff_
1549595866.942012,cobot_dynamixel_driver/goal|-:J3:-245.786629:eff_
1549595866.968987,cobot_dynamixel_driver/goal|-:J3:-245.805980:eff_
1549595866.995998,cobot_dynamixel_driver/goal|-:J3:-245.824382:eff_
1549595867.022960,cobot_dynamixel_driver/goal|-:J3:-245.849182:eff_
1549595867.049884,cobot_dynamixel_driver/goal|-:J3:-245.885447:eff_
1549595867.077020,cobot_dynamixel_driver/goal|-:J3:-245.936324:eff_
1549595867.104098,cobot_dynamixel_driver/goal|-:J3:-246.004481:eff_
1549595867.130882,cobot_dynamixel_driver/goal|-:J3:-246.080372:eff_
1549595867.157961,cobot_dynamixel_driver/goal|-:J3:-246.152210:eff_
1549595867.184822,cobot_dynamixel_driver/goal|-:J3:-246.228959:eff_
1549595867.211821,cobot_dynamixel_driver/goal|-:J3:-246.228959:eff_
1549595867.238957,cobot_dynamixel_driver/goal|-:J3:-246.404660:eff_
1549595867.265891,cobot_dynamixel_driver/goal|-:J3:-246.503252:eff_
1549595867.292812,cobot_dynamixel_driver/goal|-:J3:-246.503252:eff_
1549595867.320213,cobot_dynamixel_driver/goal|-:J3:-246.704702:eff_
1549595867.347986,cobot_dynamixel_driver/goal|-:J3:-246.819983:eff_
1549595867.374897,cobot_dynamixel_driver/goal|-:J3:-246.937368:eff_
1549595867.401761,cobot_dynamixel_driver/goal|-:J3:-247.045071:eff_
1549595867.428920,cobot_dynamixel_driver/goal|-:J3:-247.151880:eff_
1549595867.455892,cobot_dynamixel_driver/goal|-:J3:-247.259059:eff_
1549595867.482774,cobot_dynamixel_driver/goal|-:J3:-247.361190:eff_
1549595867.509722,cobot_dynamixel_driver/goal|-:J3:-247.452625:eff_
1549595867.536920,cobot_dynamixel_driver/goal|-:J3:-247.542504:eff_
1549595867.563718,cobot_dynamixel_driver/goal|-:J3:-247.630735:eff_
1549595867.590737,cobot_dynamixel_driver/goal|-:J3:-247.718880:eff_
1549595867.617901,cobot_dynamixel_driver/goal|-:J3:-247.797009:eff_
1549595867.644761,cobot_dynamixel_driver/goal|-:J3:-247.871416:eff_
1549595867.671670,cobot_dynamixel_driver/goal|-:J3:-247.871416:eff_
1549595867.698796,cobot_dynamixel_driver/goal|-:J3:-248.011505:eff_
1549595867.725742,cobot_dynamixel_driver/goal|-:J3:-248.076458:eff_
1549595867.752644,cobot_dynamixel_driver/goal|-:J3:-248.076458:eff_
1549595867.779892,cobot_dynamixel_driver/goal|-:J3:-248.178123:eff_
1549595867.806674,cobot_dynamixel_driver/goal|-:J3:-248.226765:eff_
1549595867.833643,cobot_dynamixel_driver/goal|-:J3:-248.226765:eff_
1549595867.860791,cobot_dynamixel_driver/goal|-:J3:-248.325290:eff_
1549595867.887679,cobot_dynamixel_driver/goal|-:J3:-248.380821:eff_
1549595867.914653,cobot_dynamixel_driver/goal|-:J3:-248.380821:eff_
1549595867.941705,cobot_dynamixel_driver/goal|-:J3:-248.480169:eff_
1549595867.968676,cobot_dynamixel_driver/goal|-:J3:-248.522039:eff_
1549595867.995821,cobot_dynamixel_driver/goal|-:J3:-248.567127:eff_
1549595868.022602,cobot_dynamixel_driver/goal|-:J3:-248.614678:eff_
1549595868.049567,cobot_dynamixel_driver/goal|-:J3:-248.662591:eff_
1549595868.076859,cobot_dynamixel_driver/goal|-:J3:-248.715593:eff_
1549595868.103758,cobot_dynamixel_driver/goal|-:J3:-248.766843:eff_
1549595868.130526,cobot_dynamixel_driver/goal|-:J3:-248.766843:eff_
1549595868.157620,cobot_dynamixel_driver/goal|-:J3:-248.856921:eff_
1549595868.184875,cobot_dynamixel_driver/goal|-:J3:-248.905778:eff_
1549595868.211587,cobot_dynamixel_driver/goal|-:J3:-248.905778:eff_
1549595868.238699,cobot_dynamixel_driver/goal|-:J3:-249.020499:eff_
1549595868.265505,cobot_dynamixel_driver/goal|-:J3:-249.089227:eff_
1549595868.292617,cobot_dynamixel_driver/goal|-:J3:-249.089227:eff_
1549595868.319893,cobot_dynamixel_driver/goal|-:J3:-249.203016:eff_
1549595868.347608,cobot_dynamixel_driver/goal|-:J3:-249.242713:eff_
1549595868.374666,cobot_dynamixel_driver/goal|-:J3:-249.242713:eff_
1549595868.401510,cobot_dynamixel_driver/goal|-:J3:-249.290873:eff_
1549595868.428469,cobot_dynamixel_driver/goal|-:J3:-249.300738:eff_
1549595868.456094,cobot_dynamixel_driver/goal|-:J3:-249.300122:eff_
1549595868.483392,cobot_dynamixel_driver/goal|-:J3:-249.295191:eff_
1549595868.510499,cobot_dynamixel_driver/goal|-:J3:-249.292107:eff_
1549595868.537814,cobot_dynamixel_driver/goal|-:J3:-249.285316:eff_
1549595868.565456,cobot_dynamixel_driver/goal|-:J3:-249.276661:eff_
1549595868.592423,cobot_dynamixel_driver/goal|-:J3:-249.276661:eff_
1549595868.619597,cobot_dynamixel_driver/goal|-:J3:-249.255588:eff_
1549595868.646340,cobot_dynamixel_driver/goal|-:J3:-249.227577:eff_
1549595868.673508,cobot_dynamixel_driver/goal|-:J3:-249.227577:eff_
1549595868.700464,cobot_dynamixel_driver/goal|-:J3:-249.102437:eff_
1549595868.727333,cobot_dynamixel_driver/goal|-:J3:-248.997661:eff_
