surachairobotic/cobot/cobot_dynamixel_driver/log/2019-06-20T07:08:38.838443_driver_cmd.txt
1561015478.175288,cobot_dynamixel_driver/goal|-:J1,J2,J3,J4,J5,J6:0.000000,0.000000,0.000000,0.000000,0.000000,0.000000:0.500000,0.500000,0.500000,0.500000,0.500000,0.500000:pos_vel_
1561015641.892947,cobot_dynamixel_driver/goal|-:J1,J2,J3,J4,J5,J6:0.041463,0.035728,0.085388,0.029884,-0.116402,0.527740:vel_
1561015642.325005,cobot_dynamixel_driver/goal|-:J1,J2,J3,J4,J5,J6:0.042728,0.030303,0.074342,0.030822,-0.120191,0.554448:vel_
1561015642.356777,cobot_dynamixel_driver/goal|-:J1,J2,J3,J4,J5,J6:0.044144,0.030482,0.072663,0.031973,-0.120482,0.610980:vel_
1561015642.388689,cobot_dynamixel_driver/goal|-:J1,J2,J3,J4,J5,J6:0.045254,0.030282,0.071311,0.032799,-0.121246,0.668855:vel_
1561015642.420644,cobot_dynamixel_driver/goal|-:J1,J2,J3,J4,J5,J6:0.046641,0.029875,0.071229,0.033286,-0.121972,0.730854:vel_
1561015642.452875,cobot_dynamixel_driver/goal|-:J1,J2,J3,J4,J5,J6:0.070410,0.057245,0.131249,0.052018,-0.200467,0.785398:vel_
1561015642.487583,cobot_dynamixel_driver/goal|-:J1,J2,J3,J4,J5,J6:0.074659,0.061576,0.141685,0.055813,-0.213938,0.785398:vel_
1561015642.517108,cobot_dynamixel_driver/goal|-:J1,J2,J3,J4,J5,J6:0.074643,0.061500,0.142979,0.055596,-0.214269,0.785398:vel_
1561015642.548701,cobot_dynamixel_driver/goal|-:J1,J2,J3,J4,J5,J6:0.074725,0.061879,0.142413,0.055793,-0.213770,0.785398:vel_
1561015642.582805,cobot_dynamixel_driver/goal|-:J1,J2,J3,J4,J5,J6:0.075633,0.061373,0.144048,0.056727,-0.217125,0.785398:vel_
1561015642.612693,cobot_dynamixel_driver/goal|-:J1,J2,J3,J4,J5,J6:0.076091,0.061059,0.143583,0.056748,-0.218268,0.785398:vel_
1561015642.644696,cobot_dynamixel_driver/goal|-:J1,J2,J3,J4,J5,J6:0.098117,0.090218,0.199115,0.073593,-0.302785,0.785398:vel_
1561015642.676828,cobot_dynamixel_driver/goal|-:J1,J2,J3,J4,J5,J6:0.104731,0.097248,0.214095,0.077751,-0.325285,0.785398:vel_
1561015642.708858,cobot_dynamixel_driver/goal|-:J1,J2,J3,J4,J5,J6:0.107703,0.101823,0.221515,0.079850,-0.336704,0.785398:vel_
1561015642.740689,cobot_dynamixel_driver/goal|-:J1,J2,J3,J4,J5,J6:0.107100,0.101150,0.219045,0.078856,-0.332488,0.785398:vel_
1561015642.772736,cobot_dynamixel_driver/goal|-:J1,J2,J3,J4,J5,J6:0.110321,0.108060,0.226925,0.082156,-0.359352,0.785398:vel_
1561015642.820660,cobot_dynamixel_driver/goal|-:J1,J2,J3,J4,J5,J6:0.128063,0.127381,0.265675,0.095425,-0.426035,0.785398:vel_
1561015642.852675,cobot_dynamixel_driver/goal|-:J1,J2,J3,J4,J5,J6:0.114104,0.110857,0.237188,0.082697,-0.378222,0.785398:vel_
1561015642.884848,cobot_dynamixel_driver/goal|-:J1,J2,J3,J4,J5,J6:0.111854,0.113292,0.223390,0.079009,-0.375865,0.785398:vel_
1561015642.916916,cobot_dynamixel_driver/goal|-:J1,J2,J3,J4,J5,J6:0.111367,0.113972,0.220964,0.078067,-0.378390,0.785398:vel_
1561015642.948709,cobot_dynamixel_driver/goal|-:J1,J2,J3,J4,J5,J6:0.115907,0.115579,0.226411,0.079778,-0.390085,0.785398:vel_
1561015642.980942,cobot_dynamixel_driver/goal|-:J1,J2,J3,J4,J5,J6:0.118037,0.121469,0.226169,0.076951,-0.397902,0.785398:vel_
1561015643.012724,cobot_dynamixel_driver/goal|-:J1,J2,J3,J4,J5,J6:0.119303,0.123849,0.226774,0.076845,-0.400372,0.785398:vel_
1561015643.044703,cobot_dynamixel_driver/goal|-:J1,J2,J3,J4,J5,J6:0.122507,0.126627,0.229959,0.078084,-0.407635,0.785398:vel_
1561015643.076975,cobot_dynamixel_driver/goal|-:J1,J2,J3,J4,J5,J6:0.122375,0.129031,0.224244,0.072225,-0.413137,0.785398:vel_
1561015643.109085,cobot_dynamixel_driver/goal|-:J1,J2,J3,J4,J5,J6:0.122309,0.129124,0.225091,0.071518,-0.415132,0.785398:vel_
1561015643.141377,cobot_dynamixel_driver/goal|-:J1,J2,J3,J4,J5,J6:0.121422,0.127892,0.225880,0.070346,-0.417236,0.785398:vel_
1561015643.173014,cobot_dynamixel_driver/goal|-:J1,J2,J3,J4,J5,J6:0.124900,0.134033,0.217768,0.064138,-0.424491,0.785398:vel_
1561015643.205102,cobot_dynamixel_driver/goal|-:J1,J2,J3,J4,J5,J6:0.126161,0.135525,0.216035,0.063294,-0.427030,0.785398:vel_
1561015643.236699,cobot_dynamixel_driver/goal|-:J1,J2,J3,J4,J5,J6:0.127008,0.136938,0.215446,0.063379,-0.426194,0.785398:vel_
1561015643.268734,cobot_dynamixel_driver/goal|-:J1,J2,J3,J4,J5,J6:0.132369,0.141629,0.209849,0.055427,-0.431392,0.785398:vel_
1561015643.300737,cobot_dynamixel_driver/goal|-:J1,J2,J3,J4,J5,J6:0.134391,0.143135,0.210360,0.053794,-0.434569,0.785398:vel_
1561015643.332811,cobot_dynamixel_driver/goal|-:J1,J2,J3,J4,J5,J6:0.134374,0.144798,0.212684,0.052950,-0.438649,0.785398:vel_
1561015643.364775,cobot_dynamixel_driver/goal|-:J1,J2,J3,J4,J5,J6:0.137035,0.149674,0.202179,0.044016,-0.437343,0.785398:vel_
1561015643.396776,cobot_dynamixel_driver/goal|-:J1,J2,J3,J4,J5,J6:0.141015,0.152317,0.201948,0.043136,-0.443347,0.785398:vel_
1561015643.428806,cobot_dynamixel_driver/goal|-:J1,J2,J3,J4,J5,J6:0.143648,0.154441,0.203802,0.043568,-0.449217,0.785398:vel_
1561015643.460731,cobot_dynamixel_driver/goal|-:J1,J2,J3,J4,J5,J6:0.144131,0.157094,0.207503,0.043921,-0.455923,0.785398:vel_
1561015643.492719,cobot_dynamixel_driver/goal|-:J1,J2,J3,J4,J5,J6:0.145703,0.161792,0.190951,0.030814,-0.445015,0.785398:vel_
1561015643.524669,cobot_dynamixel_driver/goal|-:J1,J2,J3,J4,J5,J6:0.148269,0.164936,0.187943,0.027252,-0.448674,0.785398:vel_
1561015643.556616,cobot_dynamixel_driver/goal|-:J1,J2,J3,J4,J5,J6:0.150926,0.167339,0.187920,0.028588,-0.454706,0.785398:vel_
1561015643.588651,cobot_dynamixel_driver/goal|-:J1,J2,J3,J4,J5,J6:0.153177,0.174147,0.179508,0.017589,-0.450783,0.785398:vel_
1561015643.620668,cobot_dynamixel_driver/goal|-:J1,J2,J3,J4,J5,J6:0.156449,0.177955,0.179559,0.013095,-0.455499,0.785398:vel_
1561015643.652643,cobot_dynamixel_driver/goal|-:J1,J2,J3,J4,J5,J6:0.157203,0.178255,0.178503,0.009566,-0.455868,0.785398:vel_
1561015643.684647,cobot_dynamixel_driver/goal|-:J1,J2,J3,J4,J5,J6:0.159105,0.184687,0.165023,0.000240,-0.446284,0.785398:vel_
1561015643.716611,cobot_dynamixel_driver/goal|-:J1,J2,J3,J4,J5,J6:0.162313,0.188940,0.163219,-0.002003,-0.450238,0.785398:vel_
1561015643.748684,cobot_dynamixel_driver/goal|-:J1,J2,J3,J4,J5,J6:0.164481,0.191943,0.163982,-0.003893,-0.457674,0.785398:vel_
1561015643.780575,cobot_dynamixel_driver/goal|-:J1,J2,J3,J4,J5,J6:0.166945,0.199734,0.150896,-0.015569,-0.448491,0.785398:vel_
1561015643.812658,cobot_dynamixel_driver/goal|-:J1,J2,J3,J4,J5,J6:0.168390,0.202318,0.147039,-0.020451,-0.446651,0.785398:vel_
1561015643.844613,cobot_dynamixel_driver/goal|-:J1,J2,J3,J4,J5,J6:0.171330,0.207359,0.148566,-0.027936,-0.455165,0.785398:vel_
1561015643.876647,cobot_dynamixel_driver/goal|-:J1,J2,J3,J4,J5,J6:0.172366,0.213546,0.134487,-0.037426,-0.442064,0.785398:vel_
1561015643.908579,cobot_dynamixel_driver/goal|-:J1,J2,J3,J4,J5,J6:0.173765,0.215568,0.131158,-0.042638,-0.439854,0.785398:vel_
1561015643.940620,cobot_dynamixel_driver/goal|-:J1,J2,J3,J4,J5,J6:0.175565,0.217596,0.132349,-0.046414,-0.446220,0.785398:vel_
1561015643.972708,cobot_dynamixel_driver/goal|-:J1,J2,J3,J4,J5,J6:0.178756,0.230518,0.117583,-0.053716,-0.438765,0.785398:vel_
1561015644.004586,cobot_dynamixel_driver/goal|-:J1,J2,J3,J4,J5,J6:0.178703,0.233093,0.113173,-0.056565,-0.435632,0.785398:vel_
1561015644.036572,cobot_dynamixel_driver/goal|-:J1,J2,J3,J4,J5,J6:0.178558,0.235113,0.112246,-0.058994,-0.436967,0.785398:vel_
1561015644.068590,cobot_dynamixel_driver/goal|-:J1,J2,J3,J4,J5,J6:0.179394,0.242831,0.094626,-0.070343,-0.418795,0.785398:vel_
1561015644.100619,cobot_dynamixel_driver/goal|-:J1,J2,J3,J4,J5,J6:0.182330,0.247350,0.091208,-0.074510,-0.419611,0.785398:vel_
1561015644.132630,cobot_dynamixel_driver/goal|-:J1,J2,J3,J4,J5,J6:0.184018,0.250219,0.091237,-0.075849,-0.424798,0.785398:vel_
1561015644.164677,cobot_dynamixel_driver/goal|-:J1,J2,J3,J4,J5,J6:0.185042,0.261102,0.072558,-0.088940,-0.406699,0.785398:vel_
1561015644.196735,cobot_dynamixel_driver/goal|-:J1,J2,J3,J4,J5,J6:0.184588,0.264924,0.068357,-0.091818,-0.403669,0.785398:vel_
1561015644.228900,cobot_dynamixel_driver/goal|-:J1,J2,J3,J4,J5,J6:0.187692,0.266862,0.067123,-0.092766,-0.407898,0.785398:vel_
1561015644.260979,cobot_dynamixel_driver/goal|-:J1,J2,J3,J4,J5,J6:0.166790,0.245929,0.043761,-0.094625,-0.343147,0.785398:vel_
1561015644.292870,cobot_dynamixel_driver/goal|-:J1,J2,J3,J4,J5,J6:0.164186,0.242742,0.039246,-0.095658,-0.330996,0.785398:vel_
1561015644.324723,cobot_dynamixel_driver/goal|-:J1,J2,J3,J4,J5,J6:0.164607,0.243770,0.037653,-0.097249,-0.332421,0.785398:vel_
1561015644.356603,cobot_dynamixel_driver/goal|-:J1,J2,J3,J4,J5,J6:0.165823,0.247630,0.038813,-0.098194,-0.339771,0.785398:vel_
1561015644.388647,cobot_dynamixel_driver/goal|-:J1,J2,J3,J4,J5,J6:0.077427,0.121245,0.009124,-0.052400,-0.148523,0.785398:vel_
1561015644.420683,cobot_dynamixel_driver/goal|-:J1,J2,J3,J4,J5,J6:0.068479,0.107536,0.006155,-0.047499,-0.127923,0.785398:vel_
1561015644.452629,cobot_dynamixel_driver/goal|-:J1,J2,J3,J4,J5,J6:0.063790,0.097164,0.005787,-0.046947,-0.111844,0.785398:vel_
1561015644.484639,cobot_dynamixel_driver/goal|-:J1,J2,J3,J4,J5,J6:0.063349,0.096493,0.006186,-0.047415,-0.107397,0.785398:vel_
1561015644.516635,cobot_dynamixel_driver/goal|-:J1,J2,J3,J4,J5,J6:0.064581,0.098851,0.006693,-0.047566,-0.110323,0.785398:vel_
1561015644.548576,cobot_dynamixel_driver/goal|-:J1,J2,J3,J4,J5,J6:0.065520,0.101009,0.006842,-0.047485,-0.111941,0.785398:vel_
1561015644.580650,cobot_dynamixel_driver/goal|-:J1,J2,J3,J4,J5,J6:0.066473,0.103395,0.007022,-0.048045,-0.113317,0.785398:vel_
1561015644.612619,cobot_dynamixel_driver/goal|-:J1,J2,J3,J4,J5,J6:0.019423,0.095844,0.024140,-0.010461,-0.120905,0.785398:vel_
1561015644.644590,cobot_dynamixel_driver/goal|-:J1,J2,J3,J4,J5,J6:0.015261,0.095291,0.025650,-0.006852,-0.121687,0.785398:vel_
1561015644.676568,cobot_dynamixel_driver/goal|-:J1,J2,J3,J4,J5,J6:0.013841,0.095727,0.025953,-0.006462,-0.122294,0.785398:vel_
1561015644.708561,cobot_dynamixel_driver/goal|-:J1,J2,J3,J4,J5,J6:0.013802,0.096371,0.025663,-0.006482,-0.122226,0.785398:vel_
1561015644.740573,cobot_dynamixel_driver/goal|-:J1,J2,J3,J4,J5,J6:0.013903,0.096277,0.025212,-0.006612,-0.122382,0.785398:vel_
1561015644.772591,cobot_dynamixel_driver/goal|-:J1,J2,J3,J4,J5,J6:0.013529,0.096678,0.025640,-0.006721,-0.122504,0.785398:vel_
1561015644.804598,cobot_dynamixel_driver/goal|-:J1,J2,J3,J4,J5,J6:0.013714,0.097758,0.026491,-0.006384,-0.123782,0.785398:vel_
1561015644.836540,cobot_dynamixel_driver/goal|-:J1,J2,J3,J4,J5,J6:0.009810,0.158307,0.043089,0.000119,-0.201176,0.785398:vel_
1561015644.868589,cobot_dynamixel_driver/goal|-:J1,J2,J3,J4,J5,J6:0.009569,0.167992,0.045357,0.000858,-0.213297,0.785398:vel_
1561015644.900520,cobot_dynamixel_driver/goal|-:J1,J2,J3,J4,J5,J6:0.009368,0.172606,0.045891,0.001011,-0.216448,0.785398:vel_
1561015644.932525,cobot_dynamixel_driver/goal|-:J1,J2,J3,J4,J5,J6:0.009488,0.173757,0.045583,0.001239,-0.216871,0.785398:vel_
1561015644.964583,cobot_dynamixel_driver/goal|-:J1,J2,J3,J4,J5,J6:0.009928,0.172511,0.045706,0.001587,-0.217499,0.785398:vel_
1561015644.996539,cobot_dynamixel_driver/goal|-:J1,J2,J3,J4,J5,J6:0.007846,0.236566,0.056809,0.006450,-0.293952,0.785398:vel_
1561015645.028644,cobot_dynamixel_driver/goal|-:J1,J2,J3,J4,J5,J6:0.007149,0.252294,0.059621,0.007919,-0.314091,0.785398:vel_
1561015645.060489,cobot_dynamixel_driver/goal|-:J1,J2,J3,J4,J5,J6:0.007269,0.260869,0.059383,0.009966,-0.322352,0.785398:vel_
1561015645.092542,cobot_dynamixel_driver/goal|-:J1,J2,J3,J4,J5,J6:0.008310,0.266919,0.060337,0.013655,-0.325919,0.785398:vel_
1561015645.125047,cobot_dynamixel_driver/goal|-:J1,J2,J3,J4,J5,J6:0.006968,0.296376,0.056855,0.013871,-0.353218,0.785398:vel_
1561015645.156529,cobot_dynamixel_driver/goal|-:J1,J2,J3,J4,J5,J6:0.006656,0.306183,0.055141,0.015375,-0.363067,0.785398:vel_
1561015645.188588,cobot_dynamixel_driver/goal|-:J1,J2,J3,J4,J5,J6:0.006648,0.315410,0.055652,0.017863,-0.370441,0.785398:vel_
1561015645.220564,cobot_dynamixel_driver/goal|-:J1,J2,J3,J4,J5,J6:0.006467,0.318292,0.044974,0.015273,-0.361856,0.785398:vel_
1561015645.252510,cobot_dynamixel_driver/goal|-:J1,J2,J3,J4,J5,J6:0.006525,0.320636,0.041833,0.014781,-0.360622,0.785398:vel_
1561015645.284628,cobot_dynamixel_driver/goal|-:J1,J2,J3,J4,J5,J6:0.005695,0.322857,0.040654,0.016583,-0.366396,0.785398:vel_
1561015645.316528,cobot_dynamixel_driver/goal|-:J1,J2,J3,J4,J5,J6:0.003948,0.268254,0.024219,0.012824,-0.293985,0.785398:vel_
1561015645.348478,cobot_dynamixel_driver/goal|-:J1,J2,J3,J4,J5,J6:0.003682,0.251129,0.020729,0.011827,-0.271352,0.785398:vel_
1561015645.380488,cobot_dynamixel_driver/goal|-:J1,J2,J3,J4,J5,J6:0.002190,0.134690,0.007288,0.006302,-0.142887,0.785398:vel_
1561015645.412560,cobot_dynamixel_driver/goal|-:J1,J2,J3,J4,J5,J6:0.002043,0.123488,0.006243,0.006044,-0.130846,0.785398:vel_
1561015645.444785,cobot_dynamixel_driver/goal|-:J1,J2,J3,J4,J5,J6:0.001724,0.116951,0.006254,0.006412,-0.124211,0.785398:vel_
1561015645.477862,cobot_dynamixel_driver/goal|-:J1,J2,J3,J4,J5,J6:0.001651,0.118852,0.006799,0.006980,-0.127159,0.785398:vel_
1561015645.508558,cobot_dynamixel_driver/goal|-:J1,J2,J3,J4,J5,J6:0.001394,0.120440,0.007758,0.006705,-0.127613,0.785398:vel_
1561015645.540501,cobot_dynamixel_driver/goal|-:J1,J2,J3,J4,J5,J6:0.001366,0.123341,0.008451,0.005984,-0.128857,0.785398:vel_
1561015645.572574,cobot_dynamixel_driver/goal|-:J1,J2,J3,J4,J5,J6:0.001594,0.125661,0.009225,0.005526,-0.128943,0.785398:vel_
1561015645.604487,cobot_dynamixel_driver/goal|-:J1,J2,J3,J4,J5,J6:0.001478,0.129141,0.010990,0.006265,-0.130032,0.785398:vel_
1561015645.636523,cobot_dynamixel_driver/goal|-:J1,J2,J3,J4,J5,J6:-0.001316,-0.067128,-0.001400,-0.002774,0.071239,0.785398:vel_
1561015645.668514,cobot_dynamixel_driver/goal|-:J1,J2,J3,J4,J5,J6:-0.001523,-0.085853,-0.002706,-0.003553,0.090678,0.785398:vel_
1561015645.700472,cobot_dynamixel_driver/goal|-:J1,J2,J3,J4,J5,J6:-0.001696,-0.102827,-0.003057,-0.003956,0.106475,0.785398:vel_
1561015645.732553,cobot_dynamixel_driver/goal|-:J1,J2,J3,J4,J5,J6:-0.001857,-0.112371,-0.003434,-0.004445,0.114003,0.785398:vel_
1561015645.765804,cobot_dynamixel_driver/goal|-:J1,J2,J3,J4,J5,J6:-0.002189,-0.116895,-0.003945,-0.005106,0.114418,0.785398:vel_
1561015645.796514,cobot_dynamixel_driver/goal|-:J1,J2,J3,J4,J5,J6:-0.002475,-0.119035,-0.004576,-0.005793,0.115231,0.785398:vel_
1561015645.828506,cobot_dynamixel_driver/goal|-:J1,J2,J3,J4,J5,J6:-0.002960,-0.121589,-0.005396,-0.006852,0.115908,0.785398:vel_
1561015645.860469,cobot_dynamixel_driver/goal|-:J1,J2,J3,J4,J5,J6:-0.004232,-0.195842,-0.015542,-0.009589,0.203567,0.785398:vel_
1561015645.892510,cobot_dynamixel_driver/goal|-:J1,J2,J3,J4,J5,J6:-0.004875,-0.209227,-0.017786,-0.009877,0.217011,0.785398:vel_
1561015645.924468,cobot_dynamixel_driver/goal|-:J1,J2,J3,J4,J5,J6:-0.005513,-0.216536,-0.019769,-0.010285,0.219596,0.785398:vel_
1561015645.959521,cobot_dynamixel_driver/goal|-:J1,J2,J3,J4,J5,J6:-0.006511,-0.227126,-0.022865,-0.010653,0.225489,0.785398:vel_
1561015645.988564,cobot_dynamixel_driver/goal|-:J1,J2,J3,J4,J5,J6:-0.008019,-0.221984,-0.026406,-0.010424,0.217797,0.785398:vel_
1561015646.020489,cobot_dynamixel_driver/goal|-:J1,J2,J3,J4,J5,J6:-0.010234,-0.226874,-0.029267,-0.010471,0.220653,0.785398:vel_
1561015646.068497,cobot_dynamixel_driver/goal|-:J1,J2,J3,J4,J5,J6:-0.009139,-0.312619,-0.044312,-0.012384,0.343190,0.785398:vel_
1561015646.100564,cobot_dynamixel_driver/goal|-:J1,J2,J3,J4,J5,J6:-0.008884,-0.314107,-0.045210,-0.011947,0.356440,0.785398:vel_
1561015646.132452,cobot_dynamixel_driver/goal|-:J1,J2,J3,J4,J5,J6:-0.009808,-0.329098,-0.047304,-0.013167,0.381487,0.785398:vel_
1561015646.164536,cobot_dynamixel_driver/goal|-:J1,J2,J3,J4,J5,J6:-0.007575,-0.313526,-0.057791,-0.012236,0.372123,0.785398:vel_
1561015646.196446,cobot_dynamixel_driver/goal|-:J1,J2,J3,J4,J5,J6:-0.007478,-0.307679,-0.059601,-0.012566,0.369142,0.785398:vel_
1561015646.228675,cobot_dynamixel_driver/goal|-:J1,J2,J3,J4,J5,J6:-0.007412,-0.308932,-0.058975,-0.013994,0.376579,0.785398:vel_
1561015646.260801,cobot_dynamixel_driver/goal|-:J1,J2,J3,J4,J5,J6:-0.005648,-0.268219,-0.063676,-0.010324,0.336947,0.531890:vel_
1561015646.292700,cobot_dynamixel_driver/goal|-:J1,J2,J3,J4,J5,J6:-0.005211,-0.259912,-0.065732,-0.009977,0.329804,0.474079:vel_
1561015646.324741,cobot_dynamixel_driver/goal|-:J1,J2,J3,J4,J5,J6:-0.005514,-0.257176,-0.066239,-0.010690,0.333184,0.404568:vel_
1561015646.356617,cobot_dynamixel_driver/goal|-:J1,J2,J3,J4,J5,J6:-0.005918,-0.260449,-0.067197,-0.010775,0.341168,0.319342:vel_
1561015646.388506,cobot_dynamixel_driver/goal|-:J1,J2,J3,J4,J5,J6:-0.002698,-0.118654,-0.036585,-0.004060,0.157047,0.022398:vel_
1561015646.420586,cobot_dynamixel_driver/goal|-:J1,J2,J3,J4,J5,J6:-0.002602,-0.103905,-0.033366,-0.003503,0.137542,-0.018393:vel_
1561015646.452558,cobot_dynamixel_driver/goal|-:J1,J2,J3,J4,J5,J6:-0.002781,-0.091784,-0.032626,-0.003400,0.122827,-0.057185:vel_
1561015646.484496,cobot_dynamixel_driver/goal|-:J1,J2,J3,J4,J5,J6:-0.003189,-0.090026,-0.033748,-0.003166,0.119790,-0.093814:vel_
1561015646.516458,cobot_dynamixel_driver/goal|-:J1,J2,J3,J4,J5,J6:-0.003719,-0.093022,-0.034623,-0.003101,0.122859,-0.126040:vel_
1561015646.548516,cobot_dynamixel_driver/goal|-:J1,J2,J3,J4,J5,J6:-0.004067,-0.096373,-0.035304,-0.003089,0.124580,-0.152259:vel_
1561015646.580570,cobot_dynamixel_driver/goal|-:J1,J2,J3,J4,J5,J6:-0.004227,-0.099590,-0.036207,-0.003889,0.125837,-0.169393:vel_
1561015646.612537,cobot_dynamixel_driver/goal|-:J1,J2,J3,J4,J5,J6:-0.171297,-0.041275,0.002182,-0.013926,0.048787,-0.147719:vel_
1561015646.644528,cobot_dynamixel_driver/goal|-:J1,J2,J3,J4,J5,J6:-0.179824,-0.038567,0.004052,-0.014420,0.045083,-0.146766:vel_
1561015646.676820,cobot_dynamixel_driver/goal|-:J1,J2,J3,J4,J5,J6:-0.186264,-0.037572,0.004443,-0.014415,0.044891,-0.146848:vel_
1561015646.708488,cobot_dynamixel_driver/goal|-:J1,J2,J3,J4,J5,J6:-0.188057,-0.038030,0.004677,-0.014301,0.045213,-0.146730:vel_
1561015646.740494,cobot_dynamixel_driver/goal|-:J1,J2,J3,J4,J5,J6:-0.188766,-0.038374,0.004961,-0.014379,0.045464,-0.147364:vel_
1561015646.772472,cobot_dynamixel_driver/goal|-:J1,J2,J3,J4,J5,J6:-0.188702,-0.038779,0.005264,-0.014313,0.045575,-0.147752:vel_
1561015646.804442,cobot_dynamixel_driver/goal|-:J1,J2,J3,J4,J5,J6:-0.188481,-0.038791,0.005601,-0.014350,0.045755,-0.147974:vel_
1561015646.836460,cobot_dynamixel_driver/goal|-:J1,J2,J3,J4,J5,J6:-0.189110,-0.038945,0.005929,-0.014506,0.045859,-0.148306:vel_
1561015646.868403,cobot_dynamixel_driver/goal|-:J1,J2,J3,J4,J5,J6:-0.189134,-0.038673,0.006371,-0.014495,0.045969,-0.148449:vel_
1561015646.900433,cobot_dynamixel_driver/goal|-:J1,J2,J3,J4,J5,J6:-0.189367,-0.038761,0.006838,-0.014519,0.046216,-0.149051:vel_
1561015646.932362,cobot_dynamixel_driver/goal|-:J1,J2,J3,J4,J5,J6:-0.189333,-0.038597,0.007262,-0.014465,0.046369,-0.149317:vel_
1561015646.964415,cobot_dynamixel_driver/goal|-:J1,J2,J3,J4,J5,J6:-0.190408,-0.038774,0.007674,-0.014698,0.046706,-0.149778:vel_
1561015646.996401,cobot_dynamixel_driver/goal|-:J1,J2,J3,J4,J5,J6:-0.190763,-0.038703,0.008025,-0.014854,0.046922,-0.149794:vel_
1561015647.028458,cobot_dynamixel_driver/goal|-:J1,J2,J3,J4,J5,J6:-0.191031,-0.038745,0.008252,-0.015095,0.046900,-0.149888:vel_
1561015647.060447,cobot_dynamixel_driver/goal|-:J1,J2,J3,J4,J5,J6:-0.192972,-0.038789,0.009079,-0.015478,0.047081,-0.150679:vel_
1561015647.092437,cobot_dynamixel_driver/goal|-:J1,J2,J3,J4,J5,J6:-0.193549,-0.038707,0.009729,-0.015628,0.046706,-0.150809:vel_
1561015647.124509,cobot_dynamixel_driver/goal|-:J1,J2,J3,J4,J5,J6:-0.196012,-0.038982,0.010575,-0.015971,0.046974,-0.152490:vel_
1561015647.156381,cobot_dynamixel_driver/goal|-:J1,J2,J3,J4,J5,J6:-0.197705,-0.038674,0.011586,-0.015888,0.047498,-0.153612:vel_
1561015647.188371,cobot_dynamixel_driver/goal|-:J1,J2,J3,J4,J5,J6:-0.294179,-0.046852,0.013335,-0.022646,0.054503,-0.213518:vel_
1561015647.220543,cobot_dynamixel_driver/goal|-:J1,J2,J3,J4,J5,J6:-0.302519,-0.047485,0.013800,-0.022962,0.055229,-0.218711:vel_
1561015647.252406,cobot_dynamixel_driver/goal|-:J1,J2,J3,J4,J5,J6:-0.306914,-0.047912,0.014304,-0.023023,0.055178,-0.219054:vel_
1561015647.284412,cobot_dynamixel_driver/goal|-:J1,J2,J3,J4,J5,J6:-0.308292,-0.048033,0.013630,-0.023123,0.055710,-0.219282:vel_
1561015647.316456,cobot_dynamixel_driver/goal|-:J1,J2,J3,J4,J5,J6:-0.308880,-0.048311,0.012687,-0.023041,0.055882,-0.220343:vel_
1561015647.348532,cobot_dynamixel_driver/goal|-:J1,J2,J3,J4,J5,J6:-0.309139,-0.048506,0.012144,-0.023075,0.056285,-0.220881:vel_
1561015647.380484,cobot_dynamixel_driver/goal|-:J1,J2,J3,J4,J5,J6:-0.309539,-0.048506,0.011856,-0.023183,0.056082,-0.221250:vel_
1561015647.412468,cobot_dynamixel_driver/goal|-:J1,J2,J3,J4,J5,J6:-0.310620,-0.048751,0.011784,-0.023264,0.055718,-0.221436:vel_
1561015647.444457,cobot_dynamixel_driver/goal|-:J1,J2,J3,J4,J5,J6:-0.313096,-0.049053,0.011910,-0.022878,0.056310,-0.223534:vel_
1561015647.476528,cobot_dynamixel_driver/goal|-:J1,J2,J3,J4,J5,J6:-0.313260,-0.049016,0.012354,-0.022403,0.056875,-0.224974:vel_
1561015647.508371,cobot_dynamixel_driver/goal|-:J1,J2,J3,J4,J5,J6:-0.315003,-0.049234,0.012637,-0.022184,0.057009,-0.227229:vel_
1561015647.540367,cobot_dynamixel_driver/goal|-:J1,J2,J3,J4,J5,J6:-0.321906,-0.050272,0.014424,-0.021995,0.057265,-0.231419:vel_
1561015647.572433,cobot_dynamixel_driver/goal|-:J1,J2,J3,J4,J5,J6:-0.319204,-0.049480,0.013861,-0.024126,0.056718,-0.229207:vel_
1561015647.604431,cobot_dynamixel_driver/goal|-:J1,J2,J3,J4,J5,J6:-0.320428,-0.049659,0.013798,-0.024436,0.056811,-0.229844:vel_
1561015647.636456,cobot_dynamixel_driver/goal|-:J1,J2,J3,J4,J5,J6:-0.320478,-0.049692,0.013852,-0.024586,0.056858,-0.229843:vel_
1561015647.668385,cobot_dynamixel_driver/goal|-:J1,J2,J3,J4,J5,J6:-0.321227,-0.049845,0.013907,-0.024823,0.056907,-0.230019:vel_
1561015647.700372,cobot_dynamixel_driver/goal|-:J1,J2,J3,J4,J5,J6:-0.322980,-0.050297,0.013914,-0.025037,0.056950,-0.230794:vel_
1561015647.732411,cobot_dynamixel_driver/goal|-:J1,J2,J3,J4,J5,J6:-0.323262,-0.050340,0.013865,-0.024831,0.056853,-0.231334:vel_
1561015647.764341,cobot_dynamixel_driver/goal|-:J1,J2,J3,J4,J5,J6:-0.323723,-0.049918,0.013559,-0.024936,0.056741,-0.231904:vel_
1561015647.796385,cobot_dynamixel_driver/goal|-:J1,J2,J3,J4,J5,J6:-0.326141,-0.049969,0.013575,-0.025580,0.057008,-0.233792:vel_
1561015647.830092,cobot_dynamixel_driver/goal|-:J1,J2,J3,J4,J5,J6:-0.332836,-0.050646,0.013805,-0.026932,0.057884,-0.238409:vel_
1561015647.860757,cobot_dynamixel_driver/goal|-:J1,J2,J3,J4,J5,J6:-0.341751,-0.052133,0.013582,-0.027231,0.059337,-0.244859:vel_
1561015647.892411,cobot_dynamixel_driver/goal|-:J1,J2,J3,J4,J5,J6:-0.332406,-0.050563,0.012102,-0.026978,0.057234,-0.238500:vel_
1561015647.924421,cobot_dynamixel_driver/goal|-:J1,J2,J3,J4,J5,J6:-0.322195,-0.049803,0.013229,-0.025207,0.057173,-0.231796:vel_
1561015647.956361,cobot_dynamixel_driver/goal|-:J1,J2,J3,J4,J5,J6:-0.322570,-0.049753,0.013445,-0.025245,0.057365,-0.232266:vel_
1561015647.988332,cobot_dynamixel_driver/goal|-:J1,J2,J3,J4,J5,J6:-0.323493,-0.049919,0.013471,-0.025172,0.057654,-0.233255:vel_
1561015648.020353,cobot_dynamixel_driver/goal|-:J1,J2,J3,J4,J5,J6:-0.323032,-0.050184,0.013742,-0.025007,0.057647,-0.233231:vel_
1561015648.053277,cobot_dynamixel_driver/goal|-:J1,J2,J3,J4,J5,J6:-0.324950,-0.050320,0.013764,-0.025184,0.057685,-0.234096:vel_
1561015648.084321,cobot_dynamixel_driver/goal|-:J1,J2,J3,J4,J5,J6:-0.326486,-0.050426,0.013739,-0.025405,0.057969,-0.235255:vel_
1561015648.116316,cobot_dynamixel_driver/goal|-:J1,J2,J3,J4,J5,J6:-0.327231,-0.050270,0.013850,-0.025294,0.058150,-0.235892:vel_
1561015648.149140,cobot_dynamixel_driver/goal|-:J1,J2,J3,J4,J5,J6:-0.330342,-0.050165,0.013794,-0.025616,0.059049,-0.238384:vel_
1561015648.181640,cobot_dynamixel_driver/goal|-:J1,J2,J3,J4,J5,J6:-0.335619,-0.050944,0.013826,-0.025853,0.060018,-0.242022:vel_
1561015648.212570,cobot_dynamixel_driver/goal|-:J1,J2,J3,J4,J5,J6:-0.335095,-0.051017,0.013306,-0.024888,0.059982,-0.242882:vel_
1561015648.244354,cobot_dynamixel_driver/goal|-:J1,J2,J3,J4,J5,J6:-0.340751,-0.052014,0.013589,-0.023898,0.060052,-0.246986:vel_
1561015648.276376,cobot_dynamixel_driver/goal|-:J1,J2,J3,J4,J5,J6:-0.326883,-0.050604,0.013721,-0.024984,0.058331,-0.235737:vel_
1561015648.308346,cobot_dynamixel_driver/goal|-:J1,J2,J3,J4,J5,J6:-0.324229,-0.050336,0.013391,-0.025073,0.057894,-0.233974:vel_
1561015648.340321,cobot_dynamixel_driver/goal|-:J1,J2,J3,J4,J5,J6:-0.326701,-0.050416,0.013462,-0.025481,0.058381,-0.235177:vel_
1561015648.372476,cobot_dynamixel_driver/goal|-:J1,J2,J3,J4,J5,J6:-0.328870,-0.050447,0.013348,-0.025661,0.058820,-0.237347:vel_
1561015648.404402,cobot_dynamixel_driver/goal|-:J1,J2,J3,J4,J5,J6:-0.329716,-0.050159,0.013245,-0.025573,0.059273,-0.237933:vel_
1561015648.437681,cobot_dynamixel_driver/goal|-:J1,J2,J3,J4,J5,J6:-0.333024,-0.050276,0.013137,-0.026023,0.060047,-0.239444:vel_
1561015648.468402,cobot_dynamixel_driver/goal|-:J1,J2,J3,J4,J5,J6:-0.331726,-0.049571,0.013454,-0.025814,0.059803,-0.238017:vel_
1561015648.500327,cobot_dynamixel_driver/goal|-:J1,J2,J3,J4,J5,J6:-0.327054,-0.049000,0.013674,-0.024652,0.059190,-0.235183:vel_
1561015648.532310,cobot_dynamixel_driver/goal|-:J1,J2,J3,J4,J5,J6:-0.335717,-0.049592,0.013963,-0.024834,0.060071,-0.242003:vel_
1561015648.565110,cobot_dynamixel_driver/goal|-:J1,J2,J3,J4,J5,J6:-0.343197,-0.050217,0.014127,-0.025991,0.061492,-0.247619:vel_
1561015648.596339,cobot_dynamixel_driver/goal|-:J1,J2,J3,J4,J5,J6:-0.351966,-0.052642,0.014147,-0.027365,0.062939,-0.251475:vel_
1561015648.628353,cobot_dynamixel_driver/goal|-:J1,J2,J3,J4,J5,J6:-0.331921,-0.051560,0.013947,-0.025702,0.059346,-0.238578:vel_
1561015648.676324,cobot_dynamixel_driver/goal|-:J1,J2,J3,J4,J5,J6:-0.342876,-0.053804,0.014309,-0.026576,0.061129,-0.246082:vel_
1561015648.708306,cobot_dynamixel_driver/goal|-:J1,J2,J3,J4,J5,J6:-0.330928,-0.051964,0.013926,-0.025487,0.058759,-0.238741:vel_
1561015648.740287,cobot_dynamixel_driver/goal|-:J1,J2,J3,J4,J5,J6:-0.330939,-0.051901,0.013756,-0.025195,0.058826,-0.238251:vel_
1561015648.772523,cobot_dynamixel_driver/goal|-:J1,J2,J3,J4,J5,J6:-0.331718,-0.052307,0.013417,-0.024865,0.059169,-0.239485:vel_
1561015648.804488,cobot_dynamixel_driver/goal|-:J1,J2,J3,J4,J5,J6:-0.332277,-0.053016,0.013338,-0.025097,0.060033,-0.240134:vel_
1561015648.836386,cobot_dynamixel_driver/goal|-:J1,J2,J3,J4,J5,J6:-0.336019,-0.053684,0.013143,-0.025586,0.059690,-0.242057:vel_
1561015648.868277,cobot_dynamixel_driver/goal|-:J1,J2,J3,J4,J5,J6:-0.338007,-0.054709,0.012579,-0.025780,0.059639,-0.243184:vel_
1561015648.900362,cobot_dynamixel_driver/goal|-:J1,J2,J3,J4,J5,J6:-0.342242,-0.055812,0.012403,-0.026049,0.060708,-0.247297:vel_
1561015648.932662,cobot_dynamixel_driver/goal|-:J1,J2,J3,J4,J5,J6:-0.346752,-0.055580,0.013744,-0.026299,0.060499,-0.252531:vel_
1561015648.966317,cobot_dynamixel_driver/goal|-:J1,J2,J3,J4,J5,J6:-0.337232,-0.052213,0.014351,-0.025815,0.059872,-0.243033:vel_
1561015649.012362,cobot_dynamixel_driver/goal|-:J1,J2,J3,J4,J5,J6:-0.345336,-0.053058,0.014822,-0.026295,0.061543,-0.248591:vel_
1561015649.044308,cobot_dynamixel_driver/goal|-:J1,J2,J3,J4,J5,J6:-0.334517,-0.051379,0.014576,-0.025341,0.059575,-0.241358:vel_
1561015649.076292,cobot_dynamixel_driver/goal|-:J1,J2,J3,J4,J5,J6:-0.333986,-0.051042,0.014460,-0.025377,0.059549,-0.240566:vel_
1561015649.108274,cobot_dynamixel_driver/goal|-:J1,J2,J3,J4,J5,J6:-0.336115,-0.050853,0.014322,-0.025433,0.059708,-0.241933:vel_
1561015649.140371,cobot_dynamixel_driver/goal|-:J1,J2,J3,J4,J5,J6:-0.337046,-0.050416,0.014134,-0.025316,0.059737,-0.242131:vel_
1561015649.172312,cobot_dynamixel_driver/goal|-:J1,J2,J3,J4,J5,J6:-0.340425,-0.050509,0.014519,-0.025708,0.059877,-0.244293:vel_
1561015649.204242,cobot_dynamixel_driver/goal|-:J1,J2,J3,J4,J5,J6:-0.342952,-0.050538,0.014072,-0.025382,0.060099,-0.245396:vel_
1561015649.236391,cobot_dynamixel_driver/goal|-:J1,J2,J3,J4,J5,J6:-0.347808,-0.050231,0.013892,-0.024442,0.060516,-0.249319:vel_
1561015649.268639,cobot_dynamixel_driver/goal|-:J1,J2,J3,J4,J5,J6:-0.355386,-0.050210,0.013390,-0.023956,0.061566,-0.250792:vel_
1561015649.300654,cobot_dynamixel_driver/goal|-:J1,J2,J3,J4,J5,J6:-0.338787,-0.052012,0.014244,-0.025830,0.060409,-0.243588:vel_
1561015649.332685,cobot_dynamixel_driver/goal|-:J1,J2,J3,J4,J5,J6:-0.337881,-0.052167,0.014201,-0.025948,0.060606,-0.243293:vel_
1561015649.364348,cobot_dynamixel_driver/goal|-:J1,J2,J3,J4,J5,J6:-0.337526,-0.052083,0.014656,-0.026041,0.060544,-0.243703:vel_
1561015649.396290,cobot_dynamixel_driver/goal|-:J1,J2,J3,J4,J5,J6:-0.339394,-0.052103,0.014955,-0.026051,0.060634,-0.245119:vel_
1561015649.428363,cobot_dynamixel_driver/goal|-:J1,J2,J3,J4,J5,J6:-0.342278,-0.052337,0.015235,-0.026277,0.060904,-0.246837:vel_
1561015649.460566,cobot_dynamixel_driver/goal|-:J1,J2,J3,J4,J5,J6:-0.342450,-0.052155,0.015410,-0.025950,0.061403,-0.247047:vel_
1561015649.492563,cobot_dynamixel_driver/goal|-:J1,J2,J3,J4,J5,J6:-0.345223,-0.052038,0.015640,-0.025372,0.061594,-0.248721:vel_
1561015649.524554,cobot_dynamixel_driver/goal|-:J1,J2,J3,J4,J5,J6:-0.345379,-0.052173,0.016100,-0.025100,0.062014,-0.248780:vel_
1561015649.556828,cobot_dynamixel_driver/goal|-:J1,J2,J3,J4,J5,J6:-0.349651,-0.052695,0.016646,-0.025542,0.063148,-0.250891:vel_
1561015649.588871,cobot_dynamixel_driver/goal|-:J1,J2,J3,J4,J5,J6:-0.356397,-0.053678,0.015571,-0.025746,0.065529,-0.255406:vel_
1561015649.620597,cobot_dynamixel_driver/goal|-:J1,J2,J3,J4,J5,J6:-0.343869,-0.052906,0.014477,-0.026259,0.061334,-0.247529:vel_
1561015649.652650,cobot_dynamixel_driver/goal|-:J1,J2,J3,J4,J5,J6:-0.343248,-0.052980,0.014389,-0.026277,0.061144,-0.247170:vel_
1561015649.701009,cobot_dynamixel_driver/goal|-:J1,J2,J3,J4,J5,J6:-0.344598,-0.052823,0.014610,-0.026280,0.061411,-0.248728:vel_
1561015649.748313,cobot_dynamixel_driver/goal|-:J1,J2,J3,J4,J5,J6:-0.346620,-0.053650,0.014513,-0.026101,0.061864,-0.250217:vel_
1561015649.780165,cobot_dynamixel_driver/goal|-:J1,J2,J3,J4,J5,J6:-0.347159,-0.054226,0.014552,-0.026155,0.062521,-0.250942:vel_
1561015649.812301,cobot_dynamixel_driver/goal|-:J1,J2,J3,J4,J5,J6:-0.350134,-0.054630,0.015405,-0.026358,0.063251,-0.252703:vel_
1561015649.844241,cobot_dynamixel_driver/goal|-:J1,J2,J3,J4,J5,J6:-0.352134,-0.054451,0.016201,-0.026499,0.062910,-0.253040:vel_
1561015649.876270,cobot_dynamixel_driver/goal|-:J1,J2,J3,J4,J5,J6:-0.356978,-0.055352,0.017035,-0.027427,0.062739,-0.255467:vel_
1561015649.908258,cobot_dynamixel_driver/goal|-:J1,J2,J3,J4,J5,J6:-0.360999,-0.055973,0.017366,-0.027963,0.063248,-0.258294:vel_
1561015649.940242,cobot_dynamixel_driver/goal|-:J1,J2,J3,J4,J5,J6:-0.348722,-0.054081,0.014938,-0.026775,0.062220,-0.250479:vel_
1561015649.972291,cobot_dynamixel_driver/goal|-:J1,J2,J3,J4,J5,J6:-0.347899,-0.054036,0.014667,-0.026689,0.062296,-0.250009:vel_
1561015650.004251,cobot_dynamixel_driver/goal|-:J1,J2,J3,J4,J5,J6:-0.348044,-0.053972,0.014544,-0.026789,0.062310,-0.250423:vel_
1561015650.036312,cobot_dynamixel_driver/goal|-:J1,J2,J3,J4,J5,J6:-0.349509,-0.054024,0.014672,-0.026953,0.062455,-0.251837:vel_
1561015650.068247,cobot_dynamixel_driver/goal|-:J1,J2,J3,J4,J5,J6:-0.350691,-0.053965,0.014577,-0.026968,0.062521,-0.252282:vel_
1561015650.100215,cobot_dynamixel_driver/goal|-:J1,J2,J3,J4,J5,J6:-0.352905,-0.053928,0.014450,-0.027161,0.062867,-0.253811:vel_
1561015650.132398,cobot_dynamixel_driver/goal|-:J1,J2,J3,J4,J5,J6:-0.354109,-0.053869,0.014361,-0.027455,0.062840,-0.254968:vel_
1561015650.164225,cobot_dynamixel_driver/goal|-:J1,J2,J3,J4,J5,J6:-0.356006,-0.053876,0.014297,-0.027751,0.062850,-0.256102:vel_
1561015650.196350,cobot_dynamixel_driver/goal|-:J1,J2,J3,J4,J5,J6:-0.361633,-0.053147,0.014333,-0.027915,0.063469,-0.259036:vel_
1561015650.228187,cobot_dynamixel_driver/goal|-:J1,J2,J3,J4,J5,J6:-0.364904,-0.052863,0.015330,-0.027995,0.063207,-0.261140:vel_
1561015650.260335,cobot_dynamixel_driver/goal|-:J1,J2,J3,J4,J5,J6:-0.351982,-0.054105,0.015195,-0.027262,0.062646,-0.253147:vel_
1561015650.292205,cobot_dynamixel_driver/goal|-:J1,J2,J3,J4,J5,J6:-0.352653,-0.054285,0.015328,-0.027335,0.062811,-0.253309:vel_
1561015650.324211,cobot_dynamixel_driver/goal|-:J1,J2,J3,J4,J5,J6:-0.352821,-0.054590,0.015569,-0.027508,0.062752,-0.254120:vel_
1561015650.356216,cobot_dynamixel_driver/goal|-:J1,J2,J3,J4,J5,J6:-0.353117,-0.054425,0.015858,-0.027800,0.062646,-0.254675:vel_
1561015650.388217,cobot_dynamixel_driver/goal|-:J1,J2,J3,J4,J5,J6:-0.355453,-0.054504,0.015870,-0.028133,0.062871,-0.256401:vel_
1561015650.420254,cobot_dynamixel_driver/goal|-:J1,J2,J3,J4,J5,J6:-0.357040,-0.054424,0.015508,-0.028137,0.062882,-0.257207:vel_
1561015650.452201,cobot_dynamixel_driver/goal|-:J1,J2,J3,J4,J5,J6:-0.359684,-0.054617,0.015170,-0.028372,0.062888,-0.259751:vel_
1561015650.484287,cobot_dynamixel_driver/goal|-:J1,J2,J3,J4,J5,J6:-0.360347,-0.054866,0.015730,-0.028781,0.062742,-0.260868:vel_
1561015650.516242,cobot_dynamixel_driver/goal|-:J1,J2,J3,J4,J5,J6:-0.365547,-0.054724,0.015490,-0.029582,0.063282,-0.263333:vel_
1561015650.548208,cobot_dynamixel_driver/goal|-:J1,J2,J3,J4,J5,J6:-0.368682,-0.054845,0.014667,-0.029493,0.062846,-0.263906:vel_
1561015650.580222,cobot_dynamixel_driver/goal|-:J1,J2,J3,J4,J5,J6:-0.357520,-0.055144,0.015063,-0.027694,0.063361,-0.257085:vel_
1561015650.612216,cobot_dynamixel_driver/goal|-:J1,J2,J3,J4,J5,J6:-0.357002,-0.055515,0.015223,-0.027584,0.063622,-0.256897:vel_
1561015650.644180,cobot_dynamixel_driver/goal|-:J1,J2,J3,J4,J5,J6:-0.357605,-0.055535,0.015458,-0.027617,0.063721,-0.257623:vel_
1561015650.676270,cobot_dynamixel_driver/goal|-:J1,J2,J3,J4,J5,J6:-0.359016,-0.056030,0.015945,-0.027655,0.064055,-0.258906:vel_
1561015650.708459,cobot_dynamixel_driver/goal|-:J1,J2,J3,J4,J5,J6:-0.359607,-0.056121,0.016180,-0.027760,0.064058,-0.259555:vel_
1561015650.740513,cobot_dynamixel_driver/goal|-:J1,J2,J3,J4,J5,J6:-0.363047,-0.056407,0.016086,-0.028393,0.064256,-0.261637:vel_
1561015650.772284,cobot_dynamixel_driver/goal|-:J1,J2,J3,J4,J5,J6:-0.361058,-0.056360,0.015669,-0.028893,0.063931,-0.259698:vel_
1561015650.804526,cobot_dynamixel_driver/goal|-:J1,J2,J3,J4,J5,J6:-0.366822,-0.056746,0.015660,-0.029401,0.064859,-0.263763:vel_
1561015650.836181,cobot_dynamixel_driver/goal|-:J1,J2,J3,J4,J5,J6:-0.367902,-0.056359,0.015310,-0.029706,0.064880,-0.265575:vel_
1561015650.868161,cobot_dynamixel_driver/goal|-:J1,J2,J3,J4,J5,J6:-0.375741,-0.055767,0.015104,-0.030302,0.066127,-0.271317:vel_
1561015650.900159,cobot_dynamixel_driver/goal|-:J1,J2,J3,J4,J5,J6:-0.361684,-0.055464,0.015508,-0.027888,0.064768,-0.260189:vel_
1561015650.932343,cobot_dynamixel_driver/goal|-:J1,J2,J3,J4,J5,J6:-0.361844,-0.055680,0.015523,-0.027834,0.064577,-0.260262:vel_
1561015650.964261,cobot_dynamixel_driver/goal|-:J1,J2,J3,J4,J5,J6:-0.362474,-0.056047,0.015629,-0.027995,0.064955,-0.261190:vel_
1561015650.996240,cobot_dynamixel_driver/goal|-:J1,J2,J3,J4,J5,J6:-0.363884,-0.056698,0.015574,-0.028217,0.065559,-0.262300:vel_
1561015651.028146,cobot_dynamixel_driver/goal|-:J1,J2,J3,J4,J5,J6:-0.364659,-0.057274,0.015649,-0.028572,0.065950,-0.262651:vel_
1561015651.060224,cobot_dynamixel_driver/goal|-:J1,J2,J3,J4,J5,J6:-0.367112,-0.057665,0.015894,-0.028856,0.065920,-0.264538:vel_
1561015651.092246,cobot_dynamixel_driver/goal|-:J1,J2,J3,J4,J5,J6:-0.368526,-0.057765,0.016539,-0.028509,0.065983,-0.265362:vel_
1561015651.124200,cobot_dynamixel_driver/goal|-:J1,J2,J3,J4,J5,J6:-0.373208,-0.058696,0.016844,-0.028217,0.066791,-0.268467:vel_
1561015651.156227,cobot_dynamixel_driver/goal|-:J1,J2,J3,J4,J5,J6:-0.375872,-0.059727,0.016793,-0.027454,0.067309,-0.270763:vel_
1561015651.188167,cobot_dynamixel_driver/goal|-:J1,J2,J3,J4,J5,J6:-0.377711,-0.061694,0.015816,-0.028111,0.067519,-0.271714:vel_
1561015651.220139,cobot_dynamixel_driver/goal|-:J1,J2,J3,J4,J5,J6:-0.366626,-0.057108,0.015283,-0.028412,0.065472,-0.263538:vel_
1561015651.252235,cobot_dynamixel_driver/goal|-:J1,J2,J3,J4,J5,J6:-0.366188,-0.056664,0.015268,-0.028570,0.065412,-0.263264:vel_
1561015651.284310,cobot_dynamixel_driver/goal|-:J1,J2,J3,J4,J5,J6:-0.367662,-0.056419,0.015445,-0.028685,0.065658,-0.264906:vel_
1561015651.316438,cobot_dynamixel_driver/goal|-:J1,J2,J3,J4,J5,J6:-0.367337,-0.056216,0.015507,-0.028515,0.065729,-0.264710:vel_
1561015651.348140,cobot_dynamixel_driver/goal|-:J1,J2,J3,J4,J5,J6:-0.370338,-0.056294,0.015661,-0.028191,0.066271,-0.266653:vel_
1561015651.380213,cobot_dynamixel_driver/goal|-:J1,J2,J3,J4,J5,J6:-0.371039,-0.056710,0.015765,-0.027759,0.066034,-0.267299:vel_
1561015651.412183,cobot_dynamixel_driver/goal|-:J1,J2,J3,J4,J5,J6:-0.374704,-0.056901,0.015782,-0.027893,0.066532,-0.270465:vel_
1561015651.444172,cobot_dynamixel_driver/goal|-:J1,J2,J3,J4,J5,J6:-0.376964,-0.056560,0.015629,-0.028933,0.066758,-0.271293:vel_
1561015651.476202,cobot_dynamixel_driver/goal|-:J1,J2,J3,J4,J5,J6:-0.385136,-0.055647,0.016397,-0.030297,0.066831,-0.275809:vel_
1561015651.508449,cobot_dynamixel_driver/goal|-:J1,J2,J3,J4,J5,J6:-0.371960,-0.056881,0.016205,-0.028841,0.066071,-0.267648:vel_
1561015651.540338,cobot_dynamixel_driver/goal|-:J1,J2,J3,J4,J5,J6:-0.372072,-0.056992,0.016197,-0.028659,0.066280,-0.267777:vel_
1561015651.572256,cobot_dynamixel_driver/goal|-:J1,J2,J3,J4,J5,J6:-0.373021,-0.057123,0.016206,-0.028300,0.066428,-0.268450:vel_
1561015651.604331,cobot_dynamixel_driver/goal|-:J1,J2,J3,J4,J5,J6:-0.374012,-0.056958,0.016059,-0.028184,0.066661,-0.268987:vel_
1561015651.636254,cobot_dynamixel_driver/goal|-:J1,J2,J3,J4,J5,J6:-0.374845,-0.056747,0.015870,-0.028379,0.066775,-0.269876:vel_
1561015651.668051,cobot_dynamixel_driver/goal|-:J1,J2,J3,J4,J5,J6:-0.376494,-0.056408,0.015352,-0.028444,0.066719,-0.270894:vel_
1561015651.700154,cobot_dynamixel_driver/goal|-:J1,J2,J3,J4,J5,J6:-0.379908,-0.056453,0.015504,-0.028679,0.067241,-0.273292:vel_
1561015651.732156,cobot_dynamixel_driver/goal|-:J1,J2,J3,J4,J5,J6:-0.384329,-0.056554,0.015542,-0.028543,0.067401,-0.276951:vel_
1561015651.764205,cobot_dynamixel_driver/goal|-:J1,J2,J3,J4,J5,J6:-0.387635,-0.055590,0.015860,-0.027877,0.068121,-0.279428:vel_
1561015651.796184,cobot_dynamixel_driver/goal|-:J1,J2,J3,J4,J5,J6:-0.397494,-0.055245,0.016486,-0.026569,0.070371,-0.284113:vel_
1561015651.828183,cobot_dynamixel_driver/goal|-:J1,J2,J3,J4,J5,J6:-0.233261,-0.035712,0.009839,-0.017735,0.041777,-0.167630:vel_
1561015651.860163,cobot_dynamixel_driver/goal|-:J1,J2,J3,J4,J5,J6:-0.222971,-0.034519,0.009402,-0.017296,0.040087,-0.160314:vel_
1561015651.892140,cobot_dynamixel_driver/goal|-:J1,J2,J3,J4,J5,J6:-0.215436,-0.034286,0.009479,-0.017346,0.040242,-0.157473:vel_
1561015651.924459,cobot_dynamixel_driver/goal|-:J1,J2,J3,J4,J5,J6:-0.214156,-0.034583,0.009615,-0.017495,0.040886,-0.159205:vel_
1561015651.956154,cobot_dynamixel_driver/goal|-:J1,J2,J3,J4,J5,J6:-0.214969,-0.034829,0.009668,-0.017619,0.040965,-0.159901:vel_
1561015651.988137,cobot_dynamixel_driver/goal|-:J1,J2,J3,J4,J5,J6:-0.215898,-0.035132,0.009509,-0.017771,0.040824,-0.159957:vel_
1561015652.020135,cobot_dynamixel_driver/goal|-:J1,J2,J3,J4,J5,J6:-0.217168,-0.035027,0.009535,-0.017852,0.040958,-0.160479:vel_
1561015652.052156,cobot_dynamixel_driver/goal|-:J1,J2,J3,J4,J5,J6:-0.217619,-0.035014,0.009666,-0.017610,0.040665,-0.160746:vel_
1561015652.084131,cobot_dynamixel_driver/goal|-:J1,J2,J3,J4,J5,J6:-0.218108,-0.034972,0.009448,-0.017624,0.040350,-0.160957:vel_
1561015652.116174,cobot_dynamixel_driver/goal|-:J1,J2,J3,J4,J5,J6:-0.219583,-0.035248,0.009322,-0.017622,0.041024,-0.162099:vel_
1561015652.148466,cobot_dynamixel_driver/goal|-:J1,J2,J3,J4,J5,J6:-0.221365,-0.035327,0.009286,-0.017754,0.041126,-0.163712:vel_
1561015652.180094,cobot_dynamixel_driver/goal|-:J1,J2,J3,J4,J5,J6:-0.220819,-0.035284,0.009047,-0.017785,0.040871,-0.163274:vel_
1561015652.212134,cobot_dynamixel_driver/goal|-:J1,J2,J3,J4,J5,J6:-0.222869,-0.035719,0.009365,-0.018438,0.041078,-0.164789:vel_
1561015652.244131,cobot_dynamixel_driver/goal|-:J1,J2,J3,J4,J5,J6:-0.223906,-0.035593,0.009893,-0.018485,0.041378,-0.165747:vel_
1561015652.276581,cobot_dynamixel_driver/goal|-:J1,J2,J3,J4,J5,J6:-0.233909,-0.040350,0.016287,-0.015585,0.030440,-0.168851:vel_
1561015652.308210,cobot_dynamixel_driver/goal|-:J1,J2,J3,J4,J5,J6:-0.045606,0.050033,0.072544,-0.009846,-0.123163,-0.019336:vel_
1561015652.340063,cobot_dynamixel_driver/goal|-:J1,J2,J3,J4,J5,J6:-0.025585,0.059711,0.078712,-0.009576,-0.139674,-0.003446:vel_
1561015652.372136,cobot_dynamixel_driver/goal|-:J1,J2,J3,J4,J5,J6:-0.006837,0.066678,0.079814,-0.009381,-0.152792,0.006870:vel_
1561015652.452691,cobot_dynamixel_driver/goal|-:J1,J2,J3,J4,J5,J6:0.008645,0.078260,0.078743,-0.009840,-0.162135,0.009954:vel_
1561015652.484224,cobot_dynamixel_driver/goal|-:J1,J2,J3,J4,J5,J6:0.011619,0.081870,0.078905,-0.009529,-0.163221,0.012072:vel_
1561015652.516065,cobot_dynamixel_driver/goal|-:J1,J2,J3,J4,J5,J6:-0.010198,0.128640,0.134159,-0.017168,-0.263399,0.015228:vel_
1561015652.548110,cobot_dynamixel_driver/goal|-:J1,J2,J3,J4,J5,J6:-0.012943,0.136493,0.143489,-0.018267,-0.280341,0.016592:vel_
1561015652.580063,cobot_dynamixel_driver/goal|-:J1,J2,J3,J4,J5,J6:-0.013981,0.140279,0.147621,-0.018312,-0.290696,0.016881:vel_
1561015652.612090,cobot_dynamixel_driver/goal|-:J1,J2,J3,J4,J5,J6:-0.015673,0.139779,0.147388,-0.018865,-0.289228,0.017028:vel_
1561015652.644111,cobot_dynamixel_driver/goal|-:J1,J2,J3,J4,J5,J6:-0.017719,0.138067,0.146409,-0.018828,-0.285987,0.017508:vel_
1561015652.676076,cobot_dynamixel_driver/goal|-:J1,J2,J3,J4,J5,J6:-0.033213,0.190994,0.187896,-0.028340,-0.382246,0.020267:vel_
1561015652.708053,cobot_dynamixel_driver/goal|-:J1,J2,J3,J4,J5,J6:-0.037865,0.206089,0.200947,-0.030668,-0.411778,0.021490:vel_
1561015652.740031,cobot_dynamixel_driver/goal|-:J1,J2,J3,J4,J5,J6:-0.040570,0.214948,0.207020,-0.032325,-0.431422,0.021920:vel_
1561015652.772115,cobot_dynamixel_driver/goal|-:J1,J2,J3,J4,J5,J6:-0.041913,0.222975,0.211087,-0.034033,-0.442776,0.024492:vel_
1561015652.804039,cobot_dynamixel_driver/goal|-:J1,J2,J3,J4,J5,J6:-0.041390,0.238924,0.205069,-0.037939,-0.446651,0.026121:vel_
1561015652.836123,cobot_dynamixel_driver/goal|-:J1,J2,J3,J4,J5,J6:-0.041708,0.251019,0.209532,-0.040448,-0.461840,0.027650:vel_
1561015652.868049,cobot_dynamixel_driver/goal|-:J1,J2,J3,J4,J5,J6:-0.041905,0.257892,0.198700,-0.043439,-0.457567,0.029518:vel_
1561015652.900182,cobot_dynamixel_driver/goal|-:J1,J2,J3,J4,J5,J6:-0.043088,0.266043,0.202343,-0.045863,-0.469639,0.031509:vel_
1561015652.932028,cobot_dynamixel_driver/goal|-:J1,J2,J3,J4,J5,J6:-0.041390,0.260632,0.196714,-0.045581,-0.460062,0.030613:vel_
1561015652.964171,cobot_dynamixel_driver/goal|-:J1,J2,J3,J4,J5,J6:-0.040936,0.266754,0.182026,-0.048107,-0.449899,0.033239:vel_
1561015653.001594,cobot_dynamixel_driver/goal|-:J1,J2,J3,J4,J5,J6:-0.043059,0.286438,0.191629,-0.051768,-0.478699,0.037137:vel_
1561015653.044049,cobot_dynamixel_driver/goal|-:J1,J2,J3,J4,J5,J6:-0.041905,0.276196,0.182353,-0.048904,-0.459487,0.036272:vel_
1561015653.076067,cobot_dynamixel_driver/goal|-:J1,J2,J3,J4,J5,J6:-0.041233,0.286138,0.165395,-0.054307,-0.451967,0.040489:vel_
1561015653.108142,cobot_dynamixel_driver/goal|-:J1,J2,J3,J4,J5,J6:-0.040465,0.289571,0.160171,-0.056699,-0.451174,0.042143:vel_
1561015653.140028,cobot_dynamixel_driver/goal|-:J1,J2,J3,J4,J5,J6:-0.040456,0.300056,0.152516,-0.060755,-0.453901,0.046251:vel_
1561015653.173681,cobot_dynamixel_driver/goal|-:J1,J2,J3,J4,J5,J6:-0.042845,0.312841,0.156690,-0.063465,-0.469921,0.049247:vel_
1561015653.204005,cobot_dynamixel_driver/goal|-:J1,J2,J3,J4,J5,J6:-0.043913,0.312100,0.156595,-0.064914,-0.467037,0.049307:vel_
1561015653.236051,cobot_dynamixel_driver/goal|-:J1,J2,J3,J4,J5,J6:-0.042594,0.315728,0.140960,-0.068656,-0.454677,0.054126:vel_
1561015653.268013,cobot_dynamixel_driver/goal|-:J1,J2,J3,J4,J5,J6:-0.041889,0.318183,0.137804,-0.069805,-0.453681,0.055984:vel_
1561015653.300039,cobot_dynamixel_driver/goal|-:J1,J2,J3,J4,J5,J6:-0.041823,0.317289,0.136527,-0.071342,-0.451603,0.056347:vel_
1561015653.333035,cobot_dynamixel_driver/goal|-:J1,J2,J3,J4,J5,J6:-0.036095,0.285017,0.108620,-0.068167,-0.392915,0.054246:vel_
1561015653.364012,cobot_dynamixel_driver/goal|-:J1,J2,J3,J4,J5,J6:-0.035131,0.278829,0.102544,-0.068000,-0.381718,0.053806:vel_
1561015653.396061,cobot_dynamixel_driver/goal|-:J1,J2,J3,J4,J5,J6:-0.034661,0.277290,0.101963,-0.068831,-0.382482,0.054570:vel_
1561015653.428051,cobot_dynamixel_driver/goal|-:J1,J2,J3,J4,J5,J6:-0.017201,0.144345,0.046807,-0.037949,-0.191456,0.030829:vel_
1561015653.476098,cobot_dynamixel_driver/goal|-:J1,J2,J3,J4,J5,J6:-0.015818,0.134059,0.042224,-0.036126,-0.175418,0.029493:vel_
1561015653.508073,cobot_dynamixel_driver/goal|-:J1,J2,J3,J4,J5,J6:-0.015144,0.119114,0.039987,-0.034742,-0.151202,0.029068:vel_
1561015653.540677,cobot_dynamixel_driver/goal|-:J1,J2,J3,J4,J5,J6:-0.015347,0.119434,0.041022,-0.034341,-0.150160,0.028937:vel_
1561015653.572090,cobot_dynamixel_driver/goal|-:J1,J2,J3,J4,J5,J6:-0.015704,0.121209,0.041550,-0.034311,-0.153228,0.029242:vel_
1561015653.604006,cobot_dynamixel_driver/goal|-:J1,J2,J3,J4,J5,J6:-0.016340,0.122834,0.041605,-0.034599,-0.154141,0.029043:vel_
1561015653.641831,cobot_dynamixel_driver/goal|-:J1,J2,J3,J4,J5,J6:-0.017367,0.131029,0.043014,-0.037093,-0.162710,0.031075:vel_
1561015653.684032,cobot_dynamixel_driver/goal|-:J1,J2,J3,J4,J5,J6:0.008516,-0.073226,-0.021551,0.019004,0.096720,-0.016090:vel_
1561015653.716011,cobot_dynamixel_driver/goal|-:J1,J2,J3,J4,J5,J6:0.011210,-0.093323,-0.027625,0.024550,0.122318,-0.020483:vel_
1561015653.748026,cobot_dynamixel_driver/goal|-:J1,J2,J3,J4,J5,J6:0.012375,-0.111956,-0.030753,0.026724,0.145216,-0.021904:vel_
1561015653.780075,cobot_dynamixel_driver/goal|-:J1,J2,J3,J4,J5,J6:0.013712,-0.122978,-0.032207,0.028513,0.161583,-0.022509:vel_
1561015653.828040,cobot_dynamixel_driver/goal|-:J1,J2,J3,J4,J5,J6:0.015920,-0.136286,-0.035858,0.031368,0.179128,-0.023926:vel_
1561015653.860624,cobot_dynamixel_driver/goal|-:J1,J2,J3,J4,J5,J6:0.016792,-0.132652,-0.034911,0.030503,0.170892,-0.022892:vel_
1561015653.892116,cobot_dynamixel_driver/goal|-:J1,J2,J3,J4,J5,J6:0.017781,-0.132162,-0.035864,0.030507,0.167925,-0.022760:vel_
1561015653.923981,cobot_dynamixel_driver/goal|-:J1,J2,J3,J4,J5,J6:0.027055,-0.209671,-0.070649,0.050500,0.279730,-0.039481:vel_
1561015653.956005,cobot_dynamixel_driver/goal|-:J1,J2,J3,J4,J5,J6:0.028775,-0.222777,-0.076206,0.054120,0.298127,-0.042212:vel_
1561015653.987996,cobot_dynamixel_driver/goal|-:J1,J2,J3,J4,J5,J6:0.029463,-0.230891,-0.077380,0.055290,0.308698,-0.042317:vel_
1561015654.020003,cobot_dynamixel_driver/goal|-:J1,J2,J3,J4,J5,J6:0.030279,-0.233374,-0.076915,0.055832,0.309883,-0.042719:vel_
1561015654.052048,cobot_dynamixel_driver/goal|-:J1,J2,J3,J4,J5,J6:0.031481,-0.231278,-0.077108,0.057364,0.309745,-0.043835:vel_
1561015654.083980,cobot_dynamixel_driver/goal|-:J1,J2,J3,J4,J5,J6:0.037717,-0.279353,-0.112244,0.064962,0.394093,-0.050614:vel_
1561015654.116060,cobot_dynamixel_driver/goal|-:J1,J2,J3,J4,J5,J6:0.040200,-0.292019,-0.121780,0.067331,0.416834,-0.052067:vel_
1561015654.148097,cobot_dynamixel_driver/goal|-:J1,J2,J3,J4,J5,J6:0.041475,-0.298402,-0.125963,0.067354,0.428472,-0.052195:vel_
1561015654.180172,cobot_dynamixel_driver/goal|-:J1,J2,J3,J4,J5,J6:0.041958,-0.295997,-0.127052,0.066972,0.425147,-0.052644:vel_
1561015654.212125,cobot_dynamixel_driver/goal|-:J1,J2,J3,J4,J5,J6:0.041510,-0.297207,-0.145608,0.063013,0.443106,-0.048542:vel_
1561015654.244110,cobot_dynamixel_driver/goal|-:J1,J2,J3,J4,J5,J6:0.041689,-0.300472,-0.152317,0.062171,0.454079,-0.048120:vel_
1561015654.276179,cobot_dynamixel_driver/goal|-:J1,J2,J3,J4,J5,J6:0.042309,-0.303982,-0.156838,0.061466,0.460931,-0.048632:vel_
1561015654.308050,cobot_dynamixel_driver/goal|-:J1,J2,J3,J4,J5,J6:0.041879,-0.289734,-0.166403,0.056554,0.456849,-0.042165:vel_
1561015654.340005,cobot_dynamixel_driver/goal|-:J1,J2,J3,J4,J5,J6:0.041111,-0.290093,-0.168824,0.055360,0.461574,-0.040995:vel_
1561015654.372003,cobot_dynamixel_driver/goal|-:J1,J2,J3,J4,J5,J6:0.040799,-0.288663,-0.169922,0.054588,0.464812,-0.041704:vel_
1561015654.404005,cobot_dynamixel_driver/goal|-:J1,J2,J3,J4,J5,J6:0.040232,-0.295643,-0.174293,0.056831,0.477157,-0.042767:vel_
1561015654.436299,cobot_dynamixel_driver/goal|-:J1,J2,J3,J4,J5,J6:0.041784,-0.271576,-0.183597,0.048611,0.456820,-0.034422:vel_
1561015654.468233,cobot_dynamixel_driver/goal|-:J1,J2,J3,J4,J5,J6:0.043372,-0.265675,-0.189043,0.045307,0.453627,-0.032718:vel_
1561015654.500021,cobot_dynamixel_driver/goal|-:J1,J2,J3,J4,J5,J6:0.042713,-0.264501,-0.194524,0.043887,0.463221,-0.032488:vel_
1561015654.532021,cobot_dynamixel_driver/goal|-:J1,J2,J3,J4,J5,J6:0.042277,-0.252440,-0.201447,0.042266,0.456522,-0.028854:vel_
1561015654.563991,cobot_dynamixel_driver/goal|-:J1,J2,J3,J4,J5,J6:0.042265,-0.250643,-0.204780,0.041823,0.455263,-0.027480:vel_
1561015654.595984,cobot_dynamixel_driver/goal|-:J1,J2,J3,J4,J5,J6:0.043564,-0.251446,-0.208043,0.039761,0.458380,-0.027128:vel_
1561015654.627960,cobot_dynamixel_driver/goal|-:J1,J2,J3,J4,J5,J6:0.042229,-0.235665,-0.215207,0.036598,0.452380,-0.024168:vel_
1561015654.660029,cobot_dynamixel_driver/goal|-:J1,J2,J3,J4,J5,J6:0.041768,-0.232391,-0.217421,0.036107,0.452631,-0.023251:vel_
1561015654.691984,cobot_dynamixel_driver/goal|-:J1,J2,J3,J4,J5,J6:0.042657,-0.232246,-0.220168,0.037535,0.458461,-0.023871:vel_
1561015654.723903,cobot_dynamixel_driver/goal|-:J1,J2,J3,J4,J5,J6:0.036876,-0.191323,-0.199415,0.028992,0.393620,-0.017562:vel_
1561015654.755932,cobot_dynamixel_driver/goal|-:J1,J2,J3,J4,J5,J6:0.036654,-0.182707,-0.196333,0.027054,0.381401,-0.016040:vel_
1561015654.787951,cobot_dynamixel_driver/goal|-:J1,J2,J3,J4,J5,J6:0.036088,-0.176748,-0.196244,0.026308,0.378680,-0.016912:vel_
1561015654.819922,cobot_dynamixel_driver/goal|-:J1,J2,J3,J4,J5,J6:0.017837,-0.085221,-0.102551,0.012159,0.189603,-0.007064:vel_
1561015654.851950,cobot_dynamixel_driver/goal|-:J1,J2,J3,J4,J5,J6:0.016213,-0.076104,-0.093299,0.010855,0.170512,-0.006086:vel_
1561015654.883937,cobot_dynamixel_driver/goal|-:J1,J2,J3,J4,J5,J6:0.015986,-0.071326,-0.089440,0.011145,0.156316,-0.006593:vel_
1561015654.916031,cobot_dynamixel_driver/goal|-:J1,J2,J3,J4,J5,J6:0.015957,-0.071353,-0.091313,0.011368,0.152235,-0.006864:vel_
1561015654.947951,cobot_dynamixel_driver/goal|-:J1,J2,J3,J4,J5,J6:0.015977,-0.073516,-0.093075,0.011718,0.155154,-0.006308:vel_
1561015654.979917,cobot_dynamixel_driver/goal|-:J1,J2,J3,J4,J5,J6:0.016232,-0.075261,-0.094807,0.011751,0.157189,-0.006178:vel_
1561015655.012081,cobot_dynamixel_driver/goal|-:J1,J2,J3,J4,J5,J6:0.015953,-0.076375,-0.095673,0.011981,0.157855,-0.006239:vel_
1561015655.044019,cobot_dynamixel_driver/goal|-:J1,J2,J3,J4,J5,J6:0.015214,-0.078494,-0.097253,0.012243,0.160202,-0.006786:vel_
1561015659.699639,cobot_dynamixel_driver/goal|-:J1,J2,J3,J4,J5,J6:0.000000,0.000000,0.000000,0.000000,0.000000,0.000000:0.500000,0.500000,0.500000,0.500000,0.500000,0.500000:pos_vel_
