surachairobotic/cobot/cobot_dynamixel_driver/log/2019-02-05T09:12:21.404601_driver_cmd.txt
1549357947.867280,cobot_dynamixel_driver/goal|-:J1,J2,J3,J4,J5,J6:0.000000,0.000000,0.000000,0.000000,0.000000,0.000000:0.500000,0.500000,0.500000,0.500000,0.500000,0.500000:pos_vel_
1549357962.648108,cobot_dynamixel_driver/goal|-:J3:0.000000:eff_
1549357962.739134,cobot_dynamixel_driver/goal|-:J1,J2,J3,J4,J5,J6:0.000000,0.000000,0.523599,0.000000,0.000000,0.000000:0.250000,0.250000,0.250000,0.250000,0.250000,0.250000:pos_vel_
1549357966.152040,cobot_dynamixel_driver/goal|-:J3:-225.585938:eff_
1549357966.242840,cobot_dynamixel_driver/goal|-:J3:-235.585938:eff_
1549357966.837594,cobot_dynamixel_driver/goal|-:J3:-245.585938:eff_
1549357967.433171,cobot_dynamixel_driver/goal|-:J3:-255.585938:eff_
1549357968.055769,cobot_dynamixel_driver/goal|-:J3:-265.585938:eff_
1549357968.652308,cobot_dynamixel_driver/goal|-:J3:-275.585938:eff_
1549357969.248145,cobot_dynamixel_driver/goal|-:J3:-285.585938:eff_
1549357969.843845,cobot_dynamixel_driver/goal|-:J3:-295.585938:eff_
1549357970.439415,cobot_dynamixel_driver/goal|-:J3:-305.585938:eff_
1549357971.061985,cobot_dynamixel_driver/goal|-:J3:-315.585938:eff_
1549357971.656945,cobot_dynamixel_driver/goal|-:J3:-325.585938:eff_
1549357972.254497,cobot_dynamixel_driver/goal|-:J3:-335.585938:eff_
1549357972.851264,cobot_dynamixel_driver/goal|-:J3:-345.585938:eff_
1549357973.447955,cobot_dynamixel_driver/goal|-:J3:-355.585938:eff_
1549357974.044660,cobot_dynamixel_driver/goal|-:J3:-365.585938:eff_
1549357974.669313,cobot_dynamixel_driver/goal|-:J3:-375.585938:eff_
1549357975.265032,cobot_dynamixel_driver/goal|-:J3:-385.585938:eff_
1549357975.860574,cobot_dynamixel_driver/goal|-:J3:-395.585938:eff_
1549357976.457307,cobot_dynamixel_driver/goal|-:J3:-405.585938:eff_
1549357977.052996,cobot_dynamixel_driver/goal|-:J3:-415.585938:eff_
1549357977.648630,cobot_dynamixel_driver/goal|-:J3:-425.585938:eff_
1549357978.271118,cobot_dynamixel_driver/goal|-:J3:-435.585938:eff_
1549357978.866797,cobot_dynamixel_driver/goal|-:J3:-445.585938:eff_
1549357979.463538,cobot_dynamixel_driver/goal|-:J3:-455.585938:eff_
1549357980.061126,cobot_dynamixel_driver/goal|-:J3:-465.585938:eff_
1549357980.655793,cobot_dynamixel_driver/goal|-:J3:-475.585938:eff_
1549357981.278376,cobot_dynamixel_driver/goal|-:J3:-485.585938:eff_
1549357981.873978,cobot_dynamixel_driver/goal|-:J3:-495.585938:eff_
1549357982.469533,cobot_dynamixel_driver/goal|-:J3:-505.585938:eff_
1549357983.067261,cobot_dynamixel_driver/goal|-:J3:-515.585938:eff_
1549357983.662851,cobot_dynamixel_driver/goal|-:J3:-525.585938:eff_
1549357984.285534,cobot_dynamixel_driver/goal|-:J3:-535.585938:eff_
1549357984.882218,cobot_dynamixel_driver/goal|-:J3:-545.585938:eff_
1549357985.477941,cobot_dynamixel_driver/goal|-:J3:-555.585938:eff_
1549357986.073633,cobot_dynamixel_driver/goal|-:J3:-565.585938:eff_
1549357986.670364,cobot_dynamixel_driver/goal|-:J3:-575.585938:eff_
1549357987.266104,cobot_dynamixel_driver/goal|-:J3:-585.585938:eff_
1549357987.888750,cobot_dynamixel_driver/goal|-:J3:-595.585938:eff_
1549357988.484621,cobot_dynamixel_driver/goal|-:J3:-605.585938:eff_
1549357989.080250,cobot_dynamixel_driver/goal|-:J3:-615.585938:eff_
1549357989.675867,cobot_dynamixel_driver/goal|-:J3:-625.585938:eff_
1549357990.270525,cobot_dynamixel_driver/goal|-:J3:-635.585938:eff_
1549357990.894026,cobot_dynamixel_driver/goal|-:J3:-645.585938:eff_
1549357991.490632,cobot_dynamixel_driver/goal|-:J3:-655.585938:eff_
1549357992.088285,cobot_dynamixel_driver/goal|-:J3:-665.585938:eff_
1549357992.683918,cobot_dynamixel_driver/goal|-:J3:-675.585938:eff_
1549357993.279619,cobot_dynamixel_driver/goal|-:J3:-685.585938:eff_
1549357993.875172,cobot_dynamixel_driver/goal|-:J3:-695.585938:eff_
1549357994.497860,cobot_dynamixel_driver/goal|-:J3:-705.585938:eff_
1549357995.093514,cobot_dynamixel_driver/goal|-:J3:-715.585938:eff_
1549357995.689177,cobot_dynamixel_driver/goal|-:J3:-725.585938:eff_
1549357996.284854,cobot_dynamixel_driver/goal|-:J3:-735.585938:eff_
1549357996.881488,cobot_dynamixel_driver/goal|-:J3:-745.585938:eff_
1549357997.504247,cobot_dynamixel_driver/goal|-:J3:-755.585938:eff_
1549357998.098796,cobot_dynamixel_driver/goal|-:J3:-765.585938:eff_
1549357999.286928,cobot_dynamixel_driver/goal|-:J3:0.000000:eff_
1549357999.368161,cobot_dynamixel_driver/goal|-:J1,J2,J3,J4,J5,J6:0.000000,0.000000,0.523599,0.000000,0.000000,0.000000:0.250000,0.250000,0.250000,0.250000,0.250000,0.250000:pos_vel_
1549358001.298235,cobot_dynamixel_driver/goal|-:J3:0.000000:eff_
1549358001.389304,cobot_dynamixel_driver/goal|-:J1,J2,J3,J4,J5,J6:0.000000,0.000000,0.523599,0.000000,0.000000,0.000000:0.250000,0.250000,0.250000,0.250000,0.250000,0.250000:pos_vel_
1549358002.481528,cobot_dynamixel_driver/goal|-:J3:-547.851562:eff_
1549358002.599792,cobot_dynamixel_driver/goal|-:J1,J2,J3,J4,J5,J6:0.000000,0.000000,0.523599,0.000000,0.000000,0.000000:0.250000,0.250000,0.250000,0.250000,0.250000,0.250000:pos_vel_
1549358003.098271,cobot_dynamixel_driver/goal|-:J3:-557.851562:eff_
1549358003.189167,cobot_dynamixel_driver/goal|-:J1,J2,J3,J4,J5,J6:0.000000,0.000000,0.523599,0.000000,0.000000,0.000000:0.250000,0.250000,0.250000,0.250000,0.250000,0.250000:pos_vel_
1549358003.904768,cobot_dynamixel_driver/goal|-:J3:-567.851562:eff_
1549358003.995642,cobot_dynamixel_driver/goal|-:J1,J2,J3,J4,J5,J6:0.000000,0.000000,0.523599,0.000000,0.000000,0.000000:0.250000,0.250000,0.250000,0.250000,0.250000,0.250000:pos_vel_
1549358004.494275,cobot_dynamixel_driver/goal|-:J3:-577.851562:eff_
1549358004.585272,cobot_dynamixel_driver/goal|-:J1,J2,J3,J4,J5,J6:0.000000,0.000000,0.523599,0.000000,0.000000,0.000000:0.250000,0.250000,0.250000,0.250000,0.250000,0.250000:pos_vel_
1549358005.190826,cobot_dynamixel_driver/goal|-:J3:-587.851562:eff_
1549358005.309001,cobot_dynamixel_driver/goal|-:J1,J2,J3,J4,J5,J6:0.000000,0.000000,0.523599,0.000000,0.000000,0.000000:0.250000,0.250000,0.250000,0.250000,0.250000,0.250000:pos_vel_
1549358005.887278,cobot_dynamixel_driver/goal|-:J3:-597.851562:eff_
1549358006.005429,cobot_dynamixel_driver/goal|-:J1,J2,J3,J4,J5,J6:0.000000,0.000000,0.523599,0.000000,0.000000,0.000000:0.250000,0.250000,0.250000,0.250000,0.250000,0.250000:pos_vel_
1549358006.503071,cobot_dynamixel_driver/goal|-:J3:-607.851562:eff_
1549358006.593901,cobot_dynamixel_driver/goal|-:J1,J2,J3,J4,J5,J6:0.000000,0.000000,0.523599,0.000000,0.000000,0.000000:0.250000,0.250000,0.250000,0.250000,0.250000,0.250000:pos_vel_
1549358007.200481,cobot_dynamixel_driver/goal|-:J3:-617.851562:eff_
1549358007.291571,cobot_dynamixel_driver/goal|-:J1,J2,J3,J4,J5,J6:0.000000,0.000000,0.523599,0.000000,0.000000,0.000000:0.250000,0.250000,0.250000,0.250000,0.250000,0.250000:pos_vel_
1549358007.708260,cobot_dynamixel_driver/goal|-:J3:-627.851562:eff_
1549358007.799158,cobot_dynamixel_driver/goal|-:J1,J2,J3,J4,J5,J6:0.000000,0.000000,0.523599,0.000000,0.000000,0.000000:0.250000,0.250000,0.250000,0.250000,0.250000,0.250000:pos_vel_
1549358008.403807,cobot_dynamixel_driver/goal|-:J3:-637.851562:eff_
1549358008.494563,cobot_dynamixel_driver/goal|-:J1,J2,J3,J4,J5,J6:0.000000,0.000000,0.523599,0.000000,0.000000,0.000000:0.250000,0.250000,0.250000,0.250000,0.250000,0.250000:pos_vel_
1549358008.911603,cobot_dynamixel_driver/goal|-:J3:-647.851562:eff_
1549358009.002365,cobot_dynamixel_driver/goal|-:J1,J2,J3,J4,J5,J6:0.000000,0.000000,0.523599,0.000000,0.000000,0.000000:0.250000,0.250000,0.250000,0.250000,0.250000,0.250000:pos_vel_
1549358009.608242,cobot_dynamixel_driver/goal|-:J3:-657.851562:eff_
1549358009.699212,cobot_dynamixel_driver/goal|-:J1,J2,J3,J4,J5,J6:0.000000,0.000000,0.523599,0.000000,0.000000,0.000000:0.250000,0.250000,0.250000,0.250000,0.250000,0.250000:pos_vel_
1549358010.196764,cobot_dynamixel_driver/goal|-:J3:-667.851562:eff_
1549358010.314986,cobot_dynamixel_driver/goal|-:J1,J2,J3,J4,J5,J6:0.000000,0.000000,0.523599,0.000000,0.000000,0.000000:0.250000,0.250000,0.250000,0.250000,0.250000,0.250000:pos_vel_
1549358010.813423,cobot_dynamixel_driver/goal|-:J3:-677.851562:eff_
1549358010.904560,cobot_dynamixel_driver/goal|-:J1,J2,J3,J4,J5,J6:0.000000,0.000000,0.523599,0.000000,0.000000,0.000000:0.250000,0.250000,0.250000,0.250000,0.250000,0.250000:pos_vel_
1549358011.512136,cobot_dynamixel_driver/goal|-:J3:-687.851562:eff_
1549358011.603017,cobot_dynamixel_driver/goal|-:J1,J2,J3,J4,J5,J6:0.000000,0.000000,0.523599,0.000000,0.000000,0.000000:0.250000,0.250000,0.250000,0.250000,0.250000,0.250000:pos_vel_
1549358012.317699,cobot_dynamixel_driver/goal|-:J3:-697.851562:eff_
1549358012.408779,cobot_dynamixel_driver/goal|-:J1,J2,J3,J4,J5,J6:0.000000,0.000000,0.523599,0.000000,0.000000,0.000000:0.250000,0.250000,0.250000,0.250000,0.250000,0.250000:pos_vel_
1549358013.016411,cobot_dynamixel_driver/goal|-:J3:-707.851562:eff_
1549358013.107453,cobot_dynamixel_driver/goal|-:J1,J2,J3,J4,J5,J6:0.000000,0.000000,0.523599,0.000000,0.000000,0.000000:0.250000,0.250000,0.250000,0.250000,0.250000,0.250000:pos_vel_
1549358013.605140,cobot_dynamixel_driver/goal|-:J3:-717.851562:eff_
1549358013.723252,cobot_dynamixel_driver/goal|-:J1,J2,J3,J4,J5,J6:0.000000,0.000000,0.523599,0.000000,0.000000,0.000000:0.250000,0.250000,0.250000,0.250000,0.250000,0.250000:pos_vel_
1549358014.220758,cobot_dynamixel_driver/goal|-:J3:-727.851562:eff_
1549358014.311823,cobot_dynamixel_driver/goal|-:J1,J2,J3,J4,J5,J6:0.000000,0.000000,0.523599,0.000000,0.000000,0.000000:0.250000,0.250000,0.250000,0.250000,0.250000,0.250000:pos_vel_
1549358015.025345,cobot_dynamixel_driver/goal|-:J3:-737.851562:eff_
1549358015.116297,cobot_dynamixel_driver/goal|-:J1,J2,J3,J4,J5,J6:0.000000,0.000000,0.523599,0.000000,0.000000,0.000000:0.250000,0.250000,0.250000,0.250000,0.250000,0.250000:pos_vel_
1549358015.505131,cobot_dynamixel_driver/goal|-:J3:-747.851562:eff_
1549358015.623491,cobot_dynamixel_driver/goal|-:J1,J2,J3,J4,J5,J6:0.000000,0.000000,0.523599,0.000000,0.000000,0.000000:0.250000,0.250000,0.250000,0.250000,0.250000,0.250000:pos_vel_
1549358016.202671,cobot_dynamixel_driver/goal|-:J3:-757.851562:eff_
1549358016.320870,cobot_dynamixel_driver/goal|-:J1,J2,J3,J4,J5,J6:0.000000,0.000000,0.523599,0.000000,0.000000,0.000000:0.250000,0.250000,0.250000,0.250000,0.250000,0.250000:pos_vel_
1549358016.927318,cobot_dynamixel_driver/goal|-:J3:-767.851562:eff_
1549358017.018102,cobot_dynamixel_driver/goal|-:J1,J2,J3,J4,J5,J6:0.000000,0.000000,0.523599,0.000000,0.000000,0.000000:0.250000,0.250000,0.250000,0.250000,0.250000,0.250000:pos_vel_
1549358017.623795,cobot_dynamixel_driver/goal|-:J3:-777.851562:eff_
1549358017.714845,cobot_dynamixel_driver/goal|-:J1,J2,J3,J4,J5,J6:0.000000,0.000000,0.523599,0.000000,0.000000,0.000000:0.250000,0.250000,0.250000,0.250000,0.250000,0.250000:pos_vel_
1549358018.212350,cobot_dynamixel_driver/goal|-:J3:-787.851562:eff_
1549358018.331680,cobot_dynamixel_driver/goal|-:J1,J2,J3,J4,J5,J6:0.000000,0.000000,0.523599,0.000000,0.000000,0.000000:0.250000,0.250000,0.250000,0.250000,0.250000,0.250000:pos_vel_
1549358018.830196,cobot_dynamixel_driver/goal|-:J3:-797.851562:eff_
1549358018.921075,cobot_dynamixel_driver/goal|-:J1,J2,J3,J4,J5,J6:0.000000,0.000000,0.523599,0.000000,0.000000,0.000000:0.250000,0.250000,0.250000,0.250000,0.250000,0.250000:pos_vel_
1549358019.419721,cobot_dynamixel_driver/goal|-:J3:-807.851562:eff_
1549358019.510835,cobot_dynamixel_driver/goal|-:J1,J2,J3,J4,J5,J6:0.000000,0.000000,0.523599,0.000000,0.000000,0.000000:0.250000,0.250000,0.250000,0.250000,0.250000,0.250000:pos_vel_
1549358020.010463,cobot_dynamixel_driver/goal|-:J3:-817.851562:eff_
1549358020.128611,cobot_dynamixel_driver/goal|-:J1,J2,J3,J4,J5,J6:0.000000,0.000000,0.523599,0.000000,0.000000,0.000000:0.250000,0.250000,0.250000,0.250000,0.250000,0.250000:pos_vel_
1549358020.626984,cobot_dynamixel_driver/goal|-:J3:-827.851562:eff_
1549358020.717967,cobot_dynamixel_driver/goal|-:J1,J2,J3,J4,J5,J6:0.000000,0.000000,0.523599,0.000000,0.000000,0.000000:0.250000,0.250000,0.250000,0.250000,0.250000,0.250000:pos_vel_
1549358021.217643,cobot_dynamixel_driver/goal|-:J3:-837.851562:eff_
1549358021.335967,cobot_dynamixel_driver/goal|-:J1,J2,J3,J4,J5,J6:0.000000,0.000000,0.523599,0.000000,0.000000,0.000000:0.250000,0.250000,0.250000,0.250000,0.250000,0.250000:pos_vel_
1549358021.834323,cobot_dynamixel_driver/goal|-:J3:-847.851562:eff_
1549358021.925404,cobot_dynamixel_driver/goal|-:J1,J2,J3,J4,J5,J6:0.000000,0.000000,0.523599,0.000000,0.000000,0.000000:0.250000,0.250000,0.250000,0.250000,0.250000,0.250000:pos_vel_
1549358022.530881,cobot_dynamixel_driver/goal|-:J3:-857.851562:eff_
1549358022.621956,cobot_dynamixel_driver/goal|-:J1,J2,J3,J4,J5,J6:0.000000,0.000000,0.523599,0.000000,0.000000,0.000000:0.250000,0.250000,0.250000,0.250000,0.250000,0.250000:pos_vel_
1549358023.122623,cobot_dynamixel_driver/goal|-:J3:-867.851562:eff_
1549358023.213518,cobot_dynamixel_driver/goal|-:J1,J2,J3,J4,J5,J6:0.000000,0.000000,0.523599,0.000000,0.000000,0.000000:0.250000,0.250000,0.250000,0.250000,0.250000,0.250000:pos_vel_
1549358023.819242,cobot_dynamixel_driver/goal|-:J3:-877.851562:eff_
1549358023.937444,cobot_dynamixel_driver/goal|-:J1,J2,J3,J4,J5,J6:0.000000,0.000000,0.523599,0.000000,0.000000,0.000000:0.250000,0.250000,0.250000,0.250000,0.250000,0.250000:pos_vel_
1549358024.435913,cobot_dynamixel_driver/goal|-:J3:-887.851562:eff_
1549358024.526662,cobot_dynamixel_driver/goal|-:J1,J2,J3,J4,J5,J6:0.000000,0.000000,0.523599,0.000000,0.000000,0.000000:0.250000,0.250000,0.250000,0.250000,0.250000,0.250000:pos_vel_
1549358025.024667,cobot_dynamixel_driver/goal|-:J3:-897.851562:eff_
1549358025.115627,cobot_dynamixel_driver/goal|-:J1,J2,J3,J4,J5,J6:0.000000,0.000000,0.523599,0.000000,0.000000,0.000000:0.250000,0.250000,0.250000,0.250000,0.250000,0.250000:pos_vel_
1549358025.640509,cobot_dynamixel_driver/goal|-:J3:-907.851562:eff_
1549358025.731390,cobot_dynamixel_driver/goal|-:J1,J2,J3,J4,J5,J6:0.000000,0.000000,0.523599,0.000000,0.000000,0.000000:0.250000,0.250000,0.250000,0.250000,0.250000,0.250000:pos_vel_
1549358026.228076,cobot_dynamixel_driver/goal|-:J3:-917.851562:eff_
1549358026.319159,cobot_dynamixel_driver/goal|-:J1,J2,J3,J4,J5,J6:0.000000,0.000000,0.523599,0.000000,0.000000,0.000000:0.250000,0.250000,0.250000,0.250000,0.250000,0.250000:pos_vel_
1549358026.843853,cobot_dynamixel_driver/goal|-:J3:-927.851562:eff_
1549358026.934744,cobot_dynamixel_driver/goal|-:J1,J2,J3,J4,J5,J6:0.000000,0.000000,0.523599,0.000000,0.000000,0.000000:0.250000,0.250000,0.250000,0.250000,0.250000,0.250000:pos_vel_
1549358027.432599,cobot_dynamixel_driver/goal|-:J3:-937.851562:eff_
1549358027.523640,cobot_dynamixel_driver/goal|-:J1,J2,J3,J4,J5,J6:0.000000,0.000000,0.523599,0.000000,0.000000,0.000000:0.250000,0.250000,0.250000,0.250000,0.250000,0.250000:pos_vel_
1549358028.130173,cobot_dynamixel_driver/goal|-:J3:-947.851562:eff_
1549358028.221128,cobot_dynamixel_driver/goal|-:J1,J2,J3,J4,J5,J6:0.000000,0.000000,0.523599,0.000000,0.000000,0.000000:0.250000,0.250000,0.250000,0.250000,0.250000,0.250000:pos_vel_
1549358028.745878,cobot_dynamixel_driver/goal|-:J3:-957.851562:eff_
1549358028.836688,cobot_dynamixel_driver/goal|-:J1,J2,J3,J4,J5,J6:0.000000,0.000000,0.523599,0.000000,0.000000,0.000000:0.250000,0.250000,0.250000,0.250000,0.250000,0.250000:pos_vel_
1549358029.335554,cobot_dynamixel_driver/goal|-:J3:-967.851562:eff_
1549358029.426435,cobot_dynamixel_driver/goal|-:J1,J2,J3,J4,J5,J6:0.000000,0.000000,0.523599,0.000000,0.000000,0.000000:0.250000,0.250000,0.250000,0.250000,0.250000,0.250000:pos_vel_
1549358029.924123,cobot_dynamixel_driver/goal|-:J3:-977.851562:eff_
1549358030.042304,cobot_dynamixel_driver/goal|-:J1,J2,J3,J4,J5,J6:0.000000,0.000000,0.523599,0.000000,0.000000,0.000000:0.250000,0.250000,0.250000,0.250000,0.250000,0.250000:pos_vel_
1549358030.648602,cobot_dynamixel_driver/goal|-:J3:-987.851562:eff_
1549358030.739322,cobot_dynamixel_driver/goal|-:J1,J2,J3,J4,J5,J6:0.000000,0.000000,0.523599,0.000000,0.000000,0.000000:0.250000,0.250000,0.250000,0.250000,0.250000,0.250000:pos_vel_
1549358031.346115,cobot_dynamixel_driver/goal|-:J3:-997.851562:eff_
1549358031.437132,cobot_dynamixel_driver/goal|-:J1,J2,J3,J4,J5,J6:0.000000,0.000000,0.523599,0.000000,0.000000,0.000000:0.250000,0.250000,0.250000,0.250000,0.250000,0.250000:pos_vel_
1549358031.934813,cobot_dynamixel_driver/goal|-:J3:-1007.851562:eff_
1549358032.052829,cobot_dynamixel_driver/goal|-:J1,J2,J3,J4,J5,J6:0.000000,0.000000,0.523599,0.000000,0.000000,0.000000:0.250000,0.250000,0.250000,0.250000,0.250000,0.250000:pos_vel_
1549358032.550444,cobot_dynamixel_driver/goal|-:J3:-1017.851562:eff_
1549358032.641393,cobot_dynamixel_driver/goal|-:J1,J2,J3,J4,J5,J6:0.000000,0.000000,0.523599,0.000000,0.000000,0.000000:0.250000,0.250000,0.250000,0.250000,0.250000,0.250000:pos_vel_
1549358033.030891,cobot_dynamixel_driver/goal|-:J3:-1027.851562:eff_
1549358033.149272,cobot_dynamixel_driver/goal|-:J1,J2,J3,J4,J5,J6:0.000000,0.000000,0.523599,0.000000,0.000000,0.000000:0.250000,0.250000,0.250000,0.250000,0.250000,0.250000:pos_vel_
1549358033.645623,cobot_dynamixel_driver/goal|-:J3:-1037.851562:eff_
1549358033.736609,cobot_dynamixel_driver/goal|-:J1,J2,J3,J4,J5,J6:0.000000,0.000000,0.523599,0.000000,0.000000,0.000000:0.250000,0.250000,0.250000,0.250000,0.250000,0.250000:pos_vel_
1549358034.235362,cobot_dynamixel_driver/goal|-:J3:-1047.851562:eff_
1549358034.353327,cobot_dynamixel_driver/goal|-:J1,J2,J3,J4,J5,J6:0.000000,0.000000,0.523599,0.000000,0.000000,0.000000:0.250000,0.250000,0.250000,0.250000,0.250000,0.250000:pos_vel_
1549358034.930952,cobot_dynamixel_driver/goal|-:J3:-1057.851562:eff_
1549358035.049309,cobot_dynamixel_driver/goal|-:J1,J2,J3,J4,J5,J6:0.000000,0.000000,0.523599,0.000000,0.000000,0.000000:0.250000,0.250000,0.250000,0.250000,0.250000,0.250000:pos_vel_
1549358035.331797,cobot_dynamixel_driver/goal|-:J3:-1067.851562:eff_
1549358035.449939,cobot_dynamixel_driver/goal|-:J1,J2,J3,J4,J5,J6:0.000000,0.000000,0.523599,0.000000,0.000000,0.000000:0.250000,0.250000,0.250000,0.250000,0.250000,0.250000:pos_vel_
1549358035.758627,cobot_dynamixel_driver/goal|-:J3:-1077.851562:eff_
1549358035.849362,cobot_dynamixel_driver/goal|-:J1,J2,J3,J4,J5,J6:0.000000,0.000000,0.523599,0.000000,0.000000,0.000000:0.250000,0.250000,0.250000,0.250000,0.250000,0.250000:pos_vel_
1549358036.455303,cobot_dynamixel_driver/goal|-:J3:-1087.851562:eff_
1549358036.546330,cobot_dynamixel_driver/goal|-:J1,J2,J3,J4,J5,J6:0.000000,0.000000,0.523599,0.000000,0.000000,0.000000:0.250000,0.250000,0.250000,0.250000,0.250000,0.250000:pos_vel_
1549358037.044792,cobot_dynamixel_driver/goal|-:J3:-1097.851562:eff_
1549358037.136050,cobot_dynamixel_driver/goal|-:J1,J2,J3,J4,J5,J6:0.000000,0.000000,0.523599,0.000000,0.000000,0.000000:0.250000,0.250000,0.250000,0.250000,0.250000,0.250000:pos_vel_
1549358037.659695,cobot_dynamixel_driver/goal|-:J3:-1107.851562:eff_
1549358037.750586,cobot_dynamixel_driver/goal|-:J1,J2,J3,J4,J5,J6:0.000000,0.000000,0.523599,0.000000,0.000000,0.000000:0.250000,0.250000,0.250000,0.250000,0.250000,0.250000:pos_vel_
1549358038.248438,cobot_dynamixel_driver/goal|-:J3:-1117.851562:eff_
1549358038.339314,cobot_dynamixel_driver/goal|-:J1,J2,J3,J4,J5,J6:0.000000,0.000000,0.523599,0.000000,0.000000,0.000000:0.250000,0.250000,0.250000,0.250000,0.250000,0.250000:pos_vel_
1549358038.755098,cobot_dynamixel_driver/goal|-:J3:-1127.851562:eff_
1549358038.846125,cobot_dynamixel_driver/goal|-:J1,J2,J3,J4,J5,J6:0.000000,0.000000,0.523599,0.000000,0.000000,0.000000:0.250000,0.250000,0.250000,0.250000,0.250000,0.250000:pos_vel_
1549358039.344818,cobot_dynamixel_driver/goal|-:J3:-1137.851562:eff_
1549358039.463124,cobot_dynamixel_driver/goal|-:J1,J2,J3,J4,J5,J6:0.000000,0.000000,0.523599,0.000000,0.000000,0.000000:0.250000,0.250000,0.250000,0.250000,0.250000,0.250000:pos_vel_
1549358039.960629,cobot_dynamixel_driver/goal|-:J3:-1147.851562:eff_
1549358040.051314,cobot_dynamixel_driver/goal|-:J1,J2,J3,J4,J5,J6:0.000000,0.000000,0.523599,0.000000,0.000000,0.000000:0.250000,0.250000,0.250000,0.250000,0.250000,0.250000:pos_vel_
1549358040.657199,cobot_dynamixel_driver/goal|-:J3:-1157.851562:eff_
1549358040.748162,cobot_dynamixel_driver/goal|-:J1,J2,J3,J4,J5,J6:0.000000,0.000000,0.523599,0.000000,0.000000,0.000000:0.250000,0.250000,0.250000,0.250000,0.250000,0.250000:pos_vel_
1549358041.164998,cobot_dynamixel_driver/goal|-:J3:-1167.851562:eff_
1549358041.255961,cobot_dynamixel_driver/goal|-:J1,J2,J3,J4,J5,J6:0.000000,0.000000,0.523599,0.000000,0.000000,0.000000:0.250000,0.250000,0.250000,0.250000,0.250000,0.250000:pos_vel_
1549358041.646680,cobot_dynamixel_driver/goal|-:J3:-1177.851562:eff_
1549358041.764806,cobot_dynamixel_driver/goal|-:J1,J2,J3,J4,J5,J6:0.000000,0.000000,0.523599,0.000000,0.000000,0.000000:0.250000,0.250000,0.250000,0.250000,0.250000,0.250000:pos_vel_
1549358042.263396,cobot_dynamixel_driver/goal|-:J3:-1187.851562:eff_
1549358042.354472,cobot_dynamixel_driver/goal|-:J1,J2,J3,J4,J5,J6:0.000000,0.000000,0.523599,0.000000,0.000000,0.000000:0.250000,0.250000,0.250000,0.250000,0.250000,0.250000:pos_vel_
1549358042.959773,cobot_dynamixel_driver/goal|-:J3:-1197.851562:eff_
1549358043.050972,cobot_dynamixel_driver/goal|-:J1,J2,J3,J4,J5,J6:0.000000,0.000000,0.523599,0.000000,0.000000,0.000000:0.250000,0.250000,0.250000,0.250000,0.250000,0.250000:pos_vel_
1549358043.467592,cobot_dynamixel_driver/goal|-:J3:-1207.851562:eff_
1549358043.558571,cobot_dynamixel_driver/goal|-:J1,J2,J3,J4,J5,J6:0.000000,0.000000,0.523599,0.000000,0.000000,0.000000:0.250000,0.250000,0.250000,0.250000,0.250000,0.250000:pos_vel_
1549358044.056239,cobot_dynamixel_driver/goal|-:J3:-1217.851562:eff_
1549358044.147121,cobot_dynamixel_driver/goal|-:J1,J2,J3,J4,J5,J6:0.000000,0.000000,0.523599,0.000000,0.000000,0.000000:0.250000,0.250000,0.250000,0.250000,0.250000,0.250000:pos_vel_
1549358044.670853,cobot_dynamixel_driver/goal|-:J3:-1227.851562:eff_
1549358044.761884,cobot_dynamixel_driver/goal|-:J1,J2,J3,J4,J5,J6:0.000000,0.000000,0.523599,0.000000,0.000000,0.000000:0.250000,0.250000,0.250000,0.250000,0.250000,0.250000:pos_vel_
1549358045.366411,cobot_dynamixel_driver/goal|-:J3:-1237.851562:eff_
1549358045.457600,cobot_dynamixel_driver/goal|-:J1,J2,J3,J4,J5,J6:0.000000,0.000000,0.523599,0.000000,0.000000,0.000000:0.250000,0.250000,0.250000,0.250000,0.250000,0.250000:pos_vel_
1549358045.957135,cobot_dynamixel_driver/goal|-:J3:-1247.851562:eff_
1549358046.075271,cobot_dynamixel_driver/goal|-:J1,J2,J3,J4,J5,J6:0.000000,0.000000,0.523599,0.000000,0.000000,0.000000:0.250000,0.250000,0.250000,0.250000,0.250000,0.250000:pos_vel_
1549358046.463751,cobot_dynamixel_driver/goal|-:J3:-1257.851562:eff_
1549358046.554747,cobot_dynamixel_driver/goal|-:J1,J2,J3,J4,J5,J6:0.000000,0.000000,0.523599,0.000000,0.000000,0.000000:0.250000,0.250000,0.250000,0.250000,0.250000,0.250000:pos_vel_
1549358046.970390,cobot_dynamixel_driver/goal|-:J3:-1267.851562:eff_
1549358047.061223,cobot_dynamixel_driver/goal|-:J1,J2,J3,J4,J5,J6:0.000000,0.000000,0.523599,0.000000,0.000000,0.000000:0.250000,0.250000,0.250000,0.250000,0.250000,0.250000:pos_vel_
1549358047.557952,cobot_dynamixel_driver/goal|-:J3:-1277.851562:eff_
1549358047.676265,cobot_dynamixel_driver/goal|-:J1,J2,J3,J4,J5,J6:0.000000,0.000000,0.523599,0.000000,0.000000,0.000000:0.250000,0.250000,0.250000,0.250000,0.250000,0.250000:pos_vel_
1549358048.174731,cobot_dynamixel_driver/goal|-:J3:-1287.851562:eff_
1549358048.265632,cobot_dynamixel_driver/goal|-:J1,J2,J3,J4,J5,J6:0.000000,0.000000,0.523599,0.000000,0.000000,0.000000:0.250000,0.250000,0.250000,0.250000,0.250000,0.250000:pos_vel_
1549358048.466492,cobot_dynamixel_driver/goal|-:J3:-1297.851562:eff_
1549358048.557645,cobot_dynamixel_driver/goal|-:J1,J2,J3,J4,J5,J6:0.000000,0.000000,0.523599,0.000000,0.000000,0.000000:0.250000,0.250000,0.250000,0.250000,0.250000,0.250000:pos_vel_
1549358049.055199,cobot_dynamixel_driver/goal|-:J3:-1307.851562:eff_
1549358049.173471,cobot_dynamixel_driver/goal|-:J1,J2,J3,J4,J5,J6:0.000000,0.000000,0.523599,0.000000,0.000000,0.000000:0.250000,0.250000,0.250000,0.250000,0.250000,0.250000:pos_vel_
1549358049.565052,cobot_dynamixel_driver/goal|-:J3:-1317.851562:eff_
1549358049.655987,cobot_dynamixel_driver/goal|-:J1,J2,J3,J4,J5,J6:0.000000,0.000000,0.523599,0.000000,0.000000,0.000000:0.250000,0.250000,0.250000,0.250000,0.250000,0.250000:pos_vel_
1549358049.963816,cobot_dynamixel_driver/goal|-:J3:-1327.851562:eff_
1549358050.081956,cobot_dynamixel_driver/goal|-:J1,J2,J3,J4,J5,J6:0.000000,0.000000,0.523599,0.000000,0.000000,0.000000:0.250000,0.250000,0.250000,0.250000,0.250000,0.250000:pos_vel_
1549358050.578405,cobot_dynamixel_driver/goal|-:J3:-1337.851562:eff_
1549358050.669456,cobot_dynamixel_driver/goal|-:J1,J2,J3,J4,J5,J6:0.000000,0.000000,0.523599,0.000000,0.000000,0.000000:0.250000,0.250000,0.250000,0.250000,0.250000,0.250000:pos_vel_
1549358051.275153,cobot_dynamixel_driver/goal|-:J3:-1347.851562:eff_
1549358051.366062,cobot_dynamixel_driver/goal|-:J1,J2,J3,J4,J5,J6:0.000000,0.000000,0.523599,0.000000,0.000000,0.000000:0.250000,0.250000,0.250000,0.250000,0.250000,0.250000:pos_vel_
1549358051.783940,cobot_dynamixel_driver/goal|-:J3:-1357.851562:eff_
1549358051.874846,cobot_dynamixel_driver/goal|-:J1,J2,J3,J4,J5,J6:0.000000,0.000000,0.523599,0.000000,0.000000,0.000000:0.250000,0.250000,0.250000,0.250000,0.250000,0.250000:pos_vel_
1549358052.371517,cobot_dynamixel_driver/goal|-:J3:-1367.851562:eff_
1549358052.462524,cobot_dynamixel_driver/goal|-:J1,J2,J3,J4,J5,J6:0.000000,0.000000,0.523599,0.000000,0.000000,0.000000:0.250000,0.250000,0.250000,0.250000,0.250000,0.250000:pos_vel_
1549358052.878329,cobot_dynamixel_driver/goal|-:J3:-1377.851562:eff_
1549358052.969363,cobot_dynamixel_driver/goal|-:J1,J2,J3,J4,J5,J6:0.000000,0.000000,0.523599,0.000000,0.000000,0.000000:0.250000,0.250000,0.250000,0.250000,0.250000,0.250000:pos_vel_
1549358053.386119,cobot_dynamixel_driver/goal|-:J3:-1387.851562:eff_
1549358053.477237,cobot_dynamixel_driver/goal|-:J1,J2,J3,J4,J5,J6:0.000000,0.000000,0.523599,0.000000,0.000000,0.000000:0.250000,0.250000,0.250000,0.250000,0.250000,0.250000:pos_vel_
1549358054.083733,cobot_dynamixel_driver/goal|-:J3:-1397.851562:eff_
1549358054.174735,cobot_dynamixel_driver/goal|-:J1,J2,J3,J4,J5,J6:0.000000,0.000000,0.523599,0.000000,0.000000,0.000000:0.250000,0.250000,0.250000,0.250000,0.250000,0.250000:pos_vel_
1549358054.564440,cobot_dynamixel_driver/goal|-:J3:-1407.851562:eff_
1549358054.682607,cobot_dynamixel_driver/goal|-:J1,J2,J3,J4,J5,J6:0.000000,0.000000,0.523599,0.000000,0.000000,0.000000:0.250000,0.250000,0.250000,0.250000,0.250000,0.250000:pos_vel_
1549358055.371046,cobot_dynamixel_driver/goal|-:J3:-1417.851562:eff_
1549358055.489386,cobot_dynamixel_driver/goal|-:J1,J2,J3,J4,J5,J6:0.000000,0.000000,0.523599,0.000000,0.000000,0.000000:0.250000,0.250000,0.250000,0.250000,0.250000,0.250000:pos_vel_
1549358055.987601,cobot_dynamixel_driver/goal|-:J3:-1427.851562:eff_
1549358056.078299,cobot_dynamixel_driver/goal|-:J1,J2,J3,J4,J5,J6:0.000000,0.000000,0.523599,0.000000,0.000000,0.000000:0.250000,0.250000,0.250000,0.250000,0.250000,0.250000:pos_vel_
1549358056.685168,cobot_dynamixel_driver/goal|-:J3:-1437.851562:eff_
1549358056.776092,cobot_dynamixel_driver/goal|-:J1,J2,J3,J4,J5,J6:0.000000,0.000000,0.523599,0.000000,0.000000,0.000000:0.250000,0.250000,0.250000,0.250000,0.250000,0.250000:pos_vel_
1549358056.977000,cobot_dynamixel_driver/goal|-:J3:-1447.851562:eff_
1549358057.067750,cobot_dynamixel_driver/goal|-:J1,J2,J3,J4,J5,J6:0.000000,0.000000,0.523599,0.000000,0.000000,0.000000:0.250000,0.250000,0.250000,0.250000,0.250000,0.250000:pos_vel_
1549358057.592550,cobot_dynamixel_driver/goal|-:J3:-1457.851562:eff_
1549358057.683510,cobot_dynamixel_driver/goal|-:J1,J2,J3,J4,J5,J6:0.000000,0.000000,0.523599,0.000000,0.000000,0.000000:0.250000,0.250000,0.250000,0.250000,0.250000,0.250000:pos_vel_
1549358057.883321,cobot_dynamixel_driver/goal|-:J3:-1467.851562:eff_
1549358057.974612,cobot_dynamixel_driver/goal|-:J1,J2,J3,J4,J5,J6:0.000000,0.000000,0.523599,0.000000,0.000000,0.000000:0.250000,0.250000,0.250000,0.250000,0.250000,0.250000:pos_vel_
1549358058.283138,cobot_dynamixel_driver/goal|-:J3:-1477.851562:eff_
1549358058.374017,cobot_dynamixel_driver/goal|-:J1,J2,J3,J4,J5,J6:0.000000,0.000000,0.523599,0.000000,0.000000,0.000000:0.250000,0.250000,0.250000,0.250000,0.250000,0.250000:pos_vel_
1549358058.980751,cobot_dynamixel_driver/goal|-:J3:-1487.851562:eff_
1549358059.071608,cobot_dynamixel_driver/goal|-:J1,J2,J3,J4,J5,J6:0.000000,0.000000,0.523599,0.000000,0.000000,0.000000:0.250000,0.250000,0.250000,0.250000,0.250000,0.250000:pos_vel_
1549358059.272520,cobot_dynamixel_driver/goal|-:J3:-1497.851562:eff_
1549358059.390687,cobot_dynamixel_driver/goal|-:J1,J2,J3,J4,J5,J6:0.000000,0.000000,0.523599,0.000000,0.000000,0.000000:0.250000,0.250000,0.250000,0.250000,0.250000,0.250000:pos_vel_
1549358059.889207,cobot_dynamixel_driver/goal|-:J3:-1507.851562:eff_
1549358059.980120,cobot_dynamixel_driver/goal|-:J1,J2,J3,J4,J5,J6:0.000000,0.000000,0.523599,0.000000,0.000000,0.000000:0.250000,0.250000,0.250000,0.250000,0.250000,0.250000:pos_vel_
1549358060.476811,cobot_dynamixel_driver/goal|-:J3:-1517.851562:eff_
1549358060.595077,cobot_dynamixel_driver/goal|-:J1,J2,J3,J4,J5,J6:0.000000,0.000000,0.523599,0.000000,0.000000,0.000000:0.250000,0.250000,0.250000,0.250000,0.250000,0.250000:pos_vel_
1549358061.201429,cobot_dynamixel_driver/goal|-:J3:-1527.851562:eff_
1549358061.292487,cobot_dynamixel_driver/goal|-:J1,J2,J3,J4,J5,J6:0.000000,0.000000,0.523599,0.000000,0.000000,0.000000:0.250000,0.250000,0.250000,0.250000,0.250000,0.250000:pos_vel_
1549358061.601277,cobot_dynamixel_driver/goal|-:J3:-1537.851562:eff_
1549358061.692207,cobot_dynamixel_driver/goal|-:J1,J2,J3,J4,J5,J6:0.000000,0.000000,0.523599,0.000000,0.000000,0.000000:0.250000,0.250000,0.250000,0.250000,0.250000,0.250000:pos_vel_
1549358061.894142,cobot_dynamixel_driver/goal|-:J3:-1547.851562:eff_
1549358061.985039,cobot_dynamixel_driver/goal|-:J1,J2,J3,J4,J5,J6:0.000000,0.000000,0.523599,0.000000,0.000000,0.000000:0.250000,0.250000,0.250000,0.250000,0.250000,0.250000:pos_vel_
1549358062.482738,cobot_dynamixel_driver/goal|-:J3:-1557.851562:eff_
1549358062.601117,cobot_dynamixel_driver/goal|-:J1,J2,J3,J4,J5,J6:0.000000,0.000000,0.523599,0.000000,0.000000,0.000000:0.250000,0.250000,0.250000,0.250000,0.250000,0.250000:pos_vel_
1549358063.288351,cobot_dynamixel_driver/goal|-:J3:-1567.851562:eff_
1549358063.379256,cobot_dynamixel_driver/goal|-:J1,J2,J3,J4,J5,J6:0.000000,0.000000,0.523599,0.000000,0.000000,0.000000:0.250000,0.250000,0.250000,0.250000,0.250000,0.250000:pos_vel_
1549358063.905115,cobot_dynamixel_driver/goal|-:J3:-1577.851562:eff_
1549358063.996045,cobot_dynamixel_driver/goal|-:J1,J2,J3,J4,J5,J6:0.000000,0.000000,0.523599,0.000000,0.000000,0.000000:0.250000,0.250000,0.250000,0.250000,0.250000,0.250000:pos_vel_
1549358064.384727,cobot_dynamixel_driver/goal|-:J3:-1587.851562:eff_
1549358064.502969,cobot_dynamixel_driver/goal|-:J1,J2,J3,J4,J5,J6:0.000000,0.000000,0.523599,0.000000,0.000000,0.000000:0.250000,0.250000,0.250000,0.250000,0.250000,0.250000:pos_vel_
1549358065.190414,cobot_dynamixel_driver/goal|-:J3:-1597.851562:eff_
1549358065.308640,cobot_dynamixel_driver/goal|-:J1,J2,J3,J4,J5,J6:0.000000,0.000000,0.523599,0.000000,0.000000,0.000000:0.250000,0.250000,0.250000,0.250000,0.250000,0.250000:pos_vel_
1549358065.887029,cobot_dynamixel_driver/goal|-:J3:-1607.851562:eff_
1549358066.005293,cobot_dynamixel_driver/goal|-:J1,J2,J3,J4,J5,J6:0.000000,0.000000,0.523599,0.000000,0.000000,0.000000:0.250000,0.250000,0.250000,0.250000,0.250000,0.250000:pos_vel_
1549358066.694731,cobot_dynamixel_driver/goal|-:J3:-1617.851562:eff_
1549358066.785717,cobot_dynamixel_driver/goal|-:J1,J2,J3,J4,J5,J6:0.000000,0.000000,0.523599,0.000000,0.000000,0.000000:0.250000,0.250000,0.250000,0.250000,0.250000,0.250000:pos_vel_
1549358067.310300,cobot_dynamixel_driver/goal|-:J3:-1627.851562:eff_
1549358067.401290,cobot_dynamixel_driver/goal|-:J1,J2,J3,J4,J5,J6:0.000000,0.000000,0.523599,0.000000,0.000000,0.000000:0.250000,0.250000,0.250000,0.250000,0.250000,0.250000:pos_vel_
1549358067.899966,cobot_dynamixel_driver/goal|-:J3:-1637.851562:eff_
1549358067.991063,cobot_dynamixel_driver/goal|-:J1,J2,J3,J4,J5,J6:0.000000,0.000000,0.523599,0.000000,0.000000,0.000000:0.250000,0.250000,0.250000,0.250000,0.250000,0.250000:pos_vel_
1549358068.407698,cobot_dynamixel_driver/goal|-:J3:-1647.851562:eff_
1549358068.498523,cobot_dynamixel_driver/goal|-:J1,J2,J3,J4,J5,J6:0.000000,0.000000,0.523599,0.000000,0.000000,0.000000:0.250000,0.250000,0.250000,0.250000,0.250000,0.250000:pos_vel_
1549358068.698567,cobot_dynamixel_driver/goal|-:J3:-1657.851562:eff_
1549358068.789525,cobot_dynamixel_driver/goal|-:J1,J2,J3,J4,J5,J6:0.000000,0.000000,0.523599,0.000000,0.000000,0.000000:0.250000,0.250000,0.250000,0.250000,0.250000,0.250000:pos_vel_
1549358069.206251,cobot_dynamixel_driver/goal|-:J3:-1667.851562:eff_
1549358069.297131,cobot_dynamixel_driver/goal|-:J1,J2,J3,J4,J5,J6:0.000000,0.000000,0.523599,0.000000,0.000000,0.000000:0.250000,0.250000,0.250000,0.250000,0.250000,0.250000:pos_vel_
1549358069.604947,cobot_dynamixel_driver/goal|-:J3:-1677.851562:eff_
1549358069.695918,cobot_dynamixel_driver/goal|-:J1,J2,J3,J4,J5,J6:0.000000,0.000000,0.523599,0.000000,0.000000,0.000000:0.250000,0.250000,0.250000,0.250000,0.250000,0.250000:pos_vel_
1549358069.895792,cobot_dynamixel_driver/goal|-:J3:-1687.851562:eff_
1549358070.013862,cobot_dynamixel_driver/goal|-:J1,J2,J3,J4,J5,J6:0.000000,0.000000,0.523599,0.000000,0.000000,0.000000:0.250000,0.250000,0.250000,0.250000,0.250000,0.250000:pos_vel_
1549358070.592286,cobot_dynamixel_driver/goal|-:J3:-1697.851562:eff_
1549358070.710325,cobot_dynamixel_driver/goal|-:J1,J2,J3,J4,J5,J6:0.000000,0.000000,0.523599,0.000000,0.000000,0.000000:0.250000,0.250000,0.250000,0.250000,0.250000,0.250000:pos_vel_
1549358071.396857,cobot_dynamixel_driver/goal|-:J3:-1707.851562:eff_
1549358071.515049,cobot_dynamixel_driver/goal|-:J1,J2,J3,J4,J5,J6:0.000000,0.000000,0.523599,0.000000,0.000000,0.000000:0.250000,0.250000,0.250000,0.250000,0.250000,0.250000:pos_vel_
1549358072.200363,cobot_dynamixel_driver/goal|-:J3:-1717.851562:eff_
1549358072.318479,cobot_dynamixel_driver/goal|-:J1,J2,J3,J4,J5,J6:0.000000,0.000000,0.523599,0.000000,0.000000,0.000000:0.250000,0.250000,0.250000,0.250000,0.250000,0.250000:pos_vel_
1549358073.113613,cobot_dynamixel_driver/goal|-:J3:-1727.851562:eff_
1549358073.204721,cobot_dynamixel_driver/goal|-:J1,J2,J3,J4,J5,J6:0.000000,0.000000,0.523599,0.000000,0.000000,0.000000:0.250000,0.250000,0.250000,0.250000,0.250000,0.250000:pos_vel_
1549358073.703271,cobot_dynamixel_driver/goal|-:J3:-1737.851562:eff_
1549358073.794469,cobot_dynamixel_driver/goal|-:J1,J2,J3,J4,J5,J6:0.000000,0.000000,0.523599,0.000000,0.000000,0.000000:0.250000,0.250000,0.250000,0.250000,0.250000,0.250000:pos_vel_
1549358074.211035,cobot_dynamixel_driver/goal|-:J3:-1747.851562:eff_
1549358074.301941,cobot_dynamixel_driver/goal|-:J1,J2,J3,J4,J5,J6:0.000000,0.000000,0.523599,0.000000,0.000000,0.000000:0.250000,0.250000,0.250000,0.250000,0.250000,0.250000:pos_vel_
1549358074.610805,cobot_dynamixel_driver/goal|-:J3:-1757.851562:eff_
1549358074.701758,cobot_dynamixel_driver/goal|-:J1,J2,J3,J4,J5,J6:0.000000,0.000000,0.523599,0.000000,0.000000,0.000000:0.250000,0.250000,0.250000,0.250000,0.250000,0.250000:pos_vel_
1549358074.902631,cobot_dynamixel_driver/goal|-:J3:-1767.851562:eff_
1549358075.020649,cobot_dynamixel_driver/goal|-:J1,J2,J3,J4,J5,J6:0.000000,0.000000,0.523599,0.000000,0.000000,0.000000:0.250000,0.250000,0.250000,0.250000,0.250000,0.250000:pos_vel_
1549358075.707151,cobot_dynamixel_driver/goal|-:J3:-1777.851562:eff_
1549358075.825413,cobot_dynamixel_driver/goal|-:J1,J2,J3,J4,J5,J6:0.000000,0.000000,0.523599,0.000000,0.000000,0.000000:0.250000,0.250000,0.250000,0.250000,0.250000,0.250000:pos_vel_
1549358076.514810,cobot_dynamixel_driver/goal|-:J3:-1787.851562:eff_
1549358076.605748,cobot_dynamixel_driver/goal|-:J1,J2,J3,J4,J5,J6:0.000000,0.000000,0.523599,0.000000,0.000000,0.000000:0.250000,0.250000,0.250000,0.250000,0.250000,0.250000:pos_vel_
1549358076.914522,cobot_dynamixel_driver/goal|-:J3:-1797.851562:eff_
1549358077.005559,cobot_dynamixel_driver/goal|-:J1,J2,J3,J4,J5,J6:0.000000,0.000000,0.523599,0.000000,0.000000,0.000000:0.250000,0.250000,0.250000,0.250000,0.250000,0.250000:pos_vel_
1549358077.504319,cobot_dynamixel_driver/goal|-:J3:-1807.851562:eff_
1549358077.623572,cobot_dynamixel_driver/goal|-:J1,J2,J3,J4,J5,J6:0.000000,0.000000,0.523599,0.000000,0.000000,0.000000:0.250000,0.250000,0.250000,0.250000,0.250000,0.250000:pos_vel_
1549358078.308825,cobot_dynamixel_driver/goal|-:J3:-1817.851562:eff_
1549358078.427079,cobot_dynamixel_driver/goal|-:J1,J2,J3,J4,J5,J6:0.000000,0.000000,0.523599,0.000000,0.000000,0.000000:0.250000,0.250000,0.250000,0.250000,0.250000,0.250000:pos_vel_
1549358079.221667,cobot_dynamixel_driver/goal|-:J3:-1827.851562:eff_
1549358079.312394,cobot_dynamixel_driver/goal|-:J1,J2,J3,J4,J5,J6:0.000000,0.000000,0.523599,0.000000,0.000000,0.000000:0.250000,0.250000,0.250000,0.250000,0.250000,0.250000:pos_vel_
1549358079.513312,cobot_dynamixel_driver/goal|-:J3:-1837.851562:eff_
1549358079.604074,cobot_dynamixel_driver/goal|-:J1,J2,J3,J4,J5,J6:0.000000,0.000000,0.523599,0.000000,0.000000,0.000000:0.250000,0.250000,0.250000,0.250000,0.250000,0.250000:pos_vel_
1549358080.209919,cobot_dynamixel_driver/goal|-:J3:-1847.851562:eff_
1549358080.328211,cobot_dynamixel_driver/goal|-:J1,J2,J3,J4,J5,J6:0.000000,0.000000,0.523599,0.000000,0.000000,0.000000:0.250000,0.250000,0.250000,0.250000,0.250000,0.250000:pos_vel_
1549358081.123531,cobot_dynamixel_driver/goal|-:J3:-1857.851562:eff_
1549358081.214625,cobot_dynamixel_driver/goal|-:J1,J2,J3,J4,J5,J6:0.000000,0.000000,0.523599,0.000000,0.000000,0.000000:0.250000,0.250000,0.250000,0.250000,0.250000,0.250000:pos_vel_
1549358081.525321,cobot_dynamixel_driver/goal|-:J3:-1867.851562:eff_
1549358081.616262,cobot_dynamixel_driver/goal|-:J1,J2,J3,J4,J5,J6:0.000000,0.000000,0.523599,0.000000,0.000000,0.000000:0.250000,0.250000,0.250000,0.250000,0.250000,0.250000:pos_vel_
1549358081.924056,cobot_dynamixel_driver/goal|-:J3:-1877.851562:eff_
1549358082.015071,cobot_dynamixel_driver/goal|-:J1,J2,J3,J4,J5,J6:0.000000,0.000000,0.523599,0.000000,0.000000,0.000000:0.250000,0.250000,0.250000,0.250000,0.250000,0.250000:pos_vel_
1549358082.322850,cobot_dynamixel_driver/goal|-:J3:-1887.851562:eff_
1549358082.413698,cobot_dynamixel_driver/goal|-:J1,J2,J3,J4,J5,J6:0.000000,0.000000,0.523599,0.000000,0.000000,0.000000:0.250000,0.250000,0.250000,0.250000,0.250000,0.250000:pos_vel_
1549358082.721532,cobot_dynamixel_driver/goal|-:J3:-1897.851562:eff_
1549358082.812520,cobot_dynamixel_driver/goal|-:J1,J2,J3,J4,J5,J6:0.000000,0.000000,0.523599,0.000000,0.000000,0.000000:0.250000,0.250000,0.250000,0.250000,0.250000,0.250000:pos_vel_
1549358083.229211,cobot_dynamixel_driver/goal|-:J3:-1907.851562:eff_
1549358083.320184,cobot_dynamixel_driver/goal|-:J1,J2,J3,J4,J5,J6:0.000000,0.000000,0.523599,0.000000,0.000000,0.000000:0.250000,0.250000,0.250000,0.250000,0.250000,0.250000:pos_vel_
1549358083.628934,cobot_dynamixel_driver/goal|-:J3:-1917.851562:eff_
1549358083.719839,cobot_dynamixel_driver/goal|-:J1,J2,J3,J4,J5,J6:0.000000,0.000000,0.523599,0.000000,0.000000,0.000000:0.250000,0.250000,0.250000,0.250000,0.250000,0.250000:pos_vel_
1549358084.028679,cobot_dynamixel_driver/goal|-:J3:-1927.851562:eff_
1549358084.119610,cobot_dynamixel_driver/goal|-:J1,J2,J3,J4,J5,J6:0.000000,0.000000,0.523599,0.000000,0.000000,0.000000:0.250000,0.250000,0.250000,0.250000,0.250000,0.250000:pos_vel_
1549358084.427387,cobot_dynamixel_driver/goal|-:J3:-1937.851562:eff_
1549358084.518296,cobot_dynamixel_driver/goal|-:J1,J2,J3,J4,J5,J6:0.000000,0.000000,0.523599,0.000000,0.000000,0.000000:0.250000,0.250000,0.250000,0.250000,0.250000,0.250000:pos_vel_
1549358084.827197,cobot_dynamixel_driver/goal|-:J3:-1947.851562:eff_
1549358084.918030,cobot_dynamixel_driver/goal|-:J1,J2,J3,J4,J5,J6:0.000000,0.000000,0.523599,0.000000,0.000000,0.000000:0.250000,0.250000,0.250000,0.250000,0.250000,0.250000:pos_vel_
1549358085.335851,cobot_dynamixel_driver/goal|-:J3:-1957.851562:eff_
cobot_dynamixel_driver/goal|-:J3:-1957.851562:eff_
0
-:J3:-1957.851562:eff_
[TxRxResult] There is no status packet!
 /home/mtec/catkin_ws/src/cobot/cobot_dynamixel_driver/src/cJoint_pro.cpp:413
1549358085.335851,cobot_dynamixel_driver/goal|-:J3:-1957.851562:eff_
cobot_dynamixel_driver/goal|-:J3:-1957.851562:eff_
1
-:J3:-1957.851562:eff_
[TxRxResult] There is no status packet!
 /home/mtec/catkin_ws/src/cobot/cobot_dynamixel_driver/src/cJoint_pro.cpp:413
1549358085.335851,cobot_dynamixel_driver/goal|-:J1,J2,J3,J4,J5,J6:0.000000,0.000000,0.523599,0.000000,0.000000,0.000000:0.250000,0.250000,0.250000,0.250000,0.250000,0.250000:pos_vel_
1549358085.335851,cobot_dynamixel_driver/goal|-:J1,J2,J3,J4,J5,J6:0.000000,0.000000,0.523599,0.000000,0.000000,0.000000:0.250000,0.250000,0.250000,0.250000,0.250000,0.250000:pos_vel_
