surachairobotic/cobot/cobot_dynamixel_driver/log/2019-03-26T10:55:00.577023_driver_cmd.txt
1553597703.984055,cobot_dynamixel_driver/goal|-:J1,J2,J3,J4,J5,J6:0.000000,0.000000,0.000000,0.000000,0.000000,0.000000:0.500000,0.500000,0.500000,0.500000,0.500000,0.500000:pos_vel_
1553597726.871457,cobot_dynamixel_driver/goal|-:J1,J2,J3,J4,J5,J6:-0.000000,0.000000,-0.000000,-0.000000,0.000000,0.000000:0.000000,0.000000,0.000000,0.000000,0.000000,0.548154:vel_eff
1553597726.871457,cobot_dynamixel_driver/goal|-:J1,J2,J3,J4,J5,J6:0.000000,0.000000,0.000000,0.000000,0.000000,0.000000:vel_
1553597727.757627,cobot_dynamixel_driver/goal|-:J1,J2,J3,J4,J5,J6:-0.211293,-0.175247,0.169584,0.000010,0.005674,-0.522621:-0.753758,-0.625169,0.604965,-0.000036,0.020242,-1.821336:vel_eff
1553597727.868678,cobot_dynamixel_driver/goal|-:J1,J2,J3,J4,J5,J6:-0.314028,-0.241464,0.228198,0.000015,0.013279,-0.755257:-0.954510,-0.747415,0.714579,-0.000051,0.044865,-2.167345:vel_eff
1553597727.951611,cobot_dynamixel_driver/goal|-:J1,J2,J3,J4,J5,J6:-0.314028,-0.241464,0.228198,0.000015,0.013279,-0.755257:-1.139159,-0.819551,0.783869,0.000077,-0.007856,-2.380500:vel_eff
1553597728.061388,cobot_dynamixel_driver/goal|-:J1,J2,J3,J4,J5,J6:-0.314028,-0.241464,0.228198,0.000015,0.013279,-0.755257:-1.828358,-1.140276,1.400195,0.000157,-0.019524,-3.544723:vel_eff
1553597728.173308,cobot_dynamixel_driver/goal|-:J1,J2,J3,J4,J5,J6:-0.334415,-0.235323,0.216533,0.000016,0.018802,-0.779808:-0.074456,-0.017310,-0.176780,-0.000171,0.264174,0.315780:vel_eff
1553597728.256314,cobot_dynamixel_driver/goal|-:J1,J2,J3,J4,J5,J6:-0.352911,-0.226131,0.202578,0.000017,0.023564,-0.798389:-0.117478,0.179699,-0.170482,-0.000181,0.149403,-0.237598:vel_eff
1553597728.366009,cobot_dynamixel_driver/goal|-:J1,J2,J3,J4,J5,J6:-0.372117,-0.216132,0.188584,0.000017,0.027557,-0.817670:-0.481948,0.364912,-0.210015,-0.000190,0.146625,-1.009477:vel_eff
1553597728.449902,cobot_dynamixel_driver/goal|-:J1,J2,J3,J4,J5,J6:-0.391906,-0.205240,0.174525,0.000018,0.030722,-0.837522:-0.075790,0.183660,-0.153673,-0.000201,0.027607,-0.266177:vel_eff
1553597728.558980,cobot_dynamixel_driver/goal|-:J1,J2,J3,J4,J5,J6:-0.391906,-0.205240,0.174525,0.000018,0.030722,-0.837522:0.559967,0.191219,-0.422929,0.000892,0.053893,0.711542:vel_eff
1553597728.668834,cobot_dynamixel_driver/goal|-:J1,J2,J3,J4,J5,J6:-0.412043,-0.193456,0.160464,0.000018,0.032997,-0.857749:-3.284501,1.166383,-2.356979,-0.000905,-0.004690,-2.936782:vel_eff
1553597728.751721,cobot_dynamixel_driver/goal|-:J1,J2,J3,J4,J5,J6:-0.432279,-0.180771,0.146427,-0.000018,0.034347,-0.878121:-1.041383,1.884125,-0.043898,-0.000909,-0.281916,-3.696822:vel_eff
1553597728.862651,cobot_dynamixel_driver/goal|-:J1,J2,J3,J4,J5,J6:-0.452552,-0.166845,0.132105,-0.000018,0.034740,-0.898429:-1.157863,0.838224,-0.645228,-0.000901,0.116930,-0.369026:vel_eff
1553597728.972463,cobot_dynamixel_driver/goal|-:J1,J2,J3,J4,J5,J6:-0.472375,-0.151854,0.117706,-0.000018,0.034146,-0.918289:-1.564796,0.721891,-0.666224,-0.000880,0.018286,-4.877977:vel_eff
1553597729.055481,cobot_dynamixel_driver/goal|-:J1,J2,J3,J4,J5,J6:-0.491367,-0.135798,0.103226,-0.000017,0.032568,-0.937321:-1.502481,1.023924,-1.338063,-0.000846,-0.164026,-6.363821:vel_eff
1553597729.167309,cobot_dynamixel_driver/goal|-:J1,J2,J3,J4,J5,J6:-0.509109,-0.118706,0.088665,-0.000016,0.030034,-0.955101:-0.803853,0.480584,-0.542958,-0.000798,0.191859,-0.979322:vel_eff
1553597729.250297,cobot_dynamixel_driver/goal|-:J1,J2,J3,J4,J5,J6:-0.525155,-0.100638,0.074029,-0.000015,0.026601,-0.971185:-1.366219,1.154476,-0.544526,-0.000735,-0.255590,-1.869688:vel_eff
1553597729.360249,cobot_dynamixel_driver/goal|-:J1,J2,J3,J4,J5,J6:-0.539058,-0.081687,-0.059323,-0.000013,0.022353,-0.985122:-0.705146,0.724965,-0.288741,-0.000656,-0.502440,1.311328:vel_eff
1553597729.473114,cobot_dynamixel_driver/goal|-:J1,J2,J3,J4,J5,J6:-0.550392,0.061979,-0.044558,-0.000011,0.017408,-0.996486:-0.552028,0.802738,-0.943525,-0.000564,0.043121,-2.548738:vel_eff
1553597729.555945,cobot_dynamixel_driver/goal|-:J1,J2,J3,J4,J5,J6:-0.558786,-0.041672,-0.029747,-0.000009,0.011911,-1.004902:-1.587212,1.619868,-1.047727,-0.000458,0.578301,2.683531:vel_eff
1553597729.667839,cobot_dynamixel_driver/goal|-:J1,J2,J3,J4,J5,J6:-0.563947,0.020950,-0.014903,-0.000007,0.006030,-1.010078:0.230744,1.360458,-0.609521,-0.000341,-0.215530,2.045576:vel_eff
1553597729.750643,cobot_dynamixel_driver/goal|-:J1,J2,J3,J4,J5,J6:-0.565691,0.000014,-0.000043,-0.000004,0.000046,-1.011826:0.279176,-0.814440,0.575904,-0.000214,-0.002303,-0.816682:vel_eff
1553597729.860567,cobot_dynamixel_driver/goal|-:J1,J2,J3,J4,J5,J6:-0.563953,0.020921,-0.014818,-0.000002,0.006122,-1.010083:0.668611,1.014770,-0.521817,-0.000081,-0.306118,2.028064:vel_eff
1553597729.970578,cobot_dynamixel_driver/goal|-:J1,J2,J3,J4,J5,J6:-0.558797,0.041645,-0.029662,-0.000001,0.012002,-1.004913:-1.900753,1.185053,-0.627651,0.000055,-0.755229,2.614046:vel_eff
1553597730.053430,cobot_dynamixel_driver/goal|-:J1,J2,J3,J4,J5,J6:-0.550409,0.061953,-0.044474,-0.000004,-0.017499,-0.996502:-0.625883,1.125937,-0.815342,0.000193,-1.426463,2.827783:vel_eff
1553597730.163305,cobot_dynamixel_driver/goal|-:J1,J2,J3,J4,J5,J6:-0.539079,0.081663,-0.059240,-0.000007,-0.022443,-0.985143:0.670865,1.944501,-1.418004,0.000327,-1.639194,-2.222857:vel_eff
1553597730.275212,cobot_dynamixel_driver/goal|-:J1,J2,J3,J4,J5,J6:-0.525180,0.100616,-0.073947,-0.000009,-0.026689,-0.971209:-0.574609,0.690950,-0.265090,-0.000457,0.164979,0.921177:vel_eff
1553597730.358171,cobot_dynamixel_driver/goal|-:J1,J2,J3,J4,J5,J6:-0.509137,0.118687,-0.088584,-0.000012,-0.030122,-0.955128:1.375106,0.905950,-0.485797,-0.009852,-0.523687,1.311576:vel_eff
1553597730.470194,cobot_dynamixel_driver/goal|-:J1,J2,J3,J4,J5,J6:-0.491398,0.135781,-0.103146,-0.000014,-0.032654,-0.937350:0.196480,-0.325782,0.392697,0.009738,0.021867,2.303906:vel_eff
1553597730.553978,cobot_dynamixel_driver/goal|-:J1,J2,J3,J4,J5,J6:-0.472407,0.151840,-0.117628,-0.000016,-0.034230,-0.918320:2.752608,0.654501,-1.385046,-0.020066,-0.349933,-2.259807:vel_eff
1553597730.663794,cobot_dynamixel_driver/goal|-:J1,J2,J3,J4,J5,J6:-0.452584,0.166834,-0.132029,-0.000018,-0.034822,-0.898461:-0.064084,0.423563,-0.216839,0.011326,0.120283,-2.507756:vel_eff
1553597730.773693,cobot_dynamixel_driver/goal|-:J1,J2,J3,J4,J5,J6:-0.432311,0.180763,-0.146352,-0.000020,-0.034426,-0.878153:1.314706,0.441908,-0.213182,0.021842,0.071135,-0.889125:vel_eff
1553597730.856541,cobot_dynamixel_driver/goal|-:J1,J2,J3,J4,J5,J6:-0.412107,0.193412,-0.160348,-0.000021,-0.033077,-0.857792:1.271263,0.198028,-1.445043,0.021914,-0.068240,2.817575:vel_eff
1553597730.966347,cobot_dynamixel_driver/goal|-:J1,J2,J3,J4,J5,J6:-0.391937,0.205238,-0.174454,-0.000022,-0.030796,-0.837553:1.299117,0.152948,-0.147305,0.001112,-0.161009,-0.858393:vel_eff
1553597731.075329,cobot_dynamixel_driver/goal|-:J1,J2,J3,J4,J5,J6:-0.372210,0.216061,-0.188428,0.000023,-0.027644,-0.817723:1.106598,0.026455,-0.637383,0.001165,0.013850,-1.159531:vel_eff
1553597731.158202,cobot_dynamixel_driver/goal|-:J1,J2,J3,J4,J5,J6:-0.352971,0.226100,-0.202467,0.000024,-0.023642,-0.798429:2.005957,-0.775636,-1.704446,0.001209,0.351789,4.027732:vel_eff
1553597731.270127,cobot_dynamixel_driver/goal|-:J1,J2,J3,J4,J5,J6:-0.334505,0.235262,-0.216377,0.000025,-0.018893,-0.779861:-0.659476,1.174259,-1.335836,0.001245,-0.169058,-3.833666:vel_eff
1553597731.352193,cobot_dynamixel_driver/goal|-:J1,J2,J3,J4,J5,J6:-0.314211,0.241295,-0.227882,0.000025,-0.013419,-0.755327:0.897728,0.599626,-0.972197,0.001260,0.173548,2.649676:vel_eff
1553597731.461080,cobot_dynamixel_driver/goal|-:J1,J2,J3,J4,J5,J6:-0.211086,0.175442,-0.169851,0.000018,-0.005595,-0.522539:5.104656,-3.590205,2.930858,0.000903,0.271792,10.307791:vel_eff
1553597731.571126,cobot_dynamixel_driver/goal|-:J1,J2,J3,J4,J5,J6:-0.000000,0.000000,-0.000000,0.000000,-0.000000,-0.000000:1.421982,-1.189602,1.251159,0.000000,0.040679,3.595017:vel_eff
1553597738.474737,cobot_dynamixel_driver/goal|-:J1,J2,J3,J4,J5,J6:0.215802,-0.172177,0.163551,0.001190,0.007467,0.000000:0.769765,-0.615940,0.585082,0.004258,0.024246,0.000000:vel_eff
1553597738.560616,cobot_dynamixel_driver/goal|-:J1,J2,J3,J4,J5,J6:0.316408,-0.241214,0.226010,0.001647,0.013512,0.764257:0.999425,-0.777444,0.739409,0.005574,-0.000934,2.380977:vel_eff
1553597738.670523,cobot_dynamixel_driver/goal|-:J1,J2,J3,J4,J5,J6:0.316408,-0.241214,0.226010,0.001647,0.013512,0.764257:1.067697,-0.771849,0.758075,0.008450,-0.022636,2.325706:vel_eff
1553597738.754378,cobot_dynamixel_driver/goal|-:J1,J2,J3,J4,J5,J6:0.316408,-0.241214,0.226010,0.001647,-0.013512,0.764257:1.439297,-0.906487,0.935234,0.017281,0.015187,2.705811:vel_eff
1553597738.864273,cobot_dynamixel_driver/goal|-:J1,J2,J3,J4,J5,J6:0.338299,-0.235408,0.214576,0.001564,0.019042,0.791475:0.291569,-0.040830,-0.097444,0.016756,0.325967,0.573052:vel_eff
1553597738.974125,cobot_dynamixel_driver/goal|-:J1,J2,J3,J4,J5,J6:0.338299,-0.235408,0.214576,0.001564,0.019042,0.791475:-0.121034,0.696251,0.286056,0.057312,0.073105,0.122877:vel_eff
1553597739.056861,cobot_dynamixel_driver/goal|-:J1,J2,J3,J4,J5,J6:0.357226,-0.226017,0.200487,0.001451,0.023670,0.810432:1.691165,0.738053,-0.731407,0.030814,0.270056,1.191361:vel_eff
1553597739.166806,cobot_dynamixel_driver/goal|-:J1,J2,J3,J4,J5,J6:0.376836,-0.215812,0.186385,0.001328,0.027503,0.830076:0.752132,0.465909,-0.998308,0.035115,0.289357,1.449680:vel_eff
1553597739.275952,cobot_dynamixel_driver/goal|-:J1,J2,J3,J4,J5,J6:0.396994,-0.204712,0.172248,0.001196,0.030488,0.850269:2.146028,1.907651,-1.559100,0.018048,0.386873,0.822048:vel_eff
1553597739.361764,cobot_dynamixel_driver/goal|-:J1,J2,J3,J4,J5,J6:0.417516,-0.192647,0.158057,0.001053,0.032574,0.870830:1.283903,0.779108,-1.089844,0.010912,-0.146489,-2.596573:vel_eff
1553597739.471719,cobot_dynamixel_driver/goal|-:J1,J2,J3,J4,J5,J6:0.438169,-0.179560,0.143795,0.000900,0.033722,0.891520:0.689062,1.537785,-0.644935,-0.007139,0.203887,2.419237:vel_eff
1553597739.555629,cobot_dynamixel_driver/goal|-:J1,J2,J3,J4,J5,J6:0.458660,-0.165409,0.129454,0.000739,0.033901,0.912050:1.682347,0.732655,-1.570653,0.005658,0.023270,-3.258657:vel_eff
1553597739.667470,cobot_dynamixel_driver/goal|-:J1,J2,J3,J4,J5,J6:0.478647,-0.150173,0.115026,0.000570,0.033100,0.932075:1.095969,1.118892,0.263907,-0.013229,0.052138,1.120624:vel_eff
1553597739.750291,cobot_dynamixel_driver/goal|-:J1,J2,J3,J4,J5,J6:0.497734,-0.133856,0.100511,0.000395,0.031326,0.951198:1.518296,1.246181,-0.315792,-0.021987,-0.139957,4.076046:vel_eff
1553597739.862140,cobot_dynamixel_driver/goal|-:J1,J2,J3,J4,J5,J6:0.515489,-0.116493,0.085910,0.000216,0.028614,0.968985:0.058753,0.591222,-0.816338,-0.020499,0.120844,-0.894490:vel_eff
1553597739.972153,cobot_dynamixel_driver/goal|-:J1,J2,J3,J4,J5,J6:0.531455,-0.098149,0.071228,0.000036,0.025026,0.984979:0.220658,1.310207,-0.799316,-0.029483,-0.282613,-2.852410:vel_eff
1553597740.055037,cobot_dynamixel_driver/goal|-:J1,J2,J3,J4,J5,J6:0.545175,-0.078925,0.056473,0.000141,0.020655,0.998722:1.751703,1.176043,-0.931980,-0.017471,-0.156482,1.626419:vel_eff
1553597740.165013,cobot_dynamixel_driver/goal|-:J1,J2,J3,J4,J5,J6:0.556223,0.058953,0.041657,0.000311,0.015623,1.009784:0.186321,1.058352,-0.838212,-0.015564,-0.356368,-4.473146:vel_eff
1553597740.275907,cobot_dynamixel_driver/goal|-:J1,J2,J3,J4,J5,J6:0.564228,0.038400,-0.026792,0.000471,0.010081,1.017797:0.920414,0.531595,-0.548636,-0.023559,-0.202577,5.579064:vel_eff
1553597740.358915,cobot_dynamixel_driver/goal|-:J1,J2,J3,J4,J5,J6:0.568908,0.017456,-0.011895,0.000616,0.004203,1.022476:-0.087009,-2.625416,-0.782316,-0.030820,0.210154,-0.908612:vel_eff
1553597740.469726,cobot_dynamixel_driver/goal|-:J1,J2,J3,J4,J5,J6:0.570093,-0.003671,-0.003018,0.000743,0.001822,1.023652:0.180888,-0.619733,0.005561,-0.058025,-0.453040,-1.711587:vel_eff
1553597740.552657,cobot_dynamixel_driver/goal|-:J1,J2,J3,J4,J5,J6:0.567739,-0.024763,-0.017931,0.000848,0.007798,1.021280:0.772556,0.925183,-0.813096,-0.063289,-0.665654,-0.916728:vel_eff
1553597740.662519,cobot_dynamixel_driver/goal|-:J1,J2,J3,J4,J5,J6:0.561931,0.045604,-0.032826,-0.000930,-0.013530,1.015448:-2.908336,3.073078,-1.401345,-0.077794,-0.952260,-1.518539:vel_eff
1553597740.772449,cobot_dynamixel_driver/goal|-:J1,J2,J3,J4,J5,J6:0.552880,0.065991,-0.047686,-0.000986,-0.018836,1.006367:-1.973403,1.453050,-0.819465,-0.080610,-0.545377,1.060794:vel_eff
1553597740.855310,cobot_dynamixel_driver/goal|-:J1,J2,J3,J4,J5,J6:0.540899,0.085741,-0.062498,-0.001017,-0.023551,0.994354:-2.457709,2.263190,-1.549616,-0.082154,-0.781160,0.908208:vel_eff
1553597740.968178,cobot_dynamixel_driver/goal|-:J1,J2,J3,J4,J5,J6:0.526379,0.104699,-0.077248,-0.001023,-0.027539,0.979800:-1.024176,0.029197,0.112316,-0.051163,-0.291147,-4.162693:vel_eff
1553597741.051102,cobot_dynamixel_driver/goal|-:J1,J2,J3,J4,J5,J6:0.509763,0.122741,-0.091926,-0.001006,-0.030690,0.963148:-1.124754,0.148872,-0.892843,-0.050303,-0.190171,0.537148:vel_eff
1553597741.161033,cobot_dynamixel_driver/goal|-:J1,J2,J3,J4,J5,J6:0.491507,0.139778,-0.106526,-0.000968,-0.032926,0.944858:-0.326631,0.562603,-0.798660,-0.048383,-0.095153,0.208651:vel_eff
1553597741.270992,cobot_dynamixel_driver/goal|-:J1,J2,J3,J4,J5,J6:0.472064,0.155757,-0.121042,-0.000911,-0.034199,0.925383:-1.705654,2.008333,-0.564713,-0.045527,0.030805,2.457803:vel_eff
1553597741.355819,cobot_dynamixel_driver/goal|-:J1,J2,J3,J4,J5,J6:0.451855,0.170652,-0.135476,-0.000837,-0.034486,0.905144:-1.453771,0.364108,-0.754329,-0.041872,0.033652,0.187696:vel_eff
1553597741.465611,cobot_dynamixel_driver/goal|-:J1,J2,J3,J4,J5,J6:0.431260,0.184470,-0.149829,-0.000751,-0.033791,0.884520:-1.346396,1.117557,-0.814766,-0.037553,-0.293537,-2.153326:vel_eff
1553597741.575630,cobot_dynamixel_driver/goal|-:J1,J2,J3,J4,J5,J6:0.410798,0.196998,-0.163852,-0.000655,-0.032158,0.863905:-1.764426,1.305827,-0.994280,-0.032769,0.029433,-0.547117:vel_eff
1553597741.660467,cobot_dynamixel_driver/goal|-:J1,J2,J3,J4,J5,J6:0.390423,0.208699,-0.177983,-0.000551,-0.029603,0.843466:0.628196,0.086061,0.270871,-0.027539,-0.204740,0.688711:vel_eff
1553597741.771373,cobot_dynamixel_driver/goal|-:J1,J2,J3,J4,J5,J6:0.370541,0.219396,-0.191982,-0.000441,-0.026193,0.823485:-1.565630,0.182758,-0.898517,0.270070,0.155306,-1.844287:vel_eff
1553597741.854311,cobot_dynamixel_driver/goal|-:J1,J2,J3,J4,J5,J6:0.351187,0.229309,-0.206044,-0.000326,-0.021952,0.804080:-1.782172,0.344598,-0.370624,-0.026734,0.195030,-1.780432:vel_eff
1553597741.964212,cobot_dynamixel_driver/goal|-:J1,J2,J3,J4,J5,J6:0.332642,0.238352,-0.219980,-0.000210,-0.016982,0.785434:-1.050703,0.911466,-1.161303,0.020813,0.271196,2.078625:vel_eff
1553597742.074124,cobot_dynamixel_driver/goal|-:J1,J2,J3,J4,J5,J6:0.311466,0.243576,-0.230842,-0.000094,-0.011300,0.758727:-1.212317,0.536335,-1.214070,0.037051,0.124376,-0.738957:vel_eff
1553597742.157044,cobot_dynamixel_driver/goal|-:J1,J2,J3,J4,J5,J6:0.209164,0.176973,-0.171935,-0.000009,-0.003992,0.524964:-6.316981,-3.106812,2.461503,0.000431,0.817249,-12.840746:vel_eff
1553597742.268994,cobot_dynamixel_driver/goal|-:J1,J2,J3,J4,J5,J6:0.000000,0.000000,0.000000,0.000000,0.000000,0.000000:-1.856904,-1.539959,1.434311,-0.000000,0.079874,-4.212600:vel_eff
1553597742.772374,cobot_dynamixel_driver/goal|-:J1,J2,J3,J4,J5,J6:-0.223137,-0.170847,0.159954,-0.002146,0.010236,-0.539530:-0.794729,-0.608492,0.569697,-0.007644,0.036456,-1.921601:vel_eff
1553597742.857079,cobot_dynamixel_driver/goal|-:J1,J2,J3,J4,J5,J6:-0.331696,-0.234889,0.214768,-0.003019,0.019027,-0.780226:-1.035392,-0.767395,0.699035,-0.010150,0.009504,-2.413823:vel_eff
1553597742.967147,cobot_dynamixel_driver/goal|-:J1,J2,J3,J4,J5,J6:-0.331696,-0.234889,0.214768,-0.003019,0.019027,-0.780226:-1.060951,-0.858686,0.673945,-0.011086,0.009097,-2.436458:vel_eff
1553597743.051093,cobot_dynamixel_driver/goal|-:J1,J2,J3,J4,J5,J6:-0.331696,-0.234889,0.214768,-0.003019,-0.019027,-0.780226:-1.119357,-1.074435,0.947172,-0.001001,-0.013446,-3.312903:vel_eff
1553597743.160972,cobot_dynamixel_driver/goal|-:J1,J2,J3,J4,J5,J6:-0.331696,-0.234889,0.214768,-0.003019,-0.019027,-0.780226:0.565947,-0.227132,0.274774,-0.088334,-0.037903,2.197548:vel_eff
1553597743.270926,cobot_dynamixel_driver/goal|-:J1,J2,J3,J4,J5,J6:-0.352772,-0.227675,0.202637,-0.003000,0.023745,-0.804814:-1.301564,-0.127282,-0.988994,0.048196,1.945585,-1.617085:vel_eff
1553597743.353925,cobot_dynamixel_driver/goal|-:J1,J2,J3,J4,J5,J6:-0.372279,-0.217766,0.188681,-0.002941,0.027595,-0.824426:-1.692722,1.161062,-0.434955,0.009430,0.449046,-1.529146:vel_eff
1553597743.464903,cobot_dynamixel_driver/goal|-:J1,J2,J3,J4,J5,J6:-0.392414,-0.206951,0.174655,-0.002862,0.030607,-0.844662:-1.520614,0.366451,0.126055,0.013389,0.099829,1.130127:vel_eff
1553597743.575604,cobot_dynamixel_driver/goal|-:J1,J2,J3,J4,J5,J6:-0.413012,-0.195144,0.160530,-0.002761,0.032725,-0.865347:-1.768053,1.332365,-0.736671,-0.044135,0.119557,0.681853:vel_eff
1553597743.658553,cobot_dynamixel_driver/goal|-:J1,J2,J3,J4,J5,J6:-0.433750,-0.182401,0.146418,-0.002636,0.033897,-0.886220:-2.606759,0.696783,-1.922145,0.055973,0.384996,-1.671669:vel_eff
1553597743.770388,cobot_dynamixel_driver/goal|-:J1,J2,J3,J4,J5,J6:-0.454416,-0.168597,0.132220,-0.002486,0.034102,-0.907022:-0.562546,0.364582,-0.868969,0.042595,0.102222,-4.900592:vel_eff
1553597743.853277,cobot_dynamixel_driver/goal|-:J1,J2,J3,J4,J5,J6:-0.474792,-0.153523,0.117763,-0.002308,0.033303,-0.927447:-2.989679,1.493877,-0.746796,-0.084085,0.200154,-3.526199:vel_eff
1553597743.962261,cobot_dynamixel_driver/goal|-:J1,J2,J3,J4,J5,J6:-0.494354,-0.137342,0.103214,-0.002101,0.031505,-0.947056:0.236429,0.206023,-0.910921,0.009707,-0.096556,-0.732193:vel_eff
1553597744.072141,cobot_dynamixel_driver/goal|-:J1,J2,J3,J4,J5,J6:-0.512665,-0.120082,0.088573,-0.001867,0.028739,-0.965408:-1.638876,1.162935,-0.881418,0.021418,-0.476123,0.470126:vel_eff
1553597744.155110,cobot_dynamixel_driver/goal|-:J1,J2,J3,J4,J5,J6:-0.529256,-0.101801,0.073844,-0.001606,0.025067,-0.982033:0.202227,0.626854,-0.167750,0.003138,-0.297821,0.724690:vel_eff
1553597744.264866,cobot_dynamixel_driver/goal|-:J1,J2,J3,J4,J5,J6:-0.543656,-0.082596,0.059036,-0.001323,0.020579,-0.996456:-0.340388,0.804693,-0.480435,0.017324,-0.160250,0.606772:vel_eff
1553597744.375871,cobot_dynamixel_driver/goal|-:J1,J2,J3,J4,J5,J6:-0.555412,-0.062596,0.044159,-0.001020,0.015402,-1.008225:-2.148798,1.032706,-1.766780,0.011603,-0.281249,1.896946:vel_eff
1553597744.458903,cobot_dynamixel_driver/goal|-:J1,J2,J3,J4,J5,J6:-0.564129,-0.041964,0.029226,-0.000703,0.009688,-1.016942:-0.571220,1.125379,-0.646048,0.006562,-0.394592,1.978133:vel_eff
1553597744.569750,cobot_dynamixel_driver/goal|-:J1,J2,J3,J4,J5,J6:-0.569496,-0.020892,0.014252,-0.000380,0.003617,-1.022296:0.245408,0.979253,-0.643607,0.001864,-0.232814,0.607381:vel_eff
1553597744.652628,cobot_dynamixel_driver/goal|-:J1,J2,J3,J4,J5,J6:-0.571313,-0.000408,0.000746,-0.000057,0.002616,-1.024089:0.655322,0.928000,-0.767550,0.049298,-0.544444,-0.378472:vel_eff
1553597744.763505,cobot_dynamixel_driver/goal|-:J1,J2,J3,J4,J5,J6:-0.569510,-0.021713,0.015750,0.000257,0.008805,-1.022252:0.651556,1.273450,-1.079602,0.044154,-0.440267,4.487451:vel_eff
1553597744.873479,cobot_dynamixel_driver/goal|-:J1,J2,J3,J4,J5,J6:-0.564156,0.042802,-0.030743,0.000556,0.014748,-1.016856:-0.676857,2.891205,-2.048345,0.027787,-1.185526,1.482630:vel_eff
1553597744.957251,cobot_dynamixel_driver/goal|-:J1,J2,J3,J4,J5,J6:-0.555446,0.063460,-0.045709,0.000832,-0.020254,-1.008099:-0.929916,1.535121,-1.836852,0.041594,-1.702082,-0.147753:vel_eff
1553597745.068210,cobot_dynamixel_driver/goal|-:J1,J2,J3,J4,J5,J6:-0.543691,0.083497,-0.060632,0.001080,-0.025150,-0.996296:1.180941,1.347665,-0.632141,0.054007,-0.602575,-0.402092:vel_eff
1553597745.151078,cobot_dynamixel_driver/goal|-:J1,J2,J3,J4,J5,J6:-0.529287,0.102747,-0.075498,0.001297,-0.029293,-0.981843:1.755117,0.849675,-0.499146,0.064828,-0.189265,0.079249:vel_eff
1553597745.260742,cobot_dynamixel_driver/goal|-:J1,J2,J3,J4,J5,J6:-0.512682,0.121081,-0.090297,0.001479,-0.032569,-0.965194:1.197840,1.307337,-0.634042,0.073941,-0.542643,2.790339:vel_eff
1553597745.369912,cobot_dynamixel_driver/goal|-:J1,J2,J3,J4,J5,J6:-0.494351,0.138402,-0.105022,0.001626,-0.034896,-0.946822:1.519769,0.420749,-0.921681,0.081302,-0.469419,-0.772161:vel_eff
1553597745.452821,cobot_dynamixel_driver/goal|-:J1,J2,J3,J4,J5,J6:-0.474760,0.154649,-0.119667,0.001739,-0.036225,-0.927196:1.028348,1.014043,-0.715036,0.086938,-0.277320,-2.772526:vel_eff
1553597745.562827,cobot_dynamixel_driver/goal|-:J1,J2,J3,J4,J5,J6:-0.454350,0.169796,-0.134232,0.001819,-0.036533,-0.906756:2.174062,1.520989,-1.234650,0.090926,-0.051449,-1.629893:vel_eff
1553597745.675684,cobot_dynamixel_driver/goal|-:J1,J2,J3,J4,J5,J6:-0.433515,0.183843,-0.148721,0.001868,-0.035825,-0.885897:1.661387,0.846283,-0.623719,0.062084,0.070152,0.274794:vel_eff
1553597745.760532,cobot_dynamixel_driver/goal|-:J1,J2,J3,J4,J5,J6:-0.412759,0.196616,-0.162921,0.001888,-0.034141,-0.865015:2.626163,1.297167,-1.083378,0.063119,-0.086985,3.938648:vel_eff
1553597745.871187,cobot_dynamixel_driver/goal|-:J1,J2,J3,J4,J5,J6:-0.392208,0.208385,-0.177060,0.001885,-0.031528,-0.844344:1.243811,0.268606,-0.371497,0.031647,-0.059713,3.610618:vel_eff
1553597745.954316,cobot_dynamixel_driver/goal|-:J1,J2,J3,J4,J5,J6:-0.371956,0.219358,-0.191330,0.001860,-0.027997,-0.824063:-0.090826,0.546010,-0.970274,0.061706,-0.141682,1.694738:vel_eff
1553597746.064131,cobot_dynamixel_driver/goal|-:J1,J2,J3,J4,J5,J6:-0.352369,0.229380,-0.205492,0.001817,-0.023640,-0.804412:1.378843,0.306416,-0.739439,0.017808,0.024468,0.609072:vel_eff
1553597746.174085,cobot_dynamixel_driver/goal|-:J1,J2,J3,J4,J5,J6:-0.333560,0.238559,-0.219587,0.001758,-0.018521,-0.785516:0.848325,1.172204,-0.797398,0.025291,0.332089,1.157449:vel_eff
1553597746.256943,cobot_dynamixel_driver/goal|-:J1,J2,J3,J4,J5,J6:-0.313508,0.244944,-0.231593,0.001674,-0.012723,-0.761888:0.964175,0.677725,0.010692,-0.020611,0.415167,2.080359:vel_eff
1553597746.366786,cobot_dynamixel_driver/goal|-:J1,J2,J3,J4,J5,J6:-0.210415,0.178018,-0.172597,0.001130,-0.004868,-0.527000:3.917602,-4.108214,2.929190,0.004328,0.566626,9.412609:vel_eff
1553597746.449842,cobot_dynamixel_driver/goal|-:J1,J2,J3,J4,J5,J6:-0.000000,0.000000,-0.000000,0.000000,-0.000000,-0.000000:1.999491,-1.583339,1.465639,-0.008407,0.087965,5.136676:vel_eff
1553597751.652314,cobot_dynamixel_driver/goal|-:J1,J2,J3,J4,J5,J6:0.221118,-0.172579,0.164109,-0.000635,0.008893,0.534274:0.784218,-0.601710,0.563531,-0.002253,0.031539,1.894856:vel_eff
1553597751.764020,cobot_dynamixel_driver/goal|-:J1,J2,J3,J4,J5,J6:0.328816,-0.237216,0.220305,-0.000891,0.017591,0.772656:0.946439,-0.755872,0.699996,-0.002981,0.006956,2.225005:vel_eff
1553597751.874083,cobot_dynamixel_driver/goal|-:J1,J2,J3,J4,J5,J6:0.328816,-0.237216,0.220305,-0.000891,-0.017591,0.772656:0.931143,-0.791177,0.709051,-0.004494,0.017440,2.125145:vel_eff
1553597751.957917,cobot_dynamixel_driver/goal|-:J1,J2,J3,J4,J5,J6:0.328816,-0.237216,0.220305,-0.000891,-0.017591,0.772656:1.218125,-1.006579,0.816120,-0.009033,-0.042044,2.769205:vel_eff
1553597752.067987,cobot_dynamixel_driver/goal|-:J1,J2,J3,J4,J5,J6:0.348270,-0.228986,0.207056,-0.000876,0.022707,0.793660:0.104522,-0.258149,-0.079947,-0.008927,0.420840,0.296536:vel_eff
1553597752.150960,cobot_dynamixel_driver/goal|-:J1,J2,J3,J4,J5,J6:0.367575,-0.219088,0.192915,-0.000850,0.027051,0.813046:0.479374,0.313498,-0.235514,-0.008690,0.438700,0.041263:vel_eff
1553597752.262841,cobot_dynamixel_driver/goal|-:J1,J2,J3,J4,J5,J6:0.367575,-0.219088,0.192915,-0.000850,0.027051,0.813046:-0.044738,0.030832,0.872149,-0.042497,-0.077955,0.132848:vel_eff
1553597752.372705,cobot_dynamixel_driver/goal|-:J1,J2,J3,J4,J5,J6:0.387519,-0.208301,0.178716,-0.000813,0.030564,0.833061:0.451683,0.580638,-1.027053,-0.040673,0.339008,2.098781:vel_eff
1553597752.455592,cobot_dynamixel_driver/goal|-:J1,J2,J3,J4,J5,J6:0.407935,-0.196541,0.164437,-0.000766,0.033188,0.853538:3.861508,-0.646586,-0.426530,-0.038293,0.315048,3.674129:vel_eff
1553597752.565375,cobot_dynamixel_driver/goal|-:J1,J2,J3,J4,J5,J6:0.428511,-0.183863,0.150190,-0.000707,0.034861,0.874224:1.155533,0.508917,-1.086754,-0.035332,0.105733,-0.065646:vel_eff
1553597752.675224,cobot_dynamixel_driver/goal|-:J1,J2,J3,J4,J5,J6:0.449040,-0.170142,0.135871,-0.000635,0.035560,0.894869:2.536674,0.986331,-0.269131,-0.031733,0.002806,2.466033:vel_eff
1553597752.758120,cobot_dynamixel_driver/goal|-:J1,J2,J3,J4,J5,J6:0.469308,-0.155164,0.121305,-0.000548,0.035247,0.915174:1.703543,0.660706,-1.414741,-0.016983,-0.133511,0.482395:vel_eff
1553597752.868988,cobot_dynamixel_driver/goal|-:J1,J2,J3,J4,J5,J6:0.488803,-0.139091,0.106659,-0.000448,0.033912,0.934711:1.155172,1.130493,-0.655223,0.071485,0.127220,0.080466:vel_eff
1553597752.951936,cobot_dynamixel_driver/goal|-:J1,J2,J3,J4,J5,J6:0.507093,-0.121948,0.091932,-0.000334,0.031577,0.953049:0.869984,0.996578,-0.723867,0.077170,-0.023981,1.928019:vel_eff
1553597753.062989,cobot_dynamixel_driver/goal|-:J1,J2,J3,J4,J5,J6:0.523718,-0.103791,0.077129,-0.000208,0.028293,0.969723:0.772758,0.725603,-0.399922,-0.010404,-0.377796,0.366077:vel_eff
1553597753.172621,cobot_dynamixel_driver/goal|-:J1,J2,J3,J4,J5,J6:0.538209,-0.084710,0.062256,-0.000071,0.024140,0.984264:1.747661,0.688581,-1.216602,-0.003536,-0.275222,-0.768273:vel_eff
1553597753.256730,cobot_dynamixel_driver/goal|-:J1,J2,J3,J4,J5,J6:0.550116,-0.064831,0.047323,-0.000075,0.019232,0.996219:0.924216,1.025250,-0.826141,-0.003766,0.237730,0.691231:vel_eff
1553597753.366387,cobot_dynamixel_driver/goal|-:J1,J2,J3,J4,J5,J6:0.559041,-0.044316,-0.032342,-0.000227,0.013715,1.005187:1.109681,0.903480,-0.688440,0.011353,-0.158787,0.071100:vel_eff
1553597753.475479,cobot_dynamixel_driver/goal|-:J1,J2,J3,J4,J5,J6:0.564669,-0.023350,-0.017328,-0.000381,0.007759,1.010851:-0.591074,1.252786,-0.468935,0.019048,-0.111847,-2.024147:vel_eff
1553597753.558167,cobot_dynamixel_driver/goal|-:J1,J2,J3,J4,J5,J6:0.566792,0.002144,-0.002297,-0.000533,0.001559,1.013000:0.161872,1.186401,0.229608,0.026658,-0.266760,-2.002877:vel_eff
1553597753.667321,cobot_dynamixel_driver/goal|-:J1,J2,J3,J4,J5,J6:0.565330,0.019082,-0.012734,-0.000680,0.004683,1.011553:0.026194,0.995829,-0.469782,0.033992,-0.578847,-0.282790:vel_eff
1553597753.750155,cobot_dynamixel_driver/goal|-:J1,J2,J3,J4,J5,J6:0.560340,0.040106,-0.027748,-0.000817,0.010760,1.006565:-0.254645,1.598460,-1.147458,0.040865,-1.175684,-4.996067:vel_eff
1553597753.860016,cobot_dynamixel_driver/goal|-:J1,J2,J3,J4,J5,J6:0.552005,0.060717,-0.042729,-0.000942,0.016474,0.998220:-0.796569,1.147605,-0.602882,0.047123,-1.547566,0.705139:vel_eff
1553597753.970095,cobot_dynamixel_driver/goal|-:J1,J2,J3,J4,J5,J6:0.540624,0.080722,-0.057661,-0.001053,-0.021645,0.986819:-0.896132,0.822922,-0.786147,0.052644,-1.875061,0.359146:vel_eff
1553597754.054584,cobot_dynamixel_driver/goal|-:J1,J2,J3,J4,J5,J6:0.526584,0.099954,-0.072532,-0.001147,-0.026118,0.972749:1.698460,1.148193,-0.736827,-0.057347,-1.805695,1.758289:vel_eff
1553597754.163680,cobot_dynamixel_driver/goal|-:J1,J2,J3,J4,J5,J6:0.510325,0.118283,-0.087330,0.001224,-0.029766,0.956453:-1.221794,0.739707,-0.381368,0.123790,-0.333559,-0.331890:vel_eff
1553597754.273696,cobot_dynamixel_driver/goal|-:J1,J2,J3,J4,J5,J6:0.492317,0.135609,-0.102049,0.001284,-0.032497,0.938402:-0.776471,0.896616,-0.773056,0.116350,-0.435631,0.144337:vel_eff
1553597754.356377,cobot_dynamixel_driver/goal|-:J1,J2,J3,J4,J5,J6:0.473021,0.151870,-0.116685,0.001327,-0.034249,0.919061:-0.927502,1.010706,-0.607634,0.066358,-0.161286,-3.046002:vel_eff
1553597754.466626,cobot_dynamixel_driver/goal|-:J1,J2,J3,J4,J5,J6:0.452879,0.167037,-0.131235,0.001355,-0.034990,0.898872:-0.171583,0.548444,-0.406689,0.067761,-0.250047,0.201565:vel_eff
1553597754.550333,cobot_dynamixel_driver/goal|-:J1,J2,J3,J4,J5,J6:0.432283,0.181108,-0.145705,0.001369,-0.034715,0.878230:-0.575402,0.313115,-1.025835,0.068468,0.504806,0.772362:vel_eff
1553597754.660196,cobot_dynamixel_driver/goal|-:J1,J2,J3,J4,J5,J6:0.411739,0.193909,-0.159884,0.001371,-0.033454,0.857538:-2.249402,1.422635,-0.514221,0.068548,-0.000907,5.459764:vel_eff
1553597754.770098,cobot_dynamixel_driver/goal|-:J1,J2,J3,J4,J5,J6:0.391377,0.205707,-0.173997,0.001362,-0.031251,0.837032:-0.920275,-0.042635,-1.345061,-0.046645,0.178188,-4.872446:vel_eff
1553597754.854085,cobot_dynamixel_driver/goal|-:J1,J2,J3,J4,J5,J6:0.371290,0.216709,-0.188238,0.001345,-0.028119,0.816892:-4.897826,1.091637,-0.909525,-0.047521,0.283100,-3.276969:vel_eff
1553597754.965888,cobot_dynamixel_driver/goal|-:J1,J2,J3,J4,J5,J6:0.351849,0.226758,-0.202366,0.001320,-0.024140,0.797366:-1.258786,0.331810,-0.395351,0.065987,0.533740,-0.909693:vel_eff
1553597755.075763,cobot_dynamixel_driver/goal|-:J1,J2,J3,J4,J5,J6:0.333169,0.235963,-0.216424,0.001289,-0.019379,0.778581:-1.472955,0.479057,-0.858322,0.064440,0.323697,-0.246073:vel_eff
1553597755.158709,cobot_dynamixel_driver/goal|-:J1,J2,J3,J4,J5,J6:0.314577,0.243433,-0.229397,0.001250,-0.013960,0.758349:-1.171541,1.144684,-1.506996,0.062476,0.370578,0.448617:vel_eff
1553597755.270394,cobot_dynamixel_driver/goal|-:J1,J2,J3,J4,J5,J6:0.211187,0.176987,-0.171057,0.000857,-0.005927,0.524511:-5.485573,-3.252181,2.015081,0.011563,0.444773,-8.640803:vel_eff
1553597755.353515,cobot_dynamixel_driver/goal|-:J1,J2,J3,J4,J5,J6:0.000000,0.000000,-0.000000,0.000000,-0.000000,0.000000:-1.156258,-1.032332,0.834751,-0.003507,0.069533,-2.943560:vel_eff
1553597755.856091,cobot_dynamixel_driver/goal|-:J1,J2,J3,J4,J5,J6:-0.225667,-0.168354,0.157612,-0.001292,0.009440,-0.539230:-0.807911,-0.602722,0.564265,-0.004624,0.033797,-1.930497:vel_eff
1553597755.968092,cobot_dynamixel_driver/goal|-:J1,J2,J3,J4,J5,J6:-0.225667,-0.168354,0.157612,-0.001292,0.009440,-0.539230:-1.115801,-0.925657,0.853076,-0.008353,0.052557,-2.616322:vel_eff
1553597756.052844,cobot_dynamixel_driver/goal|-:J1,J2,J3,J4,J5,J6:-0.225667,-0.168354,0.157612,-0.001292,0.009440,-0.539230:-1.103228,-1.271919,1.118507,-0.016239,0.032012,-2.861696:vel_eff
1553597756.162758,cobot_dynamixel_driver/goal|-:J1,J2,J3,J4,J5,J6:-0.225667,-0.168354,0.157612,-0.001292,-0.009440,-0.539230:-0.955340,0.595860,-0.329669,-0.064582,-0.148446,-1.574362:vel_eff
1553597756.272634,cobot_dynamixel_driver/goal|-:J1,J2,J3,J4,J5,J6:-0.335291,-0.231197,0.211507,-0.001751,0.017737,-0.779791:-4.986444,-2.880141,2.688519,-0.087547,1.524558,-10.327766:vel_eff
1553597756.356525,cobot_dynamixel_driver/goal|-:J1,J2,J3,J4,J5,J6:-0.358137,-0.225001,0.200550,-0.001670,0.022352,-0.808455:-1.820214,-0.191784,-1.124657,-0.083485,0.376507,-3.040062:vel_eff
1553597756.467434,cobot_dynamixel_driver/goal|-:J1,J2,J3,J4,J5,J6:-0.358137,-0.225001,0.200550,-0.001670,0.022352,-0.808455:-0.860439,-0.264810,-0.519582,0.135594,0.117982,-1.523383:vel_eff
1553597756.550447,cobot_dynamixel_driver/goal|-:J1,J2,J3,J4,J5,J6:-0.377592,-0.214916,0.186674,-0.001551,0.026024,-0.828017:-0.497806,0.781941,-1.223822,-0.077526,0.180947,1.307440:vel_eff
1553597756.661259,cobot_dynamixel_driver/goal|-:J1,J2,J3,J4,J5,J6:-0.397618,-0.203922,0.172722,-0.001416,0.028870,-0.848139:-0.257667,0.705706,-0.867769,-0.070801,0.323235,0.077281:vel_eff
1553597756.770948,cobot_dynamixel_driver/goal|-:J1,J2,J3,J4,J5,J6:-0.418036,-0.191943,0.158674,-0.001265,0.030836,-0.868637:-1.320302,0.532654,-0.453917,-0.031974,0.059581,-0.068637:vel_eff
1553597756.853061,cobot_dynamixel_driver/goal|-:J1,J2,J3,J4,J5,J6:-0.438519,-0.179042,0.144641,-0.001100,0.031875,-0.889243:-2.563542,1.563705,-1.291145,-0.013256,0.301118,-2.133053:vel_eff
1553597756.964879,cobot_dynamixel_driver/goal|-:J1,J2,J3,J4,J5,J6:-0.458848,-0.165100,0.130528,-0.000918,0.031969,-0.909693:0.832879,0.080426,-0.192034,-0.025042,0.202432,-2.535084:vel_eff
1553597757.075640,cobot_dynamixel_driver/goal|-:J1,J2,J3,J4,J5,J6:-0.478798,-0.149914,0.116162,-0.000719,0.031089,-0.929679:-0.540185,1.006674,0.372851,-0.015090,-0.255243,1.429312:vel_eff
1553597757.158635,cobot_dynamixel_driver/goal|-:J1,J2,J3,J4,J5,J6:-0.497852,-0.133654,0.101710,-0.000506,0.029243,-0.948765:-1.638944,1.360639,-1.392998,0.026864,-0.364770,-3.592435:vel_eff
1553597757.270649,cobot_dynamixel_driver/goal|-:J1,J2,J3,J4,J5,J6:-0.515579,-0.116354,0.087172,-0.000281,0.026467,-0.966518:0.281010,0.358259,-0.189898,0.006817,-0.089927,1.207439:vel_eff
1553597757.353449,cobot_dynamixel_driver/goal|-:J1,J2,J3,J4,J5,J6:-0.531525,-0.098078,0.072554,-0.000047,0.022824,-0.982484:-0.912709,0.959074,-1.025139,0.008072,-0.341000,-4.709648:vel_eff
1553597757.464368,cobot_dynamixel_driver/goal|-:J1,J2,J3,J4,J5,J6:-0.545236,-0.078925,0.057862,-0.000191,0.018408,-0.996208:-2.130309,1.123853,-0.674744,0.019991,-0.182630,-4.413439:vel_eff
1553597757.574330,cobot_dynamixel_driver/goal|-:J1,J2,J3,J4,J5,J6:-0.556286,0.059028,0.043108,-0.000429,0.013342,-1.007262:-0.575493,1.117234,-0.494389,0.031900,-0.125707,1.514180:vel_eff
1553597757.657232,cobot_dynamixel_driver/goal|-:J1,J2,J3,J4,J5,J6:-0.564308,0.038548,0.028305,-0.000662,0.007776,-1.015279:0.139704,0.409459,-0.838129,0.043525,-0.197179,-2.264724:vel_eff
1553597757.768056,cobot_dynamixel_driver/goal|-:J1,J2,J3,J4,J5,J6:-0.569018,-0.017674,-0.013467,-0.000883,-0.001884,-1.019977:-2.067528,-2.250344,-0.766312,0.044149,-0.284988,1.343804:vel_eff
1553597757.851016,cobot_dynamixel_driver/goal|-:J1,J2,J3,J4,J5,J6:-0.570246,-0.003386,-0.001390,-0.001087,-0.004147,-1.021184:1.501514,0.649204,-0.737158,0.075219,-0.638241,-2.663371:vel_eff
1553597757.960813,cobot_dynamixel_driver/goal|-:J1,J2,J3,J4,J5,J6:-0.567946,-0.024418,-0.016248,-0.001269,-0.010122,-1.018857:0.479376,1.513029,-0.718531,0.115618,-0.075201,1.158522:vel_eff
1553597758.072816,cobot_dynamixel_driver/goal|-:J1,J2,J3,J4,J5,J6:-0.562203,0.045208,-0.031092,-0.001425,-0.015846,-1.013080:0.057152,0.539075,-0.354899,-0.029517,-0.068438,0.258124:vel_eff
1553597758.155824,cobot_dynamixel_driver/goal|-:J1,J2,J3,J4,J5,J6:-0.553222,0.065553,-0.045906,0.001551,-0.021140,-1.004063:0.923488,1.086858,-0.772156,0.150601,-0.453775,-3.858301:vel_eff
1553597758.265543,cobot_dynamixel_driver/goal|-:J1,J2,J3,J4,J5,J6:-0.541314,0.085270,-0.060673,0.001647,-0.025841,-0.992118:0.924237,0.883449,-0.832450,0.103221,-0.326900,2.443735:vel_eff
1553597758.375470,cobot_dynamixel_driver/goal|-:J1,J2,J3,J4,J5,J6:-0.526868,0.104206,-0.075383,0.001712,-0.029813,-0.977635:0.978875,0.860009,-0.670770,0.085576,-0.180800,1.789084:vel_eff
1553597758.458350,cobot_dynamixel_driver/goal|-:J1,J2,J3,J4,J5,J6:-0.510321,0.122236,-0.090025,0.001745,-0.032948,-0.961053:1.681045,0.822594,-0.996005,0.087274,-0.406498,0.756804:vel_eff
1553597758.568286,cobot_dynamixel_driver/goal|-:J1,J2,J3,J4,J5,J6:-0.492129,0.139271,-0.104592,0.001751,-0.035169,-0.942830:1.975124,0.798025,-1.056662,0.087544,-0.017735,-0.107219:vel_eff
1553597758.651390,cobot_dynamixel_driver/goal|-:J1,J2,J3,J4,J5,J6:-0.472742,0.155255,-0.119079,0.001730,-0.036428,-0.923414:1.953405,1.023439,0.034217,0.086514,-0.425382,-0.825474:vel_eff
1553597758.761109,cobot_dynamixel_driver/goal|-:J1,J2,J3,J4,J5,J6:-0.452581,0.170162,-0.133486,0.001687,-0.036704,-0.903228:0.885430,0.496089,-1.092979,0.073904,0.043405,2.217556:vel_eff
1553597758.871186,cobot_dynamixel_driver/goal|-:J1,J2,J3,J4,J5,J6:-0.432024,0.183997,-0.147815,0.001623,-0.035999,-0.882650:1.422959,0.645354,-0.317630,0.039444,0.113125,0.833584:vel_eff
1553597758.955002,cobot_dynamixel_driver/goal|-:J1,J2,J3,J4,J5,J6:-0.411590,0.196547,-0.161817,0.001545,-0.034357,-0.862070:2.882839,0.991184,-1.476727,-0.100121,0.178017,1.018059:vel_eff
1553597759.066873,cobot_dynamixel_driver/goal|-:J1,J2,J3,J4,J5,J6:-0.391298,0.208197,-0.175841,0.001452,-0.031806,-0.841680:0.788560,0.290478,0.388407,0.051753,0.167646,2.158176:vel_eff
1553597759.149769,cobot_dynamixel_driver/goal|-:J1,J2,J3,J4,J5,J6:-0.371331,0.219030,-0.189951,0.001349,-0.028371,-0.821682:0.180371,-0.127617,-0.598769,0.067459,0.270491,2.434219:vel_eff
1553597759.178696,cobot_dynamixel_driver/goal|-:J1,J2,J3,J4,J5,J6:-0.352013,0.228934,-0.203951,0.001238,-0.024133,-0.802299:1.959958,0.471866,-1.246596,0.061921,0.172153,-0.336633:vel_eff
1553597759.262643,cobot_dynamixel_driver/goal|-:J1,J2,J3,J4,J5,J6:-0.352013,0.228934,-0.203951,0.001238,-0.024133,-0.802299:-0.408182,0.617918,0.380848,-0.011105,0.120448,2.127970:vel_eff
1553597759.372616,cobot_dynamixel_driver/goal|-:J1,J2,J3,J4,J5,J6:-0.333470,0.237995,-0.217860,0.001122,-0.019160,-0.783658:1.364013,0.121636,-1.775160,0.024826,0.386305,2.353393:vel_eff
1553597759.456491,cobot_dynamixel_driver/goal|-:J1,J2,J3,J4,J5,J6:-0.311985,0.243074,-0.228584,0.000992,-0.013424,-0.756327:0.602163,0.093935,-1.925322,0.028735,0.655890,3.409750:vel_eff
1553597759.567326,cobot_dynamixel_driver/goal|-:J1,J2,J3,J4,J5,J6:-0.209550,0.176603,-0.170287,0.000623,-0.005504,-0.523274:4.565919,-3.521713,3.461992,-0.000136,0.500386,13.924868:vel_eff
1553597759.650275,cobot_dynamixel_driver/goal|-:J1,J2,J3,J4,J5,J6:-0.000000,0.000000,-0.000000,0.000000,-0.000000,-0.000000:10.484494,-8.606674,8.012031,-0.020865,0.344700,26.783163:vel_eff
1553597762.961788,cobot_dynamixel_driver/goal|-:J1,J2,J3,J4,J5,J6:0.218933,-0.171051,0.160408,0.001057,0.010229,0.000000:0.792976,-0.609553,0.574431,0.003784,0.036632,0.000000:vel_eff
1553597763.073609,cobot_dynamixel_driver/goal|-:J1,J2,J3,J4,J5,J6:0.321077,-0.239604,0.221624,0.001488,0.017362,0.765222:0.969097,-0.670433,0.702827,0.005040,-0.004241,2.201449:vel_eff
1553597763.156475,cobot_dynamixel_driver/goal|-:J1,J2,J3,J4,J5,J6:0.321077,-0.239604,0.221624,0.001488,-0.017362,0.765222:1.081884,-0.709249,0.789490,0.003357,0.002425,2.552909:vel_eff
1553597763.267274,cobot_dynamixel_driver/goal|-:J1,J2,J3,J4,J5,J6:0.321077,-0.239604,0.221624,-0.001488,-0.017362,0.765222:1.030289,-0.695218,0.861839,-0.023886,-0.001339,2.395919:vel_eff
1553597763.376327,cobot_dynamixel_driver/goal|-:J1,J2,J3,J4,J5,J6:0.343693,-0.233915,0.210455,-0.001467,0.022775,0.793577:0.511142,0.085988,0.099094,-0.006739,0.431400,0.042090:vel_eff
1553597763.460292,cobot_dynamixel_driver/goal|-:J1,J2,J3,J4,J5,J6:0.343693,-0.233915,0.210455,-0.001467,0.022775,0.793577:0.065202,0.437044,1.457069,-0.031611,0.707892,1.348244:vel_eff
1553597763.572124,cobot_dynamixel_driver/goal|-:J1,J2,J3,J4,J5,J6:0.362956,-0.224385,0.196441,0.001421,0.027204,0.812864:1.101356,0.287589,-0.495535,0.071040,0.257169,4.691038:vel_eff
1553597763.655053,cobot_dynamixel_driver/goal|-:J1,J2,J3,J4,J5,J6:0.382896,-0.214016,0.182407,0.001368,0.030816,0.832833:0.815170,1.004283,-1.343303,0.068420,0.403292,0.949881:vel_eff
1553597763.766035,cobot_dynamixel_driver/goal|-:J1,J2,J3,J4,J5,J6:0.403367,-0.202728,0.168330,0.001309,0.033556,0.853338:1.557044,0.327225,-1.191692,0.065461,0.195596,1.113367:vel_eff
1553597763.875888,cobot_dynamixel_driver/goal|-:J1,J2,J3,J4,J5,J6:0.424173,-0.190453,0.154193,0.001243,0.035374,0.874183:1.950586,1.493875,-1.074392,0.062149,0.045218,3.517158:vel_eff
1553597763.959624,cobot_dynamixel_driver/goal|-:J1,J2,J3,J4,J5,J6:0.445067,-0.177136,0.139982,0.001169,0.036229,0.895117:-0.092690,0.104568,0.291113,0.058471,0.191382,1.220307:vel_eff
1553597764.069577,cobot_dynamixel_driver/goal|-:J1,J2,J3,J4,J5,J6:0.465743,-0.162738,0.125689,0.001088,0.036093,0.915836:3.110997,0.897494,-0.882558,0.054423,-0.211831,-2.690217:vel_eff
1553597764.154476,cobot_dynamixel_driver/goal|-:J1,J2,J3,J4,J5,J6:0.504943,-0.130661,0.096841,0.000905,0.032829,0.955124:0.792188,0.606976,-0.523730,-0.001907,-0.060714,0.874871:vel_eff
1553597764.264399,cobot_dynamixel_driver/goal|-:J1,J2,J3,J4,J5,J6:0.504943,0.130661,0.096841,0.000905,0.032829,0.955124:0.053047,-0.221475,0.022288,0.013958,-0.099297,-1.863312:vel_eff
1553597764.374339,cobot_dynamixel_driver/goal|-:J1,J2,J3,J4,J5,J6:0.522608,0.113032,0.082286,0.000804,0.029752,0.972831:1.353602,0.524363,-0.820169,0.008892,-0.080797,-0.254080:vel_eff
1553597764.458280,cobot_dynamixel_driver/goal|-:J1,J2,J3,J4,J5,J6:0.538366,0.094429,0.067653,0.000697,0.025794,0.988627:1.379933,0.432117,-0.539918,0.003573,-0.295941,1.466409:vel_eff
1553597764.569078,cobot_dynamixel_driver/goal|-:J1,J2,J3,J4,J5,J6:0.551753,0.074962,-0.052948,0.000587,0.021055,1.002047:0.181932,-1.129571,-0.409254,0.008506,-0.481187,0.310508:vel_eff
1553597764.652091,cobot_dynamixel_driver/goal|-:J1,J2,J3,J4,J5,J6:0.562343,-0.054772,0.038185,0.000476,0.015666,1.012662:1.514706,-1.058978,-1.429097,0.002921,-0.388677,3.202425:vel_eff
1553597764.763957,cobot_dynamixel_driver/goal|-:J1,J2,J3,J4,J5,J6:0.569773,-0.034032,-0.023376,0.000364,0.009787,1.020107:0.373502,-2.692667,-0.072624,0.007791,0.024025,2.351009:vel_eff
1553597764.873930,cobot_dynamixel_driver/goal|-:J1,J2,J3,J4,J5,J6:0.573776,-0.012940,-0.008538,0.000256,0.003600,1.024116:-0.219211,1.001301,0.750327,0.002370,-0.371498,-1.998603:vel_eff
1553597764.956617,cobot_dynamixel_driver/goal|-:J1,J2,J3,J4,J5,J6:0.574203,-0.008289,-0.006312,0.000153,0.002698,1.024539:1.012331,0.988249,-0.232154,-0.002786,-0.824309,-0.615891:vel_eff
1553597765.066570,cobot_dynamixel_driver/goal|-:J1,J2,J3,J4,J5,J6:0.571040,-0.029436,-0.021159,0.000057,0.008906,1.021360:-0.481185,1.857799,-0.943173,-0.007561,-0.858952,-1.291859:vel_eff
1553597765.151620,cobot_dynamixel_driver/goal|-:J1,J2,J3,J4,J5,J6:0.564402,-0.050283,-0.035984,0.000028,0.014826,1.014699:-0.573132,-0.719791,-1.068918,0.001419,0.741287,-1.693874:vel_eff
1553597765.261477,cobot_dynamixel_driver/goal|-:J1,J2,J3,J4,J5,J6:0.554530,0.070628,-0.050771,0.000103,-0.020272,1.004796:-0.482532,6.222937,-1.025884,-0.005141,-2.202830,5.015196:vel_eff
1553597765.371289,cobot_dynamixel_driver/goal|-:J1,J2,J3,J4,J5,J6:0.541765,0.090291,-0.065508,0.000165,-0.025083,0.991995:1.935884,6.632319,-1.762698,-0.008236,-1.805680,-0.743650:vel_eff
1553597765.456036,cobot_dynamixel_driver/goal|-:J1,J2,J3,J4,J5,J6:0.526522,0.109123,-0.080180,0.000213,-0.029123,0.976712:1.027670,0.271262,-1.014934,0.010669,-0.008415,1.663471:vel_eff
1553597765.567149,cobot_dynamixel_driver/goal|-:J1,J2,J3,J4,J5,J6:0.509257,0.127006,-0.094779,0.000249,-0.032287,0.959408:-0.607536,0.758562,-0.367827,-0.022866,-0.252798,-1.976585:vel_eff
1553597765.677142,cobot_dynamixel_driver/goal|-:J1,J2,J3,J4,J5,J6:0.490441,0.143859,-0.109299,0.000271,-0.034503,0.940552:-0.390351,0.422361,-1.292007,-0.023978,0.032836,-0.954587:vel_eff
1553597765.760975,cobot_dynamixel_driver/goal|-:J1,J2,J3,J4,J5,J6:0.470529,0.159634,-0.123735,0.000281,-0.035726,0.920602:-0.321881,0.564302,-0.574150,-0.024468,0.281874,3.046028:vel_eff
1553597765.870895,cobot_dynamixel_driver/goal|-:J1,J2,J3,J4,J5,J6:0.449941,0.174314,-0.138088,0.000279,-0.035943,0.899978:-2.884816,1.079219,-1.771694,-0.024384,-0.280483,-0.915079:vel_eff
1553597765.955728,cobot_dynamixel_driver/goal|-:J1,J2,J3,J4,J5,J6:0.429052,0.187909,-0.152362,0.000267,-0.035161,0.879057:0.598380,-0.191854,0.091378,0.002915,-0.379229,0.468985:vel_eff
1553597766.065624,cobot_dynamixel_driver/goal|-:J1,J2,J3,J4,J5,J6:0.408377,0.200218,-0.166308,0.000246,-0.033429,0.858226:-1.249100,1.080811,-0.449400,-0.022730,0.241657,-2.089246:vel_eff
1553597766.175539,cobot_dynamixel_driver/goal|-:J1,J2,J3,J4,J5,J6:0.387888,0.211664,-0.180320,0.000217,-0.030773,0.837649:-0.959104,0.745492,-0.607548,-0.021281,0.012489,-4.152166:vel_eff
1553597766.258247,cobot_dynamixel_driver/goal|-:J1,J2,J3,J4,J5,J6:0.367884,0.222189,-0.194290,0.000181,-0.027248,0.817567:-0.905599,1.188292,-0.304540,-0.019493,-0.000819,-1.433546:vel_eff
1553597766.367268,cobot_dynamixel_driver/goal|-:J1,J2,J3,J4,J5,J6:0.348491,0.231902,-0.208284,0.000140,-0.022895,0.798121:-0.581677,0.307337,-0.388711,-0.017416,0.303007,-1.027017:vel_eff
1553597766.450204,cobot_dynamixel_driver/goal|-:J1,J2,J3,J4,J5,J6:0.329945,0.240758,-0.222155,0.000094,-0.017814,0.779477:-1.936698,0.948340,-2.355029,-0.015120,0.591491,-5.354531:vel_eff
1553597766.563062,cobot_dynamixel_driver/goal|-:J1,J2,J3,J4,J5,J6:0.308502,0.245545,-0.232710,0.000045,-0.012001,0.752094:-0.411183,0.436550,0.288648,-0.008206,0.227216,-3.586894:vel_eff
1553597766.673031,cobot_dynamixel_driver/goal|-:J1,J2,J3,J4,J5,J6:0.207131,0.178246,-0.173195,0.000002,-0.004431,0.520339:-5.010274,-2.844914,3.139227,0.000091,0.416127,-9.142431:vel_eff
1553597766.755998,cobot_dynamixel_driver/goal|-:J1,J2,J3,J4,J5,J6:0.000000,0.000000,-0.000000,0.000000,-0.000000,0.000000:-1.838782,-1.697631,1.466829,0.000000,0.028361,-5.086114:vel_eff
1553597767.258279,cobot_dynamixel_driver/goal|-:J1,J2,J3,J4,J5,J6:-0.224878,-0.171754,0.161935,0.001345,0.010526,-0.540121:-0.798248,-0.609673,0.574820,0.004774,0.037365,-1.917260:vel_eff
1553597767.370234,cobot_dynamixel_driver/goal|-:J1,J2,J3,J4,J5,J6:-0.224878,-0.171754,0.161935,0.001345,0.010526,-0.540121:-1.136280,-0.883271,0.886646,0.006245,-0.000876,-2.587974:vel_eff
1553597767.455148,cobot_dynamixel_driver/goal|-:J1,J2,J3,J4,J5,J6:-0.334512,-0.235962,0.217326,0.001870,0.019744,-0.781390:-1.155259,-0.693541,0.747858,0.001014,0.049100,-2.390601:vel_eff
1553597767.565036,cobot_dynamixel_driver/goal|-:J1,J2,J3,J4,J5,J6:-0.334512,-0.235962,0.217326,0.001870,-0.019744,-0.781390:-1.216343,-0.719514,0.599601,0.006313,-0.009571,-2.708195:vel_eff
1553597767.674987,cobot_dynamixel_driver/goal|-:J1,J2,J3,J4,J5,J6:-0.334512,-0.235962,0.217326,-0.001870,-0.019744,-0.781390:-1.097976,-1.063213,1.112074,0.051794,-0.418450,1.312056:vel_eff
1553597767.757889,cobot_dynamixel_driver/goal|-:J1,J2,J3,J4,J5,J6:-0.354726,-0.227822,0.204376,0.001828,0.024680,-0.803598:-0.627250,1.284169,-0.870762,0.039242,1.509779,-4.175997:vel_eff
1553597767.868775,cobot_dynamixel_driver/goal|-:J1,J2,J3,J4,J5,J6:-0.374531,-0.217725,0.190274,0.001765,0.028809,-0.823480:-0.605573,0.265891,-0.522222,0.088237,0.354651,-2.584874:vel_eff
1553597767.951624,cobot_dynamixel_driver/goal|-:J1,J2,J3,J4,J5,J6:-0.394963,-0.206723,0.176126,0.001688,0.032076,-0.843985:-1.178579,-0.519335,-0.791424,0.073962,0.156066,-4.299548:vel_eff
1553597768.061377,cobot_dynamixel_driver/goal|-:J1,J2,J3,J4,J5,J6:-0.415854,-0.194721,0.161897,0.001596,0.034423,-0.864937:-0.470493,0.904919,-0.803946,-0.097541,0.049371,-4.261320:vel_eff
1553597768.170444,cobot_dynamixel_driver/goal|-:J1,J2,J3,J4,J5,J6:-0.436840,-0.181820,0.147740,0.001490,0.035793,-0.886057:0.138904,0.141605,-1.219683,-0.008963,-0.106199,0.835591:vel_eff
1553597768.253309,cobot_dynamixel_driver/goal|-:J1,J2,J3,J4,J5,J6:-0.457793,-0.167767,0.133426,0.001367,0.036161,-0.907104:-1.910240,1.365868,-1.006890,-0.015125,0.084537,-6.249039:vel_eff
1553597768.365310,cobot_dynamixel_driver/goal|-:J1,J2,J3,J4,J5,J6:-0.478382,-0.152477,0.118909,0.001225,0.035485,-0.927729:-2.000753,0.930640,-0.866856,0.009109,-0.018185,0.440993:vel_eff
1553597768.475120,cobot_dynamixel_driver/goal|-:J1,J2,J3,J4,J5,J6:-0.498100,-0.136078,0.104314,0.001067,0.033765,-0.947489:-4.113362,2.324370,-1.377537,0.011639,-0.000789,-3.218448:vel_eff
1553597768.559047,cobot_dynamixel_driver/goal|-:J1,J2,J3,J4,J5,J6:-0.516493,-0.118600,0.089641,0.000893,0.031026,-0.965929:-0.922663,0.694521,-0.994936,-0.007493,-0.327298,1.236886:vel_eff
1553597768.669912,cobot_dynamixel_driver/goal|-:J1,J2,J3,J4,J5,J6:-0.533077,-0.100107,0.074894,0.000705,0.027326,-0.982564:-2.722094,1.504428,-1.408896,-0.016905,-0.184827,-2.955659:vel_eff
1553597770.012517,cobot_dynamixel_driver/goal|-:J1,J2,J3,J4,J5,J6:0.341211,0.111058,-0.075256,-0.007548,-0.025992,0.659116:3.154437,0.757030,-0.543585,-0.030344,-0.202652,5.906142:vel_eff
1553597770.122553,cobot_dynamixel_driver/goal|-:J1,J2,J3,J4,J5,J6:0.341211,0.111058,-0.075256,-0.007548,-0.025992,0.659116:3.846707,1.011450,-0.687947,-0.041743,-0.028241,7.140843:vel_eff
1553597770.205416,cobot_dynamixel_driver/goal|-:J1,J2,J3,J4,J5,J6:0.341211,0.111058,-0.075256,-0.007548,-0.025992,0.659116:5.173881,1.534289,-1.099990,-0.036077,0.020791,9.795345:vel_eff
1553597770.315286,cobot_dynamixel_driver/goal|-:J1,J2,J3,J4,J5,J6:0.341211,0.111058,-0.075256,-0.007548,-0.025992,0.659116:-0.716141,0.347174,-0.393143,-0.033113,-0.179318,3.087575:vel_eff
1553597770.426272,cobot_dynamixel_driver/goal|-:J1,J2,J3,J4,J5,J6:0.341211,0.111058,-0.075256,-0.007548,-0.025992,0.659116:0.066284,0.128095,0.399714,-0.053978,-0.127613,-1.083291:vel_eff
1553597770.509969,cobot_dynamixel_driver/goal|-:J1,J2,J3,J4,J5,J6:0.341211,0.111058,-0.075256,0.007548,-0.025992,0.659116:-0.851762,-0.028390,0.284958,-0.033113,0.130911,-0.945411:vel_eff
1553597770.620073,cobot_dynamixel_driver/goal|-:J1,J2,J3,J4,J5,J6:0.341211,0.111058,-0.075256,0.007548,-0.025992,0.659116:-0.038040,0.263716,-0.048876,0.074843,-0.196553,0.950437:vel_eff
1553597770.704883,cobot_dynamixel_driver/goal|-:J1,J2,J3,J4,J5,J6:0.341211,0.111058,-0.075256,0.007548,-0.025992,0.659116:0.055851,0.023772,0.284958,0.366948,-0.024203,-2.720615:vel_eff
1553597770.814822,cobot_dynamixel_driver/goal|-:J1,J2,J3,J4,J5,J6:0.341211,0.111058,-0.075256,0.007548,-0.025992,0.659116:-0.131931,0.190689,-0.069741,0.106140,-0.162083,-0.962646:vel_eff
1553597770.926594,cobot_dynamixel_driver/goal|-:J1,J2,J3,J4,J5,J6:0.341211,0.111058,-0.075256,-0.007548,-0.025992,0.659116:-0.841329,-0.143145,0.097176,-0.106140,0.130911,0.640207:vel_eff
1553597771.009582,cobot_dynamixel_driver/goal|-:J1,J2,J3,J4,J5,J6:0.341211,0.111058,-0.075256,-0.007548,-0.025992,0.659116:-0.538792,0.451498,0.180635,-0.377380,-0.093143,-1.531401:vel_eff
1553597771.119431,cobot_dynamixel_driver/goal|-:J1,J2,J3,J4,J5,J6:0.341211,0.111058,-0.075256,-0.007548,-0.025992,0.659116:0.055851,0.545389,-0.142767,-0.283489,-0.041438,0.640207:vel_eff
1553597771.202439,cobot_dynamixel_driver/goal|-:J1,J2,J3,J4,J5,J6:0.341211,0.111058,-0.075256,0.007548,-0.025992,0.659116:-0.173660,-0.038822,-0.257523,-0.137437,0.061972,0.691912:vel_eff
1553597771.312338,cobot_dynamixel_driver/goal|-:J1,J2,J3,J4,J5,J6:0.341211,0.111058,-0.075256,0.007548,-0.025992,0.659116:-0.079769,-0.247469,-0.174064,0.095707,0.061972,0.347212:vel_eff
1553597771.425394,cobot_dynamixel_driver/goal|-:J1,J2,J3,J4,J5,J6:0.341211,0.111058,-0.075256,0.007548,-0.025992,0.659116:-0.277983,-0.153578,-0.309685,0.356516,-0.110378,1.536426:vel_eff
1553597771.508912,cobot_dynamixel_driver/goal|-:J1,J2,J3,J4,J5,J6:0.341211,0.111058,-0.075256,-0.007548,-0.025992,0.659116:0.233201,0.159392,0.118041,0.116572,0.165381,0.174862:vel_eff
1553597771.619103,cobot_dynamixel_driver/goal|-:J1,J2,J3,J4,J5,J6:0.341211,0.111058,-0.075256,-0.007548,-0.025992,0.659116:0.869573,0.086366,0.347552,-0.293922,0.061972,0.416152:vel_eff
1553597771.702945,cobot_dynamixel_driver/goal|-:J1,J2,J3,J4,J5,J6:0.341211,0.111058,-0.075256,-0.007548,-0.025992,0.659116:0.139310,0.451498,0.514470,-0.304354,0.044737,4.380198:vel_eff
1553597771.813799,cobot_dynamixel_driver/goal|-:J1,J2,J3,J4,J5,J6:0.341211,-0.111058,-0.075256,0.007548,0.025992,0.659116:-0.559656,0.128095,-0.549628,-0.137437,0.372201,-4.237293:vel_eff
1553597771.923646,cobot_dynamixel_driver/goal|-:J1,J2,J3,J4,J5,J6:0.341211,-0.111058,0.075256,0.007548,0.025992,0.659116:-0.382307,0.936003,0.274526,0.095707,0.351668,0.226567:vel_eff
1553597772.006435,cobot_dynamixel_driver/goal|-:J1,J2,J3,J4,J5,J6:0.341211,-0.111058,0.075256,0.007548,0.025992,0.659116:0.953032,-9.538059,7.226321,0.377380,-0.165381,-0.376657:vel_eff
1553597772.116485,cobot_dynamixel_driver/goal|-:J1,J2,J3,J4,J5,J6:0.341211,-0.111058,0.075256,0.007548,-0.025992,0.659116:-0.455333,-1.119167,1.092109,0.293922,0.179318,-3.341074:vel_eff
1553597772.228393,cobot_dynamixel_driver/goal|-:J1,J2,J3,J4,J5,J6:0.341211,0.111058,0.075256,-0.007548,-0.025992,0.659116:0.452280,-0.597550,-0.232797,0.147869,-0.058673,0.950437:vel_eff
1553597772.311358,cobot_dynamixel_driver/goal|-:J1,J2,J3,J4,J5,J6:0.341211,0.111058,-0.075256,-0.007548,-0.025992,0.659116:0.431415,10.435240,0.247091,-0.262625,-0.093143,-0.014722:vel_eff
1553597772.422245,cobot_dynamixel_driver/goal|-:J1,J2,J3,J4,J5,J6:0.341211,0.111058,-0.075256,-0.007548,0.025992,0.659116:-1.936724,0.545389,-6.955080,-0.366948,0.079207,0.847027:vel_eff
1553597772.504992,cobot_dynamixel_driver/goal|-:J1,J2,J3,J4,J5,J6:0.341211,0.111058,-0.075256,-0.007548,0.025992,0.659116:-0.069337,-0.424818,-1.092109,-0.106140,0.575723,-1.186701:vel_eff
1553597772.616032,cobot_dynamixel_driver/goal|-:J1,J2,J3,J4,J5,J6:0.462628,0.169639,-0.118363,-0.008778,-0.036774,0.911124:5.563347,2.525077,-2.360703,-0.125920,-1.338865,15.481180:vel_eff
1553597772.726861,cobot_dynamixel_driver/goal|-:J1,J2,J3,J4,J5,J6:0.462628,-0.169639,-0.118363,-0.008778,-0.036774,0.911124:-1.645395,-0.458570,0.205651,-0.146785,0.022698,-2.650022:vel_eff
1553597772.809716,cobot_dynamixel_driver/goal|-:J1,J2,J3,J4,J5,J6:0.451227,-0.187797,-0.135370,-0.006819,-0.037031,0.910342:-1.412129,0.438885,-0.978531,0.055479,-0.093559,0.861277:vel_eff
1553597772.919454,cobot_dynamixel_driver/goal|-:J1,J2,J3,J4,J5,J6:0.428639,0.200910,-0.149580,-0.004693,-0.035610,0.887716:-1.946911,3.181003,-1.469975,0.057430,-0.177634,0.764044:vel_eff
1553597773.003465,cobot_dynamixel_driver/goal|-:J1,J2,J3,J4,J5,J6:0.406296,0.212959,-0.163728,0.002647,-0.033396,0.865340:-0.664610,0.424279,0.837550,-0.017581,-0.239295,-3.801734:vel_eff
1553597773.113390,cobot_dynamixel_driver/goal|-:J1,J2,J3,J4,J5,J6:0.385042,0.223395,-0.177110,0.000774,-0.030526,0.843713:-0.746678,0.351400,-0.488750,-0.101296,0.162732,-1.642921:vel_eff
1553597773.223278,cobot_dynamixel_driver/goal|-:J1,J2,J3,J4,J5,J6:0.363901,0.233496,-0.191120,0.001067,0.026843,-0.822548:-1.532468,1.179876,-0.260796,0.011621,0.140062,0.194291:vel_eff
1553597773.306223,cobot_dynamixel_driver/goal|-:J1,J2,J3,J4,J5,J6:0.343693,0.242626,-0.204962,0.002779,-0.022496,0.802262:-0.498170,1.469446,-0.838134,0.138930,-2.279549,91.059730:vel_eff
1553597773.416061,cobot_dynamixel_driver/goal|-:J1,J2,J3,J4,J5,J6:0.324485,0.250901,-0.218676,0.004361,-0.017538,0.782946:-1.208182,-0.182421,-0.178079,0.218061,0.139967,-2.302837:vel_eff
1553597773.525982,cobot_dynamixel_driver/goal|-:J1,J2,J3,J4,J5,J6:0.299426,0.252199,-0.226565,0.005654,-0.011846,0.746955:-1.480478,-0.628668,0.136886,0.282683,0.234965,0.258075:vel_eff
1553597773.610821,cobot_dynamixel_driver/goal|-:J1,J2,J3,J4,J5,J6:0.000000,0.000000,-0.000000,0.000000,-0.000000,0.000000:-9.931581,-8.784024,7.688629,-0.323402,0.396405,-28.006847:vel_eff
1553597773.721779,cobot_dynamixel_driver/goal|-:J1,J2,J3,J4,J5,J6:0.000000,0.000000,0.000000,0.000000,0.000000,0.000000:0.239944,0.104323,0.104323,0.239944,-0.017235,-4.515565:vel_eff
1553597774.228152,cobot_dynamixel_driver/goal|-:J1,J2,J3,J4,J5,J6:-0.223310,-0.169287,0.157952,-0.002867,0.008796,-0.520114:-0.799530,-0.606858,0.565525,-0.010266,0.031493,-1.870838:vel_eff
1553597774.313064,cobot_dynamixel_driver/goal|-:J1,J2,J3,J4,J5,J6:-0.331814,-0.232612,0.211946,-0.003918,0.016841,-0.752541:-1.043388,-0.782981,0.717926,-0.013271,0.006839,-2.321407:vel_eff
1553597774.422910,cobot_dynamixel_driver/goal|-:J1,J2,J3,J4,J5,J6:-0.331814,-0.232612,0.211946,-0.003918,0.016841,-0.752541:-1.022319,-0.851321,0.720439,0.014179,0.017463,-2.289294:vel_eff
1553597774.505046,cobot_dynamixel_driver/goal|-:J1,J2,J3,J4,J5,J6:-0.331814,-0.232612,0.211946,-0.003918,-0.016841,-0.752541:-1.154396,-1.048115,0.993176,-0.041186,-0.058496,-2.892265:vel_eff
1553597774.615847,cobot_dynamixel_driver/goal|-:J1,J2,J3,J4,J5,J6:-0.354460,-0.226611,0.201020,-0.003778,0.021460,-0.780744:-0.113122,0.222132,-0.035288,-0.027469,0.409558,-0.955877:vel_eff
1553597774.725702,cobot_dynamixel_driver/goal|-:J1,J2,J3,J4,J5,J6:-0.373762,-0.216677,0.187126,-0.003556,0.025165,-0.800160:-0.219699,0.199092,-0.093462,-0.028037,0.273126,-0.128183:vel_eff
1553597774.808732,cobot_dynamixel_driver/goal|-:J1,J2,J3,J4,J5,J6:-0.393651,-0.205843,0.173155,-0.003302,0.028057,-0.820155:-0.522290,0.082246,-0.122048,0.014741,0.052859,-0.616834:vel_eff
1553597774.919479,cobot_dynamixel_driver/goal|-:J1,J2,J3,J4,J5,J6:-0.393651,-0.205843,0.173155,-0.003302,0.028057,-0.820155:-0.977360,0.380122,1.188218,-0.039934,0.075776,-1.108760:vel_eff
1553597775.004373,cobot_dynamixel_driver/goal|-:J1,J2,J3,J4,J5,J6:-0.434437,-0.181203,0.144930,-0.002695,0.031201,-0.861120:-0.469182,0.432104,-0.152997,0.002743,0.035647,0.317414:vel_eff
1553597775.114294,cobot_dynamixel_driver/goal|-:J1,J2,J3,J4,J5,J6:-0.434437,-0.181203,0.144930,-0.002695,0.031201,-0.861120:0.425984,-0.077890,0.402879,0.053025,0.181236,1.341332:vel_eff
1553597775.224173,cobot_dynamixel_driver/goal|-:J1,J2,J3,J4,J5,J6:-0.454682,-0.167502,0.130858,-0.002344,0.031387,-0.881524:-2.933508,0.940972,-4.087635,-0.002451,-0.016255,-4.952798:vel_eff
1553597775.307107,cobot_dynamixel_driver/goal|-:J1,J2,J3,J4,J5,J6:-0.474669,-0.152469,0.116442,-0.001953,0.030617,-0.901549:-1.491716,1.901291,-3.681737,-0.014192,-0.089263,-0.214789:vel_eff
1553597775.419093,cobot_dynamixel_driver/goal|-:J1,J2,J3,J4,J5,J6:-0.493828,-0.136352,0.101932,-0.001530,0.028897,-0.920737:-0.509260,0.485030,-0.432515,-0.024314,-0.002896,1.566196:vel_eff
1553597775.528888,cobot_dynamixel_driver/goal|-:J1,J2,J3,J4,J5,J6:-0.511735,-0.119181,0.087330,-0.001077,0.026263,-0.938661:-0.987308,0.884552,-1.016591,-0.022563,0.054991,-3.673261:vel_eff
1553597775.613779,cobot_dynamixel_driver/goal|-:J1,J2,J3,J4,J5,J6:-0.527940,-0.101016,0.072640,-0.000602,0.022777,-0.954873:-1.056867,0.812158,-0.999980,0.053380,0.087524,3.409780:vel_eff
1553597775.723585,cobot_dynamixel_driver/goal|-:J1,J2,J3,J4,J5,J6:-0.541990,-0.081951,0.057870,-0.000110,0.018532,-0.968918:-0.622256,1.149888,-0.653517,0.015362,-0.400509,-3.410879:vel_eff
1553597775.806667,cobot_dynamixel_driver/goal|-:J1,J2,J3,J4,J5,J6:-0.553456,-0.062115,0.043031,-0.000388,0.013648,-0.980366:0.369333,0.733363,-0.279192,0.029838,-0.420642,0.704640:vel_eff
1553597775.916640,cobot_dynamixel_driver/goal|-:J1,J2,J3,J4,J5,J6:-0.561958,-0.041665,-0.028137,-0.000882,0.008274,-0.988840:0.674472,0.754335,-0.971731,0.054545,-0.379098,-3.907170:vel_eff
1553597776.027454,cobot_dynamixel_driver/goal|-:J1,J2,J3,J4,J5,J6:-0.567202,0.020789,-0.013203,-0.001361,-0.002581,-0.994046:0.610510,1.349558,0.002903,0.078469,-0.163945,4.381088:vel_eff
1553597776.111252,cobot_dynamixel_driver/goal|-:J1,J2,J3,J4,J5,J6:-0.567275,0.021412,-0.016718,0.002225,-0.009014,-0.994026:0.905143,0.819473,-0.285511,0.055724,-0.327441,-0.306047:vel_eff
1553597776.223122,cobot_dynamixel_driver/goal|-:J1,J2,J3,J4,J5,J6:-0.567275,0.021412,-0.016718,0.002225,-0.009014,-0.994026:0.617248,0.475974,-0.074334,0.215557,-0.243902,-3.253002:vel_eff
1553597776.306843,cobot_dynamixel_driver/goal|-:J1,J2,J3,J4,J5,J6:-0.553660,0.062784,-0.046594,0.002899,-0.019626,-0.980310:0.350913,0.639007,-0.455625,0.058452,-0.089897,-0.882260:vel_eff
1553597776.415889,cobot_dynamixel_driver/goal|-:J1,J2,J3,J4,J5,J6:-0.553660,0.062784,-0.046594,0.002899,-0.019626,-0.980310:0.588615,-0.146989,-0.045016,0.144964,-0.033365,-2.136357:vel_eff
1553597776.527042,cobot_dynamixel_driver/goal|-:J1,J2,J3,J4,J5,J6:-0.542244,0.082660,-0.061475,0.003149,-0.024130,-0.968849:1.368044,0.982423,-0.643008,0.094850,-0.103454,2.521394:vel_eff
1553597776.612756,cobot_dynamixel_driver/goal|-:J1,J2,J3,J4,J5,J6:-0.512045,0.119996,-0.091057,0.003462,-0.030863,-0.938577:0.993295,0.589022,-0.773457,-0.041577,-0.110581,-2.498849:vel_eff
1553597776.722754,cobot_dynamixel_driver/goal|-:J1,J2,J3,J4,J5,J6:-0.512045,0.119996,-0.091057,0.003462,-0.030863,-0.938577:-0.449907,-0.092662,0.068686,0.141796,0.197580,3.655827:vel_eff
1553597776.805672,cobot_dynamixel_driver/goal|-:J1,J2,J3,J4,J5,J6:-0.494143,0.137234,-0.105739,0.003528,-0.032909,-0.920649:2.719437,0.591855,-0.581977,0.103383,-0.163238,-0.601049:vel_eff
1553597776.915570,cobot_dynamixel_driver/goal|-:J1,J2,J3,J4,J5,J6:-0.474974,0.153424,-0.120342,0.003540,-0.034001,-0.901461:2.029592,1.349225,-1.280825,0.030925,-0.166140,-1.675369:vel_eff
1553597777.028459,cobot_dynamixel_driver/goal|-:J1,J2,J3,J4,J5,J6:-0.434494,0.182577,-0.149309,0.003420,-0.033263,-0.860960:0.964854,0.613218,-0.655495,0.002515,-0.069261,0.951645:vel_eff
1553597777.110102,cobot_dynamixel_driver/goal|-:J1,J2,J3,J4,J5,J6:-0.434494,0.182577,-0.149309,0.003420,-0.033263,-0.860960:-0.776566,-0.239374,0.014522,0.077094,-0.077533,2.538544:vel_eff
1553597777.220153,cobot_dynamixel_driver/goal|-:J1,J2,J3,J4,J5,J6:-0.414124,0.195281,-0.163380,0.003302,-0.031485,-0.840445:0.231479,-0.271843,-0.615977,-0.064406,0.080317,-1.054681:vel_eff
1553597777.303144,cobot_dynamixel_driver/goal|-:J1,J2,J3,J4,J5,J6:-0.393759,0.207196,-0.177604,0.003153,-0.028790,-0.820038:2.251259,0.814203,-1.035069,0.032477,-0.043483,0.706765:vel_eff
1553597777.412935,cobot_dynamixel_driver/goal|-:J1,J2,J3,J4,J5,J6:-0.373808,0.218134,-0.191739,0.002980,-0.025242,-0.800031:1.266632,-0.099431,-0.385640,0.044662,0.065010,-2.222448:vel_eff
1553597777.522956,cobot_dynamixel_driver/goal|-:J1,J2,J3,J4,J5,J6:-0.354383,0.228241,-0.205895,0.002786,-0.020874,-0.780572:1.205085,-1.826604,-0.613559,0.003677,0.335107,2.007892:vel_eff
1553597777.605837,cobot_dynamixel_driver/goal|-:J1,J2,J3,J4,J5,J6:-0.335735,0.237467,-0.219928,0.002578,-0.015783,-0.761843:1.073420,-1.250533,-0.188517,-0.058878,-0.065296,0.135062:vel_eff
1553597777.715715,cobot_dynamixel_driver/goal|-:J1,J2,J3,J4,J5,J6:-0.314128,0.242638,-0.230659,0.002333,-0.010002,-0.734653:0.943587,-0.293025,-0.245169,0.033213,-0.069221,0.960272:vel_eff
1553597777.825473,cobot_dynamixel_driver/goal|-:J1,J2,J3,J4,J5,J6:-0.210977,0.176392,-0.171836,0.001504,-0.003017,-0.507891:4.755362,-2.906362,2.403884,-0.008243,0.400661,11.936400:vel_eff
1553597777.908454,cobot_dynamixel_driver/goal|-:J1,J2,J3,J4,J5,J6:-0.000000,0.000000,-0.000000,0.000000,-0.000000,-0.000000:1.919407,-1.655046,1.278984,-0.016755,0.132253,4.656543:vel_eff
1553597798.625519,cobot_dynamixel_driver/goal|-:J1,J2,J3,J4,J5,J6:0.215490,-0.173937,0.165970,-0.000555,0.008397,0.000000:0.769116,-0.619011,0.595112,-0.001974,0.029885,0.000000:vel_eff
1553597798.710438,cobot_dynamixel_driver/goal|-:J1,J2,J3,J4,J5,J6:0.316084,-0.243717,0.229372,-0.000785,0.015002,0.753724:1.057842,-0.785945,0.768589,-0.002637,0.000606,2.321732:vel_eff
1553597798.820295,cobot_dynamixel_driver/goal|-:J1,J2,J3,J4,J5,J6:0.316084,-0.243717,0.229372,-0.000785,0.015002,0.753724:1.063023,-0.823650,0.773032,-0.003987,-0.002587,2.340494:vel_eff
1553597798.903184,cobot_dynamixel_driver/goal|-:J1,J2,J3,J4,J5,J6:0.316084,-0.243717,0.229372,-0.000785,-0.015002,0.753724:1.233223,-0.939189,0.989132,-0.008082,0.008956,3.374560:vel_eff
1553597799.013121,cobot_dynamixel_driver/goal|-:J1,J2,J3,J4,J5,J6:0.336433,-0.236650,0.216637,-0.000775,0.020762,0.776963:0.124845,0.171192,0.015853,-0.008066,0.341863,0.168824:vel_eff
1553597799.123067,cobot_dynamixel_driver/goal|-:J1,J2,J3,J4,J5,J6:0.336433,-0.236650,0.216637,-0.000775,0.020762,0.776963:1.465275,0.581968,-0.247290,-0.038727,0.762333,0.207316:vel_eff
1553597799.208065,cobot_dynamixel_driver/goal|-:J1,J2,J3,J4,J5,J6:0.375303,-0.217034,0.188213,-0.000720,0.029755,0.815856:0.399195,0.017418,-0.048986,-0.007704,0.074979,0.420092:vel_eff
1553597799.318804,cobot_dynamixel_driver/goal|-:J1,J2,J3,J4,J5,J6:0.375303,-0.217034,0.188213,-0.000720,0.029755,0.815856:0.936292,0.936814,-0.656555,-0.035989,0.419192,1.583218:vel_eff
1553597799.428684,cobot_dynamixel_driver/goal|-:J1,J2,J3,J4,J5,J6:0.395677,-0.205921,0.173977,-0.000678,0.032973,0.836248:1.151700,-0.228839,-2.401168,0.320777,-0.298883,0.775885:vel_eff
1553597799.511545,cobot_dynamixel_driver/goal|-:J1,J2,J3,J4,J5,J6:0.416449,-0.193836,0.159695,-0.000626,0.035266,0.857042:1.000994,2.451446,0.650819,-0.031324,-0.011894,0.023149:vel_eff
1553597799.620308,cobot_dynamixel_driver/goal|-:J1,J2,J3,J4,J5,J6:0.437381,-0.180718,0.145352,-0.000563,0.036587,0.878002:1.171282,0.259292,-1.140856,-0.028150,0.140309,2.294831:vel_eff
1553597799.729369,cobot_dynamixel_driver/goal|-:J1,J2,J3,J4,J5,J6:0.458179,-0.166524,0.130937,-0.000487,0.036900,0.898833:0.740224,1.438462,-0.244605,-0.024365,-0.050851,2.629780:vel_eff
1553597799.813012,cobot_dynamixel_driver/goal|-:J1,J2,J3,J4,J5,J6:0.478491,-0.151230,0.116443,-0.000399,0.036187,0.919185:0.764757,0.064558,-1.230131,-0.019950,-0.069259,1.682560:vel_eff
1553597799.922207,cobot_dynamixel_driver/goal|-:J1,J2,J3,J4,J5,J6:0.497912,-0.134837,0.101866,-0.000298,0.034451,0.938650:0.661298,0.519035,-0.759223,-0.014904,-0.138834,0.932351:vel_eff
1553597800.006089,cobot_dynamixel_driver/goal|-:J1,J2,J3,J4,J5,J6:0.515996,-0.117380,0.087209,-0.000185,0.031720,0.956783:1.064739,2.174330,-0.855699,-0.009254,-0.137493,2.045777:vel_eff
1553597800.116019,cobot_dynamixel_driver/goal|-:J1,J2,J3,J4,J5,J6:0.532270,-0.098923,0.072476,-0.000061,0.028053,0.973107:0.616149,0.770751,-0.653443,-0.003057,-0.424238,4.568282:vel_eff
1553597800.226909,cobot_dynamixel_driver/goal|-:J1,J2,J3,J4,J5,J6:0.546263,0.079569,0.057675,-0.000072,0.023542,0.987150:1.169706,1.175135,-0.736272,0.003595,-0.305129,0.392902:vel_eff
1553597800.309666,cobot_dynamixel_driver/goal|-:J1,J2,J3,J4,J5,J6:0.557528,0.059453,0.042816,-0.000212,0.018308,0.998462:-0.343063,0.730847,-0.634191,0.010578,-0.428926,-1.161366:vel_eff
1553597800.418534,cobot_dynamixel_driver/goal|-:J1,J2,J3,J4,J5,J6:0.565682,0.038744,0.027913,-0.000355,0.012507,1.006658:-0.446547,-2.698745,-0.576052,0.017739,-0.184709,-0.923930:vel_eff
1553597800.528675,cobot_dynamixel_driver/goal|-:J1,J2,J3,J4,J5,J6:0.570431,-0.017638,-0.012981,-0.000498,-0.006317,1.011441:0.719398,-2.352839,-0.696716,0.024902,-0.339077,3.916949:vel_eff
1553597800.611488,cobot_dynamixel_driver/goal|-:J1,J2,J3,J4,J5,J6:0.571599,-0.003651,-0.001964,-0.000638,-0.000063,1.012632:-0.474084,0.798069,-0.651096,0.031885,-0.502965,0.822494:vel_eff
1553597800.721349,cobot_dynamixel_driver/goal|-:J1,J2,J3,J4,J5,J6:0.569142,-0.024899,-0.016904,-0.000770,-0.006426,1.010186:-0.972519,1.464051,-0.720010,0.038506,-0.821129,-2.384878:vel_eff
1553597800.804344,cobot_dynamixel_driver/goal|-:J1,J2,J3,J4,J5,J6:0.563152,-0.045886,-0.031823,-0.000892,-0.012567,1.004195:0.032030,2.429901,-1.465959,0.044605,-0.628333,1.486442:vel_eff
1553597800.916223,cobot_dynamixel_driver/goal|-:J1,J2,J3,J4,J5,J6:0.553851,0.066401,-0.046704,-0.001001,-0.018289,0.994881:-0.234812,5.792509,-0.905993,0.081344,-0.380165,3.209584:vel_eff
1553597801.027986,cobot_dynamixel_driver/goal|-:J1,J2,J3,J4,J5,J6:0.541568,0.086258,-0.061534,0.001095,-0.023418,0.982574:-0.984578,1.339708,-0.865040,0.117331,-0.326390,-0.973378:vel_eff
1553597801.110911,cobot_dynamixel_driver/goal|-:J1,J2,J3,J4,J5,J6:0.526713,0.105300,-0.076299,0.001172,-0.027805,0.967687:-0.673657,0.184475,-1.185990,0.079483,-0.321705,-0.269997:vel_eff
1553597801.220896,cobot_dynamixel_driver/goal|-:J1,J2,J3,J4,J5,J6:0.509745,0.123403,-0.090989,0.001233,-0.031334,0.950680:-0.489279,0.515807,-1.242406,0.061675,-0.084479,2.964325:vel_eff
1553597801.303748,cobot_dynamixel_driver/goal|-:J1,J2,J3,J4,J5,J6:0.491138,0.140476,-0.105598,0.001278,-0.033918,0.932030:-1.669975,2.162351,-0.418433,0.063924,-0.075817,0.101519:vel_eff
1553597801.413784,cobot_dynamixel_driver/goal|-:J1,J2,J3,J4,J5,J6:0.471359,0.156468,-0.120122,0.001308,-0.035506,0.912205:-0.885432,1.313612,-0.330903,0.065412,-0.051782,-2.733861:vel_eff
1553597801.523670,cobot_dynamixel_driver/goal|-:J1,J2,J3,J4,J5,J6:0.450841,0.171355,-0.134561,0.001324,-0.036072,0.891641:-1.139360,0.753947,-0.635550,0.066204,-0.338650,-0.866612:vel_eff
1553597801.606538,cobot_dynamixel_driver/goal|-:J1,J2,J3,J4,J5,J6:0.429970,0.185146,-0.148918,0.001328,-0.035620,0.870724:-0.357260,0.974031,-0.779654,0.066377,-0.626263,-3.032701:vel_eff
1553597801.716407,cobot_dynamixel_driver/goal|-:J1,J2,J3,J4,J5,J6:0.409272,0.197633,-0.162944,0.001320,-0.034190,0.849861:-2.174545,0.628183,0.365577,0.034706,0.134660,-0.887425:vel_eff
1553597801.827228,cobot_dynamixel_driver/goal|-:J1,J2,J3,J4,J5,J6:0.388765,0.209205,-0.176991,0.001304,-0.031817,0.829234:-0.956955,-0.305902,-0.628890,0.023459,0.149863,-2.073884:vel_eff
1553597801.910218,cobot_dynamixel_driver/goal|-:J1,J2,J3,J4,J5,J6:0.368627,0.219951,-0.191124,0.001280,-0.028528,0.809044:-1.191872,0.773868,-0.605262,0.064002,0.193704,-1.480494:vel_eff
1553597802.023145,cobot_dynamixel_driver/goal|-:J1,J2,J3,J4,J5,J6:0.349185,0.229761,-0.205147,0.001250,-0.024405,0.789520:-0.567828,0.429772,-0.523987,0.062510,0.279209,-0.784913:vel_eff
1553597802.104912,cobot_dynamixel_driver/goal|-:J1,J2,J3,J4,J5,J6:0.330552,0.238734,-0.219091,0.001216,-0.019517,0.770781:-2.866131,0.513271,-0.376161,0.029484,-0.045140,-0.929075:vel_eff
1553597802.214819,cobot_dynamixel_driver/goal|-:J1,J2,J3,J4,J5,J6:0.310948,0.245165,-0.231185,0.001170,-0.013929,0.748064:-0.153264,0.302806,-1.585953,0.037638,0.130809,-1.323787:vel_eff
1553597802.324769,cobot_dynamixel_driver/goal|-:J1,J2,J3,J4,J5,J6:0.208734,0.178062,-0.172212,0.000800,-0.005859,0.517359:-5.389156,-3.365316,2.917106,0.008709,0.361968,-11.566417:vel_eff
1553597802.407738,cobot_dynamixel_driver/goal|-:J1,J2,J3,J4,J5,J6:0.000000,0.000000,-0.000000,0.000000,-0.000000,0.000000:-2.048104,-1.645555,1.534038,-0.002720,0.096611,-4.540700:vel_eff
1553597802.913129,cobot_dynamixel_driver/goal|-:J1,J2,J3,J4,J5,J6:-0.226384,-0.168741,0.157610,-0.000129,0.010517,-0.541145:-0.814519,-0.603233,0.563440,-0.001777,0.037599,-1.934536:vel_eff
1553597803.026170,cobot_dynamixel_driver/goal|-:J1,J2,J3,J4,J5,J6:-0.226384,-0.168741,0.157610,-0.000129,0.010517,-0.541145:-1.142927,-0.927017,0.853585,-0.008830,-0.010509,-2.617607:vel_eff
1553597803.111993,cobot_dynamixel_driver/goal|-:J1,J2,J3,J4,J5,J6:-0.226384,-0.168741,0.157610,-0.000129,0.010517,-0.541145:-1.950500,-1.835070,1.589045,-0.025079,-0.027950,-4.802919:vel_eff
1553597803.223665,cobot_dynamixel_driver/goal|-:J1,J2,J3,J4,J5,J6:-0.336479,-0.231644,0.211373,-0.000229,0.019402,-0.782654:-1.114626,-0.575573,0.418399,0.002387,0.335730,-2.463558:vel_eff
1553597803.306584,cobot_dynamixel_driver/goal|-:J1,J2,J3,J4,J5,J6:-0.336479,-0.231644,0.211373,-0.000229,0.019402,-0.782654:-5.577900,-2.026161,1.920260,-0.011431,0.677126,-4.576550:vel_eff
1553597803.416665,cobot_dynamixel_driver/goal|-:J1,J2,J3,J4,J5,J6:-0.358952,-0.225057,0.200057,-0.000285,0.024128,-0.810303:-0.598607,1.015577,-1.159752,0.014275,0.292970,-1.650280:vel_eff
1553597803.526526,cobot_dynamixel_driver/goal|-:J1,J2,J3,J4,J5,J6:-0.378524,-0.214900,0.186125,-0.000342,0.027914,-0.829971:-0.607011,0.605380,-0.959143,0.017099,0.309900,-2.426843:vel_eff
1553597803.609450,cobot_dynamixel_driver/goal|-:J1,J2,J3,J4,J5,J6:-0.398663,-0.203834,0.172129,-0.000400,0.030861,-0.850196:-1.457486,1.054357,-1.106055,0.019982,0.371084,-1.456080:vel_eff
1553597803.721363,cobot_dynamixel_driver/goal|-:J1,J2,J3,J4,J5,J6:-0.419191,-0.191777,0.158040,-0.000458,0.032916,-0.870795:-0.428726,1.062564,-0.673366,0.022897,0.232528,0.736942:vel_eff
