surachairobotic/cobot/cobot_dynamixel_driver/log/2019-02-13T04:39:53.927966_driver_cmd.txt
1550032810.521976,cobot_dynamixel_driver/goal|-:J1,J2,J3,J4,J5,J6:0.000000,0.000000,0.000000,0.000000,0.000000,0.000000:0.500000,0.500000,0.500000,0.500000,0.500000,0.500000:pos_vel_
1550032974.788442,cobot_dynamixel_driver/goal|-:J1,J2,J3,J4,J5,J6:-0.000029,-0.184662,0.166161,0.000006,0.018486,0.000019:0.500000,0.500000,0.500000,0.500000,0.500000,0.500000:pos_vel_
1550032976.004290,cobot_dynamixel_driver/goal|-:J1,J2,J3,J4,J5,J6:-0.000029,0.000401,-0.000452,0.000006,-0.000113,0.000031:0.500000,0.500000,0.500000,0.500000,0.500000,0.500000:pos_vel_
1550032976.761804,cobot_dynamixel_driver/goal|-:J1,J2,J3,J4,J5,J6:-0.199280,0.009623,-0.011496,0.000288,0.000479,-0.199219:0.500000,0.500000,0.500000,0.500000,0.500000,0.500000:pos_vel_
1550032977.627537,cobot_dynamixel_driver/goal|-:J1,J2,J3,J4,J5,J6:0.005088,-0.007828,0.006343,0.000049,0.000371,0.005612:0.500000,0.500000,0.500000,0.500000,0.500000,0.500000:pos_vel_
1550032978.550155,cobot_dynamixel_driver/goal|-:J1,J2,J3,J4,J5,J6:0.000565,0.010581,0.189240,0.000147,-0.200879,0.000636:0.500000,0.500000,0.500000,0.500000,0.500000,0.500000:pos_vel_
1550032979.334685,cobot_dynamixel_driver/goal|-:J1,J2,J3,J4,J5,J6:0.000577,-0.006575,-0.001172,0.000116,0.008489,0.000959:0.500000,0.500000,0.500000,0.500000,0.500000,0.500000:pos_vel_
1550032980.173384,cobot_dynamixel_driver/goal|-:J1,J2,J3,J4,J5,J6:0.000000,0.000000,0.000000,0.000000,0.000000,0.000000:0.500000,0.500000,0.500000,0.500000,0.500000,0.500000:pos_vel_
1550032981.042844,cobot_dynamixel_driver/goal|-:J1,J2,J3,J4,J5,J6:0.000000,0.000000,0.000000,0.000000,0.000000,0.000000:0.500000,0.500000,0.500000,0.500000,0.500000,0.500000:pos_vel_
1550032981.936386,cobot_dynamixel_driver/goal|-:J1,J2,J3,J4,J5,J6:0.000000,0.000000,0.000000,0.000000,0.000000,0.000000:0.500000,0.500000,0.500000,0.500000,0.500000,0.500000:pos_vel_
1550032982.180253,cobot_dynamixel_driver/goal|-:J1,J2,J3,J4,J5,J6:0.000000,0.000000,0.000000,0.000000,0.000000,0.000000:0.500000,0.500000,0.500000,0.500000,0.500000,0.500000:pos_vel_
1550033676.469576,cobot_dynamixel_driver/goal|-:J1,J2,J3,J4,J5,J6:0.000000,0.000000,0.000000,0.000000,0.000000,0.000000:0.500000,0.500000,0.500000,0.500000,0.500000,0.500000:pos_vel_
1550033677.012634,cobot_dynamixel_driver/goal|-:J1,J2,J3,J4,J5,J6:0.000000,0.000000,0.000000,0.000000,0.000000,0.000000:0.500000,0.500000,0.500000,0.500000,0.500000,0.500000:pos_vel_
1550033822.301754,cobot_dynamixel_driver/goal|-:J1,J2,J3,J4,J5,J6:0.000000,0.000000,0.000000,0.000000,0.000000,0.000000:0.500000,0.500000,0.500000,0.500000,0.500000,0.500000:pos_vel_
1550033838.547854,cobot_dynamixel_driver/goal|-:J1,J2,J3,J4,J5,J6:-0.000032,-0.049964,0.000019,-0.000032,-0.000018,-0.000041:0.500000,0.500000,0.500000,0.500000,0.500000,0.500000:pos_vel_
1550033842.304127,cobot_dynamixel_driver/goal|-:J1,J2,J3,J4,J5,J6:-0.000032,-0.100050,0.000019,-0.000032,-0.000018,-0.000041:0.500000,0.500000,0.500000,0.500000,0.500000,0.500000:pos_vel_
1550033846.087295,cobot_dynamixel_driver/goal|-:J1,J2,J3,J4,J5,J6:-0.000032,-0.150085,0.000031,-0.000032,-0.000018,-0.000041:0.500000,0.500000,0.500000,0.500000,0.500000,0.500000:pos_vel_
1550033854.244904,cobot_dynamixel_driver/goal|-:J1,J2,J3,J4,J5,J6:0.000000,0.000000,0.000000,0.000000,0.000000,0.000000:0.500000,0.500000,0.500000,0.500000,0.500000,0.500000:pos_vel_
1550033856.975864,cobot_dynamixel_driver/goal|-:J1,J2,J3,J4,J5,J6:-0.000032,0.050036,0.000019,-0.000032,-0.000018,-0.000041:0.500000,0.500000,0.500000,0.500000,0.500000,0.500000:pos_vel_
1550034208.245722,cobot_dynamixel_driver/goal|-:J1,J2,J3,J4,J5,J6:0.000000,0.000000,0.000000,0.000000,0.000000,0.000000:0.500000,0.500000,0.500000,0.500000,0.500000,0.500000:pos_vel_
1550034211.299182,cobot_dynamixel_driver/goal|-:J1,J2,J3,J4,J5,J6:0.000000,0.000000,0.000000,0.000000,0.000000,0.000000:0.250000,0.250000,0.250000,0.250000,0.250000,0.250000:pos_vel_
1550034211.327822,cobot_dynamixel_driver/goal|-:J1,J2,J3,J4,J5,J6:0.000000,0.000000,0.000000,0.000000,0.000000,0.000000:0.250000,0.250000,0.250000,0.250000,0.250000,0.250000:pos_vel_
1550034211.357997,cobot_dynamixel_driver/goal|-:J1,J2,J3,J4,J5,J6:0.000000,0.000000,0.000000,0.000000,0.000000,0.000000:0.250000,0.250000,0.250000,0.250000,0.250000,0.250000:pos_vel_
1550034211.386911,cobot_dynamixel_driver/goal|-:J1,J2,J3,J4,J5,J6:0.000000,0.000000,0.000000,0.000000,0.000000,0.000000:0.250000,0.250000,0.250000,0.250000,0.250000,0.250000:pos_vel_
1550034211.415421,cobot_dynamixel_driver/goal|-:J1,J2,J3,J4,J5,J6:0.000000,0.000000,0.000000,0.000000,0.000000,0.000000:0.250000,0.250000,0.250000,0.250000,0.250000,0.250000:pos_vel_
1550034211.443617,cobot_dynamixel_driver/goal|-:J1,J2,J3,J4,J5,J6:0.000000,0.000000,0.000000,0.000000,0.000000,0.000000:0.250000,0.250000,0.250000,0.250000,0.250000,0.250000:pos_vel_
1550034211.473812,cobot_dynamixel_driver/goal|-:J1,J2,J3,J4,J5,J6:0.000000,0.000000,0.000000,0.000000,0.000000,0.000000:0.250000,0.250000,0.250000,0.250000,0.250000,0.250000:pos_vel_
1550034211.502662,cobot_dynamixel_driver/goal|-:J1,J2,J3,J4,J5,J6:0.000000,0.000000,0.000000,0.000000,0.000000,0.000000:0.250000,0.250000,0.250000,0.250000,0.250000,0.250000:pos_vel_
1550034211.532611,cobot_dynamixel_driver/goal|-:J1,J2,J3,J4,J5,J6:0.000000,0.000000,0.000000,0.000000,0.000000,0.000000:0.250000,0.250000,0.250000,0.250000,0.250000,0.250000:pos_vel_
1550034211.560686,cobot_dynamixel_driver/goal|-:J1,J2,J3,J4,J5,J6:0.000000,0.000000,0.000000,0.000000,0.000000,0.000000:0.250000,0.250000,0.250000,0.250000,0.250000,0.250000:pos_vel_
1550034211.588709,cobot_dynamixel_driver/goal|-:J1,J2,J3,J4,J5,J6:0.000000,0.000000,0.000000,0.000000,0.000000,0.000000:0.250000,0.250000,0.250000,0.250000,0.250000,0.250000:pos_vel_
1550034211.617197,cobot_dynamixel_driver/goal|-:J1,J2,J3,J4,J5,J6:0.000000,0.000000,0.000000,0.000000,0.000000,0.000000:0.250000,0.250000,0.250000,0.250000,0.250000,0.250000:pos_vel_
1550034211.644742,cobot_dynamixel_driver/goal|-:J1,J2,J3,J4,J5,J6:0.000000,0.000000,0.000000,0.000000,0.000000,0.000000:0.250000,0.250000,0.250000,0.250000,0.250000,0.250000:pos_vel_
1550034211.673490,cobot_dynamixel_driver/goal|-:J1,J2,J3,J4,J5,J6:0.000000,0.000000,0.000000,0.000000,0.000000,0.000000:0.250000,0.250000,0.250000,0.250000,0.250000,0.250000:pos_vel_
1550034211.701685,cobot_dynamixel_driver/goal|-:J1,J2,J3,J4,J5,J6:0.000000,0.000000,0.000000,0.000000,0.000000,0.000000:0.250000,0.250000,0.250000,0.250000,0.250000,0.250000:pos_vel_
1550034211.730515,cobot_dynamixel_driver/goal|-:J1,J2,J3,J4,J5,J6:0.000000,0.000000,0.000000,0.000000,0.000000,0.000000:0.250000,0.250000,0.250000,0.250000,0.250000,0.250000:pos_vel_
1550034211.759811,cobot_dynamixel_driver/goal|-:J1,J2,J3,J4,J5,J6:0.000000,0.000000,0.000000,0.000000,0.000000,0.000000:0.250000,0.250000,0.250000,0.250000,0.250000,0.250000:pos_vel_
1550034211.788849,cobot_dynamixel_driver/goal|-:J1,J2,J3,J4,J5,J6:0.000000,0.000000,0.000000,0.000000,0.000000,0.000000:0.250000,0.250000,0.250000,0.250000,0.250000,0.250000:pos_vel_
1550034211.818729,cobot_dynamixel_driver/goal|-:J1,J2,J3,J4,J5,J6:0.000000,0.000000,0.000000,0.000000,0.000000,0.000000:0.250000,0.250000,0.250000,0.250000,0.250000,0.250000:pos_vel_
1550034211.846845,cobot_dynamixel_driver/goal|-:J1,J2,J3,J4,J5,J6:0.000000,0.000000,0.000000,0.000000,0.000000,0.000000:0.250000,0.250000,0.250000,0.250000,0.250000,0.250000:pos_vel_
1550034211.875469,cobot_dynamixel_driver/goal|-:J1,J2,J3,J4,J5,J6:0.000000,0.000000,0.000000,0.000000,0.000000,0.000000:0.250000,0.250000,0.250000,0.250000,0.250000,0.250000:pos_vel_
1550034211.903960,cobot_dynamixel_driver/goal|-:J1,J2,J3,J4,J5,J6:0.000000,0.000000,0.000000,0.000000,0.000000,0.000000:0.250000,0.250000,0.250000,0.250000,0.250000,0.250000:pos_vel_
1550034211.932564,cobot_dynamixel_driver/goal|-:J1,J2,J3,J4,J5,J6:0.000000,0.000000,0.000000,0.000000,0.000000,0.000000:0.250000,0.250000,0.250000,0.250000,0.250000,0.250000:pos_vel_
1550034211.960774,cobot_dynamixel_driver/goal|-:J1,J2,J3,J4,J5,J6:0.000000,0.000000,0.000000,0.000000,0.000000,0.000000:0.250000,0.250000,0.250000,0.250000,0.250000,0.250000:pos_vel_
1550034211.988849,cobot_dynamixel_driver/goal|-:J1,J2,J3,J4,J5,J6:0.000000,0.000000,0.000000,0.000000,0.000000,0.000000:0.250000,0.250000,0.250000,0.250000,0.250000,0.250000:pos_vel_
1550034212.017817,cobot_dynamixel_driver/goal|-:J1,J2,J3,J4,J5,J6:0.000000,0.000000,0.000000,0.000000,0.000000,0.000000:0.250000,0.250000,0.250000,0.250000,0.250000,0.250000:pos_vel_
1550034212.045890,cobot_dynamixel_driver/goal|-:J1,J2,J3,J4,J5,J6:0.000000,0.000000,0.000000,0.000000,0.000000,0.000000:0.250000,0.250000,0.250000,0.250000,0.250000,0.250000:pos_vel_
1550034212.074482,cobot_dynamixel_driver/goal|-:J1,J2,J3,J4,J5,J6:0.000000,0.000000,0.000000,0.000000,0.000000,0.000000:0.250000,0.250000,0.250000,0.250000,0.250000,0.250000:pos_vel_
1550034212.102720,cobot_dynamixel_driver/goal|-:J1,J2,J3,J4,J5,J6:0.000000,0.000000,0.000000,0.000000,0.000000,0.000000:0.250000,0.250000,0.250000,0.250000,0.250000,0.250000:pos_vel_
1550034212.131319,cobot_dynamixel_driver/goal|-:J1,J2,J3,J4,J5,J6:0.000000,0.000000,0.000000,0.000000,0.000000,0.000000:0.250000,0.250000,0.250000,0.250000,0.250000,0.250000:pos_vel_
1550034212.159728,cobot_dynamixel_driver/goal|-:J1,J2,J3,J4,J5,J6:0.000000,0.000000,0.000000,0.000000,0.000000,0.000000:0.250000,0.250000,0.250000,0.250000,0.250000,0.250000:pos_vel_
1550034212.187746,cobot_dynamixel_driver/goal|-:J1,J2,J3,J4,J5,J6:0.000000,0.000000,0.000000,0.000000,0.000000,0.000000:0.250000,0.250000,0.250000,0.250000,0.250000,0.250000:pos_vel_
1550034212.216408,cobot_dynamixel_driver/goal|-:J1,J2,J3,J4,J5,J6:0.000000,0.000000,0.000000,0.000000,0.000000,0.000000:0.250000,0.250000,0.250000,0.250000,0.250000,0.250000:pos_vel_
1550034212.244726,cobot_dynamixel_driver/goal|-:J1,J2,J3,J4,J5,J6:0.000000,0.000000,0.000000,0.000000,0.000000,0.000000:0.250000,0.250000,0.250000,0.250000,0.250000,0.250000:pos_vel_
1550034212.273181,cobot_dynamixel_driver/goal|-:J1,J2,J3,J4,J5,J6:0.000000,0.000000,0.000000,0.000000,0.000000,0.000000:0.250000,0.250000,0.250000,0.250000,0.250000,0.250000:pos_vel_
1550034212.302089,cobot_dynamixel_driver/goal|-:J1,J2,J3,J4,J5,J6:0.000000,0.000000,0.000000,0.000000,0.000000,0.000000:0.250000,0.250000,0.250000,0.250000,0.250000,0.250000:pos_vel_
1550034212.329905,cobot_dynamixel_driver/goal|-:J1,J2,J3,J4,J5,J6:0.000000,0.000000,0.000000,0.000000,0.000000,0.000000:0.250000,0.250000,0.250000,0.250000,0.250000,0.250000:pos_vel_
1550034212.358593,cobot_dynamixel_driver/goal|-:J1,J2,J3,J4,J5,J6:0.000000,0.000000,0.000000,0.000000,0.000000,0.000000:0.250000,0.250000,0.250000,0.250000,0.250000,0.250000:pos_vel_
1550034212.387183,cobot_dynamixel_driver/goal|-:J1,J2,J3,J4,J5,J6:0.000000,0.000000,0.000000,0.000000,0.000000,0.000000:0.250000,0.250000,0.250000,0.250000,0.250000,0.250000:pos_vel_
1550034212.416794,cobot_dynamixel_driver/goal|-:J1,J2,J3,J4,J5,J6:0.000000,0.000000,0.000000,0.000000,0.000000,0.000000:0.250000,0.250000,0.250000,0.250000,0.250000,0.250000:pos_vel_
1550034212.444770,cobot_dynamixel_driver/goal|-:J1,J2,J3,J4,J5,J6:0.000000,0.000000,0.000000,0.000000,0.000000,0.000000:0.250000,0.250000,0.250000,0.250000,0.250000,0.250000:pos_vel_
1550034212.472789,cobot_dynamixel_driver/goal|-:J1,J2,J3,J4,J5,J6:0.000000,0.000000,0.000000,0.000000,0.000000,0.000000:0.250000,0.250000,0.250000,0.250000,0.250000,0.250000:pos_vel_
1550034212.500432,cobot_dynamixel_driver/goal|-:J1,J2,J3,J4,J5,J6:0.000000,0.000000,0.000000,0.000000,0.000000,0.000000:0.250000,0.250000,0.250000,0.250000,0.250000,0.250000:pos_vel_
1550034212.528564,cobot_dynamixel_driver/goal|-:J1,J2,J3,J4,J5,J6:0.000000,0.000000,0.000000,0.000000,0.000000,0.000000:0.250000,0.250000,0.250000,0.250000,0.250000,0.250000:pos_vel_
1550034212.557043,cobot_dynamixel_driver/goal|-:J1,J2,J3,J4,J5,J6:0.000000,0.000000,0.000000,0.000000,0.000000,0.000000:0.250000,0.250000,0.250000,0.250000,0.250000,0.250000:pos_vel_
1550034212.585654,cobot_dynamixel_driver/goal|-:J1,J2,J3,J4,J5,J6:0.000000,0.000000,0.000000,0.000000,0.000000,0.000000:0.250000,0.250000,0.250000,0.250000,0.250000,0.250000:pos_vel_
1550034212.614218,cobot_dynamixel_driver/goal|-:J1,J2,J3,J4,J5,J6:0.000000,0.000000,0.000000,0.000000,0.000000,0.000000:0.250000,0.250000,0.250000,0.250000,0.250000,0.250000:pos_vel_
1550034212.642665,cobot_dynamixel_driver/goal|-:J1,J2,J3,J4,J5,J6:0.000000,0.000000,0.000000,0.000000,0.000000,0.000000:0.250000,0.250000,0.250000,0.250000,0.250000,0.250000:pos_vel_
1550034212.671827,cobot_dynamixel_driver/goal|-:J1,J2,J3,J4,J5,J6:0.000000,0.000000,0.000000,0.000000,0.000000,0.000000:0.250000,0.250000,0.250000,0.250000,0.250000,0.250000:pos_vel_
1550034212.699627,cobot_dynamixel_driver/goal|-:J1,J2,J3,J4,J5,J6:0.000000,0.000000,0.000000,0.000000,0.000000,0.000000:0.250000,0.250000,0.250000,0.250000,0.250000,0.250000:pos_vel_
1550034212.727571,cobot_dynamixel_driver/goal|-:J1,J2,J3,J4,J5,J6:0.000000,0.000000,0.000000,0.000000,0.000000,0.000000:0.250000,0.250000,0.250000,0.250000,0.250000,0.250000:pos_vel_
1550034212.756588,cobot_dynamixel_driver/goal|-:J1,J2,J3,J4,J5,J6:0.000000,0.000000,0.000000,0.000000,0.000000,0.000000:0.250000,0.250000,0.250000,0.250000,0.250000,0.250000:pos_vel_
1550034212.784562,cobot_dynamixel_driver/goal|-:J1,J2,J3,J4,J5,J6:0.000000,0.000000,0.000000,0.000000,0.000000,0.000000:0.250000,0.250000,0.250000,0.250000,0.250000,0.250000:pos_vel_
1550034212.813128,cobot_dynamixel_driver/goal|-:J1,J2,J3,J4,J5,J6:0.000000,0.000000,0.000000,0.000000,0.000000,0.000000:0.250000,0.250000,0.250000,0.250000,0.250000,0.250000:pos_vel_
1550034212.841506,cobot_dynamixel_driver/goal|-:J1,J2,J3,J4,J5,J6:0.000000,0.000000,0.000000,0.000000,0.000000,0.000000:0.250000,0.250000,0.250000,0.250000,0.250000,0.250000:pos_vel_
1550034212.869766,cobot_dynamixel_driver/goal|-:J1,J2,J3,J4,J5,J6:0.000000,0.000000,0.000000,0.000000,0.000000,0.000000:0.250000,0.250000,0.250000,0.250000,0.250000,0.250000:pos_vel_
1550034212.898277,cobot_dynamixel_driver/goal|-:J1,J2,J3,J4,J5,J6:0.000000,0.000000,0.000000,0.000000,0.000000,0.000000:0.250000,0.250000,0.250000,0.250000,0.250000,0.250000:pos_vel_
1550034212.926459,cobot_dynamixel_driver/goal|-:J1,J2,J3,J4,J5,J6:0.000000,0.000000,0.000000,0.000000,0.000000,0.000000:0.250000,0.250000,0.250000,0.250000,0.250000,0.250000:pos_vel_
1550034212.955400,cobot_dynamixel_driver/goal|-:J1,J2,J3,J4,J5,J6:0.000000,0.000000,0.000000,0.000000,0.000000,0.000000:0.250000,0.250000,0.250000,0.250000,0.250000,0.250000:pos_vel_
1550034212.983506,cobot_dynamixel_driver/goal|-:J1,J2,J3,J4,J5,J6:0.000000,0.000000,0.000000,0.000000,0.000000,0.000000:0.250000,0.250000,0.250000,0.250000,0.250000,0.250000:pos_vel_
1550034213.012706,cobot_dynamixel_driver/goal|-:J1,J2,J3,J4,J5,J6:0.000000,0.000000,0.000000,0.000000,0.000000,0.000000:0.250000,0.250000,0.250000,0.250000,0.250000,0.250000:pos_vel_
1550034213.041485,cobot_dynamixel_driver/goal|-:J1,J2,J3,J4,J5,J6:0.000000,0.000000,0.000000,0.000000,0.000000,0.000000:0.250000,0.250000,0.250000,0.250000,0.250000,0.250000:pos_vel_
1550034213.069377,cobot_dynamixel_driver/goal|-:J1,J2,J3,J4,J5,J6:0.000000,0.000000,0.000000,0.000000,0.000000,0.000000:0.250000,0.250000,0.250000,0.250000,0.250000,0.250000:pos_vel_
1550034213.098144,cobot_dynamixel_driver/goal|-:J1,J2,J3,J4,J5,J6:0.000000,0.000000,0.000000,0.000000,0.000000,0.000000:0.250000,0.250000,0.250000,0.250000,0.250000,0.250000:pos_vel_
1550034213.126380,cobot_dynamixel_driver/goal|-:J1,J2,J3,J4,J5,J6:0.000000,0.000000,0.000000,0.000000,0.000000,0.000000:0.250000,0.250000,0.250000,0.250000,0.250000,0.250000:pos_vel_
1550034213.155375,cobot_dynamixel_driver/goal|-:J1,J2,J3,J4,J5,J6:0.000000,0.000000,0.000000,0.000000,0.000000,0.000000:0.250000,0.250000,0.250000,0.250000,0.250000,0.250000:pos_vel_
1550034213.183322,cobot_dynamixel_driver/goal|-:J1,J2,J3,J4,J5,J6:0.000000,0.000000,0.000000,0.000000,0.000000,0.000000:0.250000,0.250000,0.250000,0.250000,0.250000,0.250000:pos_vel_
1550034213.211954,cobot_dynamixel_driver/goal|-:J1,J2,J3,J4,J5,J6:0.000000,0.000000,0.000000,0.000000,0.000000,0.000000:0.250000,0.250000,0.250000,0.250000,0.250000,0.250000:pos_vel_
1550034213.240195,cobot_dynamixel_driver/goal|-:J1,J2,J3,J4,J5,J6:0.000000,0.000000,0.000000,0.000000,0.000000,0.000000:0.250000,0.250000,0.250000,0.250000,0.250000,0.250000:pos_vel_
1550034213.268582,cobot_dynamixel_driver/goal|-:J1,J2,J3,J4,J5,J6:0.000000,0.000000,0.000000,0.000000,0.000000,0.000000:0.250000,0.250000,0.250000,0.250000,0.250000,0.250000:pos_vel_
1550034213.297464,cobot_dynamixel_driver/goal|-:J1,J2,J3,J4,J5,J6:0.000000,0.000000,0.000000,0.000000,0.000000,0.000000:0.250000,0.250000,0.250000,0.250000,0.250000,0.250000:pos_vel_
1550034213.325324,cobot_dynamixel_driver/goal|-:J1,J2,J3,J4,J5,J6:0.000000,0.000000,0.000000,0.000000,0.000000,0.000000:0.250000,0.250000,0.250000,0.250000,0.250000,0.250000:pos_vel_
1550034213.354455,cobot_dynamixel_driver/goal|-:J1,J2,J3,J4,J5,J6:0.000000,0.000000,0.000000,0.000000,0.000000,0.000000:0.250000,0.250000,0.250000,0.250000,0.250000,0.250000:pos_vel_
1550034213.382133,cobot_dynamixel_driver/goal|-:J1,J2,J3,J4,J5,J6:0.000000,0.000000,0.000000,0.000000,0.000000,0.000000:0.250000,0.250000,0.250000,0.250000,0.250000,0.250000:pos_vel_
1550034213.410157,cobot_dynamixel_driver/goal|-:J1,J2,J3,J4,J5,J6:0.000000,0.000000,0.000000,0.000000,0.000000,0.000000:0.250000,0.250000,0.250000,0.250000,0.250000,0.250000:pos_vel_
1550034213.439448,cobot_dynamixel_driver/goal|-:J1,J2,J3,J4,J5,J6:0.000000,0.000000,0.000000,0.000000,0.000000,0.000000:0.250000,0.250000,0.250000,0.250000,0.250000,0.250000:pos_vel_
1550034213.467835,cobot_dynamixel_driver/goal|-:J1,J2,J3,J4,J5,J6:0.000000,0.000000,0.000000,0.000000,0.000000,0.000000:0.250000,0.250000,0.250000,0.250000,0.250000,0.250000:pos_vel_
1550034213.496376,cobot_dynamixel_driver/goal|-:J1,J2,J3,J4,J5,J6:0.000000,0.000000,0.000000,0.000000,0.000000,0.000000:0.250000,0.250000,0.250000,0.250000,0.250000,0.250000:pos_vel_
1550034213.524516,cobot_dynamixel_driver/goal|-:J1,J2,J3,J4,J5,J6:0.000000,0.000000,0.000000,0.000000,0.000000,0.000000:0.250000,0.250000,0.250000,0.250000,0.250000,0.250000:pos_vel_
1550034213.553801,cobot_dynamixel_driver/goal|-:J1,J2,J3,J4,J5,J6:0.000000,0.000000,0.000000,0.000000,0.000000,0.000000:0.250000,0.250000,0.250000,0.250000,0.250000,0.250000:pos_vel_
1550034213.581916,cobot_dynamixel_driver/goal|-:J1,J2,J3,J4,J5,J6:0.000000,0.000000,0.000000,0.000000,0.000000,0.000000:0.250000,0.250000,0.250000,0.250000,0.250000,0.250000:pos_vel_
1550034213.609839,cobot_dynamixel_driver/goal|-:J1,J2,J3,J4,J5,J6:0.000000,0.000000,0.000000,0.000000,0.000000,0.000000:0.250000,0.250000,0.250000,0.250000,0.250000,0.250000:pos_vel_
1550034213.638667,cobot_dynamixel_driver/goal|-:J1,J2,J3,J4,J5,J6:0.000000,0.000000,0.000000,0.000000,0.000000,0.000000:0.250000,0.250000,0.250000,0.250000,0.250000,0.250000:pos_vel_
1550034213.666967,cobot_dynamixel_driver/goal|-:J1,J2,J3,J4,J5,J6:0.000000,0.000000,0.000000,0.000000,0.000000,0.000000:0.250000,0.250000,0.250000,0.250000,0.250000,0.250000:pos_vel_
1550034213.695460,cobot_dynamixel_driver/goal|-:J1,J2,J3,J4,J5,J6:0.000000,0.000000,0.000000,0.000000,0.000000,0.000000:0.250000,0.250000,0.250000,0.250000,0.250000,0.250000:pos_vel_
1550034213.723849,cobot_dynamixel_driver/goal|-:J1,J2,J3,J4,J5,J6:0.000000,0.000000,0.000000,0.000000,0.000000,0.000000:0.250000,0.250000,0.250000,0.250000,0.250000,0.250000:pos_vel_
1550034213.752435,cobot_dynamixel_driver/goal|-:J1,J2,J3,J4,J5,J6:0.000000,0.000000,0.000000,0.000000,0.000000,0.000000:0.250000,0.250000,0.250000,0.250000,0.250000,0.250000:pos_vel_
1550034213.780860,cobot_dynamixel_driver/goal|-:J1,J2,J3,J4,J5,J6:0.000000,0.000000,0.000000,0.000000,0.000000,0.000000:0.250000,0.250000,0.250000,0.250000,0.250000,0.250000:pos_vel_
1550034213.808766,cobot_dynamixel_driver/goal|-:J1,J2,J3,J4,J5,J6:0.000000,0.000000,0.000000,0.000000,0.000000,0.000000:0.250000,0.250000,0.250000,0.250000,0.250000,0.250000:pos_vel_
1550034213.837557,cobot_dynamixel_driver/goal|-:J1,J2,J3,J4,J5,J6:0.000000,0.000000,0.000000,0.000000,0.000000,0.000000:0.250000,0.250000,0.250000,0.250000,0.250000,0.250000:pos_vel_
1550034213.865872,cobot_dynamixel_driver/goal|-:J1,J2,J3,J4,J5,J6:0.000000,0.000000,0.000000,0.000000,0.000000,0.000000:0.250000,0.250000,0.250000,0.250000,0.250000,0.250000:pos_vel_
1550034213.894495,cobot_dynamixel_driver/goal|-:J1,J2,J3,J4,J5,J6:0.000000,0.000000,0.000000,0.000000,0.000000,0.000000:0.250000,0.250000,0.250000,0.250000,0.250000,0.250000:pos_vel_
1550034213.922782,cobot_dynamixel_driver/goal|-:J1,J2,J3,J4,J5,J6:0.000000,0.000000,0.000000,0.000000,0.000000,0.000000:0.250000,0.250000,0.250000,0.250000,0.250000,0.250000:pos_vel_
1550034213.951595,cobot_dynamixel_driver/goal|-:J1,J2,J3,J4,J5,J6:0.000000,0.000000,0.000000,0.000000,0.000000,0.000000:0.250000,0.250000,0.250000,0.250000,0.250000,0.250000:pos_vel_
1550034213.979703,cobot_dynamixel_driver/goal|-:J1,J2,J3,J4,J5,J6:0.000000,0.000000,0.000000,0.000000,0.000000,0.000000:0.250000,0.250000,0.250000,0.250000,0.250000,0.250000:pos_vel_
1550034214.007742,cobot_dynamixel_driver/goal|-:J1,J2,J3,J4,J5,J6:0.000000,0.000000,0.000000,0.000000,0.000000,0.000000:0.250000,0.250000,0.250000,0.250000,0.250000,0.250000:pos_vel_
1550034214.098774,cobot_dynamixel_driver/goal|-:J2:477.803375:eff_
1550034282.388970,cobot_dynamixel_driver/goal|-:J1,J2,J3,J4,J5,J6:0.000000,0.000000,0.000000,0.000000,0.000000,0.000000:0.500000,0.500000,0.500000,0.500000,0.500000,0.500000:pos_vel_
1550034285.329898,cobot_dynamixel_driver/goal|-:J1,J2,J3,J4,J5,J6:0.000000,0.000000,0.000000,0.000000,0.000000,0.000000:0.250000,0.250000,0.250000,0.250000,0.250000,0.250000:pos_vel_
1550034285.357866,cobot_dynamixel_driver/goal|-:J1,J2,J3,J4,J5,J6:0.000000,0.000000,0.000000,0.000000,0.000000,0.000000:0.250000,0.250000,0.250000,0.250000,0.250000,0.250000:pos_vel_
1550034285.385377,cobot_dynamixel_driver/goal|-:J1,J2,J3,J4,J5,J6:0.000000,0.000000,0.000000,0.000000,0.000000,0.000000:0.250000,0.250000,0.250000,0.250000,0.250000,0.250000:pos_vel_
1550034285.414061,cobot_dynamixel_driver/goal|-:J1,J2,J3,J4,J5,J6:0.000000,0.000000,0.000000,0.000000,0.000000,0.000000:0.250000,0.250000,0.250000,0.250000,0.250000,0.250000:pos_vel_
1550034285.441384,cobot_dynamixel_driver/goal|-:J1,J2,J3,J4,J5,J6:0.000000,0.000000,0.000000,0.000000,0.000000,0.000000:0.250000,0.250000,0.250000,0.250000,0.250000,0.250000:pos_vel_
1550034285.470226,cobot_dynamixel_driver/goal|-:J1,J2,J3,J4,J5,J6:0.000000,0.000000,0.000000,0.000000,0.000000,0.000000:0.250000,0.250000,0.250000,0.250000,0.250000,0.250000:pos_vel_
1550034285.500252,cobot_dynamixel_driver/goal|-:J1,J2,J3,J4,J5,J6:0.000000,0.000000,0.000000,0.000000,0.000000,0.000000:0.250000,0.250000,0.250000,0.250000,0.250000,0.250000:pos_vel_
1550034285.528728,cobot_dynamixel_driver/goal|-:J1,J2,J3,J4,J5,J6:0.000000,0.000000,0.000000,0.000000,0.000000,0.000000:0.250000,0.250000,0.250000,0.250000,0.250000,0.250000:pos_vel_
1550034285.557323,cobot_dynamixel_driver/goal|-:J1,J2,J3,J4,J5,J6:0.000000,0.000000,0.000000,0.000000,0.000000,0.000000:0.250000,0.250000,0.250000,0.250000,0.250000,0.250000:pos_vel_
1550034285.585617,cobot_dynamixel_driver/goal|-:J1,J2,J3,J4,J5,J6:0.000000,0.000000,0.000000,0.000000,0.000000,0.000000:0.250000,0.250000,0.250000,0.250000,0.250000,0.250000:pos_vel_
1550034285.614399,cobot_dynamixel_driver/goal|-:J1,J2,J3,J4,J5,J6:0.000000,0.000000,0.000000,0.000000,0.000000,0.000000:0.250000,0.250000,0.250000,0.250000,0.250000,0.250000:pos_vel_
1550034285.642525,cobot_dynamixel_driver/goal|-:J1,J2,J3,J4,J5,J6:0.000000,0.000000,0.000000,0.000000,0.000000,0.000000:0.250000,0.250000,0.250000,0.250000,0.250000,0.250000:pos_vel_
1550034285.670586,cobot_dynamixel_driver/goal|-:J1,J2,J3,J4,J5,J6:0.000000,0.000000,0.000000,0.000000,0.000000,0.000000:0.250000,0.250000,0.250000,0.250000,0.250000,0.250000:pos_vel_
1550034285.699004,cobot_dynamixel_driver/goal|-:J1,J2,J3,J4,J5,J6:0.000000,0.000000,0.000000,0.000000,0.000000,0.000000:0.250000,0.250000,0.250000,0.250000,0.250000,0.250000:pos_vel_
1550034285.726354,cobot_dynamixel_driver/goal|-:J1,J2,J3,J4,J5,J6:0.000000,0.000000,0.000000,0.000000,0.000000,0.000000:0.250000,0.250000,0.250000,0.250000,0.250000,0.250000:pos_vel_
1550034285.754962,cobot_dynamixel_driver/goal|-:J1,J2,J3,J4,J5,J6:0.000000,0.000000,0.000000,0.000000,0.000000,0.000000:0.250000,0.250000,0.250000,0.250000,0.250000,0.250000:pos_vel_
1550034285.782394,cobot_dynamixel_driver/goal|-:J1,J2,J3,J4,J5,J6:0.000000,0.000000,0.000000,0.000000,0.000000,0.000000:0.250000,0.250000,0.250000,0.250000,0.250000,0.250000:pos_vel_
1550034285.810658,cobot_dynamixel_driver/goal|-:J1,J2,J3,J4,J5,J6:0.000000,0.000000,0.000000,0.000000,0.000000,0.000000:0.250000,0.250000,0.250000,0.250000,0.250000,0.250000:pos_vel_
1550034285.838966,cobot_dynamixel_driver/goal|-:J1,J2,J3,J4,J5,J6:0.000000,0.000000,0.000000,0.000000,0.000000,0.000000:0.250000,0.250000,0.250000,0.250000,0.250000,0.250000:pos_vel_
1550034285.866916,cobot_dynamixel_driver/goal|-:J1,J2,J3,J4,J5,J6:0.000000,0.000000,0.000000,0.000000,0.000000,0.000000:0.250000,0.250000,0.250000,0.250000,0.250000,0.250000:pos_vel_
1550034285.896435,cobot_dynamixel_driver/goal|-:J1,J2,J3,J4,J5,J6:0.000000,0.000000,0.000000,0.000000,0.000000,0.000000:0.250000,0.250000,0.250000,0.250000,0.250000,0.250000:pos_vel_
1550034285.925016,cobot_dynamixel_driver/goal|-:J1,J2,J3,J4,J5,J6:0.000000,0.000000,0.000000,0.000000,0.000000,0.000000:0.250000,0.250000,0.250000,0.250000,0.250000,0.250000:pos_vel_
1550034285.954820,cobot_dynamixel_driver/goal|-:J1,J2,J3,J4,J5,J6:0.000000,0.000000,0.000000,0.000000,0.000000,0.000000:0.250000,0.250000,0.250000,0.250000,0.250000,0.250000:pos_vel_
1550034285.982898,cobot_dynamixel_driver/goal|-:J1,J2,J3,J4,J5,J6:0.000000,0.000000,0.000000,0.000000,0.000000,0.000000:0.250000,0.250000,0.250000,0.250000,0.250000,0.250000:pos_vel_
1550034286.011404,cobot_dynamixel_driver/goal|-:J1,J2,J3,J4,J5,J6:0.000000,0.000000,0.000000,0.000000,0.000000,0.000000:0.250000,0.250000,0.250000,0.250000,0.250000,0.250000:pos_vel_
1550034286.040578,cobot_dynamixel_driver/goal|-:J1,J2,J3,J4,J5,J6:0.000000,0.000000,0.000000,0.000000,0.000000,0.000000:0.250000,0.250000,0.250000,0.250000,0.250000,0.250000:pos_vel_
1550034286.068355,cobot_dynamixel_driver/goal|-:J1,J2,J3,J4,J5,J6:0.000000,0.000000,0.000000,0.000000,0.000000,0.000000:0.250000,0.250000,0.250000,0.250000,0.250000,0.250000:pos_vel_
1550034286.097130,cobot_dynamixel_driver/goal|-:J1,J2,J3,J4,J5,J6:0.000000,0.000000,0.000000,0.000000,0.000000,0.000000:0.250000,0.250000,0.250000,0.250000,0.250000,0.250000:pos_vel_
1550034286.125522,cobot_dynamixel_driver/goal|-:J1,J2,J3,J4,J5,J6:0.000000,0.000000,0.000000,0.000000,0.000000,0.000000:0.250000,0.250000,0.250000,0.250000,0.250000,0.250000:pos_vel_
1550034286.153977,cobot_dynamixel_driver/goal|-:J1,J2,J3,J4,J5,J6:0.000000,0.000000,0.000000,0.000000,0.000000,0.000000:0.250000,0.250000,0.250000,0.250000,0.250000,0.250000:pos_vel_
1550034286.182006,cobot_dynamixel_driver/goal|-:J1,J2,J3,J4,J5,J6:0.000000,0.000000,0.000000,0.000000,0.000000,0.000000:0.250000,0.250000,0.250000,0.250000,0.250000,0.250000:pos_vel_
1550034286.209983,cobot_dynamixel_driver/goal|-:J1,J2,J3,J4,J5,J6:0.000000,0.000000,0.000000,0.000000,0.000000,0.000000:0.250000,0.250000,0.250000,0.250000,0.250000,0.250000:pos_vel_
1550034286.238466,cobot_dynamixel_driver/goal|-:J1,J2,J3,J4,J5,J6:0.000000,0.000000,0.000000,0.000000,0.000000,0.000000:0.250000,0.250000,0.250000,0.250000,0.250000,0.250000:pos_vel_
1550034286.266017,cobot_dynamixel_driver/goal|-:J1,J2,J3,J4,J5,J6:0.000000,0.000000,0.000000,0.000000,0.000000,0.000000:0.250000,0.250000,0.250000,0.250000,0.250000,0.250000:pos_vel_
1550034286.294450,cobot_dynamixel_driver/goal|-:J1,J2,J3,J4,J5,J6:0.000000,0.000000,0.000000,0.000000,0.000000,0.000000:0.250000,0.250000,0.250000,0.250000,0.250000,0.250000:pos_vel_
1550034286.322460,cobot_dynamixel_driver/goal|-:J1,J2,J3,J4,J5,J6:0.000000,0.000000,0.000000,0.000000,0.000000,0.000000:0.250000,0.250000,0.250000,0.250000,0.250000,0.250000:pos_vel_
1550034286.350242,cobot_dynamixel_driver/goal|-:J1,J2,J3,J4,J5,J6:0.000000,0.000000,0.000000,0.000000,0.000000,0.000000:0.250000,0.250000,0.250000,0.250000,0.250000,0.250000:pos_vel_
1550034286.378670,cobot_dynamixel_driver/goal|-:J1,J2,J3,J4,J5,J6:0.000000,0.000000,0.000000,0.000000,0.000000,0.000000:0.250000,0.250000,0.250000,0.250000,0.250000,0.250000:pos_vel_
1550034286.406252,cobot_dynamixel_driver/goal|-:J1,J2,J3,J4,J5,J6:0.000000,0.000000,0.000000,0.000000,0.000000,0.000000:0.250000,0.250000,0.250000,0.250000,0.250000,0.250000:pos_vel_
1550034286.434844,cobot_dynamixel_driver/goal|-:J1,J2,J3,J4,J5,J6:0.000000,0.000000,0.000000,0.000000,0.000000,0.000000:0.250000,0.250000,0.250000,0.250000,0.250000,0.250000:pos_vel_
1550034286.463197,cobot_dynamixel_driver/goal|-:J1,J2,J3,J4,J5,J6:0.000000,0.000000,0.000000,0.000000,0.000000,0.000000:0.250000,0.250000,0.250000,0.250000,0.250000,0.250000:pos_vel_
1550034286.491496,cobot_dynamixel_driver/goal|-:J1,J2,J3,J4,J5,J6:0.000000,0.000000,0.000000,0.000000,0.000000,0.000000:0.250000,0.250000,0.250000,0.250000,0.250000,0.250000:pos_vel_
1550034286.520394,cobot_dynamixel_driver/goal|-:J1,J2,J3,J4,J5,J6:0.000000,0.000000,0.000000,0.000000,0.000000,0.000000:0.250000,0.250000,0.250000,0.250000,0.250000,0.250000:pos_vel_
1550034286.548627,cobot_dynamixel_driver/goal|-:J1,J2,J3,J4,J5,J6:0.000000,0.000000,0.000000,0.000000,0.000000,0.000000:0.250000,0.250000,0.250000,0.250000,0.250000,0.250000:pos_vel_
1550034286.578170,cobot_dynamixel_driver/goal|-:J1,J2,J3,J4,J5,J6:0.000000,0.000000,0.000000,0.000000,0.000000,0.000000:0.250000,0.250000,0.250000,0.250000,0.250000,0.250000:pos_vel_
1550034286.606317,cobot_dynamixel_driver/goal|-:J1,J2,J3,J4,J5,J6:0.000000,0.000000,0.000000,0.000000,0.000000,0.000000:0.250000,0.250000,0.250000,0.250000,0.250000,0.250000:pos_vel_
1550034286.635045,cobot_dynamixel_driver/goal|-:J1,J2,J3,J4,J5,J6:0.000000,0.000000,0.000000,0.000000,0.000000,0.000000:0.250000,0.250000,0.250000,0.250000,0.250000,0.250000:pos_vel_
1550034286.663903,cobot_dynamixel_driver/goal|-:J1,J2,J3,J4,J5,J6:0.000000,0.000000,0.000000,0.000000,0.000000,0.000000:0.250000,0.250000,0.250000,0.250000,0.250000,0.250000:pos_vel_
1550034286.692716,cobot_dynamixel_driver/goal|-:J1,J2,J3,J4,J5,J6:0.000000,0.000000,0.000000,0.000000,0.000000,0.000000:0.250000,0.250000,0.250000,0.250000,0.250000,0.250000:pos_vel_
1550034286.722432,cobot_dynamixel_driver/goal|-:J1,J2,J3,J4,J5,J6:0.000000,0.000000,0.000000,0.000000,0.000000,0.000000:0.250000,0.250000,0.250000,0.250000,0.250000,0.250000:pos_vel_
1550034286.750786,cobot_dynamixel_driver/goal|-:J1,J2,J3,J4,J5,J6:0.000000,0.000000,0.000000,0.000000,0.000000,0.000000:0.250000,0.250000,0.250000,0.250000,0.250000,0.250000:pos_vel_
1550034286.780556,cobot_dynamixel_driver/goal|-:J1,J2,J3,J4,J5,J6:0.000000,0.000000,0.000000,0.000000,0.000000,0.000000:0.250000,0.250000,0.250000,0.250000,0.250000,0.250000:pos_vel_
1550034286.809525,cobot_dynamixel_driver/goal|-:J1,J2,J3,J4,J5,J6:0.000000,0.000000,0.000000,0.000000,0.000000,0.000000:0.250000,0.250000,0.250000,0.250000,0.250000,0.250000:pos_vel_
1550034286.837210,cobot_dynamixel_driver/goal|-:J1,J2,J3,J4,J5,J6:0.000000,0.000000,0.000000,0.000000,0.000000,0.000000:0.250000,0.250000,0.250000,0.250000,0.250000,0.250000:pos_vel_
1550034286.864792,cobot_dynamixel_driver/goal|-:J1,J2,J3,J4,J5,J6:0.000000,0.000000,0.000000,0.000000,0.000000,0.000000:0.250000,0.250000,0.250000,0.250000,0.250000,0.250000:pos_vel_
1550034286.894491,cobot_dynamixel_driver/goal|-:J1,J2,J3,J4,J5,J6:0.000000,0.000000,0.000000,0.000000,0.000000,0.000000:0.250000,0.250000,0.250000,0.250000,0.250000,0.250000:pos_vel_
1550034286.923446,cobot_dynamixel_driver/goal|-:J1,J2,J3,J4,J5,J6:0.000000,0.000000,0.000000,0.000000,0.000000,0.000000:0.250000,0.250000,0.250000,0.250000,0.250000,0.250000:pos_vel_
1550034286.951511,cobot_dynamixel_driver/goal|-:J1,J2,J3,J4,J5,J6:0.000000,0.000000,0.000000,0.000000,0.000000,0.000000:0.250000,0.250000,0.250000,0.250000,0.250000,0.250000:pos_vel_
1550034286.980710,cobot_dynamixel_driver/goal|-:J1,J2,J3,J4,J5,J6:0.000000,0.000000,0.000000,0.000000,0.000000,0.000000:0.250000,0.250000,0.250000,0.250000,0.250000,0.250000:pos_vel_
1550034287.008749,cobot_dynamixel_driver/goal|-:J1,J2,J3,J4,J5,J6:0.000000,0.000000,0.000000,0.000000,0.000000,0.000000:0.250000,0.250000,0.250000,0.250000,0.250000,0.250000:pos_vel_
1550034287.037609,cobot_dynamixel_driver/goal|-:J1,J2,J3,J4,J5,J6:0.000000,0.000000,0.000000,0.000000,0.000000,0.000000:0.250000,0.250000,0.250000,0.250000,0.250000,0.250000:pos_vel_
1550034287.065864,cobot_dynamixel_driver/goal|-:J1,J2,J3,J4,J5,J6:0.000000,0.000000,0.000000,0.000000,0.000000,0.000000:0.250000,0.250000,0.250000,0.250000,0.250000,0.250000:pos_vel_
1550034287.094587,cobot_dynamixel_driver/goal|-:J1,J2,J3,J4,J5,J6:0.000000,0.000000,0.000000,0.000000,0.000000,0.000000:0.250000,0.250000,0.250000,0.250000,0.250000,0.250000:pos_vel_
1550034287.122732,cobot_dynamixel_driver/goal|-:J1,J2,J3,J4,J5,J6:0.000000,0.000000,0.000000,0.000000,0.000000,0.000000:0.250000,0.250000,0.250000,0.250000,0.250000,0.250000:pos_vel_
1550034287.151004,cobot_dynamixel_driver/goal|-:J1,J2,J3,J4,J5,J6:0.000000,0.000000,0.000000,0.000000,0.000000,0.000000:0.250000,0.250000,0.250000,0.250000,0.250000,0.250000:pos_vel_
1550034287.179362,cobot_dynamixel_driver/goal|-:J1,J2,J3,J4,J5,J6:0.000000,0.000000,0.000000,0.000000,0.000000,0.000000:0.250000,0.250000,0.250000,0.250000,0.250000,0.250000:pos_vel_
1550034287.208543,cobot_dynamixel_driver/goal|-:J1,J2,J3,J4,J5,J6:0.000000,0.000000,0.000000,0.000000,0.000000,0.000000:0.250000,0.250000,0.250000,0.250000,0.250000,0.250000:pos_vel_
1550034287.238310,cobot_dynamixel_driver/goal|-:J1,J2,J3,J4,J5,J6:0.000000,0.000000,0.000000,0.000000,0.000000,0.000000:0.250000,0.250000,0.250000,0.250000,0.250000,0.250000:pos_vel_
1550034287.267666,cobot_dynamixel_driver/goal|-:J1,J2,J3,J4,J5,J6:0.000000,0.000000,0.000000,0.000000,0.000000,0.000000:0.250000,0.250000,0.250000,0.250000,0.250000,0.250000:pos_vel_
1550034287.296059,cobot_dynamixel_driver/goal|-:J1,J2,J3,J4,J5,J6:0.000000,0.000000,0.000000,0.000000,0.000000,0.000000:0.250000,0.250000,0.250000,0.250000,0.250000,0.250000:pos_vel_
1550034287.323404,cobot_dynamixel_driver/goal|-:J1,J2,J3,J4,J5,J6:0.000000,0.000000,0.000000,0.000000,0.000000,0.000000:0.250000,0.250000,0.250000,0.250000,0.250000,0.250000:pos_vel_
1550034287.351676,cobot_dynamixel_driver/goal|-:J1,J2,J3,J4,J5,J6:0.000000,0.000000,0.000000,0.000000,0.000000,0.000000:0.250000,0.250000,0.250000,0.250000,0.250000,0.250000:pos_vel_
1550034287.380537,cobot_dynamixel_driver/goal|-:J1,J2,J3,J4,J5,J6:0.000000,0.000000,0.000000,0.000000,0.000000,0.000000:0.250000,0.250000,0.250000,0.250000,0.250000,0.250000:pos_vel_
1550034287.408528,cobot_dynamixel_driver/goal|-:J1,J2,J3,J4,J5,J6:0.000000,0.000000,0.000000,0.000000,0.000000,0.000000:0.250000,0.250000,0.250000,0.250000,0.250000,0.250000:pos_vel_
1550034287.437107,cobot_dynamixel_driver/goal|-:J1,J2,J3,J4,J5,J6:0.000000,0.000000,0.000000,0.000000,0.000000,0.000000:0.250000,0.250000,0.250000,0.250000,0.250000,0.250000:pos_vel_
1550034287.464560,cobot_dynamixel_driver/goal|-:J1,J2,J3,J4,J5,J6:0.000000,0.000000,0.000000,0.000000,0.000000,0.000000:0.250000,0.250000,0.250000,0.250000,0.250000,0.250000:pos_vel_
1550034287.493834,cobot_dynamixel_driver/goal|-:J1,J2,J3,J4,J5,J6:0.000000,0.000000,0.000000,0.000000,0.000000,0.000000:0.250000,0.250000,0.250000,0.250000,0.250000,0.250000:pos_vel_
1550034287.522203,cobot_dynamixel_driver/goal|-:J1,J2,J3,J4,J5,J6:0.000000,0.000000,0.000000,0.000000,0.000000,0.000000:0.250000,0.250000,0.250000,0.250000,0.250000,0.250000:pos_vel_
1550034287.550916,cobot_dynamixel_driver/goal|-:J1,J2,J3,J4,J5,J6:0.000000,0.000000,0.000000,0.000000,0.000000,0.000000:0.250000,0.250000,0.250000,0.250000,0.250000,0.250000:pos_vel_
1550034287.579570,cobot_dynamixel_driver/goal|-:J1,J2,J3,J4,J5,J6:0.000000,0.000000,0.000000,0.000000,0.000000,0.000000:0.250000,0.250000,0.250000,0.250000,0.250000,0.250000:pos_vel_
1550034287.607704,cobot_dynamixel_driver/goal|-:J1,J2,J3,J4,J5,J6:0.000000,0.000000,0.000000,0.000000,0.000000,0.000000:0.250000,0.250000,0.250000,0.250000,0.250000,0.250000:pos_vel_
1550034287.636414,cobot_dynamixel_driver/goal|-:J1,J2,J3,J4,J5,J6:0.000000,0.000000,0.000000,0.000000,0.000000,0.000000:0.250000,0.250000,0.250000,0.250000,0.250000,0.250000:pos_vel_
1550034287.665049,cobot_dynamixel_driver/goal|-:J1,J2,J3,J4,J5,J6:0.000000,0.000000,0.000000,0.000000,0.000000,0.000000:0.250000,0.250000,0.250000,0.250000,0.250000,0.250000:pos_vel_
1550034287.692972,cobot_dynamixel_driver/goal|-:J1,J2,J3,J4,J5,J6:0.000000,0.000000,0.000000,0.000000,0.000000,0.000000:0.250000,0.250000,0.250000,0.250000,0.250000,0.250000:pos_vel_
1550034287.720468,cobot_dynamixel_driver/goal|-:J1,J2,J3,J4,J5,J6:0.000000,0.000000,0.000000,0.000000,0.000000,0.000000:0.250000,0.250000,0.250000,0.250000,0.250000,0.250000:pos_vel_
1550034287.748487,cobot_dynamixel_driver/goal|-:J1,J2,J3,J4,J5,J6:0.000000,0.000000,0.000000,0.000000,0.000000,0.000000:0.250000,0.250000,0.250000,0.250000,0.250000,0.250000:pos_vel_
1550034287.777285,cobot_dynamixel_driver/goal|-:J1,J2,J3,J4,J5,J6:0.000000,0.000000,0.000000,0.000000,0.000000,0.000000:0.250000,0.250000,0.250000,0.250000,0.250000,0.250000:pos_vel_
1550034287.805522,cobot_dynamixel_driver/goal|-:J1,J2,J3,J4,J5,J6:0.000000,0.000000,0.000000,0.000000,0.000000,0.000000:0.250000,0.250000,0.250000,0.250000,0.250000,0.250000:pos_vel_
1550034287.834126,cobot_dynamixel_driver/goal|-:J1,J2,J3,J4,J5,J6:0.000000,0.000000,0.000000,0.000000,0.000000,0.000000:0.250000,0.250000,0.250000,0.250000,0.250000,0.250000:pos_vel_
1550034287.862424,cobot_dynamixel_driver/goal|-:J1,J2,J3,J4,J5,J6:0.000000,0.000000,0.000000,0.000000,0.000000,0.000000:0.250000,0.250000,0.250000,0.250000,0.250000,0.250000:pos_vel_
1550034287.890538,cobot_dynamixel_driver/goal|-:J1,J2,J3,J4,J5,J6:0.000000,0.000000,0.000000,0.000000,0.000000,0.000000:0.250000,0.250000,0.250000,0.250000,0.250000,0.250000:pos_vel_
1550034287.919526,cobot_dynamixel_driver/goal|-:J1,J2,J3,J4,J5,J6:0.000000,0.000000,0.000000,0.000000,0.000000,0.000000:0.250000,0.250000,0.250000,0.250000,0.250000,0.250000:pos_vel_
1550034287.947531,cobot_dynamixel_driver/goal|-:J1,J2,J3,J4,J5,J6:0.000000,0.000000,0.000000,0.000000,0.000000,0.000000:0.250000,0.250000,0.250000,0.250000,0.250000,0.250000:pos_vel_
1550034287.976273,cobot_dynamixel_driver/goal|-:J1,J2,J3,J4,J5,J6:0.000000,0.000000,0.000000,0.000000,0.000000,0.000000:0.250000,0.250000,0.250000,0.250000,0.250000,0.250000:pos_vel_
1550034288.004843,cobot_dynamixel_driver/goal|-:J1,J2,J3,J4,J5,J6:0.000000,0.000000,0.000000,0.000000,0.000000,0.000000:0.250000,0.250000,0.250000,0.250000,0.250000,0.250000:pos_vel_
1550034288.033500,cobot_dynamixel_driver/goal|-:J1,J2,J3,J4,J5,J6:0.000000,0.000000,0.000000,0.000000,0.000000,0.000000:0.250000,0.250000,0.250000,0.250000,0.250000,0.250000:pos_vel_
1550034288.061444,cobot_dynamixel_driver/goal|-:J1,J2,J3,J4,J5,J6:0.000000,0.000000,0.000000,0.000000,0.000000,0.000000:0.250000,0.250000,0.250000,0.250000,0.250000,0.250000:pos_vel_
1550034288.089401,cobot_dynamixel_driver/goal|-:J1,J2,J3,J4,J5,J6:0.000000,0.000000,0.000000,0.000000,0.000000,0.000000:0.250000,0.250000,0.250000,0.250000,0.250000,0.250000:pos_vel_
1550034288.118248,cobot_dynamixel_driver/goal|-:J1,J2,J3,J4,J5,J6:0.000000,0.000000,0.000000,0.000000,0.000000,0.000000:0.250000,0.250000,0.250000,0.250000,0.250000,0.250000:pos_vel_
1550034288.146358,cobot_dynamixel_driver/goal|-:J2:477.785807:eff_
1550034288.146358,cobot_dynamixel_driver/goal|-:J2:477.785807:eff_
1550034288.237686,cobot_dynamixel_driver/goal|-:J2:477.785807:eff_
1550034330.049009,cobot_dynamixel_driver/goal|-:J1,J2,J3,J4,J5,J6:0.000000,0.000000,0.000000,0.000000,0.000000,0.000000:0.500000,0.500000,0.500000,0.500000,0.500000,0.500000:pos_vel_
1550034515.204032,cobot_dynamixel_driver/goal|-:J1,J2,J3,J4,J5,J6:0.000000,0.000000,0.000000,0.000000,0.000000,0.000000:0.500000,0.500000,0.500000,0.500000,0.500000,0.500000:pos_vel_
1550034515.367381,cobot_dynamixel_driver/goal|-:J1,J2,J3,J4,J5,J6:0.000000,0.000000,0.000000,0.000000,0.000000,0.000000:0.500000,0.500000,0.500000,0.500000,0.500000,0.500000:pos_vel_
1550034520.043758,cobot_dynamixel_driver/goal|-:J1,J2,J3,J4,J5,J6:0.000000,0.000000,0.000000,0.000000,0.000000,0.000000:0.250000,0.250000,0.250000,0.250000,0.250000,0.250000:pos_vel_
1550034520.071730,cobot_dynamixel_driver/goal|-:J1,J2,J3,J4,J5,J6:0.000000,0.000000,0.000000,0.000000,0.000000,0.000000:0.250000,0.250000,0.250000,0.250000,0.250000,0.250000:pos_vel_
1550034520.099816,cobot_dynamixel_driver/goal|-:J1,J2,J3,J4,J5,J6:0.000000,0.000000,0.000000,0.000000,0.000000,0.000000:0.250000,0.250000,0.250000,0.250000,0.250000,0.250000:pos_vel_
1550034520.128315,cobot_dynamixel_driver/goal|-:J1,J2,J3,J4,J5,J6:0.000000,0.000000,0.000000,0.000000,0.000000,0.000000:0.250000,0.250000,0.250000,0.250000,0.250000,0.250000:pos_vel_
1550034520.158228,cobot_dynamixel_driver/goal|-:J1,J2,J3,J4,J5,J6:0.000000,0.000000,0.000000,0.000000,0.000000,0.000000:0.250000,0.250000,0.250000,0.250000,0.250000,0.250000:pos_vel_
1550034520.187310,cobot_dynamixel_driver/goal|-:J1,J2,J3,J4,J5,J6:0.000000,0.000000,0.000000,0.000000,0.000000,0.000000:0.250000,0.250000,0.250000,0.250000,0.250000,0.250000:pos_vel_
1550034520.217351,cobot_dynamixel_driver/goal|-:J1,J2,J3,J4,J5,J6:0.000000,0.000000,0.000000,0.000000,0.000000,0.000000:0.250000,0.250000,0.250000,0.250000,0.250000,0.250000:pos_vel_
1550034520.245993,cobot_dynamixel_driver/goal|-:J1,J2,J3,J4,J5,J6:0.000000,0.000000,0.000000,0.000000,0.000000,0.000000:0.250000,0.250000,0.250000,0.250000,0.250000,0.250000:pos_vel_
1550034520.275293,cobot_dynamixel_driver/goal|-:J1,J2,J3,J4,J5,J6:0.000000,0.000000,0.000000,0.000000,0.000000,0.000000:0.250000,0.250000,0.250000,0.250000,0.250000,0.250000:pos_vel_
1550034520.304151,cobot_dynamixel_driver/goal|-:J1,J2,J3,J4,J5,J6:0.000000,0.000000,0.000000,0.000000,0.000000,0.000000:0.250000,0.250000,0.250000,0.250000,0.250000,0.250000:pos_vel_
1550034520.334270,cobot_dynamixel_driver/goal|-:J1,J2,J3,J4,J5,J6:0.000000,0.000000,0.000000,0.000000,0.000000,0.000000:0.250000,0.250000,0.250000,0.250000,0.250000,0.250000:pos_vel_
1550034520.362369,cobot_dynamixel_driver/goal|-:J1,J2,J3,J4,J5,J6:0.000000,0.000000,0.000000,0.000000,0.000000,0.000000:0.250000,0.250000,0.250000,0.250000,0.250000,0.250000:pos_vel_
1550034520.390379,cobot_dynamixel_driver/goal|-:J1,J2,J3,J4,J5,J6:0.000000,0.000000,0.000000,0.000000,0.000000,0.000000:0.250000,0.250000,0.250000,0.250000,0.250000,0.250000:pos_vel_
1550034520.420189,cobot_dynamixel_driver/goal|-:J1,J2,J3,J4,J5,J6:0.000000,0.000000,0.000000,0.000000,0.000000,0.000000:0.250000,0.250000,0.250000,0.250000,0.250000,0.250000:pos_vel_
1550034520.449601,cobot_dynamixel_driver/goal|-:J1,J2,J3,J4,J5,J6:0.000000,0.000000,0.000000,0.000000,0.000000,0.000000:0.250000,0.250000,0.250000,0.250000,0.250000,0.250000:pos_vel_
1550034520.478955,cobot_dynamixel_driver/goal|-:J1,J2,J3,J4,J5,J6:0.000000,0.000000,0.000000,0.000000,0.000000,0.000000:0.250000,0.250000,0.250000,0.250000,0.250000,0.250000:pos_vel_
1550034520.506341,cobot_dynamixel_driver/goal|-:J1,J2,J3,J4,J5,J6:0.000000,0.000000,0.000000,0.000000,0.000000,0.000000:0.250000,0.250000,0.250000,0.250000,0.250000,0.250000:pos_vel_
1550034520.534549,cobot_dynamixel_driver/goal|-:J1,J2,J3,J4,J5,J6:0.000000,0.000000,0.000000,0.000000,0.000000,0.000000:0.250000,0.250000,0.250000,0.250000,0.250000,0.250000:pos_vel_
1550034520.562293,cobot_dynamixel_driver/goal|-:J1,J2,J3,J4,J5,J6:0.000000,0.000000,0.000000,0.000000,0.000000,0.000000:0.250000,0.250000,0.250000,0.250000,0.250000,0.250000:pos_vel_
1550034520.590482,cobot_dynamixel_driver/goal|-:J1,J2,J3,J4,J5,J6:0.000000,0.000000,0.000000,0.000000,0.000000,0.000000:0.250000,0.250000,0.250000,0.250000,0.250000,0.250000:pos_vel_
1550034520.618929,cobot_dynamixel_driver/goal|-:J1,J2,J3,J4,J5,J6:0.000000,0.000000,0.000000,0.000000,0.000000,0.000000:0.250000,0.250000,0.250000,0.250000,0.250000,0.250000:pos_vel_
1550034520.646795,cobot_dynamixel_driver/goal|-:J1,J2,J3,J4,J5,J6:0.000000,0.000000,0.000000,0.000000,0.000000,0.000000:0.250000,0.250000,0.250000,0.250000,0.250000,0.250000:pos_vel_
1550034520.675714,cobot_dynamixel_driver/goal|-:J1,J2,J3,J4,J5,J6:0.000000,0.000000,0.000000,0.000000,0.000000,0.000000:0.250000,0.250000,0.250000,0.250000,0.250000,0.250000:pos_vel_
1550034520.703913,cobot_dynamixel_driver/goal|-:J1,J2,J3,J4,J5,J6:0.000000,0.000000,0.000000,0.000000,0.000000,0.000000:0.250000,0.250000,0.250000,0.250000,0.250000,0.250000:pos_vel_
1550034520.733074,cobot_dynamixel_driver/goal|-:J1,J2,J3,J4,J5,J6:0.000000,0.000000,0.000000,0.000000,0.000000,0.000000:0.250000,0.250000,0.250000,0.250000,0.250000,0.250000:pos_vel_
1550034520.760913,cobot_dynamixel_driver/goal|-:J1,J2,J3,J4,J5,J6:0.000000,0.000000,0.000000,0.000000,0.000000,0.000000:0.250000,0.250000,0.250000,0.250000,0.250000,0.250000:pos_vel_
1550034520.788873,cobot_dynamixel_driver/goal|-:J1,J2,J3,J4,J5,J6:0.000000,0.000000,0.000000,0.000000,0.000000,0.000000:0.250000,0.250000,0.250000,0.250000,0.250000,0.250000:pos_vel_
1550034520.817317,cobot_dynamixel_driver/goal|-:J1,J2,J3,J4,J5,J6:0.000000,0.000000,0.000000,0.000000,0.000000,0.000000:0.250000,0.250000,0.250000,0.250000,0.250000,0.250000:pos_vel_
1550034520.845805,cobot_dynamixel_driver/goal|-:J1,J2,J3,J4,J5,J6:0.000000,0.000000,0.000000,0.000000,0.000000,0.000000:0.250000,0.250000,0.250000,0.250000,0.250000,0.250000:pos_vel_
1550034520.874806,cobot_dynamixel_driver/goal|-:J1,J2,J3,J4,J5,J6:0.000000,0.000000,0.000000,0.000000,0.000000,0.000000:0.250000,0.250000,0.250000,0.250000,0.250000,0.250000:pos_vel_
1550034520.902919,cobot_dynamixel_driver/goal|-:J1,J2,J3,J4,J5,J6:0.000000,0.000000,0.000000,0.000000,0.000000,0.000000:0.250000,0.250000,0.250000,0.250000,0.250000,0.250000:pos_vel_
1550034520.931155,cobot_dynamixel_driver/goal|-:J1,J2,J3,J4,J5,J6:0.000000,0.000000,0.000000,0.000000,0.000000,0.000000:0.250000,0.250000,0.250000,0.250000,0.250000,0.250000:pos_vel_
1550034520.959983,cobot_dynamixel_driver/goal|-:J1,J2,J3,J4,J5,J6:0.000000,0.000000,0.000000,0.000000,0.000000,0.000000:0.250000,0.250000,0.250000,0.250000,0.250000,0.250000:pos_vel_
1550034520.987893,cobot_dynamixel_driver/goal|-:J1,J2,J3,J4,J5,J6:0.000000,0.000000,0.000000,0.000000,0.000000,0.000000:0.250000,0.250000,0.250000,0.250000,0.250000,0.250000:pos_vel_
1550034521.016680,cobot_dynamixel_driver/goal|-:J1,J2,J3,J4,J5,J6:0.000000,0.000000,0.000000,0.000000,0.000000,0.000000:0.250000,0.250000,0.250000,0.250000,0.250000,0.250000:pos_vel_
1550034521.045115,cobot_dynamixel_driver/goal|-:J1,J2,J3,J4,J5,J6:0.000000,0.000000,0.000000,0.000000,0.000000,0.000000:0.250000,0.250000,0.250000,0.250000,0.250000,0.250000:pos_vel_
1550034521.073960,cobot_dynamixel_driver/goal|-:J1,J2,J3,J4,J5,J6:0.000000,0.000000,0.000000,0.000000,0.000000,0.000000:0.250000,0.250000,0.250000,0.250000,0.250000,0.250000:pos_vel_
1550034521.101702,cobot_dynamixel_driver/goal|-:J1,J2,J3,J4,J5,J6:0.000000,0.000000,0.000000,0.000000,0.000000,0.000000:0.250000,0.250000,0.250000,0.250000,0.250000,0.250000:pos_vel_
1550034521.129931,cobot_dynamixel_driver/goal|-:J1,J2,J3,J4,J5,J6:0.000000,0.000000,0.000000,0.000000,0.000000,0.000000:0.250000,0.250000,0.250000,0.250000,0.250000,0.250000:pos_vel_
1550034521.158715,cobot_dynamixel_driver/goal|-:J1,J2,J3,J4,J5,J6:0.000000,0.000000,0.000000,0.000000,0.000000,0.000000:0.250000,0.250000,0.250000,0.250000,0.250000,0.250000:pos_vel_
1550034521.186828,cobot_dynamixel_driver/goal|-:J1,J2,J3,J4,J5,J6:0.000000,0.000000,0.000000,0.000000,0.000000,0.000000:0.250000,0.250000,0.250000,0.250000,0.250000,0.250000:pos_vel_
1550034521.215708,cobot_dynamixel_driver/goal|-:J1,J2,J3,J4,J5,J6:0.000000,0.000000,0.000000,0.000000,0.000000,0.000000:0.250000,0.250000,0.250000,0.250000,0.250000,0.250000:pos_vel_
1550034521.244057,cobot_dynamixel_driver/goal|-:J1,J2,J3,J4,J5,J6:0.000000,0.000000,0.000000,0.000000,0.000000,0.000000:0.250000,0.250000,0.250000,0.250000,0.250000,0.250000:pos_vel_
1550034521.272627,cobot_dynamixel_driver/goal|-:J1,J2,J3,J4,J5,J6:0.000000,0.000000,0.000000,0.000000,0.000000,0.000000:0.250000,0.250000,0.250000,0.250000,0.250000,0.250000:pos_vel_
1550034521.300721,cobot_dynamixel_driver/goal|-:J1,J2,J3,J4,J5,J6:0.000000,0.000000,0.000000,0.000000,0.000000,0.000000:0.250000,0.250000,0.250000,0.250000,0.250000,0.250000:pos_vel_
1550034521.328881,cobot_dynamixel_driver/goal|-:J1,J2,J3,J4,J5,J6:0.000000,0.000000,0.000000,0.000000,0.000000,0.000000:0.250000,0.250000,0.250000,0.250000,0.250000,0.250000:pos_vel_
1550034521.357472,cobot_dynamixel_driver/goal|-:J1,J2,J3,J4,J5,J6:0.000000,0.000000,0.000000,0.000000,0.000000,0.000000:0.250000,0.250000,0.250000,0.250000,0.250000,0.250000:pos_vel_
1550034521.385748,cobot_dynamixel_driver/goal|-:J1,J2,J3,J4,J5,J6:0.000000,0.000000,0.000000,0.000000,0.000000,0.000000:0.250000,0.250000,0.250000,0.250000,0.250000,0.250000:pos_vel_
1550034521.414749,cobot_dynamixel_driver/goal|-:J1,J2,J3,J4,J5,J6:0.000000,0.000000,0.000000,0.000000,0.000000,0.000000:0.250000,0.250000,0.250000,0.250000,0.250000,0.250000:pos_vel_
1550034521.442690,cobot_dynamixel_driver/goal|-:J1,J2,J3,J4,J5,J6:0.000000,0.000000,0.000000,0.000000,0.000000,0.000000:0.250000,0.250000,0.250000,0.250000,0.250000,0.250000:pos_vel_
1550034521.470570,cobot_dynamixel_driver/goal|-:J1,J2,J3,J4,J5,J6:0.000000,0.000000,0.000000,0.000000,0.000000,0.000000:0.250000,0.250000,0.250000,0.250000,0.250000,0.250000:pos_vel_
1550034521.499475,cobot_dynamixel_driver/goal|-:J1,J2,J3,J4,J5,J6:0.000000,0.000000,0.000000,0.000000,0.000000,0.000000:0.250000,0.250000,0.250000,0.250000,0.250000,0.250000:pos_vel_
1550034521.527798,cobot_dynamixel_driver/goal|-:J1,J2,J3,J4,J5,J6:0.000000,0.000000,0.000000,0.000000,0.000000,0.000000:0.250000,0.250000,0.250000,0.250000,0.250000,0.250000:pos_vel_
1550034521.556474,cobot_dynamixel_driver/goal|-:J1,J2,J3,J4,J5,J6:0.000000,0.000000,0.000000,0.000000,0.000000,0.000000:0.250000,0.250000,0.250000,0.250000,0.250000,0.250000:pos_vel_
1550034521.584798,cobot_dynamixel_driver/goal|-:J1,J2,J3,J4,J5,J6:0.000000,0.000000,0.000000,0.000000,0.000000,0.000000:0.250000,0.250000,0.250000,0.250000,0.250000,0.250000:pos_vel_
1550034521.613552,cobot_dynamixel_driver/goal|-:J1,J2,J3,J4,J5,J6:0.000000,0.000000,0.000000,0.000000,0.000000,0.000000:0.250000,0.250000,0.250000,0.250000,0.250000,0.250000:pos_vel_
1550034521.641901,cobot_dynamixel_driver/goal|-:J1,J2,J3,J4,J5,J6:0.000000,0.000000,0.000000,0.000000,0.000000,0.000000:0.250000,0.250000,0.250000,0.250000,0.250000,0.250000:pos_vel_
1550034521.669738,cobot_dynamixel_driver/goal|-:J1,J2,J3,J4,J5,J6:0.000000,0.000000,0.000000,0.000000,0.000000,0.000000:0.250000,0.250000,0.250000,0.250000,0.250000,0.250000:pos_vel_
1550034521.698660,cobot_dynamixel_driver/goal|-:J1,J2,J3,J4,J5,J6:0.000000,0.000000,0.000000,0.000000,0.000000,0.000000:0.250000,0.250000,0.250000,0.250000,0.250000,0.250000:pos_vel_
1550034521.726676,cobot_dynamixel_driver/goal|-:J1,J2,J3,J4,J5,J6:0.000000,0.000000,0.000000,0.000000,0.000000,0.000000:0.250000,0.250000,0.250000,0.250000,0.250000,0.250000:pos_vel_
1550034521.755373,cobot_dynamixel_driver/goal|-:J1,J2,J3,J4,J5,J6:0.000000,0.000000,0.000000,0.000000,0.000000,0.000000:0.250000,0.250000,0.250000,0.250000,0.250000,0.250000:pos_vel_
1550034521.783818,cobot_dynamixel_driver/goal|-:J1,J2,J3,J4,J5,J6:0.000000,0.000000,0.000000,0.000000,0.000000,0.000000:0.250000,0.250000,0.250000,0.250000,0.250000,0.250000:pos_vel_
1550034521.811591,cobot_dynamixel_driver/goal|-:J1,J2,J3,J4,J5,J6:0.000000,0.000000,0.000000,0.000000,0.000000,0.000000:0.250000,0.250000,0.250000,0.250000,0.250000,0.250000:pos_vel_
1550034521.839342,cobot_dynamixel_driver/goal|-:J1,J2,J3,J4,J5,J6:0.000000,0.000000,0.000000,0.000000,0.000000,0.000000:0.250000,0.250000,0.250000,0.250000,0.250000,0.250000:pos_vel_
1550034521.867480,cobot_dynamixel_driver/goal|-:J1,J2,J3,J4,J5,J6:0.000000,0.000000,0.000000,0.000000,0.000000,0.000000:0.250000,0.250000,0.250000,0.250000,0.250000,0.250000:pos_vel_
1550034521.896223,cobot_dynamixel_driver/goal|-:J1,J2,J3,J4,J5,J6:0.000000,0.000000,0.000000,0.000000,0.000000,0.000000:0.250000,0.250000,0.250000,0.250000,0.250000,0.250000:pos_vel_
1550034521.924312,cobot_dynamixel_driver/goal|-:J1,J2,J3,J4,J5,J6:0.000000,0.000000,0.000000,0.000000,0.000000,0.000000:0.250000,0.250000,0.250000,0.250000,0.250000,0.250000:pos_vel_
1550034521.954166,cobot_dynamixel_driver/goal|-:J1,J2,J3,J4,J5,J6:0.000000,0.000000,0.000000,0.000000,0.000000,0.000000:0.250000,0.250000,0.250000,0.250000,0.250000,0.250000:pos_vel_
1550034521.982367,cobot_dynamixel_driver/goal|-:J1,J2,J3,J4,J5,J6:0.000000,0.000000,0.000000,0.000000,0.000000,0.000000:0.250000,0.250000,0.250000,0.250000,0.250000,0.250000:pos_vel_
1550034522.010762,cobot_dynamixel_driver/goal|-:J1,J2,J3,J4,J5,J6:0.000000,0.000000,0.000000,0.000000,0.000000,0.000000:0.250000,0.250000,0.250000,0.250000,0.250000,0.250000:pos_vel_
1550034522.039501,cobot_dynamixel_driver/goal|-:J1,J2,J3,J4,J5,J6:0.000000,0.000000,0.000000,0.000000,0.000000,0.000000:0.250000,0.250000,0.250000,0.250000,0.250000,0.250000:pos_vel_
1550034522.067978,cobot_dynamixel_driver/goal|-:J1,J2,J3,J4,J5,J6:0.000000,0.000000,0.000000,0.000000,0.000000,0.000000:0.250000,0.250000,0.250000,0.250000,0.250000,0.250000:pos_vel_
1550034522.096482,cobot_dynamixel_driver/goal|-:J1,J2,J3,J4,J5,J6:0.000000,0.000000,0.000000,0.000000,0.000000,0.000000:0.250000,0.250000,0.250000,0.250000,0.250000,0.250000:pos_vel_
1550034522.125687,cobot_dynamixel_driver/goal|-:J1,J2,J3,J4,J5,J6:0.000000,0.000000,0.000000,0.000000,0.000000,0.000000:0.250000,0.250000,0.250000,0.250000,0.250000,0.250000:pos_vel_
1550034522.155305,cobot_dynamixel_driver/goal|-:J1,J2,J3,J4,J5,J6:0.000000,0.000000,0.000000,0.000000,0.000000,0.000000:0.250000,0.250000,0.250000,0.250000,0.250000,0.250000:pos_vel_
1550034522.183645,cobot_dynamixel_driver/goal|-:J1,J2,J3,J4,J5,J6:0.000000,0.000000,0.000000,0.000000,0.000000,0.000000:0.250000,0.250000,0.250000,0.250000,0.250000,0.250000:pos_vel_
1550034522.212673,cobot_dynamixel_driver/goal|-:J1,J2,J3,J4,J5,J6:0.000000,0.000000,0.000000,0.000000,0.000000,0.000000:0.250000,0.250000,0.250000,0.250000,0.250000,0.250000:pos_vel_
1550034522.241015,cobot_dynamixel_driver/goal|-:J1,J2,J3,J4,J5,J6:0.000000,0.000000,0.000000,0.000000,0.000000,0.000000:0.250000,0.250000,0.250000,0.250000,0.250000,0.250000:pos_vel_
1550034522.268807,cobot_dynamixel_driver/goal|-:J1,J2,J3,J4,J5,J6:0.000000,0.000000,0.000000,0.000000,0.000000,0.000000:0.250000,0.250000,0.250000,0.250000,0.250000,0.250000:pos_vel_
1550034522.297434,cobot_dynamixel_driver/goal|-:J1,J2,J3,J4,J5,J6:0.000000,0.000000,0.000000,0.000000,0.000000,0.000000:0.250000,0.250000,0.250000,0.250000,0.250000,0.250000:pos_vel_
1550034522.325888,cobot_dynamixel_driver/goal|-:J1,J2,J3,J4,J5,J6:0.000000,0.000000,0.000000,0.000000,0.000000,0.000000:0.250000,0.250000,0.250000,0.250000,0.250000,0.250000:pos_vel_
1550034522.354460,cobot_dynamixel_driver/goal|-:J1,J2,J3,J4,J5,J6:0.000000,0.000000,0.000000,0.000000,0.000000,0.000000:0.250000,0.250000,0.250000,0.250000,0.250000,0.250000:pos_vel_
1550034522.382973,cobot_dynamixel_driver/goal|-:J1,J2,J3,J4,J5,J6:0.000000,0.000000,0.000000,0.000000,0.000000,0.000000:0.250000,0.250000,0.250000,0.250000,0.250000,0.250000:pos_vel_
1550034522.411368,cobot_dynamixel_driver/goal|-:J1,J2,J3,J4,J5,J6:0.000000,0.000000,0.000000,0.000000,0.000000,0.000000:0.250000,0.250000,0.250000,0.250000,0.250000,0.250000:pos_vel_
1550034522.439844,cobot_dynamixel_driver/goal|-:J1,J2,J3,J4,J5,J6:0.000000,0.000000,0.000000,0.000000,0.000000,0.000000:0.250000,0.250000,0.250000,0.250000,0.250000,0.250000:pos_vel_
1550034522.468155,cobot_dynamixel_driver/goal|-:J1,J2,J3,J4,J5,J6:0.000000,0.000000,0.000000,0.000000,0.000000,0.000000:0.250000,0.250000,0.250000,0.250000,0.250000,0.250000:pos_vel_
1550034522.497001,cobot_dynamixel_driver/goal|-:J1,J2,J3,J4,J5,J6:0.000000,0.000000,0.000000,0.000000,0.000000,0.000000:0.250000,0.250000,0.250000,0.250000,0.250000,0.250000:pos_vel_
1550034522.524812,cobot_dynamixel_driver/goal|-:J1,J2,J3,J4,J5,J6:0.000000,0.000000,0.000000,0.000000,0.000000,0.000000:0.250000,0.250000,0.250000,0.250000,0.250000,0.250000:pos_vel_
1550034522.553502,cobot_dynamixel_driver/goal|-:J1,J2,J3,J4,J5,J6:0.000000,0.000000,0.000000,0.000000,0.000000,0.000000:0.250000,0.250000,0.250000,0.250000,0.250000,0.250000:pos_vel_
1550034522.581852,cobot_dynamixel_driver/goal|-:J1,J2,J3,J4,J5,J6:0.000000,0.000000,0.000000,0.000000,0.000000,0.000000:0.250000,0.250000,0.250000,0.250000,0.250000,0.250000:pos_vel_
1550034522.609884,cobot_dynamixel_driver/goal|-:J1,J2,J3,J4,J5,J6:0.000000,0.000000,0.000000,0.000000,0.000000,0.000000:0.250000,0.250000,0.250000,0.250000,0.250000,0.250000:pos_vel_
1550034522.638804,cobot_dynamixel_driver/goal|-:J1,J2,J3,J4,J5,J6:0.000000,0.000000,0.000000,0.000000,0.000000,0.000000:0.250000,0.250000,0.250000,0.250000,0.250000,0.250000:pos_vel_
1550034522.667027,cobot_dynamixel_driver/goal|-:J1,J2,J3,J4,J5,J6:0.000000,0.000000,0.000000,0.000000,0.000000,0.000000:0.250000,0.250000,0.250000,0.250000,0.250000,0.250000:pos_vel_
1550034522.695989,cobot_dynamixel_driver/goal|-:J1,J2,J3,J4,J5,J6:0.000000,0.000000,0.000000,0.000000,0.000000,0.000000:0.250000,0.250000,0.250000,0.250000,0.250000,0.250000:pos_vel_
1550034522.723865,cobot_dynamixel_driver/goal|-:J1,J2,J3,J4,J5,J6:0.000000,0.000000,0.000000,0.000000,0.000000,0.000000:0.250000,0.250000,0.250000,0.250000,0.250000,0.250000:pos_vel_
1550034522.752427,cobot_dynamixel_driver/goal|-:J1,J2,J3,J4,J5,J6:0.000000,0.000000,0.000000,0.000000,0.000000,0.000000:0.250000,0.250000,0.250000,0.250000,0.250000,0.250000:pos_vel_
1550034522.780860,cobot_dynamixel_driver/goal|-:J2:477.804961:eff_
1550034522.872043,cobot_dynamixel_driver/goal|-:J2:477.804961:eff_
1550034522.901639,cobot_dynamixel_driver/goal|-:J2:433.264297:eff_
1550034522.929734,cobot_dynamixel_driver/goal|-:J2:529.545252:eff_
1550034522.957656,cobot_dynamixel_driver/goal|-:J2:529.738324:eff_
1550034522.985330,cobot_dynamixel_driver/goal|-:J2:529.738324:eff_
1550034523.012732,cobot_dynamixel_driver/goal|-:J2:529.719017:eff_
1550034523.040450,cobot_dynamixel_driver/goal|-:J2:529.719017:eff_
1550034523.068315,cobot_dynamixel_driver/goal|-:J2:529.719017:eff_
1550034523.095516,cobot_dynamixel_driver/goal|-:J2:529.719017:eff_
1550034523.123333,cobot_dynamixel_driver/goal|-:J2:481.562743:eff_
1550034523.150500,cobot_dynamixel_driver/goal|-:J2:481.562743:eff_
1550034523.178241,cobot_dynamixel_driver/goal|-:J2:481.562743:eff_
1550034523.205241,cobot_dynamixel_driver/goal|-:J2:481.562743:eff_
1550034523.232715,cobot_dynamixel_driver/goal|-:J2:481.562743:eff_
1550034523.260545,cobot_dynamixel_driver/goal|-:J2:481.562743:eff_
1550034523.288659,cobot_dynamixel_driver/goal|-:J2:433.406469:eff_
1550034523.317005,cobot_dynamixel_driver/goal|-:J2:433.406469:eff_
1550034523.344611,cobot_dynamixel_driver/goal|-:J2:433.406469:eff_
1550034523.373074,cobot_dynamixel_driver/goal|-:J2:433.422265:eff_
1550034523.400548,cobot_dynamixel_driver/goal|-:J2:481.580295:eff_
1550034523.428669,cobot_dynamixel_driver/goal|-:J2:481.580295:eff_
1550034523.457191,cobot_dynamixel_driver/goal|-:J2:481.580295:eff_
1550034523.484561,cobot_dynamixel_driver/goal|-:J2:481.580295:eff_
1550034523.513073,cobot_dynamixel_driver/goal|-:J2:481.580295:eff_
1550034523.540669,cobot_dynamixel_driver/goal|-:J2:481.580295:eff_
1550034523.568455,cobot_dynamixel_driver/goal|-:J2:481.580295:eff_
1550034523.596726,cobot_dynamixel_driver/goal|-:J2:481.580295:eff_
1550034523.624363,cobot_dynamixel_driver/goal|-:J2:481.580295:eff_
1550034523.651494,cobot_dynamixel_driver/goal|-:J2:481.580295:eff_
1550034523.679589,cobot_dynamixel_driver/goal|-:J2:481.580295:eff_
1550034523.707876,cobot_dynamixel_driver/goal|-:J2:481.580295:eff_
1550034523.736053,cobot_dynamixel_driver/goal|-:J2:481.580295:eff_
1550034523.763806,cobot_dynamixel_driver/goal|-:J2:481.580295:eff_
1550034523.792031,cobot_dynamixel_driver/goal|-:J2:481.580295:eff_
1550034523.819677,cobot_dynamixel_driver/goal|-:J2:481.580295:eff_
1550034523.847941,cobot_dynamixel_driver/goal|-:J2:481.580295:eff_
1550034523.876263,cobot_dynamixel_driver/goal|-:J2:481.580295:eff_
1550034523.903845,cobot_dynamixel_driver/goal|-:J2:481.580295:eff_
1550034523.932133,cobot_dynamixel_driver/goal|-:J2:481.580295:eff_
1550034523.959637,cobot_dynamixel_driver/goal|-:J2:481.580295:eff_
1550034523.987424,cobot_dynamixel_driver/goal|-:J2:481.580295:eff_
1550034524.014840,cobot_dynamixel_driver/goal|-:J2:481.580295:eff_
1550034524.042555,cobot_dynamixel_driver/goal|-:J2:481.580295:eff_
1550034524.070729,cobot_dynamixel_driver/goal|-:J2:481.580295:eff_
1550034524.098514,cobot_dynamixel_driver/goal|-:J2:481.580295:eff_
1550034524.126384,cobot_dynamixel_driver/goal|-:J2:481.580295:eff_
1550034524.153788,cobot_dynamixel_driver/goal|-:J2:481.580295:eff_
1550034524.181405,cobot_dynamixel_driver/goal|-:J2:481.580295:eff_
1550034524.208753,cobot_dynamixel_driver/goal|-:J2:481.580295:eff_
1550034524.237400,cobot_dynamixel_driver/goal|-:J2:481.580295:eff_
1550034524.264266,cobot_dynamixel_driver/goal|-:J2:481.580295:eff_
1550034524.291749,cobot_dynamixel_driver/goal|-:J2:481.580295:eff_
1550034524.319408,cobot_dynamixel_driver/goal|-:J2:481.580295:eff_
1550034524.346278,cobot_dynamixel_driver/goal|-:J2:481.580295:eff_
1550034524.373538,cobot_dynamixel_driver/goal|-:J2:481.580295:eff_
1550034524.401302,cobot_dynamixel_driver/goal|-:J2:481.580295:eff_
1550034524.428508,cobot_dynamixel_driver/goal|-:J2:481.580295:eff_
1550034524.456645,cobot_dynamixel_driver/goal|-:J2:481.580295:eff_
1550034524.484678,cobot_dynamixel_driver/goal|-:J2:481.580295:eff_
1550034524.513171,cobot_dynamixel_driver/goal|-:J2:481.580295:eff_
1550034524.540728,cobot_dynamixel_driver/goal|-:J2:481.580295:eff_
1550034524.568751,cobot_dynamixel_driver/goal|-:J2:481.580295:eff_
1550034524.596805,cobot_dynamixel_driver/goal|-:J2:481.580295:eff_
1550034524.624628,cobot_dynamixel_driver/goal|-:J2:481.580295:eff_
1550034524.652790,cobot_dynamixel_driver/goal|-:J2:481.580295:eff_
1550034524.680594,cobot_dynamixel_driver/goal|-:J2:481.580295:eff_
1550034524.708693,cobot_dynamixel_driver/goal|-:J2:481.580295:eff_
1550034524.736803,cobot_dynamixel_driver/goal|-:J2:481.580295:eff_
1550034524.764483,cobot_dynamixel_driver/goal|-:J2:481.580295:eff_
1550034524.791807,cobot_dynamixel_driver/goal|-:J2:481.580295:eff_
1550034524.819476,cobot_dynamixel_driver/goal|-:J2:481.580295:eff_
1550034524.846553,cobot_dynamixel_driver/goal|-:J2:481.580295:eff_
1550034524.874732,cobot_dynamixel_driver/goal|-:J2:481.580295:eff_
1550034524.902865,cobot_dynamixel_driver/goal|-:J2:481.580295:eff_
1550034524.930662,cobot_dynamixel_driver/goal|-:J2:481.580295:eff_
1550034524.958750,cobot_dynamixel_driver/goal|-:J2:481.580295:eff_
1550034524.986423,cobot_dynamixel_driver/goal|-:J2:481.580295:eff_
1550034525.013779,cobot_dynamixel_driver/goal|-:J2:481.580295:eff_
1550034525.041687,cobot_dynamixel_driver/goal|-:J2:481.580295:eff_
1550034525.069411,cobot_dynamixel_driver/goal|-:J2:481.580295:eff_
1550034525.098002,cobot_dynamixel_driver/goal|-:J2:481.580295:eff_
1550034525.125729,cobot_dynamixel_driver/goal|-:J2:481.580295:eff_
1550034525.153659,cobot_dynamixel_driver/goal|-:J2:481.580295:eff_
1550034525.181413,cobot_dynamixel_driver/goal|-:J2:481.580295:eff_
1550034525.209452,cobot_dynamixel_driver/goal|-:J2:481.580295:eff_
1550034525.237650,cobot_dynamixel_driver/goal|-:J2:481.580295:eff_
1550034525.265428,cobot_dynamixel_driver/goal|-:J2:481.580295:eff_
1550034525.292975,cobot_dynamixel_driver/goal|-:J2:481.580295:eff_
1550034525.320422,cobot_dynamixel_driver/goal|-:J2:481.580295:eff_
1550034525.347554,cobot_dynamixel_driver/goal|-:J2:481.580295:eff_
1550034525.375780,cobot_dynamixel_driver/goal|-:J2:481.580295:eff_
1550034525.403456,cobot_dynamixel_driver/goal|-:J2:481.580295:eff_
1550034525.431736,cobot_dynamixel_driver/goal|-:J2:481.580295:eff_
1550034525.459462,cobot_dynamixel_driver/goal|-:J2:481.580295:eff_
1550034525.487362,cobot_dynamixel_driver/goal|-:J2:481.580295:eff_
1550034525.514746,cobot_dynamixel_driver/goal|-:J2:481.580295:eff_
1550034525.542683,cobot_dynamixel_driver/goal|-:J2:481.580295:eff_
1550034525.571443,cobot_dynamixel_driver/goal|-:J2:481.580295:eff_
1550034525.599476,cobot_dynamixel_driver/goal|-:J2:481.580295:eff_
1550034525.627451,cobot_dynamixel_driver/goal|-:J2:481.580295:eff_
1550034525.655731,cobot_dynamixel_driver/goal|-:J2:481.580295:eff_
1550034525.683460,cobot_dynamixel_driver/goal|-:J2:481.580295:eff_
1550034525.711699,cobot_dynamixel_driver/goal|-:J2:481.580295:eff_
1550034525.739433,cobot_dynamixel_driver/goal|-:J2:481.580295:eff_
1550034525.766437,cobot_dynamixel_driver/goal|-:J2:481.580295:eff_
1550034525.794881,cobot_dynamixel_driver/goal|-:J2:481.580295:eff_
1550034525.822418,cobot_dynamixel_driver/goal|-:J2:481.580295:eff_
1550034525.849449,cobot_dynamixel_driver/goal|-:J2:481.580295:eff_
1550034525.877720,cobot_dynamixel_driver/goal|-:J2:481.580295:eff_
1550034525.905556,cobot_dynamixel_driver/goal|-:J2:481.580295:eff_
1550034525.933668,cobot_dynamixel_driver/goal|-:J2:481.580295:eff_
1550034525.961377,cobot_dynamixel_driver/goal|-:J2:481.580295:eff_
1550034525.988575,cobot_dynamixel_driver/goal|-:J2:481.580295:eff_
1550034526.017530,cobot_dynamixel_driver/goal|-:J2:481.580295:eff_
1550034526.045797,cobot_dynamixel_driver/goal|-:J2:481.580295:eff_
1550034526.074093,cobot_dynamixel_driver/goal|-:J2:481.580295:eff_
1550034526.101773,cobot_dynamixel_driver/goal|-:J2:481.580295:eff_
1550034526.129726,cobot_dynamixel_driver/goal|-:J2:481.580295:eff_
1550034526.158157,cobot_dynamixel_driver/goal|-:J2:481.580295:eff_
1550034526.185360,cobot_dynamixel_driver/goal|-:J2:481.580295:eff_
1550034526.212660,cobot_dynamixel_driver/goal|-:J2:481.580295:eff_
1550034526.240421,cobot_dynamixel_driver/goal|-:J2:481.580295:eff_
1550034526.268665,cobot_dynamixel_driver/goal|-:J2:481.580295:eff_
1550034526.296703,cobot_dynamixel_driver/goal|-:J2:481.580295:eff_
1550034526.324617,cobot_dynamixel_driver/goal|-:J2:481.580295:eff_
1550034526.352683,cobot_dynamixel_driver/goal|-:J2:481.580295:eff_
1550034526.380386,cobot_dynamixel_driver/goal|-:J2:481.580295:eff_
1550034526.407539,cobot_dynamixel_driver/goal|-:J2:481.580295:eff_
1550034526.435755,cobot_dynamixel_driver/goal|-:J2:481.580295:eff_
1550034526.463426,cobot_dynamixel_driver/goal|-:J2:481.580295:eff_
1550034526.491680,cobot_dynamixel_driver/goal|-:J2:481.580295:eff_
1550034526.519468,cobot_dynamixel_driver/goal|-:J2:481.580295:eff_
1550034526.547430,cobot_dynamixel_driver/goal|-:J2:481.580295:eff_
1550034526.575045,cobot_dynamixel_driver/goal|-:J2:481.580295:eff_
1550034526.602448,cobot_dynamixel_driver/goal|-:J2:481.580295:eff_
1550034526.631025,cobot_dynamixel_driver/goal|-:J2:481.580295:eff_
1550034526.658405,cobot_dynamixel_driver/goal|-:J2:481.580295:eff_
1550034526.685462,cobot_dynamixel_driver/goal|-:J2:481.580295:eff_
1550034526.713839,cobot_dynamixel_driver/goal|-:J2:481.580295:eff_
1550034526.741573,cobot_dynamixel_driver/goal|-:J2:481.580295:eff_
1550034526.769873,cobot_dynamixel_driver/goal|-:J2:481.580295:eff_
1550034526.798210,cobot_dynamixel_driver/goal|-:J2:481.580295:eff_
1550034526.825841,cobot_dynamixel_driver/goal|-:J2:481.580295:eff_
1550034526.853634,cobot_dynamixel_driver/goal|-:J2:481.580295:eff_
1550034526.881412,cobot_dynamixel_driver/goal|-:J2:481.580295:eff_
1550034526.908446,cobot_dynamixel_driver/goal|-:J2:481.580295:eff_
1550034526.936660,cobot_dynamixel_driver/goal|-:J2:481.580295:eff_
1550034526.964579,cobot_dynamixel_driver/goal|-:J2:481.580295:eff_
1550034526.992705,cobot_dynamixel_driver/goal|-:J2:529.699710:eff_
1550034527.020735,cobot_dynamixel_driver/goal|-:J2:529.545969:eff_
1550034527.048445,cobot_dynamixel_driver/goal|-:J2:529.545969:eff_
1550034527.076643,cobot_dynamixel_driver/goal|-:J2:528.118393:eff_
1550034527.104369,cobot_dynamixel_driver/goal|-:J2:528.118393:eff_
1550034527.131726,cobot_dynamixel_driver/goal|-:J2:523.174743:eff_
1550034527.159505,cobot_dynamixel_driver/goal|-:J2:519.035736:eff_
1550034527.187431,cobot_dynamixel_driver/goal|-:J2:519.035736:eff_
1550034527.215771,cobot_dynamixel_driver/goal|-:J2:506.594427:eff_
1550034527.243791,cobot_dynamixel_driver/goal|-:J2:506.594427:eff_
1550034527.271716,cobot_dynamixel_driver/goal|-:J2:490.364140:eff_
1550034527.299512,cobot_dynamixel_driver/goal|-:J2:481.126827:eff_
1550034527.327534,cobot_dynamixel_driver/goal|-:J2:481.126827:eff_
1550034527.355848,cobot_dynamixel_driver/goal|-:J2:462.621284:eff_
1550034527.383454,cobot_dynamixel_driver/goal|-:J2:453.628307:eff_
1550034527.411812,cobot_dynamixel_driver/goal|-:J2:444.856043:eff_
1550034527.440122,cobot_dynamixel_driver/goal|-:J2:436.109193:eff_
1550034527.468021,cobot_dynamixel_driver/goal|-:J2:436.109193:eff_
1550034527.496247,cobot_dynamixel_driver/goal|-:J2:418.614627:eff_
1550034527.523924,cobot_dynamixel_driver/goal|-:J2:418.614627:eff_
1550034527.552507,cobot_dynamixel_driver/goal|-:J2:402.136775:eff_
1550034527.580210,cobot_dynamixel_driver/goal|-:J2:393.980350:eff_
1550034527.607172,cobot_dynamixel_driver/goal|-:J2:393.980350:eff_
1550034527.634372,cobot_dynamixel_driver/goal|-:J2:379.046142:eff_
1550034527.662866,cobot_dynamixel_driver/goal|-:J2:379.046142:eff_
1550034527.690451,cobot_dynamixel_driver/goal|-:J2:372.212366:eff_
1550034527.718724,cobot_dynamixel_driver/goal|-:J2:359.878332:eff_
1550034527.746419,cobot_dynamixel_driver/goal|-:J2:359.878332:eff_
1550034527.774752,cobot_dynamixel_driver/goal|-:J2:349.915704:eff_
1550034527.802388,cobot_dynamixel_driver/goal|-:J2:345.926912:eff_
1550034527.829577,cobot_dynamixel_driver/goal|-:J2:345.926912:eff_
1550034527.857669,cobot_dynamixel_driver/goal|-:J2:340.219177:eff_
1550034527.885340,cobot_dynamixel_driver/goal|-:J2:340.219177:eff_
1550034527.912724,cobot_dynamixel_driver/goal|-:J2:337.683169:eff_
1550034527.940674,cobot_dynamixel_driver/goal|-:J2:276.286229:eff_
1550034527.968259,cobot_dynamixel_driver/goal|-:J2:276.351718:eff_
1550034527.995250,cobot_dynamixel_driver/goal|-:J2:276.450013:eff_
1550034528.022120,cobot_dynamixel_driver/goal|-:J2:276.450013:eff_
1550034528.049104,cobot_dynamixel_driver/goal|-:J2:276.450013:eff_
1550034528.076603,cobot_dynamixel_driver/goal|-:J2:276.466353:eff_
1550034528.104230,cobot_dynamixel_driver/goal|-:J2:276.466353:eff_
1550034528.131765,cobot_dynamixel_driver/goal|-:J2:307.184837:eff_
1550034528.159497,cobot_dynamixel_driver/goal|-:J2:307.184837:eff_
1550034528.187436,cobot_dynamixel_driver/goal|-:J2:307.184837:eff_
1550034528.215724,cobot_dynamixel_driver/goal|-:J2:307.184837:eff_
1550034528.243495,cobot_dynamixel_driver/goal|-:J2:307.184837:eff_
1550034528.271661,cobot_dynamixel_driver/goal|-:J2:307.184837:eff_
1550034528.299425,cobot_dynamixel_driver/goal|-:J2:307.184837:eff_
1550034528.326447,cobot_dynamixel_driver/goal|-:J2:307.184837:eff_
1550034528.354872,cobot_dynamixel_driver/goal|-:J2:307.148525:eff_
1550034528.382360,cobot_dynamixel_driver/goal|-:J2:337.603748:eff_
1550034528.410631,cobot_dynamixel_driver/goal|-:J2:337.603748:eff_
1550034528.439173,cobot_dynamixel_driver/goal|-:J2:335.698909:eff_
1550034528.466938,cobot_dynamixel_driver/goal|-:J2:335.698909:eff_
1550034528.495296,cobot_dynamixel_driver/goal|-:J2:330.503150:eff_
1550034528.522790,cobot_dynamixel_driver/goal|-:J2:330.503150:eff_
1550034528.550538,cobot_dynamixel_driver/goal|-:J2:326.644031:eff_
1550034528.578543,cobot_dynamixel_driver/goal|-:J2:316.097829:eff_
1550034528.606251,cobot_dynamixel_driver/goal|-:J2:316.097829:eff_
1550034528.633399,cobot_dynamixel_driver/goal|-:J2:301.826284:eff_
1550034528.661153,cobot_dynamixel_driver/goal|-:J2:293.536926:eff_
1550034528.688192,cobot_dynamixel_driver/goal|-:J2:293.536926:eff_
1550034528.715703,cobot_dynamixel_driver/goal|-:J2:276.592887:eff_
1550034528.743568,cobot_dynamixel_driver/goal|-:J2:268.058858:eff_
1550034528.771623,cobot_dynamixel_driver/goal|-:J2:259.900195:eff_
1550034528.799375,cobot_dynamixel_driver/goal|-:J2:252.279412:eff_
1550034528.827734,cobot_dynamixel_driver/goal|-:J2:252.279412:eff_
1550034528.855533,cobot_dynamixel_driver/goal|-:J2:239.224416:eff_
1550034528.883353,cobot_dynamixel_driver/goal|-:J2:233.104149:eff_
1550034528.911640,cobot_dynamixel_driver/goal|-:J2:227.081604:eff_
1550034528.939312,cobot_dynamixel_driver/goal|-:J2:219.842296:eff_
1550034528.966333,cobot_dynamixel_driver/goal|-:J2:219.842296:eff_
1550034528.993598,cobot_dynamixel_driver/goal|-:J2:206.079616:eff_
1550034529.021180,cobot_dynamixel_driver/goal|-:J2:199.091307:eff_
1550034529.048390,cobot_dynamixel_driver/goal|-:J2:199.091307:eff_
1550034529.076897,cobot_dynamixel_driver/goal|-:J2:185.570163:eff_
1550034529.104473,cobot_dynamixel_driver/goal|-:J2:178.003162:eff_
1550034529.132535,cobot_dynamixel_driver/goal|-:J2:170.696209:eff_
1550034529.160467,cobot_dynamixel_driver/goal|-:J2:162.877995:eff_
1550034529.188273,cobot_dynamixel_driver/goal|-:J2:162.877995:eff_
1550034529.215512,cobot_dynamixel_driver/goal|-:J2:146.884775:eff_
1550034529.243646,cobot_dynamixel_driver/goal|-:J2:139.035271:eff_
1550034529.271549,cobot_dynamixel_driver/goal|-:J2:130.572072:eff_
1550034529.299499,cobot_dynamixel_driver/goal|-:J2:122.593890:eff_
1550034529.327394,cobot_dynamixel_driver/goal|-:J2:122.593890:eff_
1550034529.355573,cobot_dynamixel_driver/goal|-:J2:105.752918:eff_
1550034529.383280,cobot_dynamixel_driver/goal|-:J2:97.603168:eff_
1550034529.410451,cobot_dynamixel_driver/goal|-:J2:97.603168:eff_
1550034529.438455,cobot_dynamixel_driver/goal|-:J2:82.417890:eff_
1550034529.466342,cobot_dynamixel_driver/goal|-:J2:82.417890:eff_
1550034529.493629,cobot_dynamixel_driver/goal|-:J2:68.571607:eff_
1550034529.521847,cobot_dynamixel_driver/goal|-:J2:68.571607:eff_
1550034529.549727,cobot_dynamixel_driver/goal|-:J2:62.921496:eff_
1550034529.577400,cobot_dynamixel_driver/goal|-:J2:53.741034:eff_
1550034529.605261,cobot_dynamixel_driver/goal|-:J2:50.741699:eff_
1550034529.632398,cobot_dynamixel_driver/goal|-:J2:48.664428:eff_
1550034529.660220,cobot_dynamixel_driver/goal|-:J2:47.607356:eff_
1550034529.687352,cobot_dynamixel_driver/goal|-:J2:47.607356:eff_
1550034529.715533,cobot_dynamixel_driver/goal|-:J2:38.767824:eff_
1550034529.743392,cobot_dynamixel_driver/goal|-:J2:38.817910:eff_
1550034529.771551,cobot_dynamixel_driver/goal|-:J2:38.817092:eff_
1550034529.799342,cobot_dynamixel_driver/goal|-:J2:38.817092:eff_
1550034529.827317,cobot_dynamixel_driver/goal|-:J2:38.817092:eff_
1550034529.854484,cobot_dynamixel_driver/goal|-:J2:38.833787:eff_
1550034529.882284,cobot_dynamixel_driver/goal|-:J2:43.148652:eff_
1550034529.909395,cobot_dynamixel_driver/goal|-:J2:43.148652:eff_
1550034529.937786,cobot_dynamixel_driver/goal|-:J2:43.148652:eff_
1550034529.965683,cobot_dynamixel_driver/goal|-:J2:43.148652:eff_
1550034529.993694,cobot_dynamixel_driver/goal|-:J2:43.145925:eff_
1550034530.021151,cobot_dynamixel_driver/goal|-:J2:43.142288:eff_
1550034530.048254,cobot_dynamixel_driver/goal|-:J2:43.142288:eff_
1550034530.076006,cobot_dynamixel_driver/goal|-:J2:46.902566:eff_
1550034530.103962,cobot_dynamixel_driver/goal|-:J2:46.902566:eff_
1550034530.131810,cobot_dynamixel_driver/goal|-:J2:42.855661:eff_
1550034530.159473,cobot_dynamixel_driver/goal|-:J2:39.651662:eff_
1550034530.187196,cobot_dynamixel_driver/goal|-:J2:39.651662:eff_
1550034530.214545,cobot_dynamixel_driver/goal|-:J2:30.344957:eff_
1550034530.242545,cobot_dynamixel_driver/goal|-:J2:30.344957:eff_
1550034530.271173,cobot_dynamixel_driver/goal|-:J2:18.383614:eff_
1550034530.298641,cobot_dynamixel_driver/goal|-:J2:11.015397:eff_
1550034530.326277,cobot_dynamixel_driver/goal|-:J2:11.015397:eff_
1550034530.353505,cobot_dynamixel_driver/goal|-:J2:-3.511781:eff_
1550034530.381320,cobot_dynamixel_driver/goal|-:J2:-9.857843:eff_
1550034530.408242,cobot_dynamixel_driver/goal|-:J2:-9.857843:eff_
1550034530.435632,cobot_dynamixel_driver/goal|-:J2:-22.834677:eff_
1550034530.463630,cobot_dynamixel_driver/goal|-:J2:-22.834677:eff_
1550034530.491688,cobot_dynamixel_driver/goal|-:J2:-35.391937:eff_
1550034530.519366,cobot_dynamixel_driver/goal|-:J2:-41.535904:eff_
1550034530.547520,cobot_dynamixel_driver/goal|-:J2:-41.535904:eff_
1550034530.575530,cobot_dynamixel_driver/goal|-:J2:-53.520663:eff_
1550034530.602907,cobot_dynamixel_driver/goal|-:J2:-59.428052:eff_
1550034530.629986,cobot_dynamixel_driver/goal|-:J2:-59.428052:eff_
1550034530.657713,cobot_dynamixel_driver/goal|-:J2:-70.805563:eff_
1550034530.685366,cobot_dynamixel_driver/goal|-:J2:-70.805563:eff_
1550034530.713753,cobot_dynamixel_driver/goal|-:J2:-82.243804:eff_
1550034530.741321,cobot_dynamixel_driver/goal|-:J2:-87.844437:eff_
1550034530.769346,cobot_dynamixel_driver/goal|-:J2:-87.844437:eff_
1550034530.797683,cobot_dynamixel_driver/goal|-:J2:-99.156748:eff_
1550034530.825766,cobot_dynamixel_driver/goal|-:J2:-99.156748:eff_
1550034530.853572,cobot_dynamixel_driver/goal|-:J2:-109.928460:eff_
1550034530.881262,cobot_dynamixel_driver/goal|-:J2:-115.054521:eff_
1550034530.908399,cobot_dynamixel_driver/goal|-:J2:-115.054521:eff_
1550034530.936518,cobot_dynamixel_driver/goal|-:J2:-124.802566:eff_
1550034530.964247,cobot_dynamixel_driver/goal|-:J2:-129.674103:eff_
1550034530.991585,cobot_dynamixel_driver/goal|-:J2:-134.527278:eff_
1550034531.019250,cobot_dynamixel_driver/goal|-:J2:-139.162708:eff_
1550034531.047233,cobot_dynamixel_driver/goal|-:J2:-139.162708:eff_
1550034531.074472,cobot_dynamixel_driver/goal|-:J2:-148.660802:eff_
1550034531.102666,cobot_dynamixel_driver/goal|-:J2:-148.660802:eff_
1550034531.130859,cobot_dynamixel_driver/goal|-:J2:-153.307470:eff_
1550034531.159023,cobot_dynamixel_driver/goal|-:J2:-163.042697:eff_
1550034531.186307,cobot_dynamixel_driver/goal|-:J2:-163.042697:eff_
1550034531.214570,cobot_dynamixel_driver/goal|-:J2:-172.785681:eff_
1550034531.242311,cobot_dynamixel_driver/goal|-:J2:-177.554373:eff_
1550034531.270583,cobot_dynamixel_driver/goal|-:J2:-177.554373:eff_
1550034531.298583,cobot_dynamixel_driver/goal|-:J2:-186.886318:eff_
1550034531.326415,cobot_dynamixel_driver/goal|-:J2:-186.886318:eff_
1550034531.354579,cobot_dynamixel_driver/goal|-:J2:-195.828957:eff_
1550034531.382027,cobot_dynamixel_driver/goal|-:J2:-200.239137:eff_
1550034531.409044,cobot_dynamixel_driver/goal|-:J2:-200.239137:eff_
1550034531.436279,cobot_dynamixel_driver/goal|-:J2:-208.805291:eff_
1550034531.464147,cobot_dynamixel_driver/goal|-:J2:-213.076841:eff_
1550034531.491409,cobot_dynamixel_driver/goal|-:J2:-217.445027:eff_
1550034531.519296,cobot_dynamixel_driver/goal|-:J2:-221.711999:eff_
1550034531.547265,cobot_dynamixel_driver/goal|-:J2:-221.711999:eff_
1550034531.575557,cobot_dynamixel_driver/goal|-:J2:-229.761784:eff_
1550034531.603260,cobot_dynamixel_driver/goal|-:J2:-233.824577:eff_
1550034531.631485,cobot_dynamixel_driver/goal|-:J2:-237.507121:eff_
1550034531.659250,cobot_dynamixel_driver/goal|-:J2:-241.499911:eff_
1550034531.687205,cobot_dynamixel_driver/goal|-:J2:-241.499911:eff_
1550034531.714483,cobot_dynamixel_driver/goal|-:J2:-249.544382:eff_
1550034531.742573,cobot_dynamixel_driver/goal|-:J2:-249.544382:eff_
1550034531.770230,cobot_dynamixel_driver/goal|-:J2:-253.825481:eff_
1550034531.798298,cobot_dynamixel_driver/goal|-:J2:-262.051968:eff_
1550034531.826025,cobot_dynamixel_driver/goal|-:J2:-262.051968:eff_
1550034531.853169,cobot_dynamixel_driver/goal|-:J2:-269.581105:eff_
1550034531.880093,cobot_dynamixel_driver/goal|-:J2:-272.653201:eff_
1550034531.908026,cobot_dynamixel_driver/goal|-:J2:-272.653201:eff_
1550034531.935291,cobot_dynamixel_driver/goal|-:J2:-277.325057:eff_
1550034531.963064,cobot_dynamixel_driver/goal|-:J2:-278.792772:eff_
1550034531.990030,cobot_dynamixel_driver/goal|-:J2:-278.792772:eff_
1550034532.017227,cobot_dynamixel_driver/goal|-:J2:-279.855555:eff_
1550034532.045027,cobot_dynamixel_driver/goal|-:J2:-342.045678:eff_
1550034532.072218,cobot_dynamixel_driver/goal|-:J2:-341.960989:eff_
1550034532.100090,cobot_dynamixel_driver/goal|-:J2:-341.941030:eff_
1550034532.128269,cobot_dynamixel_driver/goal|-:J2:-341.941030:eff_
1550034532.156391,cobot_dynamixel_driver/goal|-:J2:-279.707109:eff_
1550034532.184342,cobot_dynamixel_driver/goal|-:J2:-341.864244:eff_
1550034532.212424,cobot_dynamixel_driver/goal|-:J2:-279.707109:eff_
1550034532.240157,cobot_dynamixel_driver/goal|-:J2:-341.864244:eff_
1550034532.267148,cobot_dynamixel_driver/goal|-:J2:-341.864244:eff_
1550034532.295595,cobot_dynamixel_driver/goal|-:J2:-341.864244:eff_
1550034532.323186,cobot_dynamixel_driver/goal|-:J2:-341.864244:eff_
1550034532.351441,cobot_dynamixel_driver/goal|-:J2:-310.788126:eff_
1550034532.379344,cobot_dynamixel_driver/goal|-:J2:-310.790576:eff_
1550034532.407077,cobot_dynamixel_driver/goal|-:J2:-310.790576:eff_
1550034532.435495,cobot_dynamixel_driver/goal|-:J2:-310.789759:eff_
1550034532.463139,cobot_dynamixel_driver/goal|-:J2:-310.789759:eff_
1550034532.491454,cobot_dynamixel_driver/goal|-:J2:-310.790576:eff_
1550034532.519625,cobot_dynamixel_driver/goal|-:J2:-310.790576:eff_
1550034532.547448,cobot_dynamixel_driver/goal|-:J2:-310.790576:eff_
1550034532.576319,cobot_dynamixel_driver/goal|-:J2:-310.790576:eff_
1550034532.603852,cobot_dynamixel_driver/goal|-:J2:-310.790576:eff_
1550034532.631190,cobot_dynamixel_driver/goal|-:J2:-310.790576:eff_
1550034532.658909,cobot_dynamixel_driver/goal|-:J2:-310.790576:eff_
1550034532.685928,cobot_dynamixel_driver/goal|-:J2:-310.790576:eff_
1550034532.713812,cobot_dynamixel_driver/goal|-:J2:-310.790576:eff_
1550034532.740858,cobot_dynamixel_driver/goal|-:J2:-310.790576:eff_
1550034532.767958,cobot_dynamixel_driver/goal|-:J2:-310.790576:eff_
1550034532.795369,cobot_dynamixel_driver/goal|-:J2:-310.790576:eff_
1550034532.822948,cobot_dynamixel_driver/goal|-:J2:-310.790576:eff_
1550034532.850014,cobot_dynamixel_driver/goal|-:J2:-310.790576:eff_
1550034532.877507,cobot_dynamixel_driver/goal|-:J2:-310.790576:eff_
1550034532.905339,cobot_dynamixel_driver/goal|-:J2:-310.790576:eff_
1550034532.933662,cobot_dynamixel_driver/goal|-:J2:-310.790576:eff_
1550034532.961528,cobot_dynamixel_driver/goal|-:J2:-310.790576:eff_
1550034532.989182,cobot_dynamixel_driver/goal|-:J2:-310.790576:eff_
1550034533.017499,cobot_dynamixel_driver/goal|-:J2:-310.790576:eff_
1550034533.045239,cobot_dynamixel_driver/goal|-:J2:-310.790576:eff_
1550034533.073539,cobot_dynamixel_driver/goal|-:J2:-310.790576:eff_
1550034533.101206,cobot_dynamixel_driver/goal|-:J2:-310.790576:eff_
1550034533.129401,cobot_dynamixel_driver/goal|-:J2:-310.790576:eff_
1550034533.157184,cobot_dynamixel_driver/goal|-:J2:-310.790576:eff_
1550034533.185009,cobot_dynamixel_driver/goal|-:J2:-310.790576:eff_
1550034533.213575,cobot_dynamixel_driver/goal|-:J2:-310.790576:eff_
1550034533.241392,cobot_dynamixel_driver/goal|-:J2:-310.790576:eff_
1550034533.269387,cobot_dynamixel_driver/goal|-:J2:-310.790576:eff_
1550034533.297757,cobot_dynamixel_driver/goal|-:J2:-310.790576:eff_
1550034533.325177,cobot_dynamixel_driver/goal|-:J2:-310.790576:eff_
1550034533.353034,cobot_dynamixel_driver/goal|-:J2:-310.790576:eff_
1550034533.381001,cobot_dynamixel_driver/goal|-:J2:-310.790576:eff_
1550034533.409405,cobot_dynamixel_driver/goal|-:J2:-310.790576:eff_
1550034533.437517,cobot_dynamixel_driver/goal|-:J2:-310.790576:eff_
1550034533.465311,cobot_dynamixel_driver/goal|-:J2:-310.790576:eff_
1550034533.493543,cobot_dynamixel_driver/goal|-:J2:-310.754285:eff_
1550034533.521253,cobot_dynamixel_driver/goal|-:J2:-341.570228:eff_
1550034533.549646,cobot_dynamixel_driver/goal|-:J2:-341.570228:eff_
1550034533.578090,cobot_dynamixel_driver/goal|-:J2:-339.391142:eff_
1550034533.606362,cobot_dynamixel_driver/goal|-:J2:-339.391142:eff_
1550034533.634923,cobot_dynamixel_driver/goal|-:J2:-332.529572:eff_
1550034533.662939,cobot_dynamixel_driver/goal|-:J2:-325.479030:eff_
1550034533.689893,cobot_dynamixel_driver/goal|-:J2:-325.479030:eff_
1550034533.717020,cobot_dynamixel_driver/goal|-:J2:-306.698171:eff_
1550034533.744967,cobot_dynamixel_driver/goal|-:J2:-294.678372:eff_
1550034533.772994,cobot_dynamixel_driver/goal|-:J2:-281.559303:eff_
1550034533.801336,cobot_dynamixel_driver/goal|-:J2:-281.559303:eff_
1550034533.829351,cobot_dynamixel_driver/goal|-:J2:-267.253623:eff_
1550034533.857355,cobot_dynamixel_driver/goal|-:J2:-236.055589:eff_
1550034533.885005,cobot_dynamixel_driver/goal|-:J2:-236.055589:eff_
1550034533.913193,cobot_dynamixel_driver/goal|-:J2:-203.108414:eff_
1550034533.941083,cobot_dynamixel_driver/goal|-:J2:-185.699915:eff_
1550034533.968976,cobot_dynamixel_driver/goal|-:J2:-185.699915:eff_
1550034533.997203,cobot_dynamixel_driver/goal|-:J2:-152.751207:eff_
1550034534.025616,cobot_dynamixel_driver/goal|-:J2:-152.751207:eff_
1550034534.053705,cobot_dynamixel_driver/goal|-:J2:-119.700871:eff_
1550034534.080811,cobot_dynamixel_driver/goal|-:J2:-103.878293:eff_
1550034534.107924,cobot_dynamixel_driver/goal|-:J2:-103.878293:eff_
1550034534.135097,cobot_dynamixel_driver/goal|-:J2:-74.309332:eff_
1550034534.162797,cobot_dynamixel_driver/goal|-:J2:-59.647451:eff_
1550034534.189813,cobot_dynamixel_driver/goal|-:J2:-59.647451:eff_
1550034534.217181,cobot_dynamixel_driver/goal|-:J2:-31.818474:eff_
1550034534.244786,cobot_dynamixel_driver/goal|-:J2:-17.899057:eff_
1550034534.272076,cobot_dynamixel_driver/goal|-:J2:-4.713170:eff_
1550034534.300569,cobot_dynamixel_driver/goal|-:J2:-4.713170:eff_
1550034534.328358,cobot_dynamixel_driver/goal|-:J2:6.579151:eff_
1550034534.356632,cobot_dynamixel_driver/goal|-:J2:27.702712:eff_
1550034534.383966,cobot_dynamixel_driver/goal|-:J2:37.670224:eff_
1550034534.412189,cobot_dynamixel_driver/goal|-:J2:47.068154:eff_
1550034534.439768,cobot_dynamixel_driver/goal|-:J2:56.879806:eff_
1550034534.466966,cobot_dynamixel_driver/goal|-:J2:56.879806:eff_
1550034534.495450,cobot_dynamixel_driver/goal|-:J2:74.776123:eff_
1550034534.523014,cobot_dynamixel_driver/goal|-:J2:74.776123:eff_
1550034534.551316,cobot_dynamixel_driver/goal|-:J2:92.392679:eff_
1550034534.579425,cobot_dynamixel_driver/goal|-:J2:101.070367:eff_
1550034534.607017,cobot_dynamixel_driver/goal|-:J2:101.070367:eff_
1550034534.635572,cobot_dynamixel_driver/goal|-:J2:115.655684:eff_
1550034534.663007,cobot_dynamixel_driver/goal|-:J2:121.750483:eff_
1550034534.691602,cobot_dynamixel_driver/goal|-:J2:126.411812:eff_
1550034534.719329,cobot_dynamixel_driver/goal|-:J2:130.164781:eff_
1550034534.746943,cobot_dynamixel_driver/goal|-:J2:130.164781:eff_
1550034534.774913,cobot_dynamixel_driver/goal|-:J2:133.972151:eff_
1550034534.803263,cobot_dynamixel_driver/goal|-:J2:133.972151:eff_
1550034534.831736,cobot_dynamixel_driver/goal|-:J2:134.720787:eff_
1550034534.858884,cobot_dynamixel_driver/goal|-:J2:164.639447:eff_
1550034534.886919,cobot_dynamixel_driver/goal|-:J2:164.639447:eff_
1550034534.915225,cobot_dynamixel_driver/goal|-:J2:164.644545:eff_
1550034534.943047,cobot_dynamixel_driver/goal|-:J2:164.644545:eff_
1550034534.971208,cobot_dynamixel_driver/goal|-:J2:164.625156:eff_
1550034534.998800,cobot_dynamixel_driver/goal|-:J2:164.626079:eff_
1550034535.025936,cobot_dynamixel_driver/goal|-:J2:164.626079:eff_
1550034535.054098,cobot_dynamixel_driver/goal|-:J2:164.627924:eff_
1550034535.081913,cobot_dynamixel_driver/goal|-:J2:149.662588:eff_
1550034535.109952,cobot_dynamixel_driver/goal|-:J2:149.662588:eff_
1550034535.138432,cobot_dynamixel_driver/goal|-:J2:149.663427:eff_
1550034535.165902,cobot_dynamixel_driver/goal|-:J2:149.663427:eff_
1550034535.194154,cobot_dynamixel_driver/goal|-:J2:149.664266:eff_
1550034535.221895,cobot_dynamixel_driver/goal|-:J2:149.665104:eff_
1550034535.249914,cobot_dynamixel_driver/goal|-:J2:149.665104:eff_
1550034535.278209,cobot_dynamixel_driver/goal|-:J2:149.665104:eff_
1550034535.306152,cobot_dynamixel_driver/goal|-:J2:149.665104:eff_
1550034535.334118,cobot_dynamixel_driver/goal|-:J2:149.666781:eff_
1550034535.361927,cobot_dynamixel_driver/goal|-:J2:149.668458:eff_
1550034535.389802,cobot_dynamixel_driver/goal|-:J2:149.668458:eff_
1550034535.417212,cobot_dynamixel_driver/goal|-:J2:134.754483:eff_
1550034535.444960,cobot_dynamixel_driver/goal|-:J2:134.754483:eff_
1550034535.473110,cobot_dynamixel_driver/goal|-:J2:135.025633:eff_
1550034535.500785,cobot_dynamixel_driver/goal|-:J2:135.311873:eff_
1550034535.529063,cobot_dynamixel_driver/goal|-:J2:135.311873:eff_
1550034535.557336,cobot_dynamixel_driver/goal|-:J2:137.033635:eff_
1550034535.585010,cobot_dynamixel_driver/goal|-:J2:137.033635:eff_
1550034535.613204,cobot_dynamixel_driver/goal|-:J2:141.532090:eff_
1550034535.640962,cobot_dynamixel_driver/goal|-:J2:144.904019:eff_
1550034535.668965,cobot_dynamixel_driver/goal|-:J2:144.904019:eff_
1550034535.697491,cobot_dynamixel_driver/goal|-:J2:153.218267:eff_
1550034535.724787,cobot_dynamixel_driver/goal|-:J2:153.218267:eff_
1550034535.752891,cobot_dynamixel_driver/goal|-:J2:163.747583:eff_
1550034535.780655,cobot_dynamixel_driver/goal|-:J2:170.109940:eff_
1550034535.807856,cobot_dynamixel_driver/goal|-:J2:170.109940:eff_
1550034535.835897,cobot_dynamixel_driver/goal|-:J2:184.079315:eff_
1550034535.863690,cobot_dynamixel_driver/goal|-:J2:191.701255:eff_
1550034535.890916,cobot_dynamixel_driver/goal|-:J2:199.680078:eff_
1550034535.918710,cobot_dynamixel_driver/goal|-:J2:207.667669:eff_
1550034535.945741,cobot_dynamixel_driver/goal|-:J2:207.667669:eff_
1550034535.972673,cobot_dynamixel_driver/goal|-:J2:225.003096:eff_
1550034535.999719,cobot_dynamixel_driver/goal|-:J2:233.903205:eff_
1550034536.026541,cobot_dynamixel_driver/goal|-:J2:233.903205:eff_
1550034536.053740,cobot_dynamixel_driver/goal|-:J2:251.867164:eff_
1550034536.080617,cobot_dynamixel_driver/goal|-:J2:261.437719:eff_
1550034536.108053,cobot_dynamixel_driver/goal|-:J2:261.437719:eff_
1550034536.136644,cobot_dynamixel_driver/goal|-:J2:279.491745:eff_
1550034536.163804,cobot_dynamixel_driver/goal|-:J2:279.491745:eff_
1550034536.191841,cobot_dynamixel_driver/goal|-:J2:297.459961:eff_
1550034536.219675,cobot_dynamixel_driver/goal|-:J2:306.195604:eff_
1550034536.247684,cobot_dynamixel_driver/goal|-:J2:306.195604:eff_
1550034536.274883,cobot_dynamixel_driver/goal|-:J2:323.155372:eff_
1550034536.302770,cobot_dynamixel_driver/goal|-:J2:330.862417:eff_
1550034536.331712,cobot_dynamixel_driver/goal|-:J2:338.606331:eff_
1550034536.360613,cobot_dynamixel_driver/goal|-:J2:346.273438:eff_
1550034536.388167,cobot_dynamixel_driver/goal|-:J2:346.273438:eff_
1550034536.416716,cobot_dynamixel_driver/goal|-:J2:360.059781:eff_
1550034536.444216,cobot_dynamixel_driver/goal|-:J2:360.059781:eff_
1550034536.472585,cobot_dynamixel_driver/goal|-:J2:372.762816:eff_
1550034536.499831,cobot_dynamixel_driver/goal|-:J2:378.884615:eff_
1550034536.527735,cobot_dynamixel_driver/goal|-:J2:378.884615:eff_
1550034536.556018,cobot_dynamixel_driver/goal|-:J2:390.638378:eff_
1550034536.583797,cobot_dynamixel_driver/goal|-:J2:396.766030:eff_
1550034536.612129,cobot_dynamixel_driver/goal|-:J2:402.645685:eff_
1550034536.639992,cobot_dynamixel_driver/goal|-:J2:402.645685:eff_
1550034536.667851,cobot_dynamixel_driver/goal|-:J2:408.501323:eff_
1550034536.696160,cobot_dynamixel_driver/goal|-:J2:420.408015:eff_
1550034536.723747,cobot_dynamixel_driver/goal|-:J2:426.394769:eff_
1550034536.750973,cobot_dynamixel_driver/goal|-:J2:431.961735:eff_
1550034536.778848,cobot_dynamixel_driver/goal|-:J2:437.457254:eff_
1550034536.806740,cobot_dynamixel_driver/goal|-:J2:437.457254:eff_
1550034536.834944,cobot_dynamixel_driver/goal|-:J2:447.528013:eff_
1550034536.862791,cobot_dynamixel_driver/goal|-:J2:452.438369:eff_
1550034536.890897,cobot_dynamixel_driver/goal|-:J2:456.842770:eff_
1550034536.918769,cobot_dynamixel_driver/goal|-:J2:461.445755:eff_
1550034536.946864,cobot_dynamixel_driver/goal|-:J2:461.445755:eff_
1550034536.974467,cobot_dynamixel_driver/goal|-:J2:469.430396:eff_
1550034537.001387,cobot_dynamixel_driver/goal|-:J2:472.712349:eff_
1550034537.028793,cobot_dynamixel_driver/goal|-:J2:472.712349:eff_
1550034537.056581,cobot_dynamixel_driver/goal|-:J2:478.393321:eff_
1550034537.083615,cobot_dynamixel_driver/goal|-:J2:480.840571:eff_
1550034537.111257,cobot_dynamixel_driver/goal|-:J2:482.896695:eff_
1550034537.139123,cobot_dynamixel_driver/goal|-:J2:484.546870:eff_
1550034537.166816,cobot_dynamixel_driver/goal|-:J2:484.546870:eff_
1550034537.195122,cobot_dynamixel_driver/goal|-:J2:486.040632:eff_
1550034537.222504,cobot_dynamixel_driver/goal|-:J2:594.072729:eff_
1550034537.249419,cobot_dynamixel_driver/goal|-:J2:594.072729:eff_
1550034537.276598,cobot_dynamixel_driver/goal|-:J2:594.024800:eff_
1550034537.303502,cobot_dynamixel_driver/goal|-:J2:593.910711:eff_
1550034537.331569,cobot_dynamixel_driver/goal|-:J2:593.910711:eff_
1550034537.358544,cobot_dynamixel_driver/goal|-:J2:593.910711:eff_
1550034537.385365,cobot_dynamixel_driver/goal|-:J2:593.910711:eff_
1550034537.412619,cobot_dynamixel_driver/goal|-:J2:593.910711:eff_
1550034537.441002,cobot_dynamixel_driver/goal|-:J2:539.918828:eff_
1550034537.469418,cobot_dynamixel_driver/goal|-:J2:539.918828:eff_
1550034537.497628,cobot_dynamixel_driver/goal|-:J2:539.917908:eff_
1550034537.526286,cobot_dynamixel_driver/goal|-:J2:539.917908:eff_
1550034537.553714,cobot_dynamixel_driver/goal|-:J2:539.916068:eff_
1550034537.581836,cobot_dynamixel_driver/goal|-:J2:539.915148:eff_
1550034537.609633,cobot_dynamixel_driver/goal|-:J2:539.915148:eff_
1550034537.637297,cobot_dynamixel_driver/goal|-:J2:539.913308:eff_
1550034537.664610,cobot_dynamixel_driver/goal|-:J2:539.913308:eff_
1550034537.692001,cobot_dynamixel_driver/goal|-:J2:539.911468:eff_
1550034537.719712,cobot_dynamixel_driver/goal|-:J2:539.910548:eff_
1550034537.747658,cobot_dynamixel_driver/goal|-:J2:539.910548:eff_
1550034537.775950,cobot_dynamixel_driver/goal|-:J2:539.908711:eff_
1550034537.803797,cobot_dynamixel_driver/goal|-:J2:539.907791:eff_
1550034537.831926,cobot_dynamixel_driver/goal|-:J2:539.906870:eff_
1550034537.859858,cobot_dynamixel_driver/goal|-:J2:539.906870:eff_
1550034537.887675,cobot_dynamixel_driver/goal|-:J2:539.906870:eff_
1550034537.915055,cobot_dynamixel_driver/goal|-:J2:539.905949:eff_
1550034537.942678,cobot_dynamixel_driver/goal|-:J2:539.905029:eff_
1550034537.970901,cobot_dynamixel_driver/goal|-:J2:539.905029:eff_
1550034537.998559,cobot_dynamixel_driver/goal|-:J2:539.903187:eff_
1550034538.025690,cobot_dynamixel_driver/goal|-:J2:539.903187:eff_
1550034538.053966,cobot_dynamixel_driver/goal|-:J2:539.901345:eff_
1550034538.081590,cobot_dynamixel_driver/goal|-:J2:539.901345:eff_
1550034538.109560,cobot_dynamixel_driver/goal|-:J2:539.901345:eff_
1550034538.136837,cobot_dynamixel_driver/goal|-:J2:539.899502:eff_
1550034538.164654,cobot_dynamixel_driver/goal|-:J2:539.899502:eff_
1550034538.192689,cobot_dynamixel_driver/goal|-:J2:539.897659:eff_
1550034538.220902,cobot_dynamixel_driver/goal|-:J2:539.896738:eff_
1550034538.249273,cobot_dynamixel_driver/goal|-:J2:539.896738:eff_
1550034538.276597,cobot_dynamixel_driver/goal|-:J2:539.894894:eff_
1550034538.304367,cobot_dynamixel_driver/goal|-:J2:539.892129:eff_
1550034538.331598,cobot_dynamixel_driver/goal|-:J2:539.888440:eff_
1550034538.359432,cobot_dynamixel_driver/goal|-:J2:539.885673:eff_
1550034538.386402,cobot_dynamixel_driver/goal|-:J2:539.885673:eff_
1550034538.414504,cobot_dynamixel_driver/goal|-:J2:485.914088:eff_
1550034538.441854,cobot_dynamixel_driver/goal|-:J2:485.914088:eff_
1550034538.469971,cobot_dynamixel_driver/goal|-:J2:485.950761:eff_
1550034538.497712,cobot_dynamixel_driver/goal|-:J2:485.980201:eff_
1550034538.525370,cobot_dynamixel_driver/goal|-:J2:485.980201:eff_
1550034538.552538,cobot_dynamixel_driver/goal|-:J2:486.291257:eff_
1550034538.580466,cobot_dynamixel_driver/goal|-:J2:486.651474:eff_
1550034538.607511,cobot_dynamixel_driver/goal|-:J2:486.651474:eff_
1550034538.634573,cobot_dynamixel_driver/goal|-:J2:487.320885:eff_
1550034538.662664,cobot_dynamixel_driver/goal|-:J2:487.647330:eff_
1550034538.690848,cobot_dynamixel_driver/goal|-:J2:488.020370:eff_
1550034538.718566,cobot_dynamixel_driver/goal|-:J2:488.408905:eff_
1550034538.746586,cobot_dynamixel_driver/goal|-:J2:488.408905:eff_
1550034538.773763,cobot_dynamixel_driver/goal|-:J2:489.154760:eff_
1550034538.801504,cobot_dynamixel_driver/goal|-:J2:489.558691:eff_
1550034538.828913,cobot_dynamixel_driver/goal|-:J2:489.558691:eff_
1550034538.857390,cobot_dynamixel_driver/goal|-:J2:490.258533:eff_
1550034538.884595,cobot_dynamixel_driver/goal|-:J2:490.258533:eff_
1550034538.912826,cobot_dynamixel_driver/goal|-:J2:491.050540:eff_
1550034538.940594,cobot_dynamixel_driver/goal|-:J2:491.423193:eff_
1550034538.968589,cobot_dynamixel_driver/goal|-:J2:491.423193:eff_
1550034538.996934,cobot_dynamixel_driver/goal|-:J2:492.308898:eff_
1550034539.024504,cobot_dynamixel_driver/goal|-:J2:492.308898:eff_
1550034539.052752,cobot_dynamixel_driver/goal|-:J2:493.115903:eff_
1550034539.080667,cobot_dynamixel_driver/goal|-:J2:493.535711:eff_
1550034539.108808,cobot_dynamixel_driver/goal|-:J2:493.535711:eff_
1550034539.137303,cobot_dynamixel_driver/goal|-:J2:494.357909:eff_
1550034539.164654,cobot_dynamixel_driver/goal|-:J2:494.357909:eff_
1550034539.193079,cobot_dynamixel_driver/goal|-:J2:495.228167:eff_
1550034539.220463,cobot_dynamixel_driver/goal|-:J2:495.662333:eff_
1550034539.248351,cobot_dynamixel_driver/goal|-:J2:495.662333:eff_
1550034539.275461,cobot_dynamixel_driver/goal|-:J2:496.515863:eff_
1550034539.303708,cobot_dynamixel_driver/goal|-:J2:496.515863:eff_
1550034539.331952,cobot_dynamixel_driver/goal|-:J2:497.461288:eff_
1550034539.359452,cobot_dynamixel_driver/goal|-:J2:497.896032:eff_
1550034539.387417,cobot_dynamixel_driver/goal|-:J2:497.896032:eff_
1550034539.415701,cobot_dynamixel_driver/goal|-:J2:498.826410:eff_
1550034539.443211,cobot_dynamixel_driver/goal|-:J2:499.260972:eff_
1550034539.470308,cobot_dynamixel_driver/goal|-:J2:499.260972:eff_
1550034539.497730,cobot_dynamixel_driver/goal|-:J2:500.206439:eff_
1550034539.525237,cobot_dynamixel_driver/goal|-:J2:500.206439:eff_
1550034539.552493,cobot_dynamixel_driver/goal|-:J2:501.430208:eff_
1550034539.580696,cobot_dynamixel_driver/goal|-:J2:503.024760:eff_
1550034539.608250,cobot_dynamixel_driver/goal|-:J2:503.024760:eff_
1550034539.635446,cobot_dynamixel_driver/goal|-:J2:509.731464:eff_
1550034539.663349,cobot_dynamixel_driver/goal|-:J2:514.728801:eff_
1550034539.691368,cobot_dynamixel_driver/goal|-:J2:521.208503:eff_
1550034539.718206,cobot_dynamixel_driver/goal|-:J2:528.961827:eff_
1550034539.745332,cobot_dynamixel_driver/goal|-:J2:528.961827:eff_
1550034539.772358,cobot_dynamixel_driver/goal|-:J2:547.455869:eff_
1550034539.800432,cobot_dynamixel_driver/goal|-:J2:558.068030:eff_
1550034539.828291,cobot_dynamixel_driver/goal|-:J2:558.068030:eff_
1550034539.855371,cobot_dynamixel_driver/goal|-:J2:582.079409:eff_
1550034539.883184,cobot_dynamixel_driver/goal|-:J2:594.075835:eff_
1550034539.910751,cobot_dynamixel_driver/goal|-:J2:594.075835:eff_
1550034539.939138,cobot_dynamixel_driver/goal|-:J2:618.681875:eff_
1550034539.966791,cobot_dynamixel_driver/goal|-:J2:618.681875:eff_
1550034539.994690,cobot_dynamixel_driver/goal|-:J2:642.192524:eff_
1550034540.022339,cobot_dynamixel_driver/goal|-:J2:642.192524:eff_
1550034540.049354,cobot_dynamixel_driver/goal|-:J2:653.015362:eff_
1550034540.077603,cobot_dynamixel_driver/goal|-:J2:671.370657:eff_
1550034540.105448,cobot_dynamixel_driver/goal|-:J2:671.370657:eff_
1550034540.133701,cobot_dynamixel_driver/goal|-:J2:686.978808:eff_
1550034540.161414,cobot_dynamixel_driver/goal|-:J2:693.583624:eff_
1550034540.189274,cobot_dynamixel_driver/goal|-:J2:693.583624:eff_
1550034540.216756,cobot_dynamixel_driver/goal|-:J2:703.305323:eff_
