surachairobotic/cobot/cobot_dynamixel_driver/log/2019-06-20T04:32:33.713014_driver_cmd.txt
1561005158.806744,cobot_dynamixel_driver/goal|-:J1,J2,J3,J4,J5,J6:0.000000,0.000000,0.000000,0.000000,0.000000,0.000000:0.500000,0.500000,0.500000,0.500000,0.500000,0.500000:pos_vel_
1561008172.646301,cobot_dynamixel_driver/goal|-:J1,J2,J3,J4,J5,J6:0.022442,0.004713,0.133339,-0.002106,-0.148926,0.512019:vel_
1561008173.078387,cobot_dynamixel_driver/goal|-:J1,J2,J3,J4,J5,J6:0.022827,-0.002721,0.129336,-0.002226,-0.154630,0.538718:vel_
1561008173.110427,cobot_dynamixel_driver/goal|-:J1,J2,J3,J4,J5,J6:0.023891,-0.003252,0.131191,-0.002529,-0.158000,0.594665:vel_
1561008173.142411,cobot_dynamixel_driver/goal|-:J1,J2,J3,J4,J5,J6:0.024648,-0.003822,0.129921,-0.002924,-0.158709,0.650342:vel_
1561008173.174490,cobot_dynamixel_driver/goal|-:J1,J2,J3,J4,J5,J6:0.025118,-0.004474,0.129475,-0.003480,-0.160037,0.707185:vel_
1561008173.206472,cobot_dynamixel_driver/goal|-:J1,J2,J3,J4,J5,J6:0.040183,0.008148,0.212238,-0.006409,-0.251815,0.785398:vel_
1561008173.238427,cobot_dynamixel_driver/goal|-:J1,J2,J3,J4,J5,J6:0.042987,0.009325,0.224213,-0.007335,-0.265363,0.785398:vel_
1561008173.270131,cobot_dynamixel_driver/goal|-:J1,J2,J3,J4,J5,J6:0.044370,0.010475,0.229830,-0.008486,-0.269541,0.785398:vel_
1561008173.302050,cobot_dynamixel_driver/goal|-:J1,J2,J3,J4,J5,J6:0.045987,0.012203,0.231351,-0.010049,-0.270162,0.785398:vel_
1561008173.334066,cobot_dynamixel_driver/goal|-:J1,J2,J3,J4,J5,J6:0.047570,0.014067,0.230585,-0.011770,-0.271015,0.785398:vel_
1561008173.366101,cobot_dynamixel_driver/goal|-:J1,J2,J3,J4,J5,J6:0.049572,0.016968,0.233232,-0.011725,-0.275954,0.785398:vel_
1561008173.398077,cobot_dynamixel_driver/goal|-:J1,J2,J3,J4,J5,J6:0.063199,0.035027,0.307076,-0.013659,-0.367280,0.785398:vel_
1561008173.430079,cobot_dynamixel_driver/goal|-:J1,J2,J3,J4,J5,J6:0.067004,0.038940,0.325175,-0.014377,-0.389876,0.785398:vel_
1561008173.462044,cobot_dynamixel_driver/goal|-:J1,J2,J3,J4,J5,J6:0.069516,0.040672,0.340142,-0.014819,-0.407908,0.785398:vel_
1561008173.494037,cobot_dynamixel_driver/goal|-:J1,J2,J3,J4,J5,J6:0.069862,0.039888,0.345995,-0.016566,-0.412209,0.785398:vel_
1561008173.526011,cobot_dynamixel_driver/goal|-:J1,J2,J3,J4,J5,J6:0.071531,0.054564,0.339681,-0.019666,-0.422095,0.785398:vel_
1561008173.558024,cobot_dynamixel_driver/goal|-:J1,J2,J3,J4,J5,J6:0.071148,0.059104,0.335981,-0.020471,-0.419878,0.785398:vel_
1561008173.590078,cobot_dynamixel_driver/goal|-:J1,J2,J3,J4,J5,J6:0.074146,0.063245,0.351234,-0.020767,-0.444410,0.785398:vel_
1561008173.622118,cobot_dynamixel_driver/goal|-:J1,J2,J3,J4,J5,J6:0.075454,0.074140,0.330749,-0.022826,-0.430896,0.785398:vel_
1561008173.654048,cobot_dynamixel_driver/goal|-:J1,J2,J3,J4,J5,J6:0.076927,0.077067,0.329152,-0.023895,-0.431485,0.785398:vel_
1561008173.686010,cobot_dynamixel_driver/goal|-:J1,J2,J3,J4,J5,J6:0.076017,0.078430,0.330131,-0.023947,-0.434439,0.785398:vel_
1561008173.718043,cobot_dynamixel_driver/goal|-:J1,J2,J3,J4,J5,J6:0.076538,0.090270,0.313457,-0.026879,-0.422522,0.785398:vel_
1561008173.750025,cobot_dynamixel_driver/goal|-:J1,J2,J3,J4,J5,J6:0.077084,0.094976,0.313869,-0.028019,-0.429950,0.785398:vel_
1561008173.782025,cobot_dynamixel_driver/goal|-:J1,J2,J3,J4,J5,J6:0.077643,0.096968,0.315024,-0.029187,-0.437091,0.785398:vel_
1561008173.814047,cobot_dynamixel_driver/goal|-:J1,J2,J3,J4,J5,J6:0.079827,0.109074,0.301344,-0.031743,-0.428958,0.785398:vel_
1561008173.846051,cobot_dynamixel_driver/goal|-:J1,J2,J3,J4,J5,J6:0.080376,0.112611,0.298329,-0.032723,-0.427469,0.785398:vel_
1561008173.878070,cobot_dynamixel_driver/goal|-:J1,J2,J3,J4,J5,J6:0.080955,0.115086,0.299448,-0.031718,-0.432243,0.785398:vel_
1561008173.910034,cobot_dynamixel_driver/goal|-:J1,J2,J3,J4,J5,J6:0.081468,0.127848,0.285796,-0.033382,-0.427063,0.785398:vel_
1561008173.942304,cobot_dynamixel_driver/goal|-:J1,J2,J3,J4,J5,J6:0.082000,0.132641,0.283537,-0.033525,-0.427049,0.785398:vel_
1561008173.974052,cobot_dynamixel_driver/goal|-:J1,J2,J3,J4,J5,J6:0.082913,0.133363,0.283590,-0.033691,-0.427449,0.785398:vel_
1561008174.006024,cobot_dynamixel_driver/goal|-:J1,J2,J3,J4,J5,J6:0.081622,0.145541,0.269043,-0.036540,-0.421453,0.785398:vel_
1561008174.038082,cobot_dynamixel_driver/goal|-:J1,J2,J3,J4,J5,J6:0.081547,0.148661,0.266515,-0.037510,-0.422755,0.785398:vel_
1561008174.070085,cobot_dynamixel_driver/goal|-:J1,J2,J3,J4,J5,J6:0.081210,0.149878,0.268000,-0.037138,-0.423867,0.785398:vel_
1561008174.102083,cobot_dynamixel_driver/goal|-:J1,J2,J3,J4,J5,J6:0.081286,0.163060,0.252581,-0.039205,-0.418331,0.785398:vel_
1561008174.134070,cobot_dynamixel_driver/goal|-:J1,J2,J3,J4,J5,J6:0.082279,0.167004,0.249442,-0.040026,-0.418108,0.785398:vel_
1561008174.166219,cobot_dynamixel_driver/goal|-:J1,J2,J3,J4,J5,J6:0.084008,0.170523,0.254112,-0.041229,-0.428318,0.785398:vel_
1561008174.198445,cobot_dynamixel_driver/goal|-:J1,J2,J3,J4,J5,J6:0.081655,0.180937,0.235380,-0.041881,-0.415637,0.785398:vel_
1561008174.230358,cobot_dynamixel_driver/goal|-:J1,J2,J3,J4,J5,J6:0.080817,0.183669,0.231172,-0.041255,-0.413245,0.785398:vel_
1561008174.262389,cobot_dynamixel_driver/goal|-:J1,J2,J3,J4,J5,J6:0.081676,0.188985,0.232477,-0.041163,-0.420029,0.785398:vel_
1561008174.294307,cobot_dynamixel_driver/goal|-:J1,J2,J3,J4,J5,J6:0.082848,0.191635,0.236660,-0.040921,-0.423232,0.785398:vel_
1561008174.326215,cobot_dynamixel_driver/goal|-:J1,J2,J3,J4,J5,J6:0.079605,0.203865,0.215562,-0.042459,-0.412408,0.785398:vel_
1561008174.358177,cobot_dynamixel_driver/goal|-:J1,J2,J3,J4,J5,J6:0.079298,0.209022,0.209415,-0.043415,-0.413013,0.785398:vel_
1561008174.390127,cobot_dynamixel_driver/goal|-:J1,J2,J3,J4,J5,J6:0.078912,0.212924,0.210573,-0.043125,-0.420069,0.785398:vel_
1561008174.422135,cobot_dynamixel_driver/goal|-:J1,J2,J3,J4,J5,J6:0.077976,0.222648,0.195265,-0.043298,-0.401153,0.785398:vel_
1561008174.454046,cobot_dynamixel_driver/goal|-:J1,J2,J3,J4,J5,J6:0.078362,0.227537,0.192125,-0.044164,-0.404450,0.785398:vel_
1561008174.485999,cobot_dynamixel_driver/goal|-:J1,J2,J3,J4,J5,J6:0.080982,0.238868,0.197143,-0.046311,-0.418302,0.785398:vel_
1561008174.518087,cobot_dynamixel_driver/goal|-:J1,J2,J3,J4,J5,J6:0.077481,0.240078,0.178389,-0.043802,-0.401041,0.785398:vel_
1561008174.550049,cobot_dynamixel_driver/goal|-:J1,J2,J3,J4,J5,J6:0.076880,0.241351,0.173315,-0.042604,-0.396607,0.785398:vel_
1561008174.582012,cobot_dynamixel_driver/goal|-:J1,J2,J3,J4,J5,J6:0.078256,0.251003,0.176960,-0.043947,-0.406638,0.785398:vel_
1561008174.614004,cobot_dynamixel_driver/goal|-:J1,J2,J3,J4,J5,J6:0.075003,0.256024,0.160585,-0.043710,-0.395932,0.785398:vel_
1561008174.646001,cobot_dynamixel_driver/goal|-:J1,J2,J3,J4,J5,J6:0.075069,0.263602,0.157519,-0.044552,-0.398384,0.785398:vel_
1561008174.678076,cobot_dynamixel_driver/goal|-:J1,J2,J3,J4,J5,J6:0.076583,0.265491,0.156911,-0.045141,-0.403744,0.785398:vel_
1561008174.713367,cobot_dynamixel_driver/goal|-:J1,J2,J3,J4,J5,J6:0.072509,0.273291,0.140913,-0.042124,-0.389035,0.785398:vel_
1561008174.758037,cobot_dynamixel_driver/goal|-:J1,J2,J3,J4,J5,J6:0.071354,0.278846,0.134409,-0.041239,-0.385591,0.785398:vel_
1561008174.789993,cobot_dynamixel_driver/goal|-:J1,J2,J3,J4,J5,J6:0.060130,0.253806,0.108950,-0.036083,-0.337659,0.785398:vel_
1561008174.822043,cobot_dynamixel_driver/goal|-:J1,J2,J3,J4,J5,J6:0.058043,0.250003,0.105319,-0.034415,-0.330360,0.785398:vel_
1561008174.854062,cobot_dynamixel_driver/goal|-:J1,J2,J3,J4,J5,J6:0.057068,0.250234,0.105337,-0.034011,-0.330841,0.785398:vel_
1561008174.886048,cobot_dynamixel_driver/goal|-:J1,J2,J3,J4,J5,J6:0.056895,0.249436,0.108147,-0.034991,-0.336687,0.785398:vel_
1561008174.918027,cobot_dynamixel_driver/goal|-:J1,J2,J3,J4,J5,J6:0.025867,0.120713,0.043167,-0.015481,-0.151998,0.785398:vel_
1561008174.950088,cobot_dynamixel_driver/goal|-:J1,J2,J3,J4,J5,J6:0.022532,0.106693,0.036144,-0.013430,-0.131421,0.785398:vel_
1561008174.982151,cobot_dynamixel_driver/goal|-:J1,J2,J3,J4,J5,J6:0.021783,0.096582,0.034103,-0.013640,-0.115299,0.785398:vel_
1561008175.014107,cobot_dynamixel_driver/goal|-:J1,J2,J3,J4,J5,J6:0.022047,0.095485,0.035734,-0.013335,-0.110171,0.785398:vel_
1561008175.046298,cobot_dynamixel_driver/goal|-:J1,J2,J3,J4,J5,J6:0.022518,0.098414,0.036958,-0.012919,-0.114376,0.785398:vel_
1561008175.078158,cobot_dynamixel_driver/goal|-:J1,J2,J3,J4,J5,J6:0.022068,0.100154,0.036977,-0.012494,-0.115730,0.785398:vel_
1561008175.110430,cobot_dynamixel_driver/goal|-:J1,J2,J3,J4,J5,J6:0.022021,0.103045,0.037130,-0.012132,-0.117078,0.785398:vel_
1561008175.142066,cobot_dynamixel_driver/goal|-:J1,J2,J3,J4,J5,J6:0.001614,0.093219,0.046392,-0.008630,-0.132994,0.785398:vel_
1561008175.174037,cobot_dynamixel_driver/goal|-:J1,J2,J3,J4,J5,J6:-0.000162,0.092455,0.047690,-0.008390,-0.134913,0.785398:vel_
1561008175.206044,cobot_dynamixel_driver/goal|-:J1,J2,J3,J4,J5,J6:-0.000357,0.093048,0.048044,-0.008470,-0.135522,0.785398:vel_
1561008175.237967,cobot_dynamixel_driver/goal|-:J1,J2,J3,J4,J5,J6:-0.000402,0.093359,0.047771,-0.008599,-0.135859,0.785398:vel_
1561008175.269955,cobot_dynamixel_driver/goal|-:J1,J2,J3,J4,J5,J6:-0.000460,0.093583,0.047301,-0.008697,-0.136309,0.785398:vel_
1561008175.302023,cobot_dynamixel_driver/goal|-:J1,J2,J3,J4,J5,J6:-0.000539,0.095100,0.047681,-0.008601,-0.137849,0.785398:vel_
1561008175.333988,cobot_dynamixel_driver/goal|-:J1,J2,J3,J4,J5,J6:-0.000648,0.094999,0.047857,-0.008656,-0.138419,0.785398:vel_
1561008175.366049,cobot_dynamixel_driver/goal|-:J1,J2,J3,J4,J5,J6:-0.006379,0.156245,0.076233,-0.013757,-0.230510,0.785398:vel_
1561008175.397973,cobot_dynamixel_driver/goal|-:J1,J2,J3,J4,J5,J6:-0.007331,0.166785,0.080108,-0.014945,-0.245383,0.785398:vel_
1561008175.429988,cobot_dynamixel_driver/goal|-:J1,J2,J3,J4,J5,J6:-0.008186,0.171412,0.081323,-0.015076,-0.251166,0.785398:vel_
1561008175.462064,cobot_dynamixel_driver/goal|-:J1,J2,J3,J4,J5,J6:-0.009781,0.172577,0.081407,-0.015654,-0.251632,0.785398:vel_
1561008175.493987,cobot_dynamixel_driver/goal|-:J1,J2,J3,J4,J5,J6:-0.011661,0.171688,0.081224,-0.016194,-0.252298,0.785398:vel_
1561008175.525939,cobot_dynamixel_driver/goal|-:J1,J2,J3,J4,J5,J6:-0.014947,0.237077,0.104170,-0.021709,-0.341581,0.785398:vel_
1561008175.559639,cobot_dynamixel_driver/goal|-:J1,J2,J3,J4,J5,J6:-0.016955,0.259135,0.112199,-0.022975,-0.371841,0.785398:vel_
1561008175.589932,cobot_dynamixel_driver/goal|-:J1,J2,J3,J4,J5,J6:-0.018438,0.268369,0.113614,-0.023087,-0.383408,0.785398:vel_
1561008175.622492,cobot_dynamixel_driver/goal|-:J1,J2,J3,J4,J5,J6:-0.020366,0.273086,0.113170,-0.022188,-0.385276,0.785398:vel_
1561008175.653966,cobot_dynamixel_driver/goal|-:J1,J2,J3,J4,J5,J6:-0.018791,0.300465,0.111970,-0.027864,-0.412218,0.785398:vel_
1561008175.685949,cobot_dynamixel_driver/goal|-:J1,J2,J3,J4,J5,J6:-0.018987,0.307050,0.110522,-0.029726,-0.419038,0.785398:vel_
1561008175.719597,cobot_dynamixel_driver/goal|-:J1,J2,J3,J4,J5,J6:-0.022576,0.347840,0.126966,-0.034789,-0.482429,0.785398:vel_
1561008175.749988,cobot_dynamixel_driver/goal|-:J1,J2,J3,J4,J5,J6:-0.017250,0.318514,0.100163,-0.032892,-0.418962,0.785398:vel_
1561008175.781960,cobot_dynamixel_driver/goal|-:J1,J2,J3,J4,J5,J6:-0.014734,0.305955,0.090576,-0.032283,-0.397799,0.785398:vel_
1561008175.813949,cobot_dynamixel_driver/goal|-:J1,J2,J3,J4,J5,J6:-0.012580,0.271716,0.071585,-0.029938,-0.345221,0.785398:vel_
1561008175.846206,cobot_dynamixel_driver/goal|-:J1,J2,J3,J4,J5,J6:-0.012260,0.265512,0.068944,-0.028893,-0.335601,0.785398:vel_
1561008175.881818,cobot_dynamixel_driver/goal|-:J1,J2,J3,J4,J5,J6:-0.012553,0.276689,0.071609,-0.029791,-0.348241,0.785398:vel_
1561008175.925922,cobot_dynamixel_driver/goal|-:J1,J2,J3,J4,J5,J6:-0.006358,0.134070,0.029678,-0.015810,-0.162216,0.785398:vel_
1561008175.957954,cobot_dynamixel_driver/goal|-:J1,J2,J3,J4,J5,J6:-0.006014,0.118871,0.025298,-0.014664,-0.141564,0.785398:vel_
1561008175.989940,cobot_dynamixel_driver/goal|-:J1,J2,J3,J4,J5,J6:-0.006022,0.106403,0.025333,-0.014764,-0.124465,0.785398:vel_
1561008176.022040,cobot_dynamixel_driver/goal|-:J1,J2,J3,J4,J5,J6:-0.006309,0.105128,0.026439,-0.015103,-0.120230,0.785398:vel_
1561008176.054016,cobot_dynamixel_driver/goal|-:J1,J2,J3,J4,J5,J6:-0.006735,0.108316,0.027139,-0.015256,-0.122922,0.785398:vel_
1561008176.086055,cobot_dynamixel_driver/goal|-:J1,J2,J3,J4,J5,J6:-0.006919,0.111131,0.027483,-0.014970,-0.124650,0.785398:vel_
1561008176.118045,cobot_dynamixel_driver/goal|-:J1,J2,J3,J4,J5,J6:0.002111,-0.053812,-0.009811,0.006217,0.068573,0.785398:vel_
1561008176.150333,cobot_dynamixel_driver/goal|-:J1,J2,J3,J4,J5,J6:0.002928,-0.067876,-0.012857,0.007963,0.085659,0.785398:vel_
1561008176.182245,cobot_dynamixel_driver/goal|-:J1,J2,J3,J4,J5,J6:0.003256,-0.079260,-0.013903,0.008715,0.098942,0.785398:vel_
1561008176.214294,cobot_dynamixel_driver/goal|-:J1,J2,J3,J4,J5,J6:0.003604,-0.083963,-0.014796,0.009603,0.104760,0.785398:vel_
1561008176.246129,cobot_dynamixel_driver/goal|-:J1,J2,J3,J4,J5,J6:0.004041,-0.086521,-0.015453,0.010577,0.104710,0.785398:vel_
1561008176.278067,cobot_dynamixel_driver/goal|-:J1,J2,J3,J4,J5,J6:0.004523,-0.088403,-0.016163,0.011391,0.106021,0.785398:vel_
1561008176.310146,cobot_dynamixel_driver/goal|-:J1,J2,J3,J4,J5,J6:0.005261,-0.091097,-0.017552,0.012501,0.107856,0.785398:vel_
1561008176.342082,cobot_dynamixel_driver/goal|-:J1,J2,J3,J4,J5,J6:0.009229,-0.169354,-0.041082,0.020752,0.208593,0.750551:vel_
1561008176.374077,cobot_dynamixel_driver/goal|-:J1,J2,J3,J4,J5,J6:0.009960,-0.180100,-0.044089,0.022455,0.221929,0.749864:vel_
1561008176.406042,cobot_dynamixel_driver/goal|-:J1,J2,J3,J4,J5,J6:0.010600,-0.186053,-0.044611,0.022577,0.227516,0.753249:vel_
1561008176.437895,cobot_dynamixel_driver/goal|-:J1,J2,J3,J4,J5,J6:0.011306,-0.189258,-0.044769,0.022174,0.226559,0.764223:vel_
1561008176.469916,cobot_dynamixel_driver/goal|-:J1,J2,J3,J4,J5,J6:0.011900,-0.188622,-0.045403,0.021780,0.224075,0.762843:vel_
1561008176.501979,cobot_dynamixel_driver/goal|-:J1,J2,J3,J4,J5,J6:0.012594,-0.190931,-0.047016,0.021753,0.225907,0.769953:vel_
1561008176.534033,cobot_dynamixel_driver/goal|-:J1,J2,J3,J4,J5,J6:0.013498,-0.194491,-0.049195,0.022901,0.229796,0.776132:vel_
1561008176.565986,cobot_dynamixel_driver/goal|-:J1,J2,J3,J4,J5,J6:0.015503,-0.269813,-0.082594,0.029110,0.346868,0.288089:vel_
1561008176.597915,cobot_dynamixel_driver/goal|-:J1,J2,J3,J4,J5,J6:0.015814,-0.288247,-0.091151,0.031288,0.375650,0.165455:vel_
1561008176.629955,cobot_dynamixel_driver/goal|-:J1,J2,J3,J4,J5,J6:0.016807,-0.300937,-0.095539,0.032913,0.398837,0.003851:vel_
1561008176.662109,cobot_dynamixel_driver/goal|-:J1,J2,J3,J4,J5,J6:0.018699,-0.308565,-0.094951,0.036348,0.410241,-0.273520:vel_
1561008176.693958,cobot_dynamixel_driver/goal|-:J1,J2,J3,J4,J5,J6:0.017588,-0.303528,-0.111743,0.030940,0.418443,-0.262707:vel_
1561008176.726049,cobot_dynamixel_driver/goal|-:J1,J2,J3,J4,J5,J6:0.019027,-0.305996,-0.117714,0.030330,0.427339,-0.467702:vel_
1561008176.757986,cobot_dynamixel_driver/goal|-:J1,J2,J3,J4,J5,J6:0.020353,-0.303496,-0.119606,0.031060,0.426480,-0.785398:vel_
1561008176.790097,cobot_dynamixel_driver/goal|-:J1,J2,J3,J4,J5,J6:0.015438,-0.261139,-0.116302,0.024368,0.380126,-0.411890:vel_
1561008176.821985,cobot_dynamixel_driver/goal|-:J1,J2,J3,J4,J5,J6:0.014224,-0.251694,-0.115366,0.023716,0.370274,-0.538744:vel_
1561008176.854110,cobot_dynamixel_driver/goal|-:J1,J2,J3,J4,J5,J6:0.014113,-0.246348,-0.116278,0.025366,0.375241,-0.731340:vel_
1561008176.886294,cobot_dynamixel_driver/goal|-:J1,J2,J3,J4,J5,J6:0.015290,-0.249454,-0.118182,0.026996,0.382537,-0.785398:vel_
1561008176.918205,cobot_dynamixel_driver/goal|-:J1,J2,J3,J4,J5,J6:0.007004,-0.111079,-0.059217,0.009278,0.171285,-0.189438:vel_
1561008176.950321,cobot_dynamixel_driver/goal|-:J1,J2,J3,J4,J5,J6:0.006334,-0.096450,-0.053009,0.007385,0.148139,-0.176611:vel_
1561008176.982316,cobot_dynamixel_driver/goal|-:J1,J2,J3,J4,J5,J6:0.006194,-0.084391,-0.051023,0.007433,0.129523,-0.168129:vel_
1561008177.014368,cobot_dynamixel_driver/goal|-:J1,J2,J3,J4,J5,J6:0.006198,-0.082154,-0.052751,0.007744,0.121010,-0.170848:vel_
1561008177.046203,cobot_dynamixel_driver/goal|-:J1,J2,J3,J4,J5,J6:0.006357,-0.084904,-0.053255,0.007203,0.122821,-0.171809:vel_
1561008177.078112,cobot_dynamixel_driver/goal|-:J1,J2,J3,J4,J5,J6:0.006523,-0.087451,-0.054252,0.006714,0.124746,-0.172165:vel_
1561008177.110003,cobot_dynamixel_driver/goal|-:J1,J2,J3,J4,J5,J6:0.006281,-0.089572,-0.056050,0.006630,0.127091,-0.173031:vel_
1561008177.141948,cobot_dynamixel_driver/goal|-:J1,J2,J3,J4,J5,J6:-0.199141,-0.036833,-0.013179,-0.004128,0.048630,-0.134349:vel_
1561008177.174033,cobot_dynamixel_driver/goal|-:J1,J2,J3,J4,J5,J6:-0.210358,-0.034178,-0.010943,-0.004839,0.044784,-0.132801:vel_
1561008177.205993,cobot_dynamixel_driver/goal|-:J1,J2,J3,J4,J5,J6:-0.219975,-0.033385,-0.010631,-0.005113,0.044278,-0.133248:vel_
1561008177.238038,cobot_dynamixel_driver/goal|-:J1,J2,J3,J4,J5,J6:-0.225016,-0.034055,-0.010918,-0.005421,0.045001,-0.133692:vel_
1561008177.269938,cobot_dynamixel_driver/goal|-:J1,J2,J3,J4,J5,J6:-0.226549,-0.034349,-0.011189,-0.005767,0.044933,-0.133945:vel_
1561008177.301892,cobot_dynamixel_driver/goal|-:J1,J2,J3,J4,J5,J6:-0.226982,-0.034877,-0.011891,-0.006130,0.045008,-0.134242:vel_
1561008177.333872,cobot_dynamixel_driver/goal|-:J1,J2,J3,J4,J5,J6:-0.227135,-0.035257,-0.012267,-0.006546,0.044957,-0.134316:vel_
1561008177.365915,cobot_dynamixel_driver/goal|-:J1,J2,J3,J4,J5,J6:-0.228133,-0.035493,-0.012170,-0.006949,0.045197,-0.134686:vel_
1561008177.397900,cobot_dynamixel_driver/goal|-:J1,J2,J3,J4,J5,J6:-0.228995,-0.035517,-0.011926,-0.007069,0.045316,-0.134854:vel_
1561008177.429923,cobot_dynamixel_driver/goal|-:J1,J2,J3,J4,J5,J6:-0.228776,-0.035358,-0.012444,-0.007247,0.045329,-0.135036:vel_
1561008177.461919,cobot_dynamixel_driver/goal|-:J1,J2,J3,J4,J5,J6:-0.229909,-0.035462,-0.012346,-0.007734,0.045585,-0.135635:vel_
1561008177.493914,cobot_dynamixel_driver/goal|-:J1,J2,J3,J4,J5,J6:-0.230412,-0.035396,-0.012279,-0.008222,0.045844,-0.135606:vel_
1561008177.525868,cobot_dynamixel_driver/goal|-:J1,J2,J3,J4,J5,J6:-0.230851,-0.035350,-0.013113,-0.008577,0.045981,-0.136107:vel_
1561008177.558132,cobot_dynamixel_driver/goal|-:J1,J2,J3,J4,J5,J6:-0.232790,-0.035345,-0.013259,-0.008728,0.046582,-0.137329:vel_
1561008177.589898,cobot_dynamixel_driver/goal|-:J1,J2,J3,J4,J5,J6:-0.234477,-0.035098,-0.013089,-0.009013,0.046853,-0.138636:vel_
1561008177.621953,cobot_dynamixel_driver/goal|-:J1,J2,J3,J4,J5,J6:-0.235307,-0.034893,-0.013007,-0.009330,0.046792,-0.139021:vel_
1561008177.653923,cobot_dynamixel_driver/goal|-:J1,J2,J3,J4,J5,J6:-0.237302,-0.034527,-0.011177,-0.009728,0.047309,-0.140025:vel_
1561008177.685858,cobot_dynamixel_driver/goal|-:J1,J2,J3,J4,J5,J6:-0.237772,-0.033686,-0.009883,-0.010114,0.047654,-0.141817:vel_
1561008177.720425,cobot_dynamixel_driver/goal|-:J1,J2,J3,J4,J5,J6:-0.354498,-0.042903,-0.009686,-0.009561,0.056185,-0.197105:vel_
1561008177.749905,cobot_dynamixel_driver/goal|-:J1,J2,J3,J4,J5,J6:-0.362506,-0.043368,-0.010202,-0.009269,0.056492,-0.200711:vel_
1561008177.781879,cobot_dynamixel_driver/goal|-:J1,J2,J3,J4,J5,J6:-0.370122,-0.043873,-0.011104,-0.009048,0.056510,-0.202236:vel_
1561008177.813879,cobot_dynamixel_driver/goal|-:J1,J2,J3,J4,J5,J6:-0.371302,-0.044034,-0.011317,-0.009211,0.056327,-0.201201:vel_
1561008177.845871,cobot_dynamixel_driver/goal|-:J1,J2,J3,J4,J5,J6:-0.372383,-0.044471,-0.010684,-0.009413,0.056336,-0.201870:vel_
1561008177.877954,cobot_dynamixel_driver/goal|-:J1,J2,J3,J4,J5,J6:-0.371533,-0.044464,-0.010958,-0.009622,0.056383,-0.202586:vel_
1561008177.909898,cobot_dynamixel_driver/goal|-:J1,J2,J3,J4,J5,J6:-0.376464,-0.044671,-0.011000,-0.009820,0.056307,-0.204209:vel_
1561008177.941836,cobot_dynamixel_driver/goal|-:J1,J2,J3,J4,J5,J6:-0.377540,-0.044646,-0.010091,-0.009728,0.056422,-0.204294:vel_
1561008177.974004,cobot_dynamixel_driver/goal|-:J1,J2,J3,J4,J5,J6:-0.379041,-0.044521,-0.011228,-0.009950,0.056605,-0.205965:vel_
1561008178.006329,cobot_dynamixel_driver/goal|-:J1,J2,J3,J4,J5,J6:-0.382002,-0.044438,-0.011777,-0.009749,0.056443,-0.205413:vel_
1561008178.038306,cobot_dynamixel_driver/goal|-:J1,J2,J3,J4,J5,J6:-0.383809,-0.045781,-0.010032,-0.009532,0.055498,-0.206122:vel_
1561008178.070281,cobot_dynamixel_driver/goal|-:J1,J2,J3,J4,J5,J6:-0.373100,-0.044821,-0.010282,-0.009610,0.057180,-0.205433:vel_
1561008178.102407,cobot_dynamixel_driver/goal|-:J1,J2,J3,J4,J5,J6:-0.374138,-0.045236,-0.010705,-0.009754,0.057654,-0.206038:vel_
1561008178.133929,cobot_dynamixel_driver/goal|-:J1,J2,J3,J4,J5,J6:-0.373039,-0.045089,-0.010155,-0.009547,0.057593,-0.205581:vel_
1561008178.166227,cobot_dynamixel_driver/goal|-:J1,J2,J3,J4,J5,J6:-0.374353,-0.045418,-0.009954,-0.009365,0.058016,-0.206317:vel_
1561008178.198180,cobot_dynamixel_driver/goal|-:J1,J2,J3,J4,J5,J6:-0.375606,-0.045345,-0.009870,-0.009803,0.057959,-0.206694:vel_
1561008178.230288,cobot_dynamixel_driver/goal|-:J1,J2,J3,J4,J5,J6:-0.378337,-0.045526,-0.009032,-0.010273,0.058500,-0.208895:vel_
1561008178.261994,cobot_dynamixel_driver/goal|-:J1,J2,J3,J4,J5,J6:-0.376739,-0.044707,-0.009229,-0.010072,0.058510,-0.207290:vel_
1561008178.293872,cobot_dynamixel_driver/goal|-:J1,J2,J3,J4,J5,J6:-0.381132,-0.044684,-0.009846,-0.010220,0.059155,-0.209265:vel_
1561008178.325897,cobot_dynamixel_driver/goal|-:J1,J2,J3,J4,J5,J6:-0.383772,-0.044754,-0.008721,-0.010500,0.059535,-0.212327:vel_
1561008178.357889,cobot_dynamixel_driver/goal|-:J1,J2,J3,J4,J5,J6:-0.389469,-0.043876,-0.008545,-0.010274,0.060405,-0.214069:vel_
1561008178.389950,cobot_dynamixel_driver/goal|-:J1,J2,J3,J4,J5,J6:-0.393407,-0.042173,-0.013051,-0.010265,0.059835,-0.215194:vel_
1561008178.421938,cobot_dynamixel_driver/goal|-:J1,J2,J3,J4,J5,J6:-0.374748,-0.044047,-0.011387,-0.009444,0.057667,-0.206856:vel_
1561008178.453904,cobot_dynamixel_driver/goal|-:J1,J2,J3,J4,J5,J6:-0.374180,-0.044018,-0.011724,-0.009222,0.057663,-0.206545:vel_
1561008178.485820,cobot_dynamixel_driver/goal|-:J1,J2,J3,J4,J5,J6:-0.374289,-0.044043,-0.011547,-0.009113,0.057763,-0.207222:vel_
1561008178.517835,cobot_dynamixel_driver/goal|-:J1,J2,J3,J4,J5,J6:-0.377804,-0.044231,-0.011926,-0.009383,0.058094,-0.208340:vel_
1561008178.549882,cobot_dynamixel_driver/goal|-:J1,J2,J3,J4,J5,J6:-0.379308,-0.043990,-0.013295,-0.009574,0.058229,-0.208911:vel_
1561008178.581864,cobot_dynamixel_driver/goal|-:J1,J2,J3,J4,J5,J6:-0.382324,-0.044165,-0.013826,-0.009817,0.058835,-0.210537:vel_
1561008178.613845,cobot_dynamixel_driver/goal|-:J1,J2,J3,J4,J5,J6:-0.383475,-0.044016,-0.012316,-0.010097,0.059221,-0.211598:vel_
1561008178.645805,cobot_dynamixel_driver/goal|-:J1,J2,J3,J4,J5,J6:-0.385776,-0.043676,-0.011556,-0.010073,0.059996,-0.213096:vel_
1561008178.693758,cobot_dynamixel_driver/goal|-:J1,J2,J3,J4,J5,J6:-0.435909,-0.049301,-0.012188,-0.010756,0.068214,-0.242548:vel_
1561008178.725915,cobot_dynamixel_driver/goal|-:J1,J2,J3,J4,J5,J6:-0.395057,-0.043959,-0.016606,-0.009553,0.060752,-0.218773:vel_
1561008178.757854,cobot_dynamixel_driver/goal|-:J1,J2,J3,J4,J5,J6:-0.372832,-0.044324,-0.011292,-0.009608,0.057685,-0.204550:vel_
1561008178.789871,cobot_dynamixel_driver/goal|-:J1,J2,J3,J4,J5,J6:-0.372027,-0.044249,-0.010273,-0.009552,0.057561,-0.204524:vel_
1561008178.821887,cobot_dynamixel_driver/goal|-:J1,J2,J3,J4,J5,J6:-0.371744,-0.044104,-0.009933,-0.009466,0.057968,-0.205217:vel_
1561008178.853884,cobot_dynamixel_driver/goal|-:J1,J2,J3,J4,J5,J6:-0.372416,-0.043981,-0.009102,-0.009832,0.058242,-0.206177:vel_
1561008178.886150,cobot_dynamixel_driver/goal|-:J1,J2,J3,J4,J5,J6:-0.374720,-0.043727,-0.009744,-0.009994,0.058493,-0.205850:vel_
1561008178.918290,cobot_dynamixel_driver/goal|-:J1,J2,J3,J4,J5,J6:-0.378212,-0.043944,-0.010401,-0.009775,0.058850,-0.207684:vel_
1561008178.950153,cobot_dynamixel_driver/goal|-:J1,J2,J3,J4,J5,J6:-0.379042,-0.044208,-0.009332,-0.009891,0.059290,-0.208463:vel_
1561008178.982161,cobot_dynamixel_driver/goal|-:J1,J2,J3,J4,J5,J6:-0.383393,-0.044403,-0.009165,-0.010029,0.059830,-0.210347:vel_
1561008179.014151,cobot_dynamixel_driver/goal|-:J1,J2,J3,J4,J5,J6:-0.384865,-0.044387,-0.011686,-0.009716,0.059305,-0.210479:vel_
1561008179.046422,cobot_dynamixel_driver/goal|-:J1,J2,J3,J4,J5,J6:-0.390670,-0.044492,-0.016634,-0.009605,0.059441,-0.214739:vel_
1561008179.078145,cobot_dynamixel_driver/goal|-:J1,J2,J3,J4,J5,J6:-0.378557,-0.044596,-0.011754,-0.009490,0.058102,-0.208885:vel_
1561008179.110222,cobot_dynamixel_driver/goal|-:J1,J2,J3,J4,J5,J6:-0.377182,-0.044680,-0.010770,-0.009236,0.058196,-0.208201:vel_
1561008179.141927,cobot_dynamixel_driver/goal|-:J1,J2,J3,J4,J5,J6:-0.378281,-0.044552,-0.010935,-0.009050,0.058645,-0.208394:vel_
1561008179.173883,cobot_dynamixel_driver/goal|-:J1,J2,J3,J4,J5,J6:-0.381216,-0.045151,-0.010952,-0.009204,0.059089,-0.210087:vel_
1561008179.205906,cobot_dynamixel_driver/goal|-:J1,J2,J3,J4,J5,J6:-0.381725,-0.045340,-0.010498,-0.009372,0.059328,-0.209863:vel_
1561008179.237923,cobot_dynamixel_driver/goal|-:J1,J2,J3,J4,J5,J6:-0.383303,-0.045568,-0.011342,-0.009655,0.059504,-0.211550:vel_
1561008179.269857,cobot_dynamixel_driver/goal|-:J1,J2,J3,J4,J5,J6:-0.385982,-0.045892,-0.011315,-0.010076,0.059262,-0.212184:vel_
1561008179.301780,cobot_dynamixel_driver/goal|-:J1,J2,J3,J4,J5,J6:-0.389873,-0.046318,-0.010308,-0.010171,0.059692,-0.213888:vel_
1561008179.333884,cobot_dynamixel_driver/goal|-:J1,J2,J3,J4,J5,J6:-0.391871,-0.046597,-0.011410,-0.009634,0.060201,-0.214606:vel_
1561008179.365846,cobot_dynamixel_driver/goal|-:J1,J2,J3,J4,J5,J6:-0.393091,-0.047082,-0.012054,-0.009140,0.059526,-0.216115:vel_
1561008179.397824,cobot_dynamixel_driver/goal|-:J1,J2,J3,J4,J5,J6:-0.401317,-0.048219,-0.010479,-0.007857,0.060800,-0.220317:vel_
1561008179.431049,cobot_dynamixel_driver/goal|-:J1,J2,J3,J4,J5,J6:-0.383061,-0.045678,-0.010544,-0.009530,0.059086,-0.211148:vel_
1561008179.461984,cobot_dynamixel_driver/goal|-:J1,J2,J3,J4,J5,J6:-0.379434,-0.045358,-0.010344,-0.009578,0.058667,-0.210023:vel_
1561008179.493778,cobot_dynamixel_driver/goal|-:J1,J2,J3,J4,J5,J6:-0.377456,-0.044996,-0.009507,-0.009669,0.058288,-0.208949:vel_
1561008179.529290,cobot_dynamixel_driver/goal|-:J1,J2,J3,J4,J5,J6:-0.380803,-0.045576,-0.009544,-0.009867,0.059298,-0.211727:vel_
1561008179.573840,cobot_dynamixel_driver/goal|-:J1,J2,J3,J4,J5,J6:-0.384055,-0.045831,-0.008941,-0.009681,0.059712,-0.213384:vel_
1561008179.605780,cobot_dynamixel_driver/goal|-:J1,J2,J3,J4,J5,J6:-0.386830,-0.045598,-0.009921,-0.009641,0.059388,-0.213555:vel_
1561008179.637834,cobot_dynamixel_driver/goal|-:J1,J2,J3,J4,J5,J6:-0.389108,-0.045378,-0.011878,-0.009346,0.059371,-0.213791:vel_
1561008179.669888,cobot_dynamixel_driver/goal|-:J1,J2,J3,J4,J5,J6:-0.394338,-0.045607,-0.013315,-0.009073,0.059474,-0.216017:vel_
1561008179.701845,cobot_dynamixel_driver/goal|-:J1,J2,J3,J4,J5,J6:-0.395796,-0.045437,-0.012412,-0.009885,0.058919,-0.217401:vel_
1561008179.733788,cobot_dynamixel_driver/goal|-:J1,J2,J3,J4,J5,J6:-0.388705,-0.044616,-0.010844,-0.009297,0.057200,-0.213280:vel_
1561008179.765774,cobot_dynamixel_driver/goal|-:J1,J2,J3,J4,J5,J6:-0.383619,-0.045491,-0.010276,-0.009657,0.059025,-0.211505:vel_
1561008179.797828,cobot_dynamixel_driver/goal|-:J1,J2,J3,J4,J5,J6:-0.382170,-0.045383,-0.009814,-0.009752,0.059245,-0.211258:vel_
1561008179.829804,cobot_dynamixel_driver/goal|-:J1,J2,J3,J4,J5,J6:-0.383243,-0.045735,-0.010485,-0.009434,0.059264,-0.211954:vel_
1561008179.861828,cobot_dynamixel_driver/goal|-:J1,J2,J3,J4,J5,J6:-0.385408,-0.045898,-0.010923,-0.009166,0.059410,-0.213148:vel_
1561008179.909804,cobot_dynamixel_driver/goal|-:J1,J2,J3,J4,J5,J6:-0.409360,-0.048540,-0.010739,-0.009997,0.063279,-0.226114:vel_
1561008179.942433,cobot_dynamixel_driver/goal|-:J1,J2,J3,J4,J5,J6:-0.390421,-0.046340,-0.010527,-0.009790,0.059682,-0.215797:vel_
1561008179.973814,cobot_dynamixel_driver/goal|-:J1,J2,J3,J4,J5,J6:-0.389778,-0.046049,-0.010165,-0.009608,0.058932,-0.214025:vel_
1561008180.005851,cobot_dynamixel_driver/goal|-:J1,J2,J3,J4,J5,J6:-0.390314,-0.045956,-0.009056,-0.009418,0.059099,-0.214494:vel_
1561008180.038269,cobot_dynamixel_driver/goal|-:J1,J2,J3,J4,J5,J6:-0.395872,-0.046982,-0.010337,-0.009058,0.061141,-0.219818:vel_
1561008180.070144,cobot_dynamixel_driver/goal|-:J1,J2,J3,J4,J5,J6:-0.395060,-0.047822,-0.010031,-0.008437,0.060613,-0.221799:vel_
1561008180.102173,cobot_dynamixel_driver/goal|-:J1,J2,J3,J4,J5,J6:-0.384854,-0.046020,-0.009791,-0.009897,0.059325,-0.211924:vel_
1561008180.134124,cobot_dynamixel_driver/goal|-:J1,J2,J3,J4,J5,J6:-0.381534,-0.045613,-0.010021,-0.009940,0.058936,-0.210046:vel_
1561008180.166185,cobot_dynamixel_driver/goal|-:J1,J2,J3,J4,J5,J6:-0.385394,-0.046243,-0.009494,-0.009974,0.059338,-0.212499:vel_
1561008180.198195,cobot_dynamixel_driver/goal|-:J1,J2,J3,J4,J5,J6:-0.386938,-0.046345,-0.009041,-0.009927,0.059919,-0.213214:vel_
1561008180.229940,cobot_dynamixel_driver/goal|-:J1,J2,J3,J4,J5,J6:-0.387489,-0.046311,-0.010265,-0.009923,0.059739,-0.213312:vel_
1561008180.261822,cobot_dynamixel_driver/goal|-:J1,J2,J3,J4,J5,J6:-0.391879,-0.047213,-0.011966,-0.009979,0.060086,-0.216074:vel_
1561008180.293821,cobot_dynamixel_driver/goal|-:J1,J2,J3,J4,J5,J6:-0.394608,-0.047495,-0.012863,-0.009762,0.059966,-0.217272:vel_
1561008180.325747,cobot_dynamixel_driver/goal|-:J1,J2,J3,J4,J5,J6:-0.396635,-0.047027,-0.012325,-0.009337,0.060279,-0.217930:vel_
1561008180.357829,cobot_dynamixel_driver/goal|-:J1,J2,J3,J4,J5,J6:-0.402877,-0.047242,-0.013184,-0.008334,0.061585,-0.221623:vel_
1561008180.389792,cobot_dynamixel_driver/goal|-:J1,J2,J3,J4,J5,J6:-0.403800,-0.046563,-0.015710,-0.008047,0.061920,-0.223320:vel_
1561008180.421859,cobot_dynamixel_driver/goal|-:J1,J2,J3,J4,J5,J6:-0.387870,-0.045982,-0.010334,-0.009755,0.059913,-0.213693:vel_
1561008180.453771,cobot_dynamixel_driver/goal|-:J1,J2,J3,J4,J5,J6:-0.386419,-0.045837,-0.009723,-0.009972,0.059953,-0.212920:vel_
1561008180.485726,cobot_dynamixel_driver/goal|-:J1,J2,J3,J4,J5,J6:-0.386297,-0.045727,-0.009317,-0.009721,0.059980,-0.213308:vel_
1561008180.517779,cobot_dynamixel_driver/goal|-:J1,J2,J3,J4,J5,J6:-0.388711,-0.045663,-0.010093,-0.009636,0.060391,-0.214414:vel_
1561008180.549780,cobot_dynamixel_driver/goal|-:J1,J2,J3,J4,J5,J6:-0.389857,-0.045955,-0.011429,-0.009491,0.060059,-0.215027:vel_
1561008180.581768,cobot_dynamixel_driver/goal|-:J1,J2,J3,J4,J5,J6:-0.392239,-0.046834,-0.012562,-0.009094,0.060665,-0.216107:vel_
1561008180.613757,cobot_dynamixel_driver/goal|-:J1,J2,J3,J4,J5,J6:-0.394491,-0.047469,-0.012335,-0.009183,0.060736,-0.217024:vel_
1561008180.645776,cobot_dynamixel_driver/goal|-:J1,J2,J3,J4,J5,J6:-0.395926,-0.048175,-0.011026,-0.009664,0.060821,-0.217752:vel_
1561008180.677726,cobot_dynamixel_driver/goal|-:J1,J2,J3,J4,J5,J6:-0.400558,-0.049089,-0.010119,-0.010551,0.061392,-0.221019:vel_
1561008180.713279,cobot_dynamixel_driver/goal|-:J1,J2,J3,J4,J5,J6:-0.405278,-0.049841,-0.007691,-0.009770,0.062877,-0.223198:vel_
1561008180.757693,cobot_dynamixel_driver/goal|-:J1,J2,J3,J4,J5,J6:-0.390075,-0.046785,-0.010372,-0.009867,0.060460,-0.214781:vel_
1561008180.789807,cobot_dynamixel_driver/goal|-:J1,J2,J3,J4,J5,J6:-0.389881,-0.046905,-0.010094,-0.009776,0.060355,-0.215106:vel_
1561008180.821853,cobot_dynamixel_driver/goal|-:J1,J2,J3,J4,J5,J6:-0.390730,-0.047349,-0.010077,-0.009678,0.060477,-0.215785:vel_
1561008180.853812,cobot_dynamixel_driver/goal|-:J1,J2,J3,J4,J5,J6:-0.391860,-0.047839,-0.010952,-0.009603,0.060527,-0.216231:vel_
1561008180.885771,cobot_dynamixel_driver/goal|-:J1,J2,J3,J4,J5,J6:-0.394792,-0.048062,-0.011044,-0.009549,0.060871,-0.217525:vel_
1561008180.917794,cobot_dynamixel_driver/goal|-:J1,J2,J3,J4,J5,J6:-0.396139,-0.048214,-0.010294,-0.009420,0.061087,-0.218315:vel_
1561008180.949784,cobot_dynamixel_driver/goal|-:J1,J2,J3,J4,J5,J6:-0.397345,-0.047855,-0.011588,-0.009644,0.061116,-0.218736:vel_
1561008180.981809,cobot_dynamixel_driver/goal|-:J1,J2,J3,J4,J5,J6:-0.401403,-0.048006,-0.012219,-0.009652,0.061489,-0.221164:vel_
1561008181.013851,cobot_dynamixel_driver/goal|-:J1,J2,J3,J4,J5,J6:-0.400128,-0.047240,-0.010680,-0.007489,0.062676,-0.223623:vel_
1561008181.045970,cobot_dynamixel_driver/goal|-:J1,J2,J3,J4,J5,J6:-0.419536,-0.047034,-0.012002,-0.005448,0.065785,-0.229904:vel_
1561008181.077806,cobot_dynamixel_driver/goal|-:J1,J2,J3,J4,J5,J6:-0.391845,-0.046209,-0.010802,-0.009460,0.060542,-0.216023:vel_
1561008181.109852,cobot_dynamixel_driver/goal|-:J1,J2,J3,J4,J5,J6:-0.392004,-0.046209,-0.010140,-0.009767,0.060276,-0.215782:vel_
1561008181.141892,cobot_dynamixel_driver/goal|-:J1,J2,J3,J4,J5,J6:-0.392618,-0.046162,-0.010741,-0.009887,0.060444,-0.216614:vel_
1561008181.173814,cobot_dynamixel_driver/goal|-:J1,J2,J3,J4,J5,J6:-0.391868,-0.046000,-0.011342,-0.009837,0.060321,-0.216981:vel_
1561008181.205744,cobot_dynamixel_driver/goal|-:J1,J2,J3,J4,J5,J6:-0.394779,-0.046208,-0.010947,-0.009734,0.060638,-0.217907:vel_
1561008181.237774,cobot_dynamixel_driver/goal|-:J1,J2,J3,J4,J5,J6:-0.398313,-0.046762,-0.011047,-0.009425,0.061140,-0.219714:vel_
1561008181.269758,cobot_dynamixel_driver/goal|-:J1,J2,J3,J4,J5,J6:-0.400421,-0.046633,-0.011763,-0.009414,0.061096,-0.220191:vel_
1561008181.301723,cobot_dynamixel_driver/goal|-:J1,J2,J3,J4,J5,J6:-0.401815,-0.047531,-0.010638,-0.009195,0.061350,-0.220702:vel_
1561008181.333713,cobot_dynamixel_driver/goal|-:J1,J2,J3,J4,J5,J6:-0.407488,-0.048170,-0.009920,-0.008780,0.062388,-0.224875:vel_
1561008181.365718,cobot_dynamixel_driver/goal|-:J1,J2,J3,J4,J5,J6:-0.413101,-0.048237,-0.010533,-0.009830,0.063437,-0.226831:vel_
1561008181.397707,cobot_dynamixel_driver/goal|-:J1,J2,J3,J4,J5,J6:-0.251672,-0.029851,-0.006448,-0.006519,0.038891,-0.138651:vel_
1561008181.429728,cobot_dynamixel_driver/goal|-:J1,J2,J3,J4,J5,J6:-0.242050,-0.028701,-0.006480,-0.006313,0.037631,-0.133420:vel_
1561008181.461681,cobot_dynamixel_driver/goal|-:J1,J2,J3,J4,J5,J6:-0.235393,-0.028502,-0.006900,-0.006208,0.037817,-0.132286:vel_
1561008181.493717,cobot_dynamixel_driver/goal|-:J1,J2,J3,J4,J5,J6:-0.234645,-0.028560,-0.007396,-0.006184,0.037977,-0.133433:vel_
1561008181.526835,cobot_dynamixel_driver/goal|-:J1,J2,J3,J4,J5,J6:-0.235665,-0.028661,-0.007969,-0.006395,0.038069,-0.134139:vel_
1561008181.573696,cobot_dynamixel_driver/goal|-:J1,J2,J3,J4,J5,J6:-0.243812,-0.029540,-0.008854,-0.006878,0.039054,-0.138367:vel_
1561008181.605865,cobot_dynamixel_driver/goal|-:J1,J2,J3,J4,J5,J6:-0.237572,-0.028384,-0.008390,-0.006597,0.037939,-0.134377:vel_
1561008181.637785,cobot_dynamixel_driver/goal|-:J1,J2,J3,J4,J5,J6:-0.237407,-0.028286,-0.007870,-0.006339,0.037797,-0.134178:vel_
1561008181.669755,cobot_dynamixel_driver/goal|-:J1,J2,J3,J4,J5,J6:-0.238872,-0.027950,-0.008479,-0.006271,0.037909,-0.134639:vel_
1561008181.701729,cobot_dynamixel_driver/goal|-:J1,J2,J3,J4,J5,J6:-0.248260,-0.029096,-0.009916,-0.006700,0.039273,-0.139573:vel_
1561008181.733766,cobot_dynamixel_driver/goal|-:J1,J2,J3,J4,J5,J6:-0.240842,-0.028149,-0.010918,-0.006399,0.038073,-0.135613:vel_
1561008181.765743,cobot_dynamixel_driver/goal|-:J1,J2,J3,J4,J5,J6:-0.240214,-0.028161,-0.011098,-0.005858,0.037874,-0.135212:vel_
1561008181.797765,cobot_dynamixel_driver/goal|-:J1,J2,J3,J4,J5,J6:-0.240695,-0.028412,-0.009592,-0.005505,0.037846,-0.135674:vel_
1561008181.829731,cobot_dynamixel_driver/goal|-:J1,J2,J3,J4,J5,J6:-0.243783,-0.028626,-0.010124,-0.005648,0.037785,-0.136884:vel_
1561008181.861676,cobot_dynamixel_driver/goal|-:J1,J2,J3,J4,J5,J6:-0.245808,-0.028785,-0.010927,-0.006119,0.037441,-0.137992:vel_
1561008181.893732,cobot_dynamixel_driver/goal|-:J1,J2,J3,J4,J5,J6:-0.254053,-0.036749,0.006668,-0.006318,0.021428,-0.157527:vel_
1561008181.927758,cobot_dynamixel_driver/goal|-:J1,J2,J3,J4,J5,J6:-0.032172,0.054911,0.079131,-0.007619,-0.135582,-0.010260:vel_
1561008181.957703,cobot_dynamixel_driver/goal|-:J1,J2,J3,J4,J5,J6:-0.005463,0.065430,0.088091,-0.007579,-0.152699,0.007623:vel_
1561008181.989703,cobot_dynamixel_driver/goal|-:J1,J2,J3,J4,J5,J6:0.020591,0.073393,0.095672,-0.007491,-0.168507,0.018710:vel_
1561008182.021661,cobot_dynamixel_driver/goal|-:J1,J2,J3,J4,J5,J6:0.038452,0.078950,0.099305,-0.007654,-0.172538,0.019829:vel_
1561008182.053701,cobot_dynamixel_driver/goal|-:J1,J2,J3,J4,J5,J6:0.045661,0.082695,0.101031,-0.007843,-0.173101,0.019893:vel_
1561008182.085656,cobot_dynamixel_driver/goal|-:J1,J2,J3,J4,J5,J6:0.048330,0.085272,0.101559,-0.007644,-0.174362,0.020299:vel_
1561008182.117722,cobot_dynamixel_driver/goal|-:J1,J2,J3,J4,J5,J6:0.008217,0.128008,0.148631,-0.014915,-0.270217,0.016514:vel_
1561008182.149731,cobot_dynamixel_driver/goal|-:J1,J2,J3,J4,J5,J6:0.002216,0.136310,0.156702,-0.016166,-0.288396,0.016170:vel_
1561008182.181979,cobot_dynamixel_driver/goal|-:J1,J2,J3,J4,J5,J6:0.000738,0.140911,0.161566,-0.016857,-0.298329,0.016519:vel_
1561008182.214011,cobot_dynamixel_driver/goal|-:J1,J2,J3,J4,J5,J6:0.000395,0.141276,0.159547,-0.016160,-0.297161,0.016932:vel_
1561008182.245952,cobot_dynamixel_driver/goal|-:J1,J2,J3,J4,J5,J6:0.000244,0.138494,0.158447,-0.016128,-0.296147,0.017148:vel_
1561008182.277869,cobot_dynamixel_driver/goal|-:J1,J2,J3,J4,J5,J6:-0.023008,0.188280,0.198723,-0.024462,-0.386985,0.018147:vel_
1561008182.310025,cobot_dynamixel_driver/goal|-:J1,J2,J3,J4,J5,J6:-0.030207,0.203064,0.211661,-0.027066,-0.417998,0.018941:vel_
1561008182.342115,cobot_dynamixel_driver/goal|-:J1,J2,J3,J4,J5,J6:-0.036086,0.213168,0.219512,-0.028582,-0.441072,0.020377:vel_
1561008182.374133,cobot_dynamixel_driver/goal|-:J1,J2,J3,J4,J5,J6:-0.039183,0.228102,0.212619,-0.031271,-0.444366,0.021922:vel_
1561008182.405995,cobot_dynamixel_driver/goal|-:J1,J2,J3,J4,J5,J6:-0.042124,0.231581,0.210209,-0.031335,-0.445941,0.022265:vel_
1561008182.437792,cobot_dynamixel_driver/goal|-:J1,J2,J3,J4,J5,J6:-0.046181,0.234655,0.212236,-0.032327,-0.446947,0.022757:vel_
1561008182.469675,cobot_dynamixel_driver/goal|-:J1,J2,J3,J4,J5,J6:-0.041290,0.247691,0.201491,-0.036327,-0.450432,0.024513:vel_
1561008182.501702,cobot_dynamixel_driver/goal|-:J1,J2,J3,J4,J5,J6:-0.040530,0.251601,0.201874,-0.037003,-0.452701,0.024581:vel_
1561008182.533689,cobot_dynamixel_driver/goal|-:J1,J2,J3,J4,J5,J6:-0.040957,0.257283,0.206409,-0.038323,-0.463341,0.026612:vel_
1561008182.566036,cobot_dynamixel_driver/goal|-:J1,J2,J3,J4,J5,J6:-0.038856,0.265996,0.191973,-0.041632,-0.457843,0.029605:vel_
1561008182.597699,cobot_dynamixel_driver/goal|-:J1,J2,J3,J4,J5,J6:-0.038400,0.270470,0.189450,-0.041580,-0.458028,0.029923:vel_
1561008182.629676,cobot_dynamixel_driver/goal|-:J1,J2,J3,J4,J5,J6:-0.038650,0.273863,0.188811,-0.041242,-0.463306,0.029217:vel_
1561008182.661688,cobot_dynamixel_driver/goal|-:J1,J2,J3,J4,J5,J6:-0.036058,0.279044,0.174055,-0.045688,-0.454221,0.033355:vel_
1561008182.693670,cobot_dynamixel_driver/goal|-:J1,J2,J3,J4,J5,J6:-0.035847,0.288216,0.174720,-0.048038,-0.464625,0.035605:vel_
1561008182.725653,cobot_dynamixel_driver/goal|-:J1,J2,J3,J4,J5,J6:-0.036698,0.289043,0.173733,-0.048213,-0.467340,0.035187:vel_
1561008182.757659,cobot_dynamixel_driver/goal|-:J1,J2,J3,J4,J5,J6:-0.036765,0.294457,0.159116,-0.052092,-0.455507,0.038679:vel_
1561008182.789684,cobot_dynamixel_driver/goal|-:J1,J2,J3,J4,J5,J6:-0.037254,0.297171,0.155259,-0.053748,-0.456159,0.040487:vel_
1561008182.821670,cobot_dynamixel_driver/goal|-:J1,J2,J3,J4,J5,J6:-0.038411,0.304928,0.158981,-0.056310,-0.471399,0.040362:vel_
1561008182.853690,cobot_dynamixel_driver/goal|-:J1,J2,J3,J4,J5,J6:-0.036465,0.310600,0.144399,-0.059250,-0.455238,0.045615:vel_
1561008182.885716,cobot_dynamixel_driver/goal|-:J1,J2,J3,J4,J5,J6:-0.036444,0.317539,0.141829,-0.060848,-0.456214,0.047909:vel_
1561008182.917704,cobot_dynamixel_driver/goal|-:J1,J2,J3,J4,J5,J6:-0.031872,0.281019,0.113016,-0.057671,-0.393995,0.045677:vel_
1561008182.949752,cobot_dynamixel_driver/goal|-:J1,J2,J3,J4,J5,J6:-0.031194,0.275790,0.107180,-0.057416,-0.383716,0.045367:vel_
1561008182.981945,cobot_dynamixel_driver/goal|-:J1,J2,J3,J4,J5,J6:-0.030319,0.273745,0.105682,-0.056106,-0.384284,0.046198:vel_
1561008183.014061,cobot_dynamixel_driver/goal|-:J1,J2,J3,J4,J5,J6:-0.029880,0.276038,0.110408,-0.056869,-0.396963,0.046747:vel_
1561008183.046375,cobot_dynamixel_driver/goal|-:J1,J2,J3,J4,J5,J6:-0.013937,0.131243,0.045032,-0.029801,-0.177398,0.024272:vel_
1561008183.078037,cobot_dynamixel_driver/goal|-:J1,J2,J3,J4,J5,J6:-0.012266,0.115040,0.038075,-0.026646,-0.152550,0.021969:vel_
1561008183.109987,cobot_dynamixel_driver/goal|-:J1,J2,J3,J4,J5,J6:-0.011994,0.101373,0.035369,-0.026119,-0.130913,0.022532:vel_
1561008183.142077,cobot_dynamixel_driver/goal|-:J1,J2,J3,J4,J5,J6:-0.012251,0.099265,0.036898,-0.026420,-0.119979,0.022781:vel_
1561008183.174030,cobot_dynamixel_driver/goal|-:J1,J2,J3,J4,J5,J6:-0.012872,0.101356,0.038139,-0.026419,-0.119661,0.022593:vel_
1561008183.206437,cobot_dynamixel_driver/goal|-:J1,J2,J3,J4,J5,J6:-0.013363,0.104638,0.038788,-0.026755,-0.124447,0.022680:vel_
1561008183.238180,cobot_dynamixel_driver/goal|-:J1,J2,J3,J4,J5,J6:0.005384,-0.056502,-0.017453,0.012100,0.078969,-0.009868:vel_
1561008183.269842,cobot_dynamixel_driver/goal|-:J1,J2,J3,J4,J5,J6:0.007113,-0.070262,-0.022510,0.015501,0.096696,-0.012522:vel_
1561008183.301671,cobot_dynamixel_driver/goal|-:J1,J2,J3,J4,J5,J6:0.007824,-0.080882,-0.024680,0.016931,0.109949,-0.013519:vel_
1561008183.333635,cobot_dynamixel_driver/goal|-:J1,J2,J3,J4,J5,J6:0.008574,-0.085580,-0.026087,0.018483,0.116999,-0.014123:vel_
1561008183.365673,cobot_dynamixel_driver/goal|-:J1,J2,J3,J4,J5,J6:0.009535,-0.088724,-0.027166,0.019242,0.116917,-0.014453:vel_
1561008183.397627,cobot_dynamixel_driver/goal|-:J1,J2,J3,J4,J5,J6:0.010726,-0.090633,-0.028067,0.020463,0.117629,-0.014553:vel_
1561008183.429685,cobot_dynamixel_driver/goal|-:J1,J2,J3,J4,J5,J6:0.011348,-0.092389,-0.029012,0.021044,0.119118,-0.014857:vel_
1561008183.461631,cobot_dynamixel_driver/goal|-:J1,J2,J3,J4,J5,J6:0.019804,-0.167779,-0.061813,0.036225,0.227432,-0.027645:vel_
1561008183.493641,cobot_dynamixel_driver/goal|-:J1,J2,J3,J4,J5,J6:0.021380,-0.177659,-0.065313,0.038217,0.240736,-0.029129:vel_
1561008183.525595,cobot_dynamixel_driver/goal|-:J1,J2,J3,J4,J5,J6:0.022216,-0.183797,-0.066580,0.038709,0.247381,-0.029315:vel_
1561008183.557949,cobot_dynamixel_driver/goal|-:J1,J2,J3,J4,J5,J6:0.023071,-0.185245,-0.067074,0.038831,0.247164,-0.029668:vel_
1561008183.589686,cobot_dynamixel_driver/goal|-:J1,J2,J3,J4,J5,J6:0.023731,-0.184441,-0.066470,0.039636,0.247535,-0.029977:vel_
1561008183.621697,cobot_dynamixel_driver/goal|-:J1,J2,J3,J4,J5,J6:0.024330,-0.182871,-0.066075,0.039856,0.248313,-0.030450:vel_
1561008183.653656,cobot_dynamixel_driver/goal|-:J1,J2,J3,J4,J5,J6:0.024713,-0.182729,-0.067011,0.040570,0.250538,-0.031081:vel_
1561008183.685639,cobot_dynamixel_driver/goal|-:J1,J2,J3,J4,J5,J6:0.032388,-0.258554,-0.114096,0.052483,0.373926,-0.040269:vel_
1561008183.717707,cobot_dynamixel_driver/goal|-:J1,J2,J3,J4,J5,J6:0.034851,-0.276087,-0.124987,0.056146,0.404002,-0.041633:vel_
1561008183.749603,cobot_dynamixel_driver/goal|-:J1,J2,J3,J4,J5,J6:0.036765,-0.295656,-0.134991,0.059772,0.437915,-0.042751:vel_
1561008183.781581,cobot_dynamixel_driver/goal|-:J1,J2,J3,J4,J5,J6:0.036704,-0.303377,-0.137279,0.062127,0.452229,-0.042726:vel_
1561008183.813602,cobot_dynamixel_driver/goal|-:J1,J2,J3,J4,J5,J6:0.035927,-0.293626,-0.152443,0.054150,0.450238,-0.039934:vel_
1561008183.845666,cobot_dynamixel_driver/goal|-:J1,J2,J3,J4,J5,J6:0.036062,-0.292355,-0.156848,0.052896,0.451958,-0.039314:vel_
1561008183.877615,cobot_dynamixel_driver/goal|-:J1,J2,J3,J4,J5,J6:0.036648,-0.295059,-0.160565,0.053217,0.459495,-0.040663:vel_
1561008183.909605,cobot_dynamixel_driver/goal|-:J1,J2,J3,J4,J5,J6:0.036936,-0.280887,-0.171890,0.047067,0.455319,-0.035220:vel_
1561008183.941679,cobot_dynamixel_driver/goal|-:J1,J2,J3,J4,J5,J6:0.036631,-0.277509,-0.174951,0.045413,0.455320,-0.033832:vel_
1561008183.973607,cobot_dynamixel_driver/goal|-:J1,J2,J3,J4,J5,J6:0.036884,-0.280311,-0.180446,0.046507,0.465594,-0.034503:vel_
1561008184.005638,cobot_dynamixel_driver/goal|-:J1,J2,J3,J4,J5,J6:0.036364,-0.264114,-0.187705,0.041810,0.454462,-0.029893:vel_
1561008184.037643,cobot_dynamixel_driver/goal|-:J1,J2,J3,J4,J5,J6:0.038074,-0.271390,-0.198620,0.042289,0.472046,-0.029685:vel_
1561008184.069638,cobot_dynamixel_driver/goal|-:J1,J2,J3,J4,J5,J6:0.037723,-0.259681,-0.191281,0.040072,0.454087,-0.028746:vel_
1561008184.101688,cobot_dynamixel_driver/goal|-:J1,J2,J3,J4,J5,J6:0.036530,-0.246603,-0.201276,0.036328,0.446754,-0.024985:vel_
1561008184.133630,cobot_dynamixel_driver/goal|-:J1,J2,J3,J4,J5,J6:0.035864,-0.243047,-0.203977,0.036265,0.446471,-0.023724:vel_
1561008184.165733,cobot_dynamixel_driver/goal|-:J1,J2,J3,J4,J5,J6:0.036084,-0.245689,-0.207886,0.036338,0.454838,-0.024590:vel_
1561008184.198099,cobot_dynamixel_driver/goal|-:J1,J2,J3,J4,J5,J6:0.036588,-0.253580,-0.210993,0.035979,0.478491,-0.025940:vel_
1561008184.230002,cobot_dynamixel_driver/goal|-:J1,J2,J3,J4,J5,J6:0.036303,-0.226660,-0.215550,0.031292,0.444137,-0.020453:vel_
1561008184.262051,cobot_dynamixel_driver/goal|-:J1,J2,J3,J4,J5,J6:0.037835,-0.222623,-0.222821,0.030592,0.446648,-0.019018:vel_
1561008184.293944,cobot_dynamixel_driver/goal|-:J1,J2,J3,J4,J5,J6:0.037633,-0.218797,-0.227412,0.032473,0.448907,-0.018996:vel_
1561008184.325792,cobot_dynamixel_driver/goal|-:J1,J2,J3,J4,J5,J6:0.031172,-0.181137,-0.202528,0.024870,0.385850,-0.014241:vel_
1561008184.357810,cobot_dynamixel_driver/goal|-:J1,J2,J3,J4,J5,J6:0.030118,-0.178513,-0.200800,0.022828,0.378768,-0.012963:vel_
1561008184.390365,cobot_dynamixel_driver/goal|-:J1,J2,J3,J4,J5,J6:0.030080,-0.175306,-0.200385,0.021577,0.374288,-0.013099:vel_
1561008184.421846,cobot_dynamixel_driver/goal|-:J1,J2,J3,J4,J5,J6:0.015100,-0.079940,-0.101896,0.009774,0.182427,-0.005578:vel_
1561008184.453592,cobot_dynamixel_driver/goal|-:J1,J2,J3,J4,J5,J6:0.013888,-0.070935,-0.092409,0.008849,0.162529,-0.005042:vel_
1561008184.485599,cobot_dynamixel_driver/goal|-:J1,J2,J3,J4,J5,J6:0.013699,-0.065334,-0.087056,0.008721,0.147279,-0.005572:vel_
1561008184.517593,cobot_dynamixel_driver/goal|-:J1,J2,J3,J4,J5,J6:0.013188,-0.065235,-0.088532,0.008615,0.142720,-0.006339:vel_
1561008184.549615,cobot_dynamixel_driver/goal|-:J1,J2,J3,J4,J5,J6:0.013149,-0.068156,-0.091435,0.008771,0.146297,-0.007387:vel_
1561008184.581642,cobot_dynamixel_driver/goal|-:J1,J2,J3,J4,J5,J6:0.012866,-0.069849,-0.092287,0.009314,0.147664,-0.008800:vel_
1561008184.613614,cobot_dynamixel_driver/goal|-:J1,J2,J3,J4,J5,J6:0.012821,-0.071116,-0.092500,0.010019,0.147955,-0.010725:vel_
1561008184.645579,cobot_dynamixel_driver/goal|-:J1,J2,J3,J4,J5,J6:0.013373,-0.072551,-0.093417,0.010284,0.150546,-0.011121:vel_
1561008187.381519,cobot_dynamixel_driver/goal|-:J1,J2,J3,J4,J5,J6:0.000000,0.000000,0.000000,0.000000,0.000000,0.000000:0.500000,0.500000,0.500000,0.500000,0.500000,0.500000:pos_vel_
1561008256.786972,cobot_dynamixel_driver/goal|-:J1,J2,J3,J4,J5,J6:0.022487,0.004847,0.133518,-0.002106,-0.149000,0.511798:vel_
1561008257.219036,cobot_dynamixel_driver/goal|-:J1,J2,J3,J4,J5,J6:0.023015,-0.005414,0.126019,-0.002226,-0.154462,0.537506:vel_
1561008257.250967,cobot_dynamixel_driver/goal|-:J1,J2,J3,J4,J5,J6:0.024235,-0.006224,0.127995,-0.002537,-0.158585,0.594931:vel_
1561008257.282873,cobot_dynamixel_driver/goal|-:J1,J2,J3,J4,J5,J6:0.025049,-0.007121,0.126590,-0.002928,-0.159405,0.651196:vel_
1561008257.314911,cobot_dynamixel_driver/goal|-:J1,J2,J3,J4,J5,J6:0.026409,-0.008425,0.126455,-0.003494,-0.160828,0.713693:vel_
1561008257.346739,cobot_dynamixel_driver/goal|-:J1,J2,J3,J4,J5,J6:0.040838,0.005718,0.210315,-0.006008,-0.251995,0.785398:vel_
1561008257.378728,cobot_dynamixel_driver/goal|-:J1,J2,J3,J4,J5,J6:0.042866,0.006531,0.222003,-0.006693,-0.264993,0.785398:vel_
1561008257.410769,cobot_dynamixel_driver/goal|-:J1,J2,J3,J4,J5,J6:0.044091,0.007590,0.229048,-0.007250,-0.272333,0.785398:vel_
1561008257.442797,cobot_dynamixel_driver/goal|-:J1,J2,J3,J4,J5,J6:0.044186,0.008714,0.229023,-0.007591,-0.271107,0.785398:vel_
1561008257.474819,cobot_dynamixel_driver/goal|-:J1,J2,J3,J4,J5,J6:0.044558,0.010472,0.231259,-0.008236,-0.275392,0.785398:vel_
1561008257.506799,cobot_dynamixel_driver/goal|-:J1,J2,J3,J4,J5,J6:0.043593,0.013366,0.228942,-0.008654,-0.275609,0.785398:vel_
1561008257.538912,cobot_dynamixel_driver/goal|-:J1,J2,J3,J4,J5,J6:0.059481,0.034267,0.304544,-0.012493,-0.367015,0.785398:vel_
1561008257.570750,cobot_dynamixel_driver/goal|-:J1,J2,J3,J4,J5,J6:0.064966,0.040347,0.326023,-0.013053,-0.393270,0.785398:vel_
1561008257.602813,cobot_dynamixel_driver/goal|-:J1,J2,J3,J4,J5,J6:0.066311,0.044506,0.339594,-0.013211,-0.405939,0.785398:vel_
1561008257.634771,cobot_dynamixel_driver/goal|-:J1,J2,J3,J4,J5,J6:0.068216,0.047646,0.344669,-0.012772,-0.415226,0.785398:vel_
1561008257.666707,cobot_dynamixel_driver/goal|-:J1,J2,J3,J4,J5,J6:0.071806,0.056974,0.338932,-0.017642,-0.423489,0.785398:vel_
1561008257.699058,cobot_dynamixel_driver/goal|-:J1,J2,J3,J4,J5,J6:0.074498,0.059952,0.341577,-0.019859,-0.432744,0.785398:vel_
1561008257.730883,cobot_dynamixel_driver/goal|-:J1,J2,J3,J4,J5,J6:0.077308,0.060251,0.345854,-0.021698,-0.437648,0.785398:vel_
1561008257.762779,cobot_dynamixel_driver/goal|-:J1,J2,J3,J4,J5,J6:0.078014,0.074149,0.335179,-0.024625,-0.434520,0.785398:vel_
1561008257.794800,cobot_dynamixel_driver/goal|-:J1,J2,J3,J4,J5,J6:0.076985,0.076245,0.326382,-0.025548,-0.426616,0.785398:vel_
1561008257.826776,cobot_dynamixel_driver/goal|-:J1,J2,J3,J4,J5,J6:0.077281,0.078053,0.330248,-0.028155,-0.433130,0.785398:vel_
1561008257.858798,cobot_dynamixel_driver/goal|-:J1,J2,J3,J4,J5,J6:0.077536,0.090294,0.314754,-0.028878,-0.426881,0.785398:vel_
1561008257.890736,cobot_dynamixel_driver/goal|-:J1,J2,J3,J4,J5,J6:0.077980,0.093374,0.312051,-0.029893,-0.423832,0.785398:vel_
1561008257.922761,cobot_dynamixel_driver/goal|-:J1,J2,J3,J4,J5,J6:0.079932,0.096812,0.314696,-0.029753,-0.433656,0.785398:vel_
1561008257.954717,cobot_dynamixel_driver/goal|-:J1,J2,J3,J4,J5,J6:0.079409,0.107901,0.297286,-0.030525,-0.420012,0.785398:vel_
1561008257.986792,cobot_dynamixel_driver/goal|-:J1,J2,J3,J4,J5,J6:0.080843,0.114332,0.298901,-0.031557,-0.425230,0.785398:vel_
1561008258.018733,cobot_dynamixel_driver/goal|-:J1,J2,J3,J4,J5,J6:0.081884,0.117207,0.301714,-0.032887,-0.436270,0.785398:vel_
1561008258.050762,cobot_dynamixel_driver/goal|-:J1,J2,J3,J4,J5,J6:0.081947,0.127935,0.288204,-0.034524,-0.427057,0.785398:vel_
1561008258.082747,cobot_dynamixel_driver/goal|-:J1,J2,J3,J4,J5,J6:0.081528,0.130655,0.282941,-0.035285,-0.422412,0.785398:vel_
1561008258.114772,cobot_dynamixel_driver/goal|-:J1,J2,J3,J4,J5,J6:0.081288,0.132875,0.283615,-0.036713,-0.425713,0.785398:vel_
1561008258.146782,cobot_dynamixel_driver/goal|-:J1,J2,J3,J4,J5,J6:0.081381,0.145784,0.268885,-0.036984,-0.424057,0.785398:vel_
1561008258.178797,cobot_dynamixel_driver/goal|-:J1,J2,J3,J4,J5,J6:0.082545,0.149398,0.266623,-0.036822,-0.426092,0.785398:vel_
1561008258.210847,cobot_dynamixel_driver/goal|-:J1,J2,J3,J4,J5,J6:0.084071,0.152022,0.268377,-0.037135,-0.428688,0.785398:vel_
1561008258.243203,cobot_dynamixel_driver/goal|-:J1,J2,J3,J4,J5,J6:0.082384,0.163398,0.252736,-0.039347,-0.416686,0.785398:vel_
1561008258.275255,cobot_dynamixel_driver/goal|-:J1,J2,J3,J4,J5,J6:0.082824,0.167554,0.251462,-0.040628,-0.417727,0.785398:vel_
1561008258.307072,cobot_dynamixel_driver/goal|-:J1,J2,J3,J4,J5,J6:0.082900,0.168810,0.253886,-0.040670,-0.421025,0.785398:vel_
1561008258.339098,cobot_dynamixel_driver/goal|-:J1,J2,J3,J4,J5,J6:0.081020,0.181560,0.234150,-0.040954,-0.414841,0.785398:vel_
1561008258.370904,cobot_dynamixel_driver/goal|-:J1,J2,J3,J4,J5,J6:0.081029,0.184632,0.231314,-0.041646,-0.414534,0.785398:vel_
1561008258.402995,cobot_dynamixel_driver/goal|-:J1,J2,J3,J4,J5,J6:0.082433,0.187226,0.233624,-0.041858,-0.418853,0.785398:vel_
1561008258.435109,cobot_dynamixel_driver/goal|-:J1,J2,J3,J4,J5,J6:0.084154,0.195186,0.241185,-0.042886,-0.428161,0.785398:vel_
1561008258.466728,cobot_dynamixel_driver/goal|-:J1,J2,J3,J4,J5,J6:0.080260,0.205466,0.214456,-0.042522,-0.411720,0.785398:vel_
1561008258.498728,cobot_dynamixel_driver/goal|-:J1,J2,J3,J4,J5,J6:0.080624,0.210305,0.206265,-0.042331,-0.408529,0.785398:vel_
1561008258.530742,cobot_dynamixel_driver/goal|-:J1,J2,J3,J4,J5,J6:0.083159,0.217351,0.207589,-0.043919,-0.421084,0.785398:vel_
1561008258.562740,cobot_dynamixel_driver/goal|-:J1,J2,J3,J4,J5,J6:0.079921,0.222691,0.194291,-0.044078,-0.406055,0.785398:vel_
1561008258.594733,cobot_dynamixel_driver/goal|-:J1,J2,J3,J4,J5,J6:0.078016,0.225284,0.191545,-0.044900,-0.404262,0.785398:vel_
1561008258.626752,cobot_dynamixel_driver/goal|-:J1,J2,J3,J4,J5,J6:0.078942,0.231499,0.195779,-0.044241,-0.415976,0.785398:vel_
1561008258.658782,cobot_dynamixel_driver/goal|-:J1,J2,J3,J4,J5,J6:0.076788,0.240359,0.177612,-0.042782,-0.400468,0.785398:vel_
1561008258.690715,cobot_dynamixel_driver/goal|-:J1,J2,J3,J4,J5,J6:0.076984,0.244659,0.174475,-0.042660,-0.397168,0.785398:vel_
1561008258.722733,cobot_dynamixel_driver/goal|-:J1,J2,J3,J4,J5,J6:0.078811,0.249867,0.173644,-0.043407,-0.402866,0.785398:vel_
1561008258.754733,cobot_dynamixel_driver/goal|-:J1,J2,J3,J4,J5,J6:0.075185,0.258701,0.160404,-0.043222,-0.397197,0.785398:vel_
1561008258.786791,cobot_dynamixel_driver/goal|-:J1,J2,J3,J4,J5,J6:0.073476,0.262737,0.156628,-0.042911,-0.398074,0.785398:vel_
1561008258.818680,cobot_dynamixel_driver/goal|-:J1,J2,J3,J4,J5,J6:0.074708,0.265726,0.155843,-0.043657,-0.402597,0.785398:vel_
1561008258.899141,cobot_dynamixel_driver/goal|-:J1,J2,J3,J4,J5,J6:0.085039,0.330180,0.165569,-0.052413,-0.459205,0.785398:vel_
1561008258.931073,cobot_dynamixel_driver/goal|-:J1,J2,J3,J4,J5,J6:0.059460,0.257058,0.106317,-0.036239,-0.335210,0.785398:vel_
1561008258.963105,cobot_dynamixel_driver/goal|-:J1,J2,J3,J4,J5,J6:0.054405,0.245684,0.094319,-0.033354,-0.308275,0.785398:vel_
1561008258.994936,cobot_dynamixel_driver/goal|-:J1,J2,J3,J4,J5,J6:0.052166,0.233607,0.086797,-0.033113,-0.284920,0.785398:vel_
1561008259.027055,cobot_dynamixel_driver/goal|-:J1,J2,J3,J4,J5,J6:0.027547,0.127598,0.044605,-0.016874,-0.157220,0.785398:vel_
1561008259.059175,cobot_dynamixel_driver/goal|-:J1,J2,J3,J4,J5,J6:0.025446,0.118084,0.041276,-0.015544,-0.146522,0.785398:vel_
1561008259.091062,cobot_dynamixel_driver/goal|-:J1,J2,J3,J4,J5,J6:0.025305,0.112504,0.040987,-0.015274,-0.140075,0.785398:vel_
1561008259.123119,cobot_dynamixel_driver/goal|-:J1,J2,J3,J4,J5,J6:0.025749,0.113734,0.042082,-0.015410,-0.142192,0.785398:vel_
1561008259.155098,cobot_dynamixel_driver/goal|-:J1,J2,J3,J4,J5,J6:0.025605,0.116024,0.042226,-0.015739,-0.143321,0.785398:vel_
1561008259.187302,cobot_dynamixel_driver/goal|-:J1,J2,J3,J4,J5,J6:0.025355,0.117536,0.042330,-0.016211,-0.144225,0.785398:vel_
1561008259.219130,cobot_dynamixel_driver/goal|-:J1,J2,J3,J4,J5,J6:0.025080,0.119139,0.042168,-0.016327,-0.144758,0.785398:vel_
1561008259.250874,cobot_dynamixel_driver/goal|-:J1,J2,J3,J4,J5,J6:0.025031,0.120634,0.042820,-0.015871,-0.145888,0.785398:vel_
1561008259.282753,cobot_dynamixel_driver/goal|-:J1,J2,J3,J4,J5,J6:0.002336,0.096838,0.047932,-0.009146,-0.140612,0.785398:vel_
1561008259.314662,cobot_dynamixel_driver/goal|-:J1,J2,J3,J4,J5,J6:0.000392,0.094782,0.048478,-0.008594,-0.140315,0.785398:vel_
1561008259.346787,cobot_dynamixel_driver/goal|-:J1,J2,J3,J4,J5,J6:0.000172,0.095088,0.048381,-0.008784,-0.140850,0.785398:vel_
1561008259.378738,cobot_dynamixel_driver/goal|-:J1,J2,J3,J4,J5,J6:-0.000005,0.095681,0.048186,-0.008941,-0.141185,0.785398:vel_
1561008259.410692,cobot_dynamixel_driver/goal|-:J1,J2,J3,J4,J5,J6:-0.000005,0.096353,0.048688,-0.009131,-0.142227,0.785398:vel_
1561008259.442707,cobot_dynamixel_driver/goal|-:J1,J2,J3,J4,J5,J6:-0.000006,0.096312,0.048853,-0.009329,-0.142504,0.785398:vel_
1561008259.475565,cobot_dynamixel_driver/goal|-:J1,J2,J3,J4,J5,J6:-0.000008,0.098910,0.049085,-0.009798,-0.146285,0.785398:vel_
1561008259.506716,cobot_dynamixel_driver/goal|-:J1,J2,J3,J4,J5,J6:-0.005943,0.157107,0.076719,-0.014340,-0.232576,0.785398:vel_
1561008259.538804,cobot_dynamixel_driver/goal|-:J1,J2,J3,J4,J5,J6:-0.006830,0.167017,0.081537,-0.015006,-0.247113,0.785398:vel_
1561008259.570710,cobot_dynamixel_driver/goal|-:J1,J2,J3,J4,J5,J6:-0.007821,0.171547,0.082799,-0.014716,-0.252837,0.785398:vel_
1561008259.602731,cobot_dynamixel_driver/goal|-:J1,J2,J3,J4,J5,J6:-0.009581,0.171353,0.081925,-0.014341,-0.252106,0.785398:vel_
1561008259.638536,cobot_dynamixel_driver/goal|-:J1,J2,J3,J4,J5,J6:-0.011433,0.180144,0.085996,-0.014667,-0.265483,0.785398:vel_
1561008259.682699,cobot_dynamixel_driver/goal|-:J1,J2,J3,J4,J5,J6:-0.015453,0.246247,0.106433,-0.021948,-0.354682,0.785398:vel_
1561008259.731357,cobot_dynamixel_driver/goal|-:J1,J2,J3,J4,J5,J6:-0.020623,0.305226,0.130182,-0.027543,-0.436656,0.785398:vel_
1561008259.762782,cobot_dynamixel_driver/goal|-:J1,J2,J3,J4,J5,J6:-0.022613,0.296938,0.120848,-0.025835,-0.418255,0.785398:vel_
1561008259.799522,cobot_dynamixel_driver/goal|-:J1,J2,J3,J4,J5,J6:-0.019885,0.319976,0.114807,-0.029884,-0.434768,0.785398:vel_
1561008259.842660,cobot_dynamixel_driver/goal|-:J1,J2,J3,J4,J5,J6:-0.018206,0.310336,0.103587,-0.030567,-0.418041,0.785398:vel_
1561008259.874660,cobot_dynamixel_driver/goal|-:J1,J2,J3,J4,J5,J6:-0.016631,0.315414,0.098386,-0.032768,-0.412908,0.785398:vel_
1561008259.908080,cobot_dynamixel_driver/goal|-:J1,J2,J3,J4,J5,J6:-0.016842,0.315865,0.096340,-0.033006,-0.414252,0.785398:vel_
1561008259.938756,cobot_dynamixel_driver/goal|-:J1,J2,J3,J4,J5,J6:-0.017116,0.328716,0.100382,-0.033402,-0.430667,0.785398:vel_
1561008259.970616,cobot_dynamixel_driver/goal|-:J1,J2,J3,J4,J5,J6:-0.013592,0.275350,0.073243,-0.030588,-0.349424,0.785398:vel_
1561008260.002664,cobot_dynamixel_driver/goal|-:J1,J2,J3,J4,J5,J6:-0.012379,0.262660,0.065443,-0.029819,-0.328219,0.785398:vel_
1561008260.034666,cobot_dynamixel_driver/goal|-:J1,J2,J3,J4,J5,J6:-0.011067,0.250524,0.062354,-0.030986,-0.313436,0.785398:vel_
1561008260.066684,cobot_dynamixel_driver/goal|-:J1,J2,J3,J4,J5,J6:-0.005966,0.130941,0.028457,-0.016157,-0.159576,0.785398:vel_
1561008260.098685,cobot_dynamixel_driver/goal|-:J1,J2,J3,J4,J5,J6:-0.005367,0.117780,0.025580,-0.014481,-0.142892,0.785398:vel_
1561008260.130782,cobot_dynamixel_driver/goal|-:J1,J2,J3,J4,J5,J6:-0.005419,0.109825,0.025353,-0.014047,-0.131696,0.785398:vel_
1561008260.162733,cobot_dynamixel_driver/goal|-:J1,J2,J3,J4,J5,J6:-0.005398,0.109809,0.025771,-0.014131,-0.131979,0.785398:vel_
1561008260.194767,cobot_dynamixel_driver/goal|-:J1,J2,J3,J4,J5,J6:-0.005548,0.113151,0.026218,-0.014048,-0.135349,0.785398:vel_
1561008260.227001,cobot_dynamixel_driver/goal|-:J1,J2,J3,J4,J5,J6:-0.005738,0.114968,0.026382,-0.014209,-0.135913,0.785398:vel_
1561008260.259032,cobot_dynamixel_driver/goal|-:J1,J2,J3,J4,J5,J6:0.002440,-0.053732,-0.010078,0.006404,0.066238,0.785398:vel_
1561008260.292118,cobot_dynamixel_driver/goal|-:J1,J2,J3,J4,J5,J6:0.003016,-0.068258,-0.013110,0.008117,0.083992,0.785398:vel_
1561008260.323040,cobot_dynamixel_driver/goal|-:J1,J2,J3,J4,J5,J6:0.003332,-0.079600,-0.014093,0.008829,0.097048,0.785398:vel_
1561008260.354849,cobot_dynamixel_driver/goal|-:J1,J2,J3,J4,J5,J6:0.003644,-0.084716,-0.015124,0.009766,0.103235,0.785398:vel_
1561008260.386663,cobot_dynamixel_driver/goal|-:J1,J2,J3,J4,J5,J6:0.004042,-0.087672,-0.016166,0.010958,0.103476,0.785398:vel_
1561008260.418784,cobot_dynamixel_driver/goal|-:J1,J2,J3,J4,J5,J6:0.004537,-0.089843,-0.017232,0.012392,0.104020,0.785398:vel_
1561008260.450668,cobot_dynamixel_driver/goal|-:J1,J2,J3,J4,J5,J6:0.004712,-0.092401,-0.018849,0.013534,0.105351,0.785398:vel_
1561008260.482635,cobot_dynamixel_driver/goal|-:J1,J2,J3,J4,J5,J6:0.008892,-0.170472,-0.041885,0.021307,0.207587,0.749955:vel_
1561008260.514665,cobot_dynamixel_driver/goal|-:J1,J2,J3,J4,J5,J6:0.009947,-0.181149,-0.045116,0.022771,0.220260,0.746620:vel_
1561008260.546685,cobot_dynamixel_driver/goal|-:J1,J2,J3,J4,J5,J6:0.010678,-0.187772,-0.046450,0.023921,0.226558,0.751914:vel_
1561008260.578711,cobot_dynamixel_driver/goal|-:J1,J2,J3,J4,J5,J6:0.011204,-0.189315,-0.046342,0.024346,0.225403,0.754492:vel_
1561008260.610677,cobot_dynamixel_driver/goal|-:J1,J2,J3,J4,J5,J6:0.011778,-0.188962,-0.046492,0.025090,0.224891,0.756420:vel_
1561008260.642636,cobot_dynamixel_driver/goal|-:J1,J2,J3,J4,J5,J6:0.013079,-0.191028,-0.047036,0.025898,0.227936,0.768080:vel_
1561008260.674628,cobot_dynamixel_driver/goal|-:J1,J2,J3,J4,J5,J6:0.014723,-0.192628,-0.049266,0.025346,0.230127,0.775479:vel_
1561008260.706651,cobot_dynamixel_driver/goal|-:J1,J2,J3,J4,J5,J6:0.015908,-0.268649,-0.082921,0.029297,0.346751,0.283683:vel_
1561008260.738675,cobot_dynamixel_driver/goal|-:J1,J2,J3,J4,J5,J6:0.017014,-0.288170,-0.091305,0.030603,0.375566,0.166068:vel_
1561008260.770619,cobot_dynamixel_driver/goal|-:J1,J2,J3,J4,J5,J6:0.017407,-0.302797,-0.095411,0.031813,0.398224,-0.000977:vel_
1561008260.802652,cobot_dynamixel_driver/goal|-:J1,J2,J3,J4,J5,J6:0.018613,-0.309600,-0.096593,0.033345,0.404290,-0.276008:vel_
1561008260.834636,cobot_dynamixel_driver/goal|-:J1,J2,J3,J4,J5,J6:0.016668,-0.306623,-0.111873,0.030477,0.418868,-0.264178:vel_
1561008260.866719,cobot_dynamixel_driver/goal|-:J1,J2,J3,J4,J5,J6:0.016057,-0.304656,-0.116897,0.030578,0.422916,-0.462147:vel_
1561008260.898798,cobot_dynamixel_driver/goal|-:J1,J2,J3,J4,J5,J6:0.015336,-0.309320,-0.120820,0.031115,0.431983,-0.785398:vel_
1561008260.930727,cobot_dynamixel_driver/goal|-:J1,J2,J3,J4,J5,J6:0.013983,-0.262623,-0.117170,0.024095,0.378557,-0.411428:vel_
1561008260.962776,cobot_dynamixel_driver/goal|-:J1,J2,J3,J4,J5,J6:0.014045,-0.251907,-0.116092,0.023011,0.370553,-0.537667:vel_
1561008260.994929,cobot_dynamixel_driver/goal|-:J1,J2,J3,J4,J5,J6:0.014445,-0.248884,-0.117451,0.023763,0.376234,-0.730303:vel_
1561008261.026751,cobot_dynamixel_driver/goal|-:J1,J2,J3,J4,J5,J6:0.014030,-0.244880,-0.118341,0.024258,0.375997,-0.785398:vel_
1561008261.058604,cobot_dynamixel_driver/goal|-:J1,J2,J3,J4,J5,J6:0.006488,-0.110994,-0.059139,0.009412,0.171194,-0.185964:vel_
1561008261.090544,cobot_dynamixel_driver/goal|-:J1,J2,J3,J4,J5,J6:0.005826,-0.096042,-0.052638,0.008136,0.148156,-0.171887:vel_
1561008261.122738,cobot_dynamixel_driver/goal|-:J1,J2,J3,J4,J5,J6:0.005733,-0.084420,-0.051010,0.008196,0.129320,-0.162523:vel_
1561008261.154638,cobot_dynamixel_driver/goal|-:J1,J2,J3,J4,J5,J6:0.005879,-0.082449,-0.052819,0.008472,0.120689,-0.164221:vel_
1561008261.186764,cobot_dynamixel_driver/goal|-:J1,J2,J3,J4,J5,J6:0.006216,-0.085136,-0.053984,0.008437,0.122758,-0.166042:vel_
1561008261.218660,cobot_dynamixel_driver/goal|-:J1,J2,J3,J4,J5,J6:0.006825,-0.088713,-0.055090,0.007688,0.126402,-0.168371:vel_
1561008261.250648,cobot_dynamixel_driver/goal|-:J1,J2,J3,J4,J5,J6:0.007449,-0.090373,-0.054290,0.006952,0.126828,-0.168080:vel_
1561008261.282653,cobot_dynamixel_driver/goal|-:J1,J2,J3,J4,J5,J6:-0.199221,-0.036773,-0.013061,-0.004134,0.048577,-0.133741:vel_
1561008261.314625,cobot_dynamixel_driver/goal|-:J1,J2,J3,J4,J5,J6:-0.210218,-0.034166,-0.011002,-0.004753,0.044664,-0.131955:vel_
1561008261.346632,cobot_dynamixel_driver/goal|-:J1,J2,J3,J4,J5,J6:-0.220209,-0.033340,-0.010726,-0.005028,0.044233,-0.132565:vel_
1561008261.378636,cobot_dynamixel_driver/goal|-:J1,J2,J3,J4,J5,J6:-0.225612,-0.033860,-0.011340,-0.005326,0.044876,-0.132852:vel_
1561008261.410593,cobot_dynamixel_driver/goal|-:J1,J2,J3,J4,J5,J6:-0.227385,-0.034234,-0.011827,-0.005648,0.044939,-0.133213:vel_
1561008261.442639,cobot_dynamixel_driver/goal|-:J1,J2,J3,J4,J5,J6:-0.227311,-0.034632,-0.012059,-0.006000,0.044992,-0.133354:vel_
1561008261.474612,cobot_dynamixel_driver/goal|-:J1,J2,J3,J4,J5,J6:-0.227408,-0.034818,-0.011728,-0.006378,0.045077,-0.133540:vel_
1561008261.506890,cobot_dynamixel_driver/goal|-:J1,J2,J3,J4,J5,J6:-0.228448,-0.035084,-0.011744,-0.006861,0.045229,-0.134114:vel_
1561008261.538622,cobot_dynamixel_driver/goal|-:J1,J2,J3,J4,J5,J6:-0.229379,-0.035066,-0.011967,-0.007094,0.045416,-0.134538:vel_
1561008261.570622,cobot_dynamixel_driver/goal|-:J1,J2,J3,J4,J5,J6:-0.229400,-0.034990,-0.011697,-0.007299,0.045363,-0.134405:vel_
1561008261.602753,cobot_dynamixel_driver/goal|-:J1,J2,J3,J4,J5,J6:-0.233336,-0.035210,-0.012393,-0.007552,0.046216,-0.136626:vel_
1561008261.634631,cobot_dynamixel_driver/goal|-:J1,J2,J3,J4,J5,J6:-0.231112,-0.034689,-0.013620,-0.007646,0.045778,-0.135332:vel_
1561008261.666586,cobot_dynamixel_driver/goal|-:J1,J2,J3,J4,J5,J6:-0.231367,-0.034489,-0.015243,-0.007668,0.045979,-0.135502:vel_
1561008261.699527,cobot_dynamixel_driver/goal|-:J1,J2,J3,J4,J5,J6:-0.234214,-0.035057,-0.015416,-0.007642,0.046634,-0.137079:vel_
1561008261.730599,cobot_dynamixel_driver/goal|-:J1,J2,J3,J4,J5,J6:-0.233859,-0.035371,-0.014929,-0.007632,0.046938,-0.137274:vel_
1561008261.762601,cobot_dynamixel_driver/goal|-:J1,J2,J3,J4,J5,J6:-0.234427,-0.035812,-0.015662,-0.007398,0.046886,-0.137201:vel_
1561008261.796708,cobot_dynamixel_driver/goal|-:J1,J2,J3,J4,J5,J6:-0.235801,-0.036178,-0.015072,-0.007363,0.046462,-0.137662:vel_
1561008261.827553,cobot_dynamixel_driver/goal|-:J1,J2,J3,J4,J5,J6:-0.242884,-0.036970,-0.016212,-0.007331,0.047104,-0.141392:vel_
1561008261.858644,cobot_dynamixel_driver/goal|-:J1,J2,J3,J4,J5,J6:-0.352453,-0.043200,-0.010531,-0.009162,0.055748,-0.195547:vel_
1561008261.890566,cobot_dynamixel_driver/goal|-:J1,J2,J3,J4,J5,J6:-0.362402,-0.043727,-0.010240,-0.009272,0.056336,-0.200367:vel_
1561008261.922700,cobot_dynamixel_driver/goal|-:J1,J2,J3,J4,J5,J6:-0.369181,-0.044200,-0.010109,-0.009388,0.056677,-0.201026:vel_
1561008261.954772,cobot_dynamixel_driver/goal|-:J1,J2,J3,J4,J5,J6:-0.370595,-0.044419,-0.010146,-0.009517,0.056596,-0.201134:vel_
1561008261.987039,cobot_dynamixel_driver/goal|-:J1,J2,J3,J4,J5,J6:-0.372175,-0.044807,-0.010647,-0.009796,0.056799,-0.202339:vel_
1561008262.018963,cobot_dynamixel_driver/goal|-:J1,J2,J3,J4,J5,J6:-0.372538,-0.045134,-0.009973,-0.010033,0.056441,-0.202703:vel_
1561008262.050903,cobot_dynamixel_driver/goal|-:J1,J2,J3,J4,J5,J6:-0.373748,-0.045246,-0.009292,-0.009926,0.056350,-0.202734:vel_
1561008262.082929,cobot_dynamixel_driver/goal|-:J1,J2,J3,J4,J5,J6:-0.373790,-0.045209,-0.008943,-0.009770,0.055925,-0.202582:vel_
1561008262.114922,cobot_dynamixel_driver/goal|-:J1,J2,J3,J4,J5,J6:-0.376567,-0.045369,-0.008398,-0.009883,0.056288,-0.203579:vel_
1561008262.147028,cobot_dynamixel_driver/goal|-:J1,J2,J3,J4,J5,J6:-0.378496,-0.045589,-0.009345,-0.010327,0.057182,-0.205170:vel_
1561008262.178666,cobot_dynamixel_driver/goal|-:J1,J2,J3,J4,J5,J6:-0.384110,-0.045494,-0.013257,-0.010314,0.057434,-0.205665:vel_
1561008262.210658,cobot_dynamixel_driver/goal|-:J1,J2,J3,J4,J5,J6:-0.373803,-0.044389,-0.011172,-0.009708,0.057340,-0.205311:vel_
1561008262.242594,cobot_dynamixel_driver/goal|-:J1,J2,J3,J4,J5,J6:-0.373692,-0.044324,-0.011289,-0.009764,0.057383,-0.205495:vel_
1561008262.274642,cobot_dynamixel_driver/goal|-:J1,J2,J3,J4,J5,J6:-0.375403,-0.044262,-0.010907,-0.009661,0.057673,-0.206271:vel_
1561008262.306640,cobot_dynamixel_driver/goal|-:J1,J2,J3,J4,J5,J6:-0.375512,-0.043890,-0.011282,-0.009545,0.057819,-0.206470:vel_
1561008262.338638,cobot_dynamixel_driver/goal|-:J1,J2,J3,J4,J5,J6:-0.377605,-0.043750,-0.011549,-0.009337,0.058152,-0.207465:vel_
1561008262.370560,cobot_dynamixel_driver/goal|-:J1,J2,J3,J4,J5,J6:-0.379741,-0.043454,-0.010707,-0.009203,0.058259,-0.207937:vel_
1561008262.402709,cobot_dynamixel_driver/goal|-:J1,J2,J3,J4,J5,J6:-0.382769,-0.043667,-0.011303,-0.009469,0.059127,-0.209907:vel_
1561008262.434650,cobot_dynamixel_driver/goal|-:J1,J2,J3,J4,J5,J6:-0.383911,-0.043884,-0.011922,-0.009873,0.058818,-0.210570:vel_
1561008262.466594,cobot_dynamixel_driver/goal|-:J1,J2,J3,J4,J5,J6:-0.386462,-0.044517,-0.011232,-0.010079,0.058856,-0.211745:vel_
1561008262.498508,cobot_dynamixel_driver/goal|-:J1,J2,J3,J4,J5,J6:-0.388543,-0.044532,-0.012774,-0.009448,0.059690,-0.213258:vel_
1561008262.530610,cobot_dynamixel_driver/goal|-:J1,J2,J3,J4,J5,J6:-0.395875,-0.044496,-0.019177,-0.009358,0.062476,-0.218048:vel_
1561008262.562709,cobot_dynamixel_driver/goal|-:J1,J2,J3,J4,J5,J6:-0.374698,-0.044438,-0.011168,-0.009667,0.057889,-0.206736:vel_
1561008262.594620,cobot_dynamixel_driver/goal|-:J1,J2,J3,J4,J5,J6:-0.374848,-0.044387,-0.009929,-0.009861,0.057588,-0.206334:vel_
1561008262.627246,cobot_dynamixel_driver/goal|-:J1,J2,J3,J4,J5,J6:-0.379319,-0.044735,-0.009198,-0.009798,0.058542,-0.209385:vel_
1561008262.658609,cobot_dynamixel_driver/goal|-:J1,J2,J3,J4,J5,J6:-0.375618,-0.044050,-0.009022,-0.009683,0.058223,-0.207495:vel_
1561008262.690524,cobot_dynamixel_driver/goal|-:J1,J2,J3,J4,J5,J6:-0.376475,-0.043745,-0.010065,-0.009443,0.058480,-0.207409:vel_
1561008262.722585,cobot_dynamixel_driver/goal|-:J1,J2,J3,J4,J5,J6:-0.377986,-0.043444,-0.010585,-0.009137,0.058666,-0.208583:vel_
1561008262.754609,cobot_dynamixel_driver/goal|-:J1,J2,J3,J4,J5,J6:-0.379164,-0.043305,-0.009653,-0.009235,0.058876,-0.209978:vel_
1561008262.786589,cobot_dynamixel_driver/goal|-:J1,J2,J3,J4,J5,J6:-0.383151,-0.043656,-0.009668,-0.010041,0.060039,-0.212387:vel_
1561008262.818582,cobot_dynamixel_driver/goal|-:J1,J2,J3,J4,J5,J6:-0.386505,-0.043654,-0.012452,-0.010761,0.060897,-0.213488:vel_
1561008262.850601,cobot_dynamixel_driver/goal|-:J1,J2,J3,J4,J5,J6:-0.393341,-0.045584,-0.015461,-0.010608,0.062273,-0.216969:vel_
1561008262.882805,cobot_dynamixel_driver/goal|-:J1,J2,J3,J4,J5,J6:-0.376881,-0.045002,-0.010944,-0.009787,0.058390,-0.208186:vel_
1561008262.914791,cobot_dynamixel_driver/goal|-:J1,J2,J3,J4,J5,J6:-0.375689,-0.045059,-0.010688,-0.009676,0.058152,-0.207466:vel_
1561008262.946801,cobot_dynamixel_driver/goal|-:J1,J2,J3,J4,J5,J6:-0.376256,-0.044895,-0.011210,-0.009545,0.058392,-0.207788:vel_
1561008262.978784,cobot_dynamixel_driver/goal|-:J1,J2,J3,J4,J5,J6:-0.376760,-0.044926,-0.010932,-0.009255,0.058342,-0.208248:vel_
1561008263.010743,cobot_dynamixel_driver/goal|-:J1,J2,J3,J4,J5,J6:-0.378029,-0.045169,-0.010436,-0.008992,0.059101,-0.209663:vel_
1561008263.042916,cobot_dynamixel_driver/goal|-:J1,J2,J3,J4,J5,J6:-0.380839,-0.045005,-0.010653,-0.009224,0.059188,-0.209677:vel_
1561008263.074779,cobot_dynamixel_driver/goal|-:J1,J2,J3,J4,J5,J6:-0.382256,-0.045346,-0.010008,-0.009396,0.059696,-0.211607:vel_
1561008263.106847,cobot_dynamixel_driver/goal|-:J1,J2,J3,J4,J5,J6:-0.385497,-0.045631,-0.010661,-0.009602,0.059890,-0.212776:vel_
1561008263.139022,cobot_dynamixel_driver/goal|-:J1,J2,J3,J4,J5,J6:-0.392027,-0.046681,-0.012268,-0.009513,0.060195,-0.215098:vel_
1561008263.173601,cobot_dynamixel_driver/goal|-:J1,J2,J3,J4,J5,J6:-0.394870,-0.047870,-0.011854,-0.009242,0.059947,-0.216304:vel_
1561008263.202675,cobot_dynamixel_driver/goal|-:J1,J2,J3,J4,J5,J6:-0.392732,-0.049764,-0.010527,-0.009245,0.060748,-0.215985:vel_
1561008263.234640,cobot_dynamixel_driver/goal|-:J1,J2,J3,J4,J5,J6:-0.377776,-0.045367,-0.010118,-0.009751,0.058439,-0.208452:vel_
1561008263.266644,cobot_dynamixel_driver/goal|-:J1,J2,J3,J4,J5,J6:-0.378516,-0.045371,-0.009491,-0.009992,0.058568,-0.208729:vel_
1561008263.298518,cobot_dynamixel_driver/goal|-:J1,J2,J3,J4,J5,J6:-0.378395,-0.045090,-0.009570,-0.009873,0.058723,-0.208940:vel_
1561008263.330563,cobot_dynamixel_driver/goal|-:J1,J2,J3,J4,J5,J6:-0.380075,-0.045324,-0.010076,-0.009809,0.059049,-0.209954:vel_
1561008263.362553,cobot_dynamixel_driver/goal|-:J1,J2,J3,J4,J5,J6:-0.381875,-0.045284,-0.009567,-0.009742,0.059405,-0.210414:vel_
1561008263.394537,cobot_dynamixel_driver/goal|-:J1,J2,J3,J4,J5,J6:-0.383178,-0.045327,-0.009276,-0.009538,0.059715,-0.210975:vel_
1561008263.426555,cobot_dynamixel_driver/goal|-:J1,J2,J3,J4,J5,J6:-0.385875,-0.045940,-0.011039,-0.009751,0.059885,-0.212966:vel_
1561008263.458536,cobot_dynamixel_driver/goal|-:J1,J2,J3,J4,J5,J6:-0.384735,-0.045806,-0.013509,-0.009708,0.059755,-0.213413:vel_
1561008263.490558,cobot_dynamixel_driver/goal|-:J1,J2,J3,J4,J5,J6:-0.394021,-0.046115,-0.017021,-0.009866,0.060611,-0.216363:vel_
1561008263.522495,cobot_dynamixel_driver/goal|-:J1,J2,J3,J4,J5,J6:-0.388336,-0.045868,-0.017185,-0.009197,0.058893,-0.213859:vel_
1561008263.554507,cobot_dynamixel_driver/goal|-:J1,J2,J3,J4,J5,J6:-0.380703,-0.045433,-0.010913,-0.009615,0.058789,-0.210207:vel_
1561008263.586556,cobot_dynamixel_driver/goal|-:J1,J2,J3,J4,J5,J6:-0.383085,-0.045502,-0.010450,-0.009935,0.059238,-0.211669:vel_
1561008263.620501,cobot_dynamixel_driver/goal|-:J1,J2,J3,J4,J5,J6:-0.385044,-0.045617,-0.010221,-0.009973,0.059879,-0.213039:vel_
1561008263.650583,cobot_dynamixel_driver/goal|-:J1,J2,J3,J4,J5,J6:-0.383841,-0.045416,-0.010710,-0.009633,0.059551,-0.212456:vel_
1561008263.682514,cobot_dynamixel_driver/goal|-:J1,J2,J3,J4,J5,J6:-0.384675,-0.045558,-0.010413,-0.009199,0.059230,-0.212964:vel_
1561008263.714569,cobot_dynamixel_driver/goal|-:J1,J2,J3,J4,J5,J6:-0.386932,-0.045455,-0.009984,-0.008995,0.059271,-0.213890:vel_
1561008263.746551,cobot_dynamixel_driver/goal|-:J1,J2,J3,J4,J5,J6:-0.387899,-0.045609,-0.010816,-0.008915,0.059713,-0.214256:vel_
1561008263.778572,cobot_dynamixel_driver/goal|-:J1,J2,J3,J4,J5,J6:-0.391048,-0.046209,-0.010657,-0.009089,0.060222,-0.216208:vel_
1561008263.810524,cobot_dynamixel_driver/goal|-:J1,J2,J3,J4,J5,J6:-0.394761,-0.046287,-0.009824,-0.009807,0.060236,-0.216646:vel_
1561008263.842526,cobot_dynamixel_driver/goal|-:J1,J2,J3,J4,J5,J6:-0.397786,-0.046719,-0.010781,-0.010759,0.059594,-0.217034:vel_
1561008263.874539,cobot_dynamixel_driver/goal|-:J1,J2,J3,J4,J5,J6:-0.406108,-0.047795,-0.007734,-0.010335,0.059992,-0.223820:vel_
1561008263.906532,cobot_dynamixel_driver/goal|-:J1,J2,J3,J4,J5,J6:-0.382847,-0.045701,-0.009503,-0.009763,0.058851,-0.211274:vel_
1561008263.938626,cobot_dynamixel_driver/goal|-:J1,J2,J3,J4,J5,J6:-0.381935,-0.045539,-0.009784,-0.009645,0.058788,-0.210364:vel_
1561008263.970531,cobot_dynamixel_driver/goal|-:J1,J2,J3,J4,J5,J6:-0.383174,-0.045662,-0.009464,-0.009309,0.059275,-0.211661:vel_
1561008264.002545,cobot_dynamixel_driver/goal|-:J1,J2,J3,J4,J5,J6:-0.383675,-0.045706,-0.009456,-0.009089,0.059456,-0.212089:vel_
1561008264.034614,cobot_dynamixel_driver/goal|-:J1,J2,J3,J4,J5,J6:-0.387021,-0.045987,-0.010700,-0.009457,0.059526,-0.213042:vel_
1561008264.066601,cobot_dynamixel_driver/goal|-:J1,J2,J3,J4,J5,J6:-0.388611,-0.046523,-0.011616,-0.009850,0.059520,-0.213790:vel_
1561008264.098819,cobot_dynamixel_driver/goal|-:J1,J2,J3,J4,J5,J6:-0.390178,-0.047283,-0.011363,-0.010017,0.059531,-0.215149:vel_
1561008264.130774,cobot_dynamixel_driver/goal|-:J1,J2,J3,J4,J5,J6:-0.391397,-0.047832,-0.010817,-0.009902,0.059496,-0.215826:vel_
1561008264.163038,cobot_dynamixel_driver/goal|-:J1,J2,J3,J4,J5,J6:-0.396488,-0.047826,-0.012337,-0.010112,0.059351,-0.218432:vel_
1561008264.194921,cobot_dynamixel_driver/goal|-:J1,J2,J3,J4,J5,J6:-0.396947,-0.047198,-0.011017,-0.008686,0.058991,-0.219519:vel_
1561008264.226940,cobot_dynamixel_driver/goal|-:J1,J2,J3,J4,J5,J6:-0.385152,-0.045707,-0.010240,-0.009654,0.059053,-0.212299:vel_
1561008264.258914,cobot_dynamixel_driver/goal|-:J1,J2,J3,J4,J5,J6:-0.384480,-0.045497,-0.010640,-0.009923,0.059206,-0.211778:vel_
1561008264.290926,cobot_dynamixel_driver/goal|-:J1,J2,J3,J4,J5,J6:-0.385233,-0.045420,-0.010323,-0.009572,0.059293,-0.212605:vel_
1561008264.322698,cobot_dynamixel_driver/goal|-:J1,J2,J3,J4,J5,J6:-0.385780,-0.045354,-0.009953,-0.009160,0.059563,-0.213032:vel_
1561008264.354587,cobot_dynamixel_driver/goal|-:J1,J2,J3,J4,J5,J6:-0.389323,-0.045614,-0.010768,-0.009287,0.059750,-0.214650:vel_
1561008264.386628,cobot_dynamixel_driver/goal|-:J1,J2,J3,J4,J5,J6:-0.388442,-0.045528,-0.010359,-0.009381,0.059411,-0.214364:vel_
1561008264.418603,cobot_dynamixel_driver/goal|-:J1,J2,J3,J4,J5,J6:-0.393275,-0.045822,-0.009714,-0.009346,0.060011,-0.217024:vel_
1561008264.450514,cobot_dynamixel_driver/goal|-:J1,J2,J3,J4,J5,J6:-0.395993,-0.045457,-0.010296,-0.009935,0.060282,-0.218661:vel_
1561008264.482470,cobot_dynamixel_driver/goal|-:J1,J2,J3,J4,J5,J6:-0.396801,-0.045049,-0.008666,-0.010595,0.060287,-0.218696:vel_
1561008264.514511,cobot_dynamixel_driver/goal|-:J1,J2,J3,J4,J5,J6:-0.403132,-0.046753,-0.007466,-0.010537,0.061404,-0.222240:vel_
1561008264.546494,cobot_dynamixel_driver/goal|-:J1,J2,J3,J4,J5,J6:-0.387633,-0.046313,-0.010358,-0.009938,0.059710,-0.213949:vel_
1561008264.578499,cobot_dynamixel_driver/goal|-:J1,J2,J3,J4,J5,J6:-0.388145,-0.046742,-0.010321,-0.010044,0.059780,-0.213847:vel_
1561008264.610614,cobot_dynamixel_driver/goal|-:J1,J2,J3,J4,J5,J6:-0.391980,-0.047558,-0.009726,-0.010114,0.060510,-0.216350:vel_
1561008264.642569,cobot_dynamixel_driver/goal|-:J1,J2,J3,J4,J5,J6:-0.388734,-0.047217,-0.010466,-0.009720,0.059859,-0.214583:vel_
1561008264.674504,cobot_dynamixel_driver/goal|-:J1,J2,J3,J4,J5,J6:-0.391230,-0.047429,-0.011045,-0.009583,0.060152,-0.215483:vel_
1561008264.706621,cobot_dynamixel_driver/goal|-:J1,J2,J3,J4,J5,J6:-0.392644,-0.047362,-0.010523,-0.009549,0.060032,-0.216196:vel_
1561008264.738517,cobot_dynamixel_driver/goal|-:J1,J2,J3,J4,J5,J6:-0.393305,-0.047404,-0.010632,-0.009488,0.059888,-0.216585:vel_
1561008264.770491,cobot_dynamixel_driver/goal|-:J1,J2,J3,J4,J5,J6:-0.395867,-0.047819,-0.012158,-0.010010,0.060092,-0.217753:vel_
1561008264.802489,cobot_dynamixel_driver/goal|-:J1,J2,J3,J4,J5,J6:-0.401113,-0.048723,-0.011794,-0.010553,0.060909,-0.220739:vel_
1561008264.834586,cobot_dynamixel_driver/goal|-:J1,J2,J3,J4,J5,J6:-0.403424,-0.048983,-0.009682,-0.009753,0.061611,-0.221124:vel_
1561008264.866565,cobot_dynamixel_driver/goal|-:J1,J2,J3,J4,J5,J6:-0.409802,-0.049713,-0.010043,-0.009211,0.062569,-0.222684:vel_
1561008264.898758,cobot_dynamixel_driver/goal|-:J1,J2,J3,J4,J5,J6:-0.390554,-0.046699,-0.009930,-0.009822,0.060271,-0.215024:vel_
1561008264.930898,cobot_dynamixel_driver/goal|-:J1,J2,J3,J4,J5,J6:-0.389356,-0.046501,-0.010297,-0.009697,0.060079,-0.214685:vel_
1561008264.962868,cobot_dynamixel_driver/goal|-:J1,J2,J3,J4,J5,J6:-0.389902,-0.046386,-0.011189,-0.009451,0.060213,-0.214987:vel_
1561008264.994855,cobot_dynamixel_driver/goal|-:J1,J2,J3,J4,J5,J6:-0.390900,-0.046690,-0.011100,-0.009393,0.060126,-0.215427:vel_
1561008265.026823,cobot_dynamixel_driver/goal|-:J1,J2,J3,J4,J5,J6:-0.393169,-0.046793,-0.010275,-0.009353,0.060330,-0.216217:vel_
1561008265.058909,cobot_dynamixel_driver/goal|-:J1,J2,J3,J4,J5,J6:-0.394222,-0.046997,-0.009931,-0.009190,0.060450,-0.216776:vel_
1561008265.090901,cobot_dynamixel_driver/goal|-:J1,J2,J3,J4,J5,J6:-0.397881,-0.046941,-0.008591,-0.009822,0.060644,-0.218353:vel_
1561008265.122936,cobot_dynamixel_driver/goal|-:J1,J2,J3,J4,J5,J6:-0.400298,-0.046616,-0.008669,-0.010429,0.060973,-0.220158:vel_
1561008265.154949,cobot_dynamixel_driver/goal|-:J1,J2,J3,J4,J5,J6:-0.405181,-0.047505,-0.010161,-0.009458,0.061675,-0.224283:vel_
1561008265.186745,cobot_dynamixel_driver/goal|-:J1,J2,J3,J4,J5,J6:-0.420886,-0.049217,-0.009859,-0.009191,0.064612,-0.233957:vel_
1561008265.218585,cobot_dynamixel_driver/goal|-:J1,J2,J3,J4,J5,J6:-0.393095,-0.046802,-0.010004,-0.010097,0.060826,-0.216732:vel_
1561008265.250607,cobot_dynamixel_driver/goal|-:J1,J2,J3,J4,J5,J6:-0.390933,-0.046578,-0.010777,-0.010166,0.060687,-0.215323:vel_
1561008265.282638,cobot_dynamixel_driver/goal|-:J1,J2,J3,J4,J5,J6:-0.392595,-0.046957,-0.011543,-0.010067,0.061025,-0.217065:vel_
1561008265.314457,cobot_dynamixel_driver/goal|-:J1,J2,J3,J4,J5,J6:-0.392848,-0.046970,-0.011274,-0.010013,0.061143,-0.217004:vel_
1561008265.346522,cobot_dynamixel_driver/goal|-:J1,J2,J3,J4,J5,J6:-0.393490,-0.046780,-0.011075,-0.010030,0.061187,-0.217541:vel_
1561008265.378478,cobot_dynamixel_driver/goal|-:J1,J2,J3,J4,J5,J6:-0.396376,-0.046949,-0.012589,-0.009968,0.061649,-0.219416:vel_
1561008265.410474,cobot_dynamixel_driver/goal|-:J1,J2,J3,J4,J5,J6:-0.398014,-0.046961,-0.012804,-0.009894,0.061767,-0.219437:vel_
1561008265.442491,cobot_dynamixel_driver/goal|-:J1,J2,J3,J4,J5,J6:-0.402526,-0.047800,-0.011427,-0.009871,0.062828,-0.221755:vel_
1561008265.474517,cobot_dynamixel_driver/goal|-:J1,J2,J3,J4,J5,J6:-0.404400,-0.047735,-0.011131,-0.009451,0.063467,-0.223621:vel_
1561008265.506470,cobot_dynamixel_driver/goal|-:J1,J2,J3,J4,J5,J6:-0.413254,-0.046872,-0.008360,-0.009102,0.064441,-0.227822:vel_
1561008265.538440,cobot_dynamixel_driver/goal|-:J1,J2,J3,J4,J5,J6:-0.251377,-0.029597,-0.006721,-0.006359,0.038849,-0.138526:vel_
1561008265.570448,cobot_dynamixel_driver/goal|-:J1,J2,J3,J4,J5,J6:-0.241734,-0.028652,-0.007133,-0.006071,0.037471,-0.133339:vel_
1561008265.602430,cobot_dynamixel_driver/goal|-:J1,J2,J3,J4,J5,J6:-0.235380,-0.028514,-0.007303,-0.005963,0.037902,-0.132498:vel_
1561008265.634442,cobot_dynamixel_driver/goal|-:J1,J2,J3,J4,J5,J6:-0.234072,-0.028547,-0.007151,-0.005993,0.037996,-0.133637:vel_
1561008265.666426,cobot_dynamixel_driver/goal|-:J1,J2,J3,J4,J5,J6:-0.234707,-0.028542,-0.006801,-0.006151,0.038029,-0.133951:vel_
1561008265.698415,cobot_dynamixel_driver/goal|-:J1,J2,J3,J4,J5,J6:-0.236140,-0.028646,-0.007049,-0.006247,0.038075,-0.134422:vel_
1561008265.730458,cobot_dynamixel_driver/goal|-:J1,J2,J3,J4,J5,J6:-0.236942,-0.028477,-0.007462,-0.006308,0.037962,-0.134475:vel_
1561008265.763595,cobot_dynamixel_driver/goal|-:J1,J2,J3,J4,J5,J6:-0.238536,-0.028747,-0.007458,-0.006418,0.038237,-0.135315:vel_
1561008265.794449,cobot_dynamixel_driver/goal|-:J1,J2,J3,J4,J5,J6:-0.238534,-0.028474,-0.006531,-0.006536,0.038084,-0.135397:vel_
1561008265.826425,cobot_dynamixel_driver/goal|-:J1,J2,J3,J4,J5,J6:-0.238907,-0.028322,-0.006218,-0.006656,0.038096,-0.135295:vel_
1561008265.858393,cobot_dynamixel_driver/goal|-:J1,J2,J3,J4,J5,J6:-0.240121,-0.028357,-0.006720,-0.006563,0.038000,-0.136099:vel_
1561008265.890538,cobot_dynamixel_driver/goal|-:J1,J2,J3,J4,J5,J6:-0.240636,-0.028297,-0.006980,-0.006351,0.038045,-0.136863:vel_
1561008265.922457,cobot_dynamixel_driver/goal|-:J1,J2,J3,J4,J5,J6:-0.240087,-0.028426,-0.005894,-0.005979,0.037586,-0.136472:vel_
1561008265.955412,cobot_dynamixel_driver/goal|-:J1,J2,J3,J4,J5,J6:-0.244903,-0.029427,-0.005181,-0.005950,0.038318,-0.138611:vel_
1561008265.986529,cobot_dynamixel_driver/goal|-:J1,J2,J3,J4,J5,J6:-0.243197,-0.029190,-0.006526,-0.006417,0.037620,-0.137859:vel_
1561008266.018437,cobot_dynamixel_driver/goal|-:J1,J2,J3,J4,J5,J6:-0.255345,-0.037199,0.001153,-0.006747,0.026360,-0.157662:vel_
1561008266.050505,cobot_dynamixel_driver/goal|-:J1,J2,J3,J4,J5,J6:-0.042659,0.049860,0.073248,-0.007680,-0.126264,-0.016974:vel_
1561008266.082460,cobot_dynamixel_driver/goal|-:J1,J2,J3,J4,J5,J6:-0.018965,0.059535,0.081658,-0.007473,-0.143099,-0.000861:vel_
1561008266.114429,cobot_dynamixel_driver/goal|-:J1,J2,J3,J4,J5,J6:0.004023,0.066710,0.089635,-0.007289,-0.157891,0.008932:vel_
1561008266.146469,cobot_dynamixel_driver/goal|-:J1,J2,J3,J4,J5,J6:0.018658,0.071430,0.092326,-0.007253,-0.160562,0.009781:vel_
1561008266.178531,cobot_dynamixel_driver/goal|-:J1,J2,J3,J4,J5,J6:0.023080,0.074979,0.093206,-0.007418,-0.161351,0.009894:vel_
1561008266.210656,cobot_dynamixel_driver/goal|-:J1,J2,J3,J4,J5,J6:0.024929,0.078558,0.094627,-0.007457,-0.163934,0.009995:vel_
1561008266.242666,cobot_dynamixel_driver/goal|-:J1,J2,J3,J4,J5,J6:-0.001019,0.122144,0.141586,-0.014107,-0.258800,0.011316:vel_
1561008266.274693,cobot_dynamixel_driver/goal|-:J1,J2,J3,J4,J5,J6:-0.004225,0.129513,0.149601,-0.014965,-0.275210,0.011381:vel_
1561008266.306703,cobot_dynamixel_driver/goal|-:J1,J2,J3,J4,J5,J6:-0.005217,0.132708,0.152052,-0.015219,-0.283525,0.011971:vel_
1561008266.338767,cobot_dynamixel_driver/goal|-:J1,J2,J3,J4,J5,J6:-0.006410,0.132885,0.153052,-0.015505,-0.282627,0.012219:vel_
1561008266.370467,cobot_dynamixel_driver/goal|-:J1,J2,J3,J4,J5,J6:-0.008167,0.131046,0.152209,-0.016181,-0.280492,0.012906:vel_
1561008266.402501,cobot_dynamixel_driver/goal|-:J1,J2,J3,J4,J5,J6:-0.025029,0.180727,0.192523,-0.023714,-0.373708,0.016354:vel_
1561008266.434567,cobot_dynamixel_driver/goal|-:J1,J2,J3,J4,J5,J6:-0.030275,0.194621,0.204889,-0.025306,-0.401063,0.016821:vel_
1561008266.466626,cobot_dynamixel_driver/goal|-:J1,J2,J3,J4,J5,J6:-0.033640,0.203626,0.211350,-0.025083,-0.419345,0.017241:vel_
1561008266.498442,cobot_dynamixel_driver/goal|-:J1,J2,J3,J4,J5,J6:-0.037577,0.206904,0.212291,-0.024790,-0.421413,0.018066:vel_
1561008266.530453,cobot_dynamixel_driver/goal|-:J1,J2,J3,J4,J5,J6:-0.038339,0.226355,0.208473,-0.031230,-0.436674,0.021102:vel_
1561008266.562488,cobot_dynamixel_driver/goal|-:J1,J2,J3,J4,J5,J6:-0.040112,0.231892,0.207814,-0.033859,-0.443156,0.023003:vel_
1561008266.594435,cobot_dynamixel_driver/goal|-:J1,J2,J3,J4,J5,J6:-0.043245,0.238327,0.212805,-0.037604,-0.455337,0.023787:vel_
1561008266.626478,cobot_dynamixel_driver/goal|-:J1,J2,J3,J4,J5,J6:-0.038556,0.245325,0.199021,-0.038202,-0.446483,0.025215:vel_
1561008266.658410,cobot_dynamixel_driver/goal|-:J1,J2,J3,J4,J5,J6:-0.038141,0.253861,0.200888,-0.038401,-0.455789,0.026126:vel_
1561008266.690437,cobot_dynamixel_driver/goal|-:J1,J2,J3,J4,J5,J6:-0.037185,0.257556,0.204487,-0.037121,-0.464820,0.026452:vel_
1561008266.722455,cobot_dynamixel_driver/goal|-:J1,J2,J3,J4,J5,J6:-0.035635,0.264286,0.187126,-0.040406,-0.452793,0.029023:vel_
1561008266.754511,cobot_dynamixel_driver/goal|-:J1,J2,J3,J4,J5,J6:-0.036774,0.270904,0.183670,-0.042671,-0.457304,0.030190:vel_
1561008266.786454,cobot_dynamixel_driver/goal|-:J1,J2,J3,J4,J5,J6:-0.037031,0.280187,0.174488,-0.046973,-0.456715,0.033466:vel_
1561008266.818400,cobot_dynamixel_driver/goal|-:J1,J2,J3,J4,J5,J6:-0.037253,0.284333,0.174726,-0.048086,-0.459088,0.034428:vel_
1561008266.850416,cobot_dynamixel_driver/goal|-:J1,J2,J3,J4,J5,J6:-0.037445,0.286280,0.176172,-0.047829,-0.462747,0.035455:vel_
1561008266.882437,cobot_dynamixel_driver/goal|-:J1,J2,J3,J4,J5,J6:-0.036987,0.295340,0.162792,-0.051590,-0.458352,0.038768:vel_
1561008266.914410,cobot_dynamixel_driver/goal|-:J1,J2,J3,J4,J5,J6:-0.037895,0.297807,0.159234,-0.052726,-0.458449,0.039214:vel_
1561008266.946570,cobot_dynamixel_driver/goal|-:J1,J2,J3,J4,J5,J6:-0.040138,0.304624,0.162089,-0.054187,-0.471167,0.039844:vel_
1561008266.978709,cobot_dynamixel_driver/goal|-:J1,J2,J3,J4,J5,J6:-0.037463,0.310078,0.146390,-0.058492,-0.455564,0.045376:vel_
1561008267.010809,cobot_dynamixel_driver/goal|-:J1,J2,J3,J4,J5,J6:-0.036413,0.308766,0.142362,-0.059904,-0.451386,0.046655:vel_
1561008267.042753,cobot_dynamixel_driver/goal|-:J1,J2,J3,J4,J5,J6:-0.036423,0.316208,0.143493,-0.062230,-0.461077,0.048270:vel_
1561008267.074785,cobot_dynamixel_driver/goal|-:J1,J2,J3,J4,J5,J6:-0.031295,0.275655,0.112049,-0.056932,-0.390058,0.045483:vel_
1561008267.106772,cobot_dynamixel_driver/goal|-:J1,J2,J3,J4,J5,J6:-0.030882,0.270852,0.105608,-0.056026,-0.374801,0.045214:vel_
1561008267.138876,cobot_dynamixel_driver/goal|-:J1,J2,J3,J4,J5,J6:-0.031568,0.263618,0.104291,-0.056193,-0.371914,0.046104:vel_
1561008267.170746,cobot_dynamixel_driver/goal|-:J1,J2,J3,J4,J5,J6:-0.015176,0.137162,0.047525,-0.030721,-0.184538,0.025343:vel_
1561008267.250544,cobot_dynamixel_driver/goal|-:J1,J2,J3,J4,J5,J6:-0.013336,0.118949,0.042095,-0.029336,-0.156662,0.024754:vel_
1561008267.282510,cobot_dynamixel_driver/goal|-:J1,J2,J3,J4,J5,J6:-0.012224,0.111089,0.040057,-0.028440,-0.144666,0.022932:vel_
1561008267.314365,cobot_dynamixel_driver/goal|-:J1,J2,J3,J4,J5,J6:-0.012307,0.111169,0.039846,-0.028475,-0.145278,0.022857:vel_
1561008267.346359,cobot_dynamixel_driver/goal|-:J1,J2,J3,J4,J5,J6:-0.012665,0.112804,0.040069,-0.027840,-0.146419,0.023134:vel_
1561008267.378386,cobot_dynamixel_driver/goal|-:J1,J2,J3,J4,J5,J6:0.005473,-0.053968,-0.016663,0.012117,0.072529,-0.009644:vel_
1561008267.410390,cobot_dynamixel_driver/goal|-:J1,J2,J3,J4,J5,J6:0.006753,-0.067917,-0.021219,0.015300,0.091417,-0.012500:vel_
1561008267.442464,cobot_dynamixel_driver/goal|-:J1,J2,J3,J4,J5,J6:0.007389,-0.079785,-0.023147,0.016675,0.106422,-0.013370:vel_
1561008267.474379,cobot_dynamixel_driver/goal|-:J1,J2,J3,J4,J5,J6:0.008094,-0.084760,-0.024902,0.018035,0.114653,-0.014799:vel_
1561008267.506458,cobot_dynamixel_driver/goal|-:J1,J2,J3,J4,J5,J6:0.008977,-0.087931,-0.025586,0.018980,0.114786,-0.015411:vel_
1561008267.538331,cobot_dynamixel_driver/goal|-:J1,J2,J3,J4,J5,J6:0.009768,-0.089824,-0.026860,0.020217,0.115631,-0.015817:vel_
1561008267.570353,cobot_dynamixel_driver/goal|-:J1,J2,J3,J4,J5,J6:0.010764,-0.091402,-0.027707,0.021005,0.116415,-0.016172:vel_
1561008267.602396,cobot_dynamixel_driver/goal|-:J1,J2,J3,J4,J5,J6:0.019533,-0.167829,-0.061270,0.036292,0.226186,-0.028350:vel_
1561008267.634357,cobot_dynamixel_driver/goal|-:J1,J2,J3,J4,J5,J6:0.020986,-0.177388,-0.065418,0.037912,0.240000,-0.029443:vel_
1561008267.666372,cobot_dynamixel_driver/goal|-:J1,J2,J3,J4,J5,J6:0.021762,-0.182955,-0.066691,0.038012,0.247348,-0.029482:vel_
1561008267.698373,cobot_dynamixel_driver/goal|-:J1,J2,J3,J4,J5,J6:0.022420,-0.182481,-0.065853,0.037546,0.245911,-0.029706:vel_
1561008267.746387,cobot_dynamixel_driver/goal|-:J1,J2,J3,J4,J5,J6:0.025454,-0.198047,-0.071810,0.041568,0.269379,-0.033240:vel_
1561008267.778395,cobot_dynamixel_driver/goal|-:J1,J2,J3,J4,J5,J6:0.024234,-0.180593,-0.066546,0.041282,0.249815,-0.031238:vel_
1561008267.810385,cobot_dynamixel_driver/goal|-:J1,J2,J3,J4,J5,J6:0.030683,-0.248147,-0.108951,0.050972,0.358359,-0.038934:vel_
1561008267.842411,cobot_dynamixel_driver/goal|-:J1,J2,J3,J4,J5,J6:0.031835,-0.261471,-0.118227,0.052740,0.382670,-0.040558:vel_
1561008267.874418,cobot_dynamixel_driver/goal|-:J1,J2,J3,J4,J5,J6:0.032226,-0.272980,-0.123270,0.053818,0.401049,-0.040673:vel_
1561008267.907518,cobot_dynamixel_driver/goal|-:J1,J2,J3,J4,J5,J6:0.033241,-0.281687,-0.126368,0.056871,0.412517,-0.041722:vel_
1561008267.938392,cobot_dynamixel_driver/goal|-:J1,J2,J3,J4,J5,J6:0.036369,-0.297893,-0.153027,0.055409,0.452211,-0.040783:vel_
1561008267.970367,cobot_dynamixel_driver/goal|-:J1,J2,J3,J4,J5,J6:0.035234,-0.287255,-0.151228,0.050905,0.442362,-0.038516:vel_
1561008268.002380,cobot_dynamixel_driver/goal|-:J1,J2,J3,J4,J5,J6:0.036962,-0.290958,-0.157631,0.051442,0.450843,-0.038402:vel_
1561008268.034344,cobot_dynamixel_driver/goal|-:J1,J2,J3,J4,J5,J6:0.036554,-0.284730,-0.155739,0.051593,0.447472,-0.037918:vel_
1561008268.066381,cobot_dynamixel_driver/goal|-:J1,J2,J3,J4,J5,J6:0.035705,-0.278146,-0.171845,0.046438,0.451088,-0.033493:vel_
1561008268.098346,cobot_dynamixel_driver/goal|-:J1,J2,J3,J4,J5,J6:0.035997,-0.275265,-0.177280,0.044620,0.454262,-0.032122:vel_
1561008268.130341,cobot_dynamixel_driver/goal|-:J1,J2,J3,J4,J5,J6:0.035107,-0.272683,-0.181029,0.043959,0.455141,-0.032366:vel_
1561008268.162400,cobot_dynamixel_driver/goal|-:J1,J2,J3,J4,J5,J6:0.036286,-0.262107,-0.189380,0.040838,0.452332,-0.028486:vel_
1561008268.194426,cobot_dynamixel_driver/goal|-:J1,J2,J3,J4,J5,J6:0.036911,-0.259981,-0.193586,0.040056,0.453994,-0.027279:vel_
1561008268.226391,cobot_dynamixel_driver/goal|-:J1,J2,J3,J4,J5,J6:0.036912,-0.264139,-0.199655,0.039478,0.465755,-0.027259:vel_
1561008268.258362,cobot_dynamixel_driver/goal|-:J1,J2,J3,J4,J5,J6:0.036229,-0.245780,-0.204502,0.036098,0.450751,-0.024571:vel_
1561008268.290374,cobot_dynamixel_driver/goal|-:J1,J2,J3,J4,J5,J6:0.036917,-0.243435,-0.209603,0.035578,0.451645,-0.024509:vel_
1561008268.322503,cobot_dynamixel_driver/goal|-:J1,J2,J3,J4,J5,J6:0.037581,-0.243092,-0.211832,0.037129,0.457649,-0.025319:vel_
1561008268.354859,cobot_dynamixel_driver/goal|-:J1,J2,J3,J4,J5,J6:0.037134,-0.227764,-0.217206,0.032145,0.447138,-0.021169:vel_
1561008268.386715,cobot_dynamixel_driver/goal|-:J1,J2,J3,J4,J5,J6:0.036926,-0.226843,-0.219792,0.030236,0.445988,-0.019841:vel_
1561008268.418864,cobot_dynamixel_driver/goal|-:J1,J2,J3,J4,J5,J6:0.036897,-0.231763,-0.225024,0.029404,0.454955,-0.020499:vel_
1561008268.450533,cobot_dynamixel_driver/goal|-:J1,J2,J3,J4,J5,J6:0.032357,-0.189720,-0.204941,0.024145,0.398560,-0.015405:vel_
1561008268.482355,cobot_dynamixel_driver/goal|-:J1,J2,J3,J4,J5,J6:0.031926,-0.180235,-0.202382,0.023431,0.385624,-0.014313:vel_
1561008268.514314,cobot_dynamixel_driver/goal|-:J1,J2,J3,J4,J5,J6:0.032284,-0.174407,-0.202359,0.024004,0.383574,-0.014969:vel_
1561008268.546366,cobot_dynamixel_driver/goal|-:J1,J2,J3,J4,J5,J6:0.032885,-0.178214,-0.209527,0.025149,0.395508,-0.015508:vel_
1561008268.578270,cobot_dynamixel_driver/goal|-:J1,J2,J3,J4,J5,J6:0.014259,-0.076637,-0.098290,0.009603,0.175482,-0.005716:vel_
1561008268.610428,cobot_dynamixel_driver/goal|-:J1,J2,J3,J4,J5,J6:0.012187,-0.066005,-0.086732,0.007705,0.151794,-0.004896:vel_
1561008268.642339,cobot_dynamixel_driver/goal|-:J1,J2,J3,J4,J5,J6:0.011819,-0.059045,-0.079229,0.007321,0.131536,-0.005444:vel_
1561008268.674356,cobot_dynamixel_driver/goal|-:J1,J2,J3,J4,J5,J6:0.012043,-0.058278,-0.080805,0.007583,0.121430,-0.006250:vel_
1561008268.708357,cobot_dynamixel_driver/goal|-:J1,J2,J3,J4,J5,J6:0.012622,-0.061501,-0.084465,0.008000,0.124211,-0.007460:vel_
1561008268.738321,cobot_dynamixel_driver/goal|-:J1,J2,J3,J4,J5,J6:0.012767,-0.062916,-0.085300,0.007567,0.126021,-0.008934:vel_
1561008268.770380,cobot_dynamixel_driver/goal|-:J1,J2,J3,J4,J5,J6:0.012795,-0.064727,-0.086821,0.007107,0.127908,-0.011432:vel_
1561008270.594359,cobot_dynamixel_driver/goal|-:J1,J2,J3,J4,J5,J6:0.000000,0.000000,0.000000,0.000000,0.000000,0.000000:0.500000,0.500000,0.500000,0.500000,0.500000,0.500000:pos_vel_
1561008453.624754,cobot_dynamixel_driver/goal|-:J1,J2,J3,J4,J5,J6:0.023182,0.030354,0.101482,0.004930,-0.134445,0.546408:vel_
1561008454.056046,cobot_dynamixel_driver/goal|-:J1,J2,J3,J4,J5,J6:0.023942,0.021594,0.090080,0.005213,-0.139654,0.574688:vel_
1561008454.091213,cobot_dynamixel_driver/goal|-:J1,J2,J3,J4,J5,J6:0.025758,0.022040,0.091622,0.005987,-0.144491,0.647630:vel_
1561008454.136066,cobot_dynamixel_driver/goal|-:J1,J2,J3,J4,J5,J6:0.028274,0.022956,0.092724,0.007755,-0.149840,0.767798:vel_
1561008454.168034,cobot_dynamixel_driver/goal|-:J1,J2,J3,J4,J5,J6:0.040071,0.048871,0.151914,0.009755,-0.223066,0.785398:vel_
1561008454.200097,cobot_dynamixel_driver/goal|-:J1,J2,J3,J4,J5,J6:0.041979,0.052459,0.159641,0.010653,-0.232474,0.785398:vel_
1561008454.232074,cobot_dynamixel_driver/goal|-:J1,J2,J3,J4,J5,J6:0.043121,0.053494,0.162990,0.010137,-0.236115,0.785398:vel_
1561008454.264087,cobot_dynamixel_driver/goal|-:J1,J2,J3,J4,J5,J6:0.042693,0.053530,0.162236,0.009594,-0.236106,0.785398:vel_
1561008454.296028,cobot_dynamixel_driver/goal|-:J1,J2,J3,J4,J5,J6:0.042495,0.052180,0.161484,0.009797,-0.236088,0.785398:vel_
1561008454.328039,cobot_dynamixel_driver/goal|-:J1,J2,J3,J4,J5,J6:0.042434,0.051136,0.162348,0.009799,-0.238200,0.785398:vel_
1561008454.360078,cobot_dynamixel_driver/goal|-:J1,J2,J3,J4,J5,J6:0.056942,0.085982,0.224609,0.010449,-0.328134,0.785398:vel_
1561008454.392076,cobot_dynamixel_driver/goal|-:J1,J2,J3,J4,J5,J6:0.060188,0.093175,0.239152,0.010846,-0.348598,0.785398:vel_
1561008454.424006,cobot_dynamixel_driver/goal|-:J1,J2,J3,J4,J5,J6:0.060467,0.096603,0.247391,0.011256,-0.360966,0.785398:vel_
1561008454.456052,cobot_dynamixel_driver/goal|-:J1,J2,J3,J4,J5,J6:0.063671,0.102516,0.261391,0.011760,-0.379721,0.785398:vel_
1561008454.488033,cobot_dynamixel_driver/goal|-:J1,J2,J3,J4,J5,J6:0.065683,0.114816,0.253652,0.010320,-0.384410,0.785398:vel_
1561008454.520060,cobot_dynamixel_driver/goal|-:J1,J2,J3,J4,J5,J6:0.066495,0.120115,0.254414,0.010917,-0.390027,0.785398:vel_
1561008454.552026,cobot_dynamixel_driver/goal|-:J1,J2,J3,J4,J5,J6:0.068294,0.122714,0.255334,0.010886,-0.395860,0.785398:vel_
1561008454.584011,cobot_dynamixel_driver/goal|-:J1,J2,J3,J4,J5,J6:0.068982,0.132596,0.249524,0.008754,-0.399498,0.785398:vel_
1561008454.615985,cobot_dynamixel_driver/goal|-:J1,J2,J3,J4,J5,J6:0.067974,0.133643,0.246692,0.007984,-0.398336,0.785398:vel_
1561008454.648055,cobot_dynamixel_driver/goal|-:J1,J2,J3,J4,J5,J6:0.068722,0.135482,0.251790,0.006751,-0.405144,0.785398:vel_
1561008454.680100,cobot_dynamixel_driver/goal|-:J1,J2,J3,J4,J5,J6:0.068823,0.144151,0.239480,0.005046,-0.399607,0.785398:vel_
1561008454.712036,cobot_dynamixel_driver/goal|-:J1,J2,J3,J4,J5,J6:0.069152,0.146873,0.236713,0.004897,-0.399136,0.785398:vel_
1561008454.744239,cobot_dynamixel_driver/goal|-:J1,J2,J3,J4,J5,J6:0.071650,0.150046,0.241529,0.004517,-0.401599,0.785398:vel_
1561008454.776318,cobot_dynamixel_driver/goal|-:J1,J2,J3,J4,J5,J6:0.070542,0.158237,0.228082,0.002941,-0.399977,0.785398:vel_
1561008454.808369,cobot_dynamixel_driver/goal|-:J1,J2,J3,J4,J5,J6:0.070508,0.162171,0.226020,0.002416,-0.403729,0.785398:vel_
1561008454.840303,cobot_dynamixel_driver/goal|-:J1,J2,J3,J4,J5,J6:0.071498,0.165510,0.229262,0.002982,-0.413802,0.785398:vel_
1561008454.872481,cobot_dynamixel_driver/goal|-:J1,J2,J3,J4,J5,J6:0.069904,0.171323,0.212165,0.001630,-0.401809,0.785398:vel_
1561008454.904578,cobot_dynamixel_driver/goal|-:J1,J2,J3,J4,J5,J6:0.070860,0.174264,0.211357,0.001776,-0.402506,0.785398:vel_
1561008454.936157,cobot_dynamixel_driver/goal|-:J1,J2,J3,J4,J5,J6:0.071490,0.177170,0.211865,0.001854,-0.409806,0.785398:vel_
1561008454.968029,cobot_dynamixel_driver/goal|-:J1,J2,J3,J4,J5,J6:0.070878,0.184148,0.199364,-0.000777,-0.402310,0.785398:vel_
1561008455.000132,cobot_dynamixel_driver/goal|-:J1,J2,J3,J4,J5,J6:0.071198,0.185153,0.197847,-0.001488,-0.398904,0.785398:vel_
1561008455.032170,cobot_dynamixel_driver/goal|-:J1,J2,J3,J4,J5,J6:0.073086,0.190733,0.200477,-0.002149,-0.409652,0.785398:vel_
1561008455.064114,cobot_dynamixel_driver/goal|-:J1,J2,J3,J4,J5,J6:0.071954,0.197416,0.185454,-0.004497,-0.399037,0.785398:vel_
1561008455.096281,cobot_dynamixel_driver/goal|-:J1,J2,J3,J4,J5,J6:0.072122,0.200745,0.182871,-0.005869,-0.402560,0.785398:vel_
1561008455.128013,cobot_dynamixel_driver/goal|-:J1,J2,J3,J4,J5,J6:0.073753,0.202605,0.183281,-0.008420,-0.407640,0.785398:vel_
1561008455.160007,cobot_dynamixel_driver/goal|-:J1,J2,J3,J4,J5,J6:0.071999,0.208872,0.170380,-0.009607,-0.397178,0.785398:vel_
1561008455.192005,cobot_dynamixel_driver/goal|-:J1,J2,J3,J4,J5,J6:0.072580,0.213524,0.169620,-0.011997,-0.399585,0.785398:vel_
1561008455.223969,cobot_dynamixel_driver/goal|-:J1,J2,J3,J4,J5,J6:0.073811,0.216424,0.170675,-0.013579,-0.404216,0.785398:vel_
1561008455.256044,cobot_dynamixel_driver/goal|-:J1,J2,J3,J4,J5,J6:0.071734,0.222173,0.156428,-0.012947,-0.394104,0.785398:vel_
1561008455.287934,cobot_dynamixel_driver/goal|-:J1,J2,J3,J4,J5,J6:0.072042,0.225843,0.154276,-0.013741,-0.395747,0.785398:vel_
1561008455.319968,cobot_dynamixel_driver/goal|-:J1,J2,J3,J4,J5,J6:0.073425,0.228392,0.154797,-0.013357,-0.399544,0.785398:vel_
1561008455.351950,cobot_dynamixel_driver/goal|-:J1,J2,J3,J4,J5,J6:0.072502,0.236306,0.141820,-0.012467,-0.392317,0.785398:vel_
1561008455.384062,cobot_dynamixel_driver/goal|-:J1,J2,J3,J4,J5,J6:0.072578,0.239333,0.139590,-0.011824,-0.391599,0.785398:vel_
1561008455.416021,cobot_dynamixel_driver/goal|-:J1,J2,J3,J4,J5,J6:0.072433,0.242261,0.139621,-0.012163,-0.395608,0.785398:vel_
1561008455.447980,cobot_dynamixel_driver/goal|-:J1,J2,J3,J4,J5,J6:0.071651,0.248697,0.125166,-0.014776,-0.385002,0.785398:vel_
1561008455.479964,cobot_dynamixel_driver/goal|-:J1,J2,J3,J4,J5,J6:0.071915,0.250527,0.122377,-0.016260,-0.384142,0.785398:vel_
1561008455.512078,cobot_dynamixel_driver/goal|-:J1,J2,J3,J4,J5,J6:0.073509,0.255417,0.124733,-0.017683,-0.393335,0.785398:vel_
1561008455.543954,cobot_dynamixel_driver/goal|-:J1,J2,J3,J4,J5,J6:0.072492,0.260468,0.109167,-0.018431,-0.381094,0.785398:vel_
1561008455.576086,cobot_dynamixel_driver/goal|-:J1,J2,J3,J4,J5,J6:0.073548,0.264468,0.107203,-0.019383,-0.382259,0.785398:vel_
1561008455.608587,cobot_dynamixel_driver/goal|-:J1,J2,J3,J4,J5,J6:0.074517,0.267439,0.110520,-0.021287,-0.387959,0.785398:vel_
1561008455.640249,cobot_dynamixel_driver/goal|-:J1,J2,J3,J4,J5,J6:0.071623,0.271255,0.092991,-0.021075,-0.372005,0.785398:vel_
1561008455.672295,cobot_dynamixel_driver/goal|-:J1,J2,J3,J4,J5,J6:0.071632,0.273104,0.088647,-0.022212,-0.369909,0.785398:vel_
1561008455.704240,cobot_dynamixel_driver/goal|-:J1,J2,J3,J4,J5,J6:0.074315,0.277575,0.089426,-0.023798,-0.376458,0.785398:vel_
1561008455.736067,cobot_dynamixel_driver/goal|-:J1,J2,J3,J4,J5,J6:0.072137,0.284483,0.076066,-0.022821,-0.366658,0.785398:vel_
1561008455.816012,cobot_dynamixel_driver/goal|-:J1,J2,J3,J4,J5,J6:0.089207,0.350868,0.088844,-0.026914,-0.446263,0.785398:vel_
1561008455.847977,cobot_dynamixel_driver/goal|-:J1,J2,J3,J4,J5,J6:0.061438,0.259742,0.048673,-0.019763,-0.309567,0.785398:vel_
