surachairobotic/cobot/cobot_dynamixel_driver/log/2019-01-04T07:08:33.325444_driver_log.txt
cobot_dynamixel_driver/joint_states|name|J1,J2,J3,J4,J5,J6|pos|0.001339,-1.268785,1.294497,0.001014,-1.097235,-0.000083|vel|0.000000,-0.000000,0.000000,0.000000,0.000000,0.000000|eff|0.000000,0.000000,0.000000,0.000000,0.000000,0.000000
cobot_dynamixel_driver/joint_states|name|J1,J2,J3,J4,J5,J6|pos|0.001339,-1.268785,1.294497,0.001014,-1.097235,-0.000083|vel|0.000000,-0.000000,0.000000,0.000000,0.000000,0.000000|eff|0.000000,0.000000,0.000000,0.000000,0.000000,0.000000
cobot_dynamixel_driver/joint_states|name|J1,J2,J3,J4,J5,J6|pos|0.001339,-1.268785,1.294497,0.001014,-1.097235,-0.000083|vel|0.000000,-0.000000,0.000000,0.000000,0.000000,0.000000|eff|0.000000,0.000000,0.000000,0.000000,0.000000,0.000000
cobot_dynamixel_driver/joint_states|name|J1,J2,J3,J4,J5,J6|pos|0.001339,-1.268785,1.294497,0.001014,-1.097235,-0.000083|vel|0.000000,-0.000000,0.000000,0.000000,0.000000,0.000000|eff|0.000000,0.000000,0.000000,0.000000,0.000000,0.000000
cobot_dynamixel_driver/joint_states|name|J1,J2,J3,J4,J5,J6|pos|0.001339,-1.268785,1.294497,0.001014,-1.097235,-0.000083|vel|0.000000,-0.000000,0.000000,0.000000,0.000000,0.000000|eff|0.000000,0.000000,0.000000,0.000000,0.000000,0.000000
cobot_dynamixel_driver/joint_states|name|J1,J2,J3,J4,J5,J6|pos|0.001339,-1.268785,1.294497,0.001014,-1.097235,-0.000083|vel|0.000000,-0.000000,0.000000,0.000000,0.000000,0.000000|eff|0.000000,0.000000,0.000000,0.000000,0.000000,0.000000
cobot_dynamixel_driver/joint_states|name|J1,J2,J3,J4,J5,J6|pos|0.001339,-1.268785,1.294497,0.001014,-1.097235,-0.000083|vel|0.000000,-0.000000,0.000000,0.000000,0.000000,0.000000|eff|0.000000,0.000000,0.000000,0.000000,0.000000,0.000000
cobot_dynamixel_driver/joint_states|name|J1,J2,J3,J4,J5,J6|pos|0.001339,-1.268785,1.294497,0.001014,-1.097235,-0.000083|vel|0.000000,-0.000000,0.000000,0.000000,0.000000,0.000000|eff|0.000000,0.000000,0.000000,0.000000,0.000000,0.000000
cobot_dynamixel_driver/joint_states|name|J1,J2,J3,J4,J5,J6|pos|0.001339,-1.268785,1.294497,0.001014,-1.097235,-0.000083|vel|0.000000,-0.000000,0.000000,0.000000,0.000000,0.000000|eff|0.000000,0.000000,0.000000,0.000000,0.000000,0.000000
cobot_dynamixel_driver/joint_states|name|J1,J2,J3,J4,J5,J6|pos|0.001339,-1.268785,1.294497,0.001014,-1.097235,-0.000083|vel|0.000000,-0.000000,0.000000,0.000000,0.000000,0.000000|eff|0.000000,0.000000,0.000000,0.000000,0.000000,0.000000
cobot_dynamixel_driver/joint_states|name|J1,J2,J3,J4,J5,J6|pos|0.001339,-1.268785,1.294497,0.001014,-1.097235,-0.000083|vel|0.000000,-0.000000,0.000000,0.000000,0.000000,0.000000|eff|0.000000,0.000000,0.000000,0.000000,0.000000,0.000000
cobot_dynamixel_driver/joint_states|name|J1,J2,J3,J4,J5,J6|pos|0.001339,-1.268785,1.294497,0.001014,-1.097235,-0.000083|vel|0.000000,-0.000000,0.000000,0.000000,0.000000,0.000000|eff|0.000000,0.000000,0.000000,0.000000,0.000000,0.000000
cobot_dynamixel_driver/joint_states|name|J1,J2,J3,J4,J5,J6|pos|0.001339,-1.268785,1.294497,0.001014,-1.097235,-0.000083|vel|0.000000,-0.000000,0.000000,0.000000,0.000000,0.000000|eff|0.000000,0.000000,0.000000,0.000000,0.000000,0.000000
cobot_dynamixel_driver/joint_states|name|J1,J2,J3,J4,J5,J6|pos|0.001339,-1.268785,1.294497,0.001014,-1.097235,-0.000083|vel|0.000000,-0.000000,0.000000,0.000000,0.000000,0.000000|eff|0.000000,0.000000,0.000000,0.000000,0.000000,0.000000
cobot_dynamixel_driver/joint_states|name|J1,J2,J3,J4,J5,J6|pos|0.001339,-1.268785,1.294497,0.001014,-1.097235,-0.000083|vel|0.000000,-0.000000,0.000000,0.000000,0.000000,0.000000|eff|0.000000,0.000000,0.000000,0.000000,0.000000,0.000000
cobot_dynamixel_driver/joint_states|name|J1,J2,J3,J4,J5,J6|pos|0.001339,-1.268785,1.294497,0.001014,-1.097235,-0.000083|vel|0.000000,-0.000000,0.000000,0.000000,0.000000,0.000000|eff|0.000000,0.000000,0.000000,0.000000,0.000000,0.000000
cobot_dynamixel_driver/joint_states|name|J1,J2,J3,J4,J5,J6|pos|0.001339,-1.268785,1.294497,0.001014,-1.097235,-0.000083|vel|0.000000,-0.000000,0.000000,0.000000,0.000000,0.000000|eff|0.000000,0.000000,0.000000,0.000000,0.000000,0.000000
cobot_dynamixel_driver/joint_states|name|J1,J2,J3,J4,J5,J6|pos|0.001339,-1.268785,1.294497,0.001014,-1.097235,-0.000083|vel|0.000000,-0.000000,0.000000,0.000000,0.000000,0.000000|eff|0.000000,0.000000,0.000000,0.000000,0.000000,0.000000
cobot_dynamixel_driver/joint_states|name|J1,J2,J3,J4,J5,J6|pos|0.001339,-1.268785,1.294497,0.001014,-1.097235,-0.000083|vel|0.000000,-0.000000,0.000000,0.000000,0.000000,0.000000|eff|0.000000,0.000000,0.000000,0.000000,0.000000,0.000000
cobot_dynamixel_driver/joint_states|name|J1,J2,J3,J4,J5,J6|pos|0.001339,-1.268785,1.294497,0.001014,-1.097235,-0.000083|vel|0.000000,-0.000000,0.000000,0.000000,0.000000,0.000000|eff|0.000000,0.000000,0.000000,0.000000,0.000000,0.000000
cobot_dynamixel_driver/joint_states|name|J1,J2,J3,J4,J5,J6|pos|0.001339,-1.268785,1.294497,0.001014,-1.097235,-0.000083|vel|0.000000,-0.000000,0.000000,0.000000,0.000000,0.000000|eff|0.000000,0.000000,0.000000,0.000000,0.000000,0.000000
cobot_dynamixel_driver/joint_states|name|J1,J2,J3,J4,J5,J6|pos|0.001339,-1.268785,1.294497,0.001014,-1.097235,-0.000083|vel|0.000000,-0.000000,0.000000,0.000000,0.000000,0.000000|eff|0.000000,0.000000,0.000000,0.000000,0.000000,0.000000
cobot_dynamixel_driver/joint_states|name|J1,J2,J3,J4,J5,J6|pos|0.001339,-1.268785,1.294497,0.001014,-1.097235,-0.000083|vel|0.000000,-0.000000,0.000000,0.000000,0.000000,0.000000|eff|0.000000,0.000000,0.000000,0.000000,0.000000,0.000000
cobot_dynamixel_driver/joint_states|name|J1,J2,J3,J4,J5,J6|pos|0.001339,-1.268785,1.294497,0.001014,-1.097235,-0.000083|vel|0.000000,-0.000000,0.000000,0.000000,0.000000,0.000000|eff|0.000000,0.000000,0.000000,0.000000,0.000000,0.000000
cobot_dynamixel_driver/joint_states|name|J1,J2,J3,J4,J5,J6|pos|0.001339,-1.268785,1.294497,0.001014,-1.097235,-0.000083|vel|0.000000,-0.000000,0.000000,0.000000,0.000000,0.000000|eff|0.000000,-32.226562,0.000000,0.000000,0.000000,0.000000
cobot_dynamixel_driver/joint_states|name|J1,J2,J3,J4,J5,J6|pos|0.001339,-1.268785,1.294497,0.001014,-1.097235,-0.000083|vel|0.000000,-0.000000,0.000000,0.000000,0.000000,0.000000|eff|0.000000,0.000000,0.000000,0.000000,0.000000,0.000000
cobot_dynamixel_driver/joint_states|name|J1,J2,J3,J4,J5,J6|pos|0.001339,-1.268785,1.294497,0.001014,-1.097235,-0.000083|vel|0.000000,-0.000000,0.000000,0.000000,0.000000,0.000000|eff|0.000000,0.000000,0.000000,0.000000,0.000000,0.000000
cobot_dynamixel_driver/joint_states|name|J1,J2,J3,J4,J5,J6|pos|0.001339,-1.268785,1.294497,0.001014,-1.097235,-0.000083|vel|0.000000,-0.000000,0.000000,0.000000,0.000000,0.000000|eff|0.000000,0.000000,0.000000,0.000000,0.000000,0.000000
cobot_dynamixel_driver/joint_states|name|J1,J2,J3,J4,J5,J6|pos|0.001339,-1.268785,1.294497,0.001014,-1.097235,-0.000083|vel|0.000000,-0.000000,0.000000,0.000000,0.000000,0.000000|eff|0.000000,0.000000,0.000000,0.000000,0.000000,0.000000
cobot_dynamixel_driver/joint_states|name|J1,J2,J3,J4,J5,J6|pos|0.001339,-1.268785,1.294497,0.001014,-1.097235,-0.000083|vel|0.000000,-0.000000,0.000000,0.000000,0.000000,0.000000|eff|0.000000,0.000000,0.000000,0.000000,0.000000,0.000000
cobot_dynamixel_driver/joint_states|name|J1,J2,J3,J4,J5,J6|pos|0.001339,-1.268785,1.294497,0.001014,-1.097235,-0.000083|vel|0.000000,-0.000000,0.000000,0.000000,0.000000,0.000000|eff|0.000000,0.000000,0.000000,0.000000,0.000000,0.000000
cobot_dynamixel_driver/joint_states|name|J1,J2,J3,J4,J5,J6|pos|0.001339,-1.268785,1.294497,0.001014,-1.097235,-0.000083|vel|0.000000,-0.000000,0.000000,0.000000,0.000000,0.000000|eff|0.000000,0.000000,0.000000,0.000000,0.000000,0.000000
cobot_dynamixel_driver/joint_states|name|J1,J2,J3,J4,J5,J6|pos|0.001339,-1.268785,1.294497,0.001014,-1.097235,-0.000083|vel|0.000000,-0.000000,0.000000,0.000000,0.000000,0.000000|eff|0.000000,0.000000,0.000000,0.000000,0.000000,0.000000
cobot_dynamixel_driver/joint_states|name|J1,J2,J3,J4,J5,J6|pos|0.001339,-1.268785,1.294497,0.001014,-1.097235,-0.000083|vel|0.000000,-0.000000,0.000000,0.000000,0.000000,0.000000|eff|0.000000,0.000000,0.000000,0.000000,0.000000,0.000000
cobot_dynamixel_driver/joint_states|name|J1,J2,J3,J4,J5,J6|pos|0.001339,-1.268785,1.294497,0.001014,-1.097235,-0.000083|vel|0.000000,-0.000000,0.000000,0.000000,0.000000,0.000000|eff|0.000000,0.000000,0.000000,0.000000,0.000000,0.000000
cobot_dynamixel_driver/joint_states|name|J1,J2,J3,J4,J5,J6|pos|0.001339,-1.268785,1.294497,0.001014,-1.097235,-0.000083|vel|0.000000,-0.000000,0.000000,0.000000,0.000000,0.000000|eff|0.000000,0.000000,0.000000,0.000000,0.000000,0.000000
cobot_dynamixel_driver/joint_states|name|J1,J2,J3,J4,J5,J6|pos|0.001339,-1.268785,1.294497,0.001014,-1.097235,-0.000083|vel|0.000000,-0.000000,0.000000,0.000000,0.000000,0.000000|eff|0.000000,0.000000,0.000000,0.000000,0.000000,0.000000
cobot_dynamixel_driver/joint_states|name|J1,J2,J3,J4,J5,J6|pos|0.001339,-1.268785,1.294497,0.001014,-1.097235,-0.000083|vel|0.000000,-0.000000,0.000000,0.000000,0.000000,0.000000|eff|0.000000,0.000000,0.000000,0.000000,0.000000,0.000000
cobot_dynamixel_driver/joint_states|name|J1,J2,J3,J4,J5,J6|pos|0.001339,-1.268785,1.294497,0.001014,-1.097235,-0.000083|vel|0.000000,-0.000000,0.000000,0.000000,0.000000,0.000000|eff|0.000000,0.000000,0.000000,0.000000,0.000000,0.000000
cobot_dynamixel_driver/joint_states|name|J1,J2,J3,J4,J5,J6|pos|0.001339,-1.268785,1.294497,0.001014,-1.097235,-0.000083|vel|0.000000,-0.000000,0.000000,0.000000,0.000000,0.000000|eff|0.000000,0.000000,0.000000,0.000000,0.000000,0.000000
cobot_dynamixel_driver/joint_states|name|J1,J2,J3,J4,J5,J6|pos|0.001339,-1.268785,1.294497,0.001014,-1.097235,-0.000083|vel|0.000000,-0.000000,0.000000,0.000000,0.000000,0.000000|eff|0.000000,0.000000,0.000000,0.000000,0.000000,0.000000
cobot_dynamixel_driver/joint_states|name|J1,J2,J3,J4,J5,J6|pos|0.001339,-1.268785,1.294497,0.001014,-1.097235,-0.000083|vel|0.000000,-0.000000,0.000000,0.000000,0.000000,0.000000|eff|0.000000,0.000000,0.000000,0.000000,0.000000,0.000000
cobot_dynamixel_driver/joint_states|name|J1,J2,J3,J4,J5,J6|pos|0.001339,-1.268785,1.294497,0.001014,-1.097235,-0.000083|vel|0.000000,-0.000000,0.000000,0.000000,0.000000,0.000000|eff|0.000000,0.000000,0.000000,0.000000,0.000000,0.000000
cobot_dynamixel_driver/joint_states|name|J1,J2,J3,J4,J5,J6|pos|0.001339,-1.268785,1.294497,0.001014,-1.097235,-0.000083|vel|0.000000,-0.000000,0.000000,0.000000,0.000000,0.000000|eff|0.000000,0.000000,0.000000,0.000000,0.000000,0.000000
cobot_dynamixel_driver/joint_states|name|J1,J2,J3,J4,J5,J6|pos|0.001339,-1.268785,1.294497,0.001014,-1.097235,-0.000083|vel|0.000000,-0.000000,0.000000,0.000000,0.000000,0.000000|eff|0.000000,0.000000,0.000000,0.000000,0.000000,0.000000
cobot_dynamixel_driver/joint_states|name|J1,J2,J3,J4,J5,J6|pos|0.001339,-1.268785,1.294497,0.001014,-1.097235,-0.000083|vel|0.000000,-0.000000,0.000000,0.000000,0.000000,0.000000|eff|0.000000,0.000000,0.000000,0.000000,0.000000,0.000000
cobot_dynamixel_driver/joint_states|name|J1,J2,J3,J4,J5,J6|pos|0.001339,-1.268785,1.294497,0.001014,-1.097235,-0.000083|vel|0.000000,-0.000000,0.000000,0.000000,0.000000,0.000000|eff|0.000000,0.000000,0.000000,0.000000,0.000000,0.000000
cobot_dynamixel_driver/joint_states|name|J1,J2,J3,J4,J5,J6|pos|0.001339,-1.268785,1.294497,0.001014,-1.097235,-0.000083|vel|0.000000,-0.000000,0.000000,0.000000,0.000000,0.000000|eff|0.000000,0.000000,0.000000,0.000000,0.000000,0.000000
cobot_dynamixel_driver/joint_states|name|J1,J2,J3,J4,J5,J6|pos|0.001339,-1.268785,1.294497,0.001014,-1.097235,-0.000083|vel|0.000000,-0.000000,0.000000,0.000000,0.000000,0.000000|eff|0.000000,0.000000,0.000000,0.000000,0.000000,0.000000
cobot_dynamixel_driver/joint_states|name|J1,J2,J3,J4,J5,J6|pos|0.001339,-1.268785,1.294497,0.001014,-1.097235,-0.000083|vel|0.000000,-0.000000,0.000000,0.000000,0.000000,0.000000|eff|0.000000,0.000000,0.000000,0.000000,0.000000,0.000000
cobot_dynamixel_driver/joint_states|name|J1,J2,J3,J4,J5,J6|pos|0.001339,-1.268785,1.294497,0.001014,-1.097235,-0.000083|vel|0.000000,-0.000000,0.000000,0.000000,0.000000,0.000000|eff|0.000000,0.000000,0.000000,0.000000,0.000000,0.000000
cobot_dynamixel_driver/joint_states|name|J1,J2,J3,J4,J5,J6|pos|0.001339,-1.268785,1.294497,0.001014,-1.097235,-0.000083|vel|0.000000,-0.000000,0.000000,0.000000,0.000000,0.000000|eff|0.000000,0.000000,0.000000,0.000000,0.000000,0.000000
cobot_dynamixel_driver/joint_states|name|J1,J2,J3,J4,J5,J6|pos|0.001339,-1.268785,1.294497,0.001014,-1.097235,-0.000083|vel|0.000000,-0.000000,0.000000,0.000000,0.000000,0.000000|eff|0.000000,0.000000,0.000000,0.000000,0.000000,0.000000
cobot_dynamixel_driver/joint_states|name|J1,J2,J3,J4,J5,J6|pos|0.001339,-1.268785,1.294497,0.001014,-1.097235,-0.000083|vel|0.000000,-0.000000,0.000000,0.000000,0.000000,0.000000|eff|0.000000,0.000000,0.000000,0.000000,0.000000,0.000000
cobot_dynamixel_driver/joint_states|name|J1,J2,J3,J4,J5,J6|pos|0.001339,-1.268785,1.294497,0.001014,-1.097235,-0.000083|vel|0.000000,-0.000000,0.000000,0.000000,0.000000,0.000000|eff|0.000000,0.000000,0.000000,0.000000,0.000000,0.000000
cobot_dynamixel_driver/joint_states|name|J1,J2,J3,J4,J5,J6|pos|0.001339,-1.268785,1.294497,0.001014,-1.097235,-0.000083|vel|0.000000,-0.000000,0.000000,0.000000,0.000000,0.000000|eff|0.000000,0.000000,0.000000,0.000000,0.000000,0.000000
cobot_dynamixel_driver/joint_states|name|J1,J2,J3,J4,J5,J6|pos|0.001339,-1.268785,1.294497,0.001014,-1.097235,-0.000083|vel|0.000000,-0.000000,0.000000,0.000000,0.000000,0.000000|eff|0.000000,0.000000,0.000000,0.000000,0.000000,0.000000
cobot_dynamixel_driver/joint_states|name|J1,J2,J3,J4,J5,J6|pos|0.001339,-1.268785,1.294497,0.001014,-1.097235,-0.000083|vel|0.000000,-0.000000,0.000000,0.000000,0.000000,0.000000|eff|0.000000,0.000000,0.000000,0.000000,0.000000,0.000000
cobot_dynamixel_driver/joint_states|name|J1,J2,J3,J4,J5,J6|pos|0.001339,-1.268785,1.294497,0.001014,-1.097235,-0.000083|vel|0.000000,-0.000000,0.000000,0.000000,0.000000,0.000000|eff|0.000000,0.000000,0.000000,0.000000,0.000000,0.000000
cobot_dynamixel_driver/joint_states|name|J1,J2,J3,J4,J5,J6|pos|0.001339,-1.268785,1.294497,0.001014,-1.097235,-0.000083|vel|0.000000,-0.000000,0.000000,0.000000,0.000000,0.000000|eff|0.000000,0.000000,0.000000,0.000000,0.000000,0.000000
cobot_dynamixel_driver/joint_states|name|J1,J2,J3,J4,J5,J6|pos|0.001339,-1.268785,1.294497,0.001014,-1.097235,-0.000083|vel|0.000000,-0.000000,0.000000,0.000000,0.000000,0.000000|eff|0.000000,0.000000,0.000000,0.000000,0.000000,0.000000
cobot_dynamixel_driver/joint_states|name|J1,J2,J3,J4,J5,J6|pos|0.001339,-1.268785,1.294497,0.001014,-1.097235,-0.000083|vel|0.000000,-0.000000,0.000000,0.000000,0.000000,0.000000|eff|0.000000,0.000000,0.000000,0.000000,0.000000,0.000000
cobot_dynamixel_driver/joint_states|name|J1,J2,J3,J4,J5,J6|pos|0.001339,-1.268785,1.294497,0.001014,-1.097235,-0.000083|vel|0.000000,-0.000000,0.000000,0.000000,0.000000,0.000000|eff|0.000000,0.000000,0.000000,0.000000,0.000000,0.000000
cobot_dynamixel_driver/joint_states|name|J1,J2,J3,J4,J5,J6|pos|0.001339,-1.268785,1.294497,0.001014,-1.097235,-0.000083|vel|0.000000,-0.000000,0.000000,0.000000,0.000000,0.000000|eff|0.000000,0.000000,0.000000,0.000000,0.000000,0.000000
cobot_dynamixel_driver/joint_states|name|J1,J2,J3,J4,J5,J6|pos|0.001339,-1.268785,1.294497,0.001014,-1.097235,-0.000083|vel|0.000000,-0.000000,0.000000,0.000000,0.000000,0.000000|eff|0.000000,0.000000,0.000000,0.000000,0.000000,0.000000
cobot_dynamixel_driver/joint_states|name|J1,J2,J3,J4,J5,J6|pos|0.001339,-1.268785,1.294497,0.001014,-1.097235,-0.000083|vel|0.000000,-0.000000,0.000000,0.000000,0.000000,0.000000|eff|0.000000,0.000000,0.000000,0.000000,0.000000,0.000000
cobot_dynamixel_driver/joint_states|name|J1,J2,J3,J4,J5,J6|pos|0.001339,-1.268785,1.294497,0.001014,-1.097235,-0.000083|vel|0.000000,-0.000000,0.000000,0.000000,0.000000,0.000000|eff|0.000000,0.000000,0.000000,0.000000,0.000000,0.000000
cobot_dynamixel_driver/joint_states|name|J1,J2,J3,J4,J5,J6|pos|0.001339,-1.268785,1.294497,0.001014,-1.097235,-0.000083|vel|0.000000,-0.000000,0.000000,0.000000,0.000000,0.000000|eff|0.000000,0.000000,0.000000,0.000000,0.000000,0.000000
cobot_dynamixel_driver/joint_states|name|J1,J2,J3,J4,J5,J6|pos|0.001339,-1.268785,1.294497,0.001014,-1.097235,-0.000083|vel|0.000000,-0.000000,0.000000,0.000000,0.000000,0.000000|eff|0.000000,0.000000,0.000000,0.000000,0.000000,0.000000
cobot_dynamixel_driver/joint_states|name|J1,J2,J3,J4,J5,J6|pos|0.001339,-1.268785,1.294497,0.001014,-1.097235,-0.000083|vel|0.000000,-0.000000,0.000000,0.000000,0.000000,0.000000|eff|0.000000,0.000000,0.000000,0.000000,0.000000,0.000000
cobot_dynamixel_driver/joint_states|name|J1,J2,J3,J4,J5,J6|pos|0.001339,-1.268785,1.294497,0.001014,-1.097235,-0.000083|vel|0.000000,-0.000000,0.000000,0.000000,0.000000,0.000000|eff|0.000000,0.000000,0.000000,0.000000,0.000000,0.000000
cobot_dynamixel_driver/joint_states|name|J1,J2,J3,J4,J5,J6|pos|0.001339,-1.268785,1.294497,0.001014,-1.097235,-0.000083|vel|0.000000,-0.000000,0.000000,0.000000,0.000000,0.000000|eff|0.000000,0.000000,0.000000,0.000000,0.000000,0.000000
cobot_dynamixel_driver/joint_states|name|J1,J2,J3,J4,J5,J6|pos|0.001339,-1.268785,1.294497,0.001014,-1.097235,-0.000083|vel|0.000000,-0.000000,0.000000,0.000000,0.000000,0.000000|eff|0.000000,0.000000,0.000000,0.000000,0.000000,0.000000
cobot_dynamixel_driver/joint_states|name|J1,J2,J3,J4,J5,J6|pos|0.001339,-1.268785,1.294497,0.001014,-1.097235,-0.000083|vel|0.000000,-0.000000,0.000000,0.000000,0.000000,0.000000|eff|0.000000,0.000000,0.000000,0.000000,0.000000,0.000000
cobot_dynamixel_driver/joint_states|name|J1,J2,J3,J4,J5,J6|pos|0.001339,-1.268785,1.294497,0.001014,-1.097235,-0.000083|vel|0.000000,-0.000000,0.000000,0.000000,0.000000,0.000000|eff|0.000000,0.000000,0.000000,0.000000,0.000000,0.000000
cobot_dynamixel_driver/joint_states|name|J1,J2,J3,J4,J5,J6|pos|0.001339,-1.268785,1.294497,0.001014,-1.097235,-0.000083|vel|0.000000,-0.000000,0.000000,0.000000,0.000000,0.000000|eff|0.000000,0.000000,0.000000,0.000000,0.000000,0.000000
cobot_dynamixel_driver/joint_states|name|J1,J2,J3,J4,J5,J6|pos|0.001339,-1.268785,1.294497,0.001014,-1.097235,-0.000083|vel|0.000000,-0.000000,0.000000,0.000000,0.000000,0.000000|eff|0.000000,0.000000,0.000000,0.000000,0.000000,0.000000
cobot_dynamixel_driver/joint_states|name|J1,J2,J3,J4,J5,J6|pos|0.001339,-1.268785,1.294497,0.001014,-1.097235,-0.000083|vel|0.000000,-0.000000,0.000000,0.000000,0.000000,0.000000|eff|0.000000,0.000000,0.000000,0.000000,0.000000,0.000000
cobot_dynamixel_driver/joint_states|name|J1,J2,J3,J4,J5,J6|pos|0.001339,-1.268785,1.294497,0.001014,-1.097235,-0.000083|vel|0.000000,-0.000000,0.000000,0.000000,0.000000,0.000000|eff|0.000000,0.000000,0.000000,0.000000,0.000000,0.000000
cobot_dynamixel_driver/joint_states|name|J1,J2,J3,J4,J5,J6|pos|0.001339,-1.268785,1.294497,0.001014,-1.097235,-0.000083|vel|0.000000,-0.000000,0.000000,0.000000,0.000000,0.000000|eff|0.000000,0.000000,0.000000,0.000000,0.000000,0.000000
cobot_dynamixel_driver/joint_states|name|J1,J2,J3,J4,J5,J6|pos|0.001339,-1.268785,1.294497,0.001014,-1.097235,-0.000083|vel|0.000000,-0.000000,0.000000,0.000000,0.000000,0.000000|eff|0.000000,0.000000,0.000000,0.000000,0.000000,0.000000
cobot_dynamixel_driver/joint_states|name|J1,J2,J3,J4,J5,J6|pos|0.001339,-1.268785,1.294497,0.001014,-1.097235,-0.000083|vel|0.000000,-0.000000,0.000000,0.000000,0.000000,0.000000|eff|0.000000,0.000000,0.000000,0.000000,0.000000,0.000000
cobot_dynamixel_driver/joint_states|name|J1,J2,J3,J4,J5,J6|pos|0.001339,-1.268785,1.294497,0.001014,-1.097235,-0.000083|vel|0.000000,-0.000000,0.000000,0.000000,0.000000,0.000000|eff|0.000000,0.000000,0.000000,0.000000,0.000000,0.000000
cobot_dynamixel_driver/joint_states|name|J1,J2,J3,J4,J5,J6|pos|0.001339,-1.268785,1.294497,0.001014,-1.097235,-0.000083|vel|0.000000,-0.000000,0.000000,0.000000,0.000000,0.000000|eff|0.000000,0.000000,0.000000,0.000000,0.000000,0.000000
cobot_dynamixel_driver/joint_states|name|J1,J2,J3,J4,J5,J6|pos|0.001339,-1.268785,1.294497,0.001014,-1.097235,-0.000083|vel|0.000000,-0.000000,0.000000,0.000000,0.000000,0.000000|eff|0.000000,0.000000,0.000000,0.000000,0.000000,0.000000
cobot_dynamixel_driver/joint_states|name|J1,J2,J3,J4,J5,J6|pos|0.001339,-1.268785,1.294497,0.001014,-1.097235,-0.000083|vel|0.000000,-0.000000,0.000000,0.000000,0.000000,0.000000|eff|0.000000,0.000000,0.000000,0.000000,0.000000,0.000000
cobot_dynamixel_driver/joint_states|name|J1,J2,J3,J4,J5,J6|pos|0.001339,-1.268785,1.294497,0.001014,-1.097235,-0.000083|vel|0.000000,-0.000000,0.000000,0.000000,0.000000,0.000000|eff|0.000000,0.000000,0.000000,0.000000,0.000000,0.000000
cobot_dynamixel_driver/joint_states|name|J1,J2,J3,J4,J5,J6|pos|0.001339,-1.268785,1.294497,0.001014,-1.097235,-0.000083|vel|0.000000,-0.000000,0.000000,0.000000,0.000000,0.000000|eff|0.000000,0.000000,0.000000,0.000000,0.000000,0.000000
cobot_dynamixel_driver/joint_states|name|J1,J2,J3,J4,J5,J6|pos|0.001339,-1.268785,1.294497,0.001014,-1.097235,-0.000083|vel|0.000000,-0.000000,0.000000,0.000000,0.000000,0.000000|eff|0.000000,0.000000,0.000000,0.000000,0.000000,0.000000
cobot_dynamixel_driver/joint_states|name|J1,J2,J3,J4,J5,J6|pos|0.001339,-1.268785,1.294497,0.001014,-1.097235,-0.000083|vel|0.000000,-0.000000,0.000000,0.000000,0.000000,0.000000|eff|0.000000,0.000000,0.000000,0.000000,0.000000,0.000000
cobot_dynamixel_driver/joint_states|name|J1,J2,J3,J4,J5,J6|pos|0.001339,-1.268785,1.294497,0.001014,-1.097235,-0.000083|vel|0.000000,-0.000000,0.000000,0.000000,0.000000,0.000000|eff|0.000000,0.000000,0.000000,0.000000,0.000000,0.000000
cobot_dynamixel_driver/joint_states|name|J1,J2,J3,J4,J5,J6|pos|0.001339,-1.268785,1.294497,0.001014,-1.097235,-0.000083|vel|0.000000,-0.000000,0.000000,0.000000,0.000000,0.000000|eff|0.000000,0.000000,0.000000,0.000000,0.000000,0.000000
cobot_dynamixel_driver/joint_states|name|J1,J2,J3,J4,J5,J6|pos|0.001339,-1.268785,1.294497,0.001014,-1.097235,-0.000083|vel|0.000000,-0.000000,0.000000,0.000000,0.000000,0.000000|eff|0.000000,0.000000,0.000000,0.000000,0.000000,0.000000
cobot_dynamixel_driver/joint_states|name|J1,J2,J3,J4,J5,J6|pos|0.001339,-1.268785,1.294497,0.001014,-1.097235,-0.000083|vel|0.000000,-0.000000,0.000000,0.000000,0.000000,0.000000|eff|0.000000,0.000000,0.000000,0.000000,0.000000,0.000000
cobot_dynamixel_driver/joint_states|name|J1,J2,J3,J4,J5,J6|pos|0.001339,-1.268785,1.294497,0.001014,-1.097235,-0.000083|vel|0.000000,-0.000000,0.000000,0.000000,0.000000,0.000000|eff|0.000000,0.000000,0.000000,0.000000,0.000000,0.000000
cobot_dynamixel_driver/joint_states|name|J1,J2,J3,J4,J5,J6|pos|0.001339,-1.268785,1.294497,0.001014,-1.097235,-0.000083|vel|0.000000,-0.000000,0.000000,0.000000,0.000000,0.000000|eff|0.000000,0.000000,0.000000,0.000000,0.000000,0.000000
cobot_dynamixel_driver/joint_states|name|J1,J2,J3,J4,J5,J6|pos|0.001339,-1.268785,1.294497,0.001014,-1.097235,-0.000083|vel|0.000000,-0.000000,0.000000,0.000000,0.000000,0.000000|eff|0.000000,-32.226562,0.000000,0.000000,0.000000,0.000000
cobot_dynamixel_driver/joint_states|name|J1,J2,J3,J4,J5,J6|pos|0.001339,-1.268785,1.294497,0.001014,-1.097235,-0.000083|vel|0.000000,-0.000000,0.000000,0.000000,0.000000,0.000000|eff|0.000000,0.000000,0.000000,0.000000,0.000000,0.000000
cobot_dynamixel_driver/joint_states|name|J1,J2,J3,J4,J5,J6|pos|0.001339,-1.268785,1.294497,0.001014,-1.097235,-0.000083|vel|0.000000,-0.000000,0.000000,0.000000,0.000000,0.000000|eff|0.000000,0.000000,0.000000,0.000000,0.000000,0.000000
cobot_dynamixel_driver/joint_states|name|J1,J2,J3,J4,J5,J6|pos|0.001339,-1.268785,1.294497,0.001014,-1.097235,-0.000083|vel|0.000000,-0.000000,0.000000,0.000000,0.000000,0.000000|eff|0.000000,0.000000,0.000000,0.000000,0.000000,0.000000
cobot_dynamixel_driver/joint_states|name|J1,J2,J3,J4,J5,J6|pos|0.001339,-1.268785,1.294497,0.001014,-1.097235,-0.000083|vel|0.000000,-0.000000,0.000000,0.000000,0.000000,0.000000|eff|0.000000,0.000000,0.000000,0.000000,0.000000,0.000000
cobot_dynamixel_driver/joint_states|name|J1,J2,J3,J4,J5,J6|pos|0.001339,-1.268785,1.294497,0.001014,-1.097235,-0.000083|vel|0.000000,-0.000000,0.000000,0.000000,0.000000,0.000000|eff|0.000000,0.000000,0.000000,0.000000,0.000000,0.000000
cobot_dynamixel_driver/joint_states|name|J1,J2,J3,J4,J5,J6|pos|0.001339,-1.268785,1.294497,0.001014,-1.097235,-0.000083|vel|0.000000,-0.000000,0.000000,0.000000,0.000000,0.000000|eff|0.000000,0.000000,0.000000,0.000000,0.000000,0.000000
cobot_dynamixel_driver/joint_states|name|J1,J2,J3,J4,J5,J6|pos|0.001339,-1.268785,1.294497,0.001014,-1.097235,-0.000083|vel|0.000000,-0.000000,0.000000,0.000000,0.000000,0.000000|eff|0.000000,0.000000,0.000000,0.000000,0.000000,0.000000
cobot_dynamixel_driver/joint_states|name|J1,J2,J3,J4,J5,J6|pos|0.001339,-1.268785,1.294497,0.001014,-1.097235,-0.000083|vel|0.000000,-0.000000,0.000000,0.000000,0.000000,0.000000|eff|0.000000,0.000000,0.000000,0.000000,0.000000,0.000000
cobot_dynamixel_driver/joint_states|name|J1,J2,J3,J4,J5,J6|pos|0.001339,-1.268785,1.294497,0.001014,-1.097235,-0.000083|vel|0.000000,-0.000000,0.000000,0.000000,0.000000,0.000000|eff|0.000000,0.000000,0.000000,0.000000,0.000000,0.000000
cobot_dynamixel_driver/joint_states|name|J1,J2,J3,J4,J5,J6|pos|0.001339,-1.268785,1.294497,0.001014,-1.097235,-0.000083|vel|0.000000,-0.000000,0.000000,0.000000,0.000000,0.000000|eff|0.000000,0.000000,0.000000,0.000000,0.000000,0.000000
cobot_dynamixel_driver/joint_states|name|J1,J2,J3,J4,J5,J6|pos|0.001339,-1.268785,1.294497,0.001014,-1.097235,-0.000083|vel|0.000000,-0.000000,0.000000,0.000000,0.000000,0.000000|eff|0.000000,0.000000,0.000000,0.000000,0.000000,0.000000
cobot_dynamixel_driver/joint_states|name|J1,J2,J3,J4,J5,J6|pos|0.001339,-1.268785,1.294497,0.001014,-1.097235,-0.000083|vel|0.000000,-0.000000,0.000000,0.000000,0.000000,0.000000|eff|0.000000,0.000000,0.000000,0.000000,0.000000,0.000000
cobot_dynamixel_driver/joint_states|name|J1,J2,J3,J4,J5,J6|pos|0.001339,-1.268785,1.294497,0.001014,-1.097235,-0.000083|vel|0.000000,-0.000000,0.000000,0.000000,0.000000,0.000000|eff|0.000000,0.000000,0.000000,0.000000,0.000000,0.000000
cobot_dynamixel_driver/joint_states|name|J1,J2,J3,J4,J5,J6|pos|0.001339,-1.268785,1.294497,0.001014,-1.097235,-0.000083|vel|0.000000,-0.000000,0.000000,0.000000,0.000000,0.000000|eff|0.000000,0.000000,0.000000,0.000000,0.000000,0.000000
cobot_dynamixel_driver/joint_states|name|J1,J2,J3,J4,J5,J6|pos|0.001339,-1.268785,1.294497,0.001014,-1.097235,-0.000083|vel|0.000000,-0.000000,0.000000,0.000000,0.000000,0.000000|eff|0.000000,0.000000,0.000000,0.000000,0.000000,0.000000
cobot_dynamixel_driver/joint_states|name|J1,J2,J3,J4,J5,J6|pos|0.001339,-1.268785,1.294497,0.001014,-1.097235,-0.000083|vel|0.000000,-0.000000,0.000000,0.000000,0.000000,0.000000|eff|0.000000,0.000000,0.000000,0.000000,0.000000,0.000000
cobot_dynamixel_driver/joint_states|name|J1,J2,J3,J4,J5,J6|pos|0.001339,-1.268785,1.294497,0.001014,-1.097235,-0.000083|vel|0.000000,-0.000000,0.000000,0.000000,0.000000,0.000000|eff|0.000000,0.000000,0.000000,0.000000,0.000000,0.000000
cobot_dynamixel_driver/joint_states|name|J1,J2,J3,J4,J5,J6|pos|0.001339,-1.268785,1.294497,0.001014,-1.097235,-0.000083|vel|0.000000,-0.000000,0.000000,0.000000,0.000000,0.000000|eff|0.000000,0.000000,0.000000,0.000000,0.000000,0.000000
cobot_dynamixel_driver/joint_states|name|J1,J2,J3,J4,J5,J6|pos|0.001339,-1.268785,1.294497,0.001014,-1.097235,-0.000083|vel|0.000000,-0.000000,0.000000,0.000000,0.000000,0.000000|eff|0.000000,0.000000,0.000000,0.000000,0.000000,0.000000
cobot_dynamixel_driver/joint_states|name|J1,J2,J3,J4,J5,J6|pos|0.001339,-1.268785,1.294497,0.001014,-1.097235,-0.000083|vel|0.000000,-0.000000,0.000000,0.000000,0.000000,0.000000|eff|0.000000,0.000000,0.000000,0.000000,0.000000,0.000000
cobot_dynamixel_driver/joint_states|name|J1,J2,J3,J4,J5,J6|pos|0.001339,-1.268785,1.294497,0.001014,-1.097235,-0.000083|vel|0.000000,-0.000000,0.000000,0.000000,0.000000,0.000000|eff|0.000000,0.000000,0.000000,0.000000,0.000000,0.000000
cobot_dynamixel_driver/joint_states|name|J1,J2,J3,J4,J5,J6|pos|0.001339,-1.268785,1.294497,0.001014,-1.097235,-0.000083|vel|0.000000,-0.000000,0.000000,0.000000,0.000000,0.000000|eff|0.000000,0.000000,0.000000,0.000000,0.000000,0.000000
cobot_dynamixel_driver/joint_states|name|J1,J2,J3,J4,J5,J6|pos|0.001339,-1.268785,1.294497,0.001014,-1.097235,-0.000083|vel|0.000000,-0.000000,0.000000,0.000000,0.000000,0.000000|eff|0.000000,0.000000,0.000000,0.000000,0.000000,0.000000
cobot_dynamixel_driver/joint_states|name|J1,J2,J3,J4,J5,J6|pos|0.001339,-1.268785,1.294497,0.001014,-1.097235,-0.000083|vel|0.000000,-0.000000,0.000000,0.000000,0.000000,0.000000|eff|0.000000,0.000000,0.000000,0.000000,0.000000,0.000000
cobot_dynamixel_driver/joint_states|name|J1,J2,J3,J4,J5,J6|pos|0.001339,-1.268785,1.294497,0.001014,-1.097235,-0.000083|vel|0.000000,-0.000000,0.000000,0.000000,0.000000,0.000000|eff|0.000000,0.000000,0.000000,0.000000,0.000000,0.000000
cobot_dynamixel_driver/joint_states|name|J1,J2,J3,J4,J5,J6|pos|0.001339,-1.268785,1.294497,0.001014,-1.097235,-0.000083|vel|0.000000,-0.000000,0.000000,0.000000,0.000000,0.000000|eff|0.000000,0.000000,0.000000,0.000000,0.000000,0.000000
cobot_dynamixel_driver/joint_states|name|J1,J2,J3,J4,J5,J6|pos|0.001339,-1.268785,1.294497,0.001014,-1.097235,-0.000083|vel|0.000000,-0.000000,0.000000,0.000000,0.000000,0.000000|eff|0.000000,0.000000,0.000000,0.000000,0.000000,0.000000
cobot_dynamixel_driver/joint_states|name|J1,J2,J3,J4,J5,J6|pos|0.001339,-1.268785,1.294497,0.001014,-1.097235,-0.000083|vel|0.000000,-0.000000,0.000000,0.000000,0.000000,0.000000|eff|0.000000,0.000000,0.000000,0.000000,0.000000,0.000000
cobot_dynamixel_driver/joint_states|name|J1,J2,J3,J4,J5,J6|pos|0.001339,-1.268785,1.294497,0.001014,-1.097235,-0.000083|vel|0.000000,-0.000000,0.000000,0.000000,0.000000,0.000000|eff|0.000000,0.000000,0.000000,0.000000,0.000000,0.000000
cobot_dynamixel_driver/joint_states|name|J1,J2,J3,J4,J5,J6|pos|0.001339,-1.268785,1.294497,0.001014,-1.097235,-0.000083|vel|0.000000,-0.000000,0.000000,0.000000,0.000000,0.000000|eff|0.000000,0.000000,0.000000,0.000000,0.000000,0.000000
cobot_dynamixel_driver/joint_states|name|J1,J2,J3,J4,J5,J6|pos|0.001339,-1.268785,1.294497,0.001014,-1.097235,-0.000083|vel|0.000000,-0.000000,0.000000,0.000000,0.000000,0.000000|eff|0.000000,0.000000,0.000000,0.000000,0.000000,0.000000
cobot_dynamixel_driver/joint_states|name|J1,J2,J3,J4,J5,J6|pos|0.001339,-1.268785,1.294497,0.001014,-1.097235,-0.000083|vel|0.000000,-0.000000,0.000000,0.000000,0.000000,0.000000|eff|0.000000,0.000000,0.000000,0.000000,0.000000,0.000000
cobot_dynamixel_driver/joint_states|name|J1,J2,J3,J4,J5,J6|pos|0.001339,-1.268785,1.294497,0.001014,-1.097235,-0.000083|vel|0.000000,-0.000000,0.000000,0.000000,0.000000,0.000000|eff|0.000000,0.000000,0.000000,0.000000,0.000000,0.000000
cobot_dynamixel_driver/joint_states|name|J1,J2,J3,J4,J5,J6|pos|0.001339,-1.268785,1.294497,0.001014,-1.097235,-0.000083|vel|0.000000,-0.000000,0.000000,0.000000,0.000000,0.000000|eff|0.000000,0.000000,0.000000,0.000000,0.000000,0.000000
cobot_dynamixel_driver/joint_states|name|J1,J2,J3,J4,J5,J6|pos|0.001339,-1.268785,1.294497,0.001014,-1.097235,-0.000083|vel|0.000000,-0.000000,0.000000,0.000000,0.000000,0.000000|eff|0.000000,0.000000,0.000000,0.000000,0.000000,0.000000
cobot_dynamixel_driver/joint_states|name|J1,J2,J3,J4,J5,J6|pos|0.001339,-1.268785,1.294497,0.001014,-1.097235,-0.000083|vel|0.000000,-0.000000,0.000000,0.000000,0.000000,0.000000|eff|0.000000,0.000000,0.000000,0.000000,0.000000,0.000000
cobot_dynamixel_driver/joint_states|name|J1,J2,J3,J4,J5,J6|pos|0.001339,-1.268785,1.294497,0.001014,-1.097235,-0.000083|vel|0.000000,-0.000000,0.000000,0.000000,0.000000,0.000000|eff|0.000000,0.000000,0.000000,0.000000,0.000000,0.000000
cobot_dynamixel_driver/joint_states|name|J1,J2,J3,J4,J5,J6|pos|0.001339,-1.268785,1.294497,0.001014,-1.097235,-0.000083|vel|0.000000,-0.000000,0.000000,0.000000,0.000000,0.000000|eff|0.000000,0.000000,0.000000,0.000000,0.000000,0.000000
cobot_dynamixel_driver/joint_states|name|J1,J2,J3,J4,J5,J6|pos|0.001339,-1.268785,1.294497,0.001014,-1.097235,-0.000083|vel|0.000000,-0.000000,0.000000,0.000000,0.000000,0.000000|eff|0.000000,0.000000,0.000000,0.000000,0.000000,0.000000
cobot_dynamixel_driver/joint_states|name|J1,J2,J3,J4,J5,J6|pos|0.001339,-1.268785,1.294497,0.001014,-1.097235,-0.000083|vel|0.000000,-0.000000,0.000000,0.000000,0.000000,0.000000|eff|0.000000,0.000000,0.000000,0.000000,0.000000,0.000000
cobot_dynamixel_driver/joint_states|name|J1,J2,J3,J4,J5,J6|pos|0.001339,-1.268785,1.294497,0.001014,-1.097235,-0.000083|vel|0.000000,-0.000000,0.000000,0.000000,0.000000,0.000000|eff|0.000000,0.000000,0.000000,0.000000,0.000000,0.000000
cobot_dynamixel_driver/joint_states|name|J1,J2,J3,J4,J5,J6|pos|0.001339,-1.268785,1.294497,0.001014,-1.097235,-0.000083|vel|0.000000,-0.000000,0.000000,0.000000,0.000000,0.000000|eff|0.000000,0.000000,0.000000,0.000000,0.000000,0.000000
cobot_dynamixel_driver/joint_states|name|J1,J2,J3,J4,J5,J6|pos|0.001339,-1.268785,1.294497,0.001014,-1.097235,-0.000083|vel|0.000000,-0.000000,0.000000,0.000000,0.000000,0.000000|eff|0.000000,0.000000,0.000000,0.000000,0.000000,0.000000
cobot_dynamixel_driver/joint_states|name|J1,J2,J3,J4,J5,J6|pos|0.001339,-1.268785,1.294497,0.001014,-1.097235,-0.000083|vel|0.000000,-0.000000,0.000000,0.000000,0.000000,0.000000|eff|0.000000,0.000000,0.000000,0.000000,0.000000,0.000000
cobot_dynamixel_driver/joint_states|name|J1,J2,J3,J4,J5,J6|pos|0.001339,-1.268785,1.294497,0.001014,-1.097235,-0.000083|vel|0.000000,-0.000000,0.000000,0.000000,0.000000,0.000000|eff|0.000000,0.000000,0.000000,0.000000,0.000000,0.000000
cobot_dynamixel_driver/joint_states|name|J1,J2,J3,J4,J5,J6|pos|0.001339,-1.268785,1.294497,0.001014,-1.097235,-0.000083|vel|0.000000,-0.000000,0.000000,0.000000,0.000000,0.000000|eff|0.000000,0.000000,0.000000,0.000000,0.000000,0.000000
cobot_dynamixel_driver/joint_states|name|J1,J2,J3,J4,J5,J6|pos|0.001339,-1.268785,1.294497,0.001014,-1.097235,-0.000083|vel|0.000000,-0.000000,0.000000,0.000000,0.000000,0.000000|eff|0.000000,0.000000,0.000000,0.000000,0.000000,0.000000
cobot_dynamixel_driver/joint_states|name|J1,J2,J3,J4,J5,J6|pos|0.001339,-1.268785,1.294497,0.001014,-1.097235,-0.000083|vel|0.000000,-0.000000,0.000000,0.000000,0.000000,0.000000|eff|0.000000,0.000000,0.000000,0.000000,0.000000,0.000000
cobot_dynamixel_driver/joint_states|name|J1,J2,J3,J4,J5,J6|pos|0.001339,-1.268785,1.294497,0.001014,-1.097235,-0.000083|vel|0.000000,-0.000000,0.000000,0.000000,0.000000,0.000000|eff|0.000000,0.000000,0.000000,0.000000,0.000000,0.000000
cobot_dynamixel_driver/joint_states|name|J1,J2,J3,J4,J5,J6|pos|0.001339,-1.268785,1.294497,0.001014,-1.097235,-0.000083|vel|0.000000,-0.000000,0.000000,0.000000,0.000000,0.000000|eff|0.000000,0.000000,0.000000,0.000000,0.000000,0.000000
cobot_dynamixel_driver/joint_states|name|J1,J2,J3,J4,J5,J6|pos|0.001339,-1.268785,1.294497,0.001014,-1.097235,-0.000083|vel|0.000000,-0.000000,0.000000,0.000000,0.000000,0.000000|eff|0.000000,0.000000,0.000000,0.000000,0.000000,0.000000
cobot_dynamixel_driver/joint_states|name|J1,J2,J3,J4,J5,J6|pos|0.001339,-1.268785,1.294497,0.001014,-1.097235,-0.000083|vel|0.000000,-0.000000,0.000000,0.000000,0.000000,0.000000|eff|0.000000,0.000000,0.000000,0.000000,0.000000,0.000000
cobot_dynamixel_driver/joint_states|name|J1,J2,J3,J4,J5,J6|pos|0.001339,-1.268785,1.294497,0.001014,-1.097235,-0.000083|vel|0.000000,-0.000000,0.000000,0.000000,0.000000,0.000000|eff|0.000000,0.000000,0.000000,0.000000,0.000000,0.000000
cobot_dynamixel_driver/joint_states|name|J1,J2,J3,J4,J5,J6|pos|0.001339,-1.268785,1.294497,0.001014,-1.097235,-0.000083|vel|0.000000,-0.000000,0.000000,0.000000,0.000000,0.000000|eff|0.000000,0.000000,0.000000,0.000000,0.000000,0.000000
cobot_dynamixel_driver/joint_states|name|J1,J2,J3,J4,J5,J6|pos|0.001339,-1.268785,1.294497,0.001014,-1.097235,-0.000083|vel|0.000000,-0.000000,0.000000,0.000000,0.000000,0.000000|eff|0.000000,0.000000,0.000000,0.000000,0.000000,0.000000
cobot_dynamixel_driver/joint_states|name|J1,J2,J3,J4,J5,J6|pos|0.001339,-1.268785,1.294497,0.001014,-1.097235,-0.000083|vel|0.000000,-0.000000,0.000000,0.000000,0.000000,0.000000|eff|0.000000,0.000000,0.000000,0.000000,0.000000,0.000000
cobot_dynamixel_driver/joint_states|name|J1,J2,J3,J4,J5,J6|pos|0.001339,-1.268785,1.294497,0.001014,-1.097235,-0.000083|vel|0.000000,-0.000000,0.000000,0.000000,0.000000,0.000000|eff|0.000000,0.000000,0.000000,0.000000,0.000000,0.000000
cobot_dynamixel_driver/joint_states|name|J1,J2,J3,J4,J5,J6|pos|0.001339,-1.268785,1.294497,0.001014,-1.097235,-0.000083|vel|0.000000,-0.000000,0.000000,0.000000,0.000000,0.000000|eff|0.000000,0.000000,0.000000,0.000000,0.000000,0.000000
cobot_dynamixel_driver/joint_states|name|J1,J2,J3,J4,J5,J6|pos|0.001339,-1.268785,1.294497,0.001014,-1.097235,-0.000083|vel|0.000000,-0.000000,0.000000,0.000000,0.000000,0.000000|eff|0.000000,0.000000,0.000000,0.000000,0.000000,0.000000
cobot_dynamixel_driver/joint_states|name|J1,J2,J3,J4,J5,J6|pos|0.001339,-1.268785,1.294497,0.001014,-1.097235,-0.000083|vel|0.000000,-0.000000,0.000000,0.000000,0.000000,0.000000|eff|0.000000,0.000000,0.000000,0.000000,0.000000,0.000000
cobot_dynamixel_driver/joint_states|name|J1,J2,J3,J4,J5,J6|pos|0.001339,-1.268785,1.294497,0.001014,-1.097235,-0.000083|vel|0.000000,-0.000000,0.000000,0.000000,0.000000,0.000000|eff|0.000000,0.000000,0.000000,0.000000,0.000000,0.000000
cobot_dynamixel_driver/joint_states|name|J1,J2,J3,J4,J5,J6|pos|0.001339,-1.268785,1.294497,0.001014,-1.097235,-0.000083|vel|0.000000,-0.000000,0.000000,0.000000,0.000000,0.000000|eff|0.000000,0.000000,0.000000,0.000000,0.000000,0.000000
cobot_dynamixel_driver/joint_states|name|J1,J2,J3,J4,J5,J6|pos|0.001339,-1.268785,1.294497,0.001014,-1.097235,-0.000083|vel|0.000000,-0.000000,0.000000,0.000000,0.000000,0.000000|eff|0.000000,0.000000,0.000000,0.000000,0.000000,0.000000
cobot_dynamixel_driver/joint_states|name|J1,J2,J3,J4,J5,J6|pos|0.001339,-1.268785,1.294497,0.001014,-1.097235,-0.000083|vel|0.000000,-0.000000,0.000000,0.000000,0.000000,0.000000|eff|0.000000,0.000000,0.000000,0.000000,0.000000,0.000000
cobot_dynamixel_driver/joint_states|name|J1,J2,J3,J4,J5,J6|pos|0.001339,-1.268785,1.294497,0.001014,-1.097235,-0.000083|vel|0.000000,-0.000000,0.000000,0.000000,0.000000,0.000000|eff|0.000000,0.000000,0.000000,0.000000,0.000000,0.000000
cobot_dynamixel_driver/joint_states|name|J1,J2,J3,J4,J5,J6|pos|0.001339,-1.268785,1.294497,0.001014,-1.097235,-0.000083|vel|0.000000,-0.000000,0.000000,0.000000,0.000000,0.000000|eff|0.000000,0.000000,0.000000,0.000000,0.000000,0.000000
cobot_dynamixel_driver/joint_states|name|J1,J2,J3,J4,J5,J6|pos|0.001339,-1.268785,1.294497,0.001014,-1.097235,-0.000083|vel|0.000000,-0.000000,0.000000,0.000000,0.000000,0.000000|eff|0.000000,0.000000,0.000000,0.000000,0.000000,0.000000
cobot_dynamixel_driver/joint_states|name|J1,J2,J3,J4,J5,J6|pos|0.001339,-1.268785,1.294497,0.001014,-1.097235,-0.000083|vel|0.000000,-0.000000,0.000000,0.000000,0.000000,0.000000|eff|0.000000,0.000000,0.000000,0.000000,0.000000,0.000000
cobot_dynamixel_driver/joint_states|name|J1,J2,J3,J4,J5,J6|pos|0.001339,-1.268785,1.294497,0.001014,-1.097235,-0.000083|vel|0.000000,-0.000000,0.000000,0.000000,0.000000,0.000000|eff|0.000000,0.000000,0.000000,0.000000,0.000000,0.000000
cobot_dynamixel_driver/joint_states|name|J1,J2,J3,J4,J5,J6|pos|0.001339,-1.268785,1.294497,0.001014,-1.097235,-0.000083|vel|0.000000,-0.000000,0.000000,0.000000,0.000000,0.000000|eff|0.000000,0.000000,0.000000,0.000000,0.000000,0.000000
cobot_dynamixel_driver/joint_states|name|J1,J2,J3,J4,J5,J6|pos|0.001339,-1.268785,1.294497,0.001014,-1.097235,-0.000083|vel|0.000000,-0.000000,0.000000,0.000000,0.000000,0.000000|eff|0.000000,0.000000,0.000000,0.000000,0.000000,0.000000
cobot_dynamixel_driver/joint_states|name|J1,J2,J3,J4,J5,J6|pos|0.001339,-1.268785,1.294497,0.001014,-1.097235,-0.000083|vel|0.000000,-0.000000,0.000000,0.000000,0.000000,0.000000|eff|0.000000,0.000000,0.000000,0.000000,0.000000,0.000000
cobot_dynamixel_driver/joint_states|name|J1,J2,J3,J4,J5,J6|pos|0.001339,-1.268785,1.294497,0.001014,-1.097235,-0.000083|vel|0.000000,-0.000000,0.000000,0.000000,0.000000,0.000000|eff|0.000000,0.000000,0.000000,0.000000,0.000000,0.000000
cobot_dynamixel_driver/joint_states|name|J1,J2,J3,J4,J5,J6|pos|0.001339,-1.268785,1.294497,0.001014,-1.097235,-0.000083|vel|0.000000,-0.000000,0.000000,0.000000,0.000000,0.000000|eff|0.000000,0.000000,0.000000,0.000000,0.000000,0.000000
cobot_dynamixel_driver/joint_states|name|J1,J2,J3,J4,J5,J6|pos|0.001339,-1.268785,1.294497,0.001014,-1.097235,-0.000083|vel|0.000000,-0.000000,0.000000,0.000000,0.000000,0.000000|eff|0.000000,0.000000,0.000000,0.000000,0.000000,0.000000
cobot_dynamixel_driver/joint_states|name|J1,J2,J3,J4,J5,J6|pos|0.001339,-1.268785,1.294497,0.001014,-1.097235,-0.000083|vel|0.000000,-0.000000,0.000000,0.000000,0.000000,0.000000|eff|0.000000,0.000000,0.000000,0.000000,0.000000,0.000000
cobot_dynamixel_driver/joint_states|name|J1,J2,J3,J4,J5,J6|pos|0.001339,-1.268785,1.294497,0.001014,-1.097235,-0.000083|vel|0.000000,-0.000000,0.000000,0.000000,0.000000,0.000000|eff|0.000000,0.000000,0.000000,0.000000,0.000000,0.000000
cobot_dynamixel_driver/joint_states|name|J1,J2,J3,J4,J5,J6|pos|0.001339,-1.268785,1.294497,0.001014,-1.097235,-0.000083|vel|0.000000,-0.000000,0.000000,0.000000,0.000000,0.000000|eff|0.000000,0.000000,0.000000,0.000000,0.000000,0.000000
cobot_dynamixel_driver/joint_states|name|J1,J2,J3,J4,J5,J6|pos|0.001339,-1.268785,1.294497,0.001014,-1.097235,-0.000083|vel|0.000000,-0.000000,0.000000,0.000000,0.000000,0.000000|eff|0.000000,0.000000,0.000000,0.000000,0.000000,0.000000
cobot_dynamixel_driver/joint_states|name|J1,J2,J3,J4,J5,J6|pos|0.001339,-1.268785,1.294497,0.001014,-1.097235,-0.000083|vel|0.000000,-0.000000,0.000000,0.000000,0.000000,0.000000|eff|0.000000,0.000000,0.000000,0.000000,0.000000,0.000000
cobot_dynamixel_driver/joint_states|name|J1,J2,J3,J4,J5,J6|pos|0.001339,-1.268785,1.294497,0.001014,-1.097235,-0.000083|vel|0.000000,-0.000000,0.000000,0.000000,0.000000,0.000000|eff|0.000000,0.000000,0.000000,0.000000,0.000000,0.000000
cobot_dynamixel_driver/joint_states|name|J1,J2,J3,J4,J5,J6|pos|0.001339,-1.268785,1.294497,0.001014,-1.097235,-0.000083|vel|0.000000,-0.000000,0.000000,0.000000,0.000000,0.000000|eff|0.000000,0.000000,0.000000,0.000000,0.000000,0.000000
cobot_dynamixel_driver/joint_states|name|J1,J2,J3,J4,J5,J6|pos|0.001339,-1.268785,1.294497,0.001014,-1.097235,-0.000083|vel|0.000000,-0.000000,0.000000,0.000000,0.000000,0.000000|eff|0.000000,0.000000,0.000000,0.000000,0.000000,0.000000
cobot_dynamixel_driver/joint_states|name|J1,J2,J3,J4,J5,J6|pos|0.001339,-1.268785,1.294497,0.001014,-1.097235,-0.000083|vel|0.000000,-0.000000,0.000000,0.000000,0.000000,0.000000|eff|0.000000,0.000000,0.000000,0.000000,0.000000,0.000000
cobot_dynamixel_driver/joint_states|name|J1,J2,J3,J4,J5,J6|pos|0.001339,-1.268785,1.294497,0.001014,-1.097235,-0.000083|vel|0.000000,-0.000000,0.000000,0.000000,0.000000,0.000000|eff|0.000000,0.000000,0.000000,0.000000,0.000000,0.000000
cobot_dynamixel_driver/joint_states|name|J1,J2,J3,J4,J5,J6|pos|0.001339,-1.268785,1.294497,0.001014,-1.097235,-0.000083|vel|0.000000,-0.000000,0.000000,0.000000,0.000000,0.000000|eff|0.000000,0.000000,0.000000,0.000000,0.000000,0.000000
cobot_dynamixel_driver/joint_states|name|J1,J2,J3,J4,J5,J6|pos|0.001339,-1.268785,1.294497,0.001014,-1.097235,-0.000083|vel|0.000000,-0.000000,0.000000,0.000000,0.000000,0.000000|eff|0.000000,0.000000,0.000000,0.000000,0.000000,0.000000
cobot_dynamixel_driver/joint_states|name|J1,J2,J3,J4,J5,J6|pos|0.001339,-1.268785,1.294497,0.001014,-1.097235,-0.000083|vel|0.000000,-0.000000,0.000000,0.000000,0.000000,0.000000|eff|0.000000,0.000000,0.000000,0.000000,0.000000,0.000000
cobot_dynamixel_driver/joint_states|name|J1,J2,J3,J4,J5,J6|pos|0.001339,-1.268785,1.294497,0.001014,-1.097235,-0.000083|vel|0.000000,-0.000000,0.000000,0.000000,0.000000,0.000000|eff|0.000000,0.000000,0.000000,0.000000,0.000000,0.000000
cobot_dynamixel_driver/joint_states|name|J1,J2,J3,J4,J5,J6|pos|0.001339,-1.268785,1.294497,0.001014,-1.097235,-0.000083|vel|0.000000,-0.000000,0.000000,0.000000,0.000000,0.000000|eff|0.000000,0.000000,0.000000,0.000000,0.000000,0.000000
cobot_dynamixel_driver/joint_states|name|J1,J2,J3,J4,J5,J6|pos|0.001339,-1.268785,1.294497,0.001014,-1.097235,-0.000083|vel|0.000000,-0.000000,0.000000,0.000000,0.000000,0.000000|eff|0.000000,0.000000,0.000000,0.000000,0.000000,0.000000
cobot_dynamixel_driver/joint_states|name|J1,J2,J3,J4,J5,J6|pos|0.001339,-1.268785,1.294497,0.001014,-1.097235,-0.000083|vel|0.000000,-0.000000,0.000000,0.000000,0.000000,0.000000|eff|0.000000,0.000000,0.000000,0.000000,0.000000,0.000000
cobot_dynamixel_driver/joint_states|name|J1,J2,J3,J4,J5,J6|pos|0.001339,-1.268785,1.294497,0.001014,-1.097235,-0.000083|vel|0.000000,-0.000000,0.000000,0.000000,0.000000,0.000000|eff|0.000000,0.000000,0.000000,0.000000,0.000000,0.000000
cobot_dynamixel_driver/joint_states|name|J1,J2,J3,J4,J5,J6|pos|0.001339,-1.268785,1.294497,0.001014,-1.097235,-0.000083|vel|0.000000,-0.000000,0.000000,0.000000,0.000000,0.000000|eff|0.000000,0.000000,0.000000,0.000000,0.000000,0.000000
cobot_dynamixel_driver/joint_states|name|J1,J2,J3,J4,J5,J6|pos|0.001339,-1.268785,1.294497,0.001014,-1.097235,-0.000083|vel|0.000000,-0.000000,0.000000,0.000000,0.000000,0.000000|eff|0.000000,0.000000,0.000000,0.000000,0.000000,0.000000
cobot_dynamixel_driver/joint_states|name|J1,J2,J3,J4,J5,J6|pos|0.001339,-1.268785,1.294497,0.001014,-1.097235,-0.000083|vel|0.000000,-0.000000,0.000000,0.000000,0.000000,0.000000|eff|0.000000,0.000000,0.000000,0.000000,0.000000,0.000000
cobot_dynamixel_driver/joint_states|name|J1,J2,J3,J4,J5,J6|pos|0.001339,-1.268785,1.294497,0.001014,-1.097235,-0.000083|vel|0.000000,-0.000000,0.000000,0.000000,0.000000,0.000000|eff|0.000000,0.000000,0.000000,0.000000,0.000000,0.000000
cobot_dynamixel_driver/joint_states|name|J1,J2,J3,J4,J5,J6|pos|0.001339,-1.268785,1.294497,0.001014,-1.097235,-0.000083|vel|0.000000,-0.000000,0.000000,0.000000,0.000000,0.000000|eff|0.000000,0.000000,0.000000,0.000000,0.000000,0.000000
cobot_dynamixel_driver/joint_states|name|J1,J2,J3,J4,J5,J6|pos|0.001339,-1.268785,1.294497,0.001014,-1.097235,-0.000083|vel|0.000000,-0.000000,0.000000,0.000000,0.000000,0.000000|eff|0.000000,0.000000,0.000000,0.000000,0.000000,0.000000
cobot_dynamixel_driver/goal|-:J1,J2,J3,J4,J5,J6:0.000000,0.000000,0.000000,0.000000,0.000000,0.000000:0.250000,0.250000,0.250000,0.250000,0.250000,0.250000:pos_vel_
cobot_dynamixel_driver/joint_states|name|J1,J2,J3,J4,J5,J6|pos|0.001339,-1.268785,1.294497,0.001014,-1.097277,-0.000083|vel|0.000000,-0.000000,0.000000,0.000000,0.000000,0.000000|eff|0.000000,0.000000,0.000000,0.000000,16.113281,0.000000
cobot_dynamixel_driver/goal|-:J1,J2,J3,J4,J5,J6:0.000000,0.000000,0.000000,0.000000,0.000000,0.000000:0.250000,0.250000,0.250000,0.250000,0.250000,0.250000:pos_vel_
cobot_dynamixel_driver/goal|-:J1,J2,J3,J4,J5,J6:0.000000,0.000000,0.000000,0.000000,0.000000,0.000000:0.250000,0.250000,0.250000,0.250000,0.250000,0.250000:pos_vel_
cobot_dynamixel_driver/goal|-:J1,J2,J3,J4,J5,J6:0.000000,0.000000,0.000000,0.000000,0.000000,0.000000:0.250000,0.250000,0.250000,0.250000,0.250000,0.250000:pos_vel_
cobot_dynamixel_driver/goal|-:J1,J2,J3,J4,J5,J6:0.000000,0.000000,0.000000,0.000000,0.000000,0.000000:0.250000,0.250000,0.250000,0.250000,0.250000,0.250000:pos_vel_
cobot_dynamixel_driver/goal|-:J1,J2,J3,J4,J5,J6:0.000000,0.000000,0.000000,0.000000,0.000000,0.000000:0.250000,0.250000,0.250000,0.250000,0.250000,0.250000:pos_vel_
cobot_dynamixel_driver/goal|-:J1,J2,J3,J4,J5,J6:0.000000,0.000000,0.000000,0.000000,0.000000,0.000000:0.250000,0.250000,0.250000,0.250000,0.250000,0.250000:pos_vel_
cobot_dynamixel_driver/goal|-:J1,J2,J3,J4,J5,J6:0.000000,0.000000,0.000000,0.000000,0.000000,0.000000:0.250000,0.250000,0.250000,0.250000,0.250000,0.250000:pos_vel_
cobot_dynamixel_driver/goal|-:J1,J2,J3,J4,J5,J6:0.000000,0.000000,0.000000,0.000000,0.000000,0.000000:0.250000,0.250000,0.250000,0.250000,0.250000,0.250000:pos_vel_
cobot_dynamixel_driver/goal|-:J1,J2,J3,J4,J5,J6:0.000000,0.000000,0.000000,0.000000,0.000000,0.000000:0.250000,0.250000,0.250000,0.250000,0.250000,0.250000:pos_vel_
cobot_dynamixel_driver/goal|-:J1,J2,J3,J4,J5,J6:0.000000,0.000000,0.000000,0.000000,0.000000,0.000000:0.250000,0.250000,0.250000,0.250000,0.250000,0.250000:pos_vel_
cobot_dynamixel_driver/goal|-:J1,J2,J3,J4,J5,J6:0.000000,0.000000,0.000000,0.000000,0.000000,0.000000:0.250000,0.250000,0.250000,0.250000,0.250000,0.250000:pos_vel_
cobot_dynamixel_driver/goal|-:J1,J2,J3,J4,J5,J6:0.000000,0.000000,0.000000,0.000000,0.000000,0.000000:0.250000,0.250000,0.250000,0.250000,0.250000,0.250000:pos_vel_
cobot_dynamixel_driver/goal|-:J1,J2,J3,J4,J5,J6:0.000000,0.000000,0.000000,0.000000,0.000000,0.000000:0.250000,0.250000,0.250000,0.250000,0.250000,0.250000:pos_vel_
cobot_dynamixel_driver/goal|-:J1,J2,J3,J4,J5,J6:0.000000,0.000000,0.000000,0.000000,0.000000,0.000000:0.250000,0.250000,0.250000,0.250000,0.250000,0.250000:pos_vel_
cobot_dynamixel_driver/goal|-:J1,J2,J3,J4,J5,J6:0.000000,0.000000,0.000000,0.000000,0.000000,0.000000:0.250000,0.250000,0.250000,0.250000,0.250000,0.250000:pos_vel_
cobot_dynamixel_driver/goal|-:J1,J2,J3,J4,J5,J6:0.000000,0.000000,0.000000,0.000000,0.000000,0.000000:0.250000,0.250000,0.250000,0.250000,0.250000,0.250000:pos_vel_
cobot_dynamixel_driver/joint_states|name|J1,J2,J3,J4,J5,J6|pos|0.001277,-1.268347,1.294084,0.001014,-1.096263,-0.000083|vel|-0.003130,0.031506,-0.034635,0.000000,0.060667,0.000000|eff|-257.812500,-451.171875,-418.945312,-96.679688,64.453125,0.000000
cobot_dynamixel_driver/goal|-:J1,J2,J3,J4,J5,J6:0.000000,0.000000,0.000000,0.000000,0.000000,0.000000:0.250000,0.250000,0.250000,0.250000,0.250000,0.250000:pos_vel_
cobot_dynamixel_driver/joint_states|name|J1,J2,J3,J4,J5,J6|pos|0.001202,-1.267020,1.292807,0.001001,-1.094112,-0.000083|vel|-0.002921,0.064263,-0.056752,0.000000,0.094448,0.000000|eff|-145.019531,-789.550781,-821.777344,-193.359375,52.368164,0.000000
cobot_dynamixel_driver/goal|-:J1,J2,J3,J4,J5,J6:0.000000,0.000000,0.000000,0.000000,0.000000,0.000000:0.250000,0.250000,0.250000,0.250000,0.250000,0.250000:pos_vel_
cobot_dynamixel_driver/goal|-:J1,J2,J3,J4,J5,J6:0.000000,0.000000,0.000000,0.000000,0.000000,0.000000:0.250000,0.250000,0.250000,0.250000,0.250000,0.250000:pos_vel_
cobot_dynamixel_driver/joint_states|name|J1,J2,J3,J4,J5,J6|pos|0.001114,-1.265017,1.291042,0.001001,-1.091051,-0.000083|vel|-0.003130,0.084502,-0.078868,0.000000,0.125471,0.000000|eff|-241.699219,-1208.496094,-1192.382812,-209.472656,40.283203,0.000000
cobot_dynamixel_driver/goal|-:J1,J2,J3,J4,J5,J6:0.000000,0.000000,0.000000,0.000000,0.000000,0.000000:0.250000,0.250000,0.250000,0.250000,0.250000,0.250000:pos_vel_
cobot_dynamixel_driver/joint_states|name|J1,J2,J3,J4,J5,J6|pos|0.001001,-1.262300,1.288138,0.000989,-1.087307,-0.000083|vel|-0.003964,0.123102,-0.134994,0.000000,0.153391,0.000000|eff|-257.812500,-1498.535156,-1240.722656,-322.265625,28.198242,0.000000
cobot_dynamixel_driver/goal|-:J1,J2,J3,J4,J5,J6:0.000000,0.000000,0.000000,0.000000,0.000000,0.000000:0.250000,0.250000,0.250000,0.250000,0.250000,0.250000:pos_vel_
cobot_dynamixel_driver/goal|-:J1,J2,J3,J4,J5,J6:0.000000,0.000000,0.000000,0.000000,0.000000,0.000000:0.250000,0.250000,0.250000,0.250000,0.250000,0.250000:pos_vel_
cobot_dynamixel_driver/joint_states|name|J1,J2,J3,J4,J5,J6|pos|0.000901,-1.258845,1.283869,0.000964,-1.083107,-0.000083|vel|-0.003756,0.138333,-0.176098,-0.000209,0.147187,0.000000|eff|-161.132812,-1562.988281,-1144.042969,-322.265625,40.283203,0.000000
cobot_dynamixel_driver/goal|-:J1,J2,J3,J4,J5,J6:0.000000,0.000000,0.000000,0.000000,0.000000,0.000000:0.250000,0.250000,0.250000,0.250000,0.250000,0.250000:pos_vel_
cobot_dynamixel_driver/joint_states|name|J1,J2,J3,J4,J5,J6|pos|0.000789,-1.254501,1.278862,0.000839,-1.078619,-0.000083|vel|-0.003547,0.169630,-0.176932,-0.007929,0.190274,0.000000|eff|-209.472656,-1530.761719,-950.683594,-273.925781,28.198242,0.000000
cobot_dynamixel_driver/goal|-:J1,J2,J3,J4,J5,J6:0.000000,0.000000,0.000000,0.000000,0.000000,0.000000:0.250000,0.250000,0.250000,0.250000,0.250000,0.250000:pos_vel_
cobot_dynamixel_driver/joint_states|name|J1,J2,J3,J4,J5,J6|pos|0.000701,-1.249432,1.273579,0.000613,-1.073592,-0.000083|vel|-0.003547,0.189034,-0.203222,-0.006885,0.202339,0.000000|eff|-177.246094,-1546.875000,-966.796875,-273.925781,16.113281,8.056641
cobot_dynamixel_driver/goal|-:J1,J2,J3,J4,J5,J6:0.000000,0.000000,0.000000,0.000000,0.000000,0.000000:0.250000,0.250000,0.250000,0.250000,0.250000,0.250000:pos_vel_
cobot_dynamixel_driver/goal|-:J1,J2,J3,J4,J5,J6:0.000000,0.000000,0.000000,0.000000,0.000000,0.000000:0.250000,0.250000,0.250000,0.250000,0.250000,0.250000:pos_vel_
cobot_dynamixel_driver/joint_states|name|J1,J2,J3,J4,J5,J6|pos|0.000588,-1.243873,1.268134,0.000438,-1.068048,-0.000083|vel|-0.003547,0.173385,-0.205934,-0.005633,0.201649,0.000000|eff|-193.359375,-1450.195312,-1015.136719,-241.699219,28.198242,8.056641
cobot_dynamixel_driver/goal|-:J1,J2,J3,J4,J5,J6:0.000000,0.000000,0.000000,0.000000,0.000000,0.000000:0.250000,0.250000,0.250000,0.250000,0.250000,0.250000:pos_vel_
cobot_dynamixel_driver/joint_states|name|J1,J2,J3,J4,J5,J6|pos|0.000451,-1.238090,1.262576,0.000325,-1.062443,-0.000083|vel|-0.004799,0.240778,-0.217618,-0.003756,0.204407,0.000000|eff|-177.246094,-1708.007812,-1127.929688,-225.585938,28.198242,8.056641
cobot_dynamixel_driver/goal|-:J1,J2,J3,J4,J5,J6:0.000000,0.000000,0.000000,0.000000,0.000000,0.000000:0.250000,0.250000,0.250000,0.250000,0.250000,0.250000:pos_vel_
cobot_dynamixel_driver/goal|-:J1,J2,J3,J4,J5,J6:0.000000,0.000000,0.000000,0.000000,0.000000,0.000000:0.250000,0.250000,0.250000,0.250000,0.250000,0.250000:pos_vel_
cobot_dynamixel_driver/joint_states|name|J1,J2,J3,J4,J5,J6|pos|0.000338,-1.231981,1.256479,0.000263,-1.056609,-0.000083|vel|-0.003338,0.209899,-0.216784,-0.001878,0.203717,0.000000|eff|-177.246094,-1595.214844,-1015.136719,-193.359375,24.169922,8.056641
cobot_dynamixel_driver/goal|-:J1,J2,J3,J4,J5,J6:0.000000,0.000000,0.000000,0.000000,0.000000,0.000000:0.250000,0.250000,0.250000,0.250000,0.250000,0.250000:pos_vel_
cobot_dynamixel_driver/joint_states|name|J1,J2,J3,J4,J5,J6|pos|0.000250,-1.225847,1.250733,0.000225,-1.050817,-0.000083|vel|-0.003130,0.217410,-0.227842,-0.001461,0.230259,0.000000|eff|-112.792969,-1466.308594,-1015.136719,-225.585938,24.169922,8.056641
cobot_dynamixel_driver/goal|-:J1,J2,J3,J4,J5,J6:0.000000,0.000000,0.000000,0.000000,0.000000,0.000000:0.250000,0.250000,0.250000,0.250000,0.250000,0.250000:pos_vel_
cobot_dynamixel_driver/joint_states|name|J1,J2,J3,J4,J5,J6|pos|0.000188,-1.219651,1.244662,0.000188,-1.044674,-0.000083|vel|-0.002086,0.216575,-0.229303,-0.001043,0.237498,0.000000|eff|-193.359375,-1466.308594,-1192.382812,-209.472656,24.169922,8.056641
cobot_dynamixel_driver/goal|-:J1,J2,J3,J4,J5,J6:0.000000,0.000000,0.000000,0.000000,0.000000,0.000000:0.250000,0.250000,0.250000,0.250000,0.250000,0.250000:pos_vel_
cobot_dynamixel_driver/goal|-:J1,J2,J3,J4,J5,J6:0.000000,0.000000,0.000000,0.000000,0.000000,0.000000:0.250000,0.250000,0.250000,0.250000,0.250000,0.250000:pos_vel_
cobot_dynamixel_driver/joint_states|name|J1,J2,J3,J4,J5,J6|pos|0.000138,-1.213492,1.238703,0.000163,-1.038468,-0.000083|vel|-0.002295,0.244117,-0.221791,-0.001043,0.243358,0.000000|eff|-145.019531,-1401.855469,-1079.589844,-257.812500,28.198242,12.084961
cobot_dynamixel_driver/goal|-:J1,J2,J3,J4,J5,J6:0.000000,0.000000,0.000000,0.000000,0.000000,0.000000:0.250000,0.250000,0.250000,0.250000,0.250000,0.250000:pos_vel_
cobot_dynamixel_driver/joint_states|name|J1,J2,J3,J4,J5,J6|pos|0.000125,-1.207032,1.232482,0.000138,-1.032345,-0.000083|vel|-0.001252,0.239109,-0.251002,-0.000835,0.259904,0.000000|eff|-290.039062,-1385.742188,-1079.589844,-209.472656,24.169922,12.084961
cobot_dynamixel_driver/goal|-:J1,J2,J3,J4,J5,J6:0.000000,0.000000,0.000000,0.000000,0.000000,0.000000:0.250000,0.250000,0.250000,0.250000,0.250000,0.250000:pos_vel_
cobot_dynamixel_driver/goal|-:J1,J2,J3,J4,J5,J6:0.000000,0.000000,0.000000,0.000000,0.000000,0.000000:0.250000,0.250000,0.250000,0.250000,0.250000,0.250000:pos_vel_
cobot_dynamixel_driver/joint_states|name|J1,J2,J3,J4,J5,J6|pos|0.000088,-1.200573,1.226060,0.000125,-1.025871,-0.000083|vel|-0.000626,0.241613,-0.232641,-0.000626,0.247150,0.000000|eff|-112.792969,-1595.214844,-1047.363281,-225.585938,24.169922,12.084961
cobot_dynamixel_driver/goal|-:J1,J2,J3,J4,J5,J6:0.000000,0.000000,0.000000,0.000000,0.000000,0.000000:0.250000,0.250000,0.250000,0.250000,0.250000,0.250000:pos_vel_
cobot_dynamixel_driver/joint_states|name|J1,J2,J3,J4,J5,J6|pos|0.000063,-1.194038,1.219601,0.000113,-1.019355,-0.000083|vel|-0.001252,0.241196,-0.256844,-0.000626,0.237498,0.000000|eff|-112.792969,-1305.175781,-1111.816406,-225.585938,24.169922,12.084961
cobot_dynamixel_driver/joint_states|name|J1,J2,J3,J4,J5,J6|pos|0.000025,-1.187992,1.213554,0.000088,-1.013025,-0.000083|vel|-0.001043,0.252254,-0.229094,-0.000417,0.235775,0.000000|eff|-145.019531,-1466.308594,-1031.250000,-225.585938,28.198242,12.084961
cobot_dynamixel_driver/joint_states|name|J1,J2,J3,J4,J5,J6|pos|0.000025,-1.181695,1.207057,0.000050,-1.006571,-0.000083|vel|-0.001043,0.244743,-0.242865,-0.001878,0.267487,0.000000|eff|-145.019531,-1353.515625,-1063.476562,-225.585938,20.141602,20.141602
cobot_dynamixel_driver/joint_states|name|J1,J2,J3,J4,J5,J6|pos|0.000013,-1.175424,1.201036,0.000038,-1.000118,-0.000083|vel|-0.001043,0.251002,-0.229720,-0.001878,0.250941,0.000000|eff|-145.019531,-1321.289062,-1063.476562,-225.585938,28.198242,12.084961
cobot_dynamixel_driver/joint_states|name|J1,J2,J3,J4,J5,J6|pos|0.000013,-1.169077,1.194552,0.000038,-0.993726,-0.000083|vel|-0.000209,0.261226,-0.249750,-0.001878,0.247839,0.000000|eff|-145.019531,-1224.609375,-1111.816406,-145.019531,32.226562,12.084961
cobot_dynamixel_driver/joint_states|name|J1,J2,J3,J4,J5,J6|pos|0.000000,-1.162680,1.188430,0.000038,-0.987189,-0.000083|vel|-0.000209,0.230972,-0.211568,-0.001878,0.267487,0.000000|eff|-145.019531,-1192.382812,-1079.589844,-209.472656,16.113281,16.113281
cobot_dynamixel_driver/joint_states|name|J1,J2,J3,J4,J5,J6|pos|-0.000013,-1.156321,1.182096,0.000038,-0.980632,-0.000083|vel|-0.000209,0.248081,-0.248081,-0.001878,0.221297,0.000000|eff|-145.019531,-1208.496094,-1224.609375,-225.585938,16.113281,24.169922
cobot_dynamixel_driver/joint_states|name|J1,J2,J3,J4,J5,J6|pos|-0.000013,-1.149949,1.175737,0.000038,-0.974116,-0.000083|vel|-0.000209,0.255175,-0.249124,0.000000,0.241979,0.000000|eff|-145.019531,-1305.175781,-1095.703125,-128.906250,12.084961,24.169922
cobot_dynamixel_driver/joint_states|name|J1,J2,J3,J4,J5,J6|pos|-0.000025,-1.143552,1.169440,0.000038,-0.967559,-0.000083|vel|-0.000209,0.246412,-0.258930,0.000000,0.244047,0.000000|eff|-145.019531,-1289.062500,-1031.250000,-209.472656,8.056641,24.169922
cobot_dynamixel_driver/joint_states|name|J1,J2,J3,J4,J5,J6|pos|-0.000025,-1.137131,1.163018,0.000038,-0.960940,-0.000083|vel|-0.000209,0.240778,-0.248498,0.000000,0.247839,0.000000|eff|-145.019531,-1434.082031,-999.023438,-193.359375,8.056641,16.113281
cobot_dynamixel_driver/joint_states|name|J1,J2,J3,J4,J5,J6|pos|-0.000038,-1.130784,1.156534,0.000038,-0.954403,-0.000083|vel|-0.000209,0.246412,-0.245160,0.000000,0.273002,0.000000|eff|-145.019531,-1530.761719,-982.910156,-145.019531,16.113281,20.141602
cobot_dynamixel_driver/joint_states|name|J1,J2,J3,J4,J5,J6|pos|-0.000050,-1.124400,1.149999,0.000038,-0.947846,-0.000041|vel|-0.000209,0.258305,-0.251211,0.000000,0.249218,0.000000|eff|-145.019531,-1579.101562,-982.910156,-193.359375,20.141602,24.169922
cobot_dynamixel_driver/joint_states|name|J1,J2,J3,J4,J5,J6|pos|-0.000050,-1.117990,1.143602,0.000038,-0.941247,-0.000021|vel|-0.000209,0.237440,-0.256427,0.000000,0.247150,0.000000|eff|-128.906250,-1272.949219,-1095.703125,-225.585938,24.169922,28.198242
cobot_dynamixel_driver/joint_states|name|J1,J2,J3,J4,J5,J6|pos|-0.000050,-1.111518,1.137218,0.000038,-0.934669,-0.000021|vel|-0.000209,0.246203,-0.251628,0.000000,0.244737,0.000000|eff|-161.132812,-1160.156250,-1095.703125,-225.585938,16.113281,16.113281
cobot_dynamixel_driver/joint_states|name|J1,J2,J3,J4,J5,J6|pos|-0.000050,-1.105034,1.130809,0.000038,-0.928091,-0.000021|vel|-0.000209,0.244534,-0.226382,0.000000,0.264385,0.000000|eff|-112.792969,-1305.175781,-999.023438,-161.132812,28.198242,20.141602
cobot_dynamixel_driver/joint_states|name|J1,J2,J3,J4,J5,J6|pos|-0.000050,-1.098625,1.124412,0.000038,-0.921472,-0.000021|vel|0.000000,0.236188,-0.245160,0.000000,0.287135,0.000000|eff|-145.019531,-1369.628906,-966.796875,-177.246094,12.084961,28.198242
cobot_dynamixel_driver/joint_states|name|J1,J2,J3,J4,J5,J6|pos|-0.000050,-1.092103,1.117990,0.000038,-0.914935,-0.000021|vel|0.000000,0.256218,-0.253714,0.000000,0.264729,0.000000|eff|-145.019531,-1498.535156,-982.910156,-209.472656,28.198242,28.198242
cobot_dynamixel_driver/joint_states|name|J1,J2,J3,J4,J5,J6|pos|-0.000063,-1.085593,1.111618,0.000038,-0.908357,-0.000021|vel|0.000000,0.243282,-0.256218,0.000000,0.250252,0.000000|eff|-145.019531,-1176.269531,-1031.250000,-128.906250,32.226562,28.198242
cobot_dynamixel_driver/joint_states|name|J1,J2,J3,J4,J5,J6|pos|-0.000063,-1.079121,1.105147,0.000038,-0.901759,-0.000021|vel|0.000000,0.228468,-0.251002,0.000000,0.251631,0.000000|eff|-128.906250,-1095.703125,-1047.363281,-161.132812,20.141602,24.169922
cobot_dynamixel_driver/joint_states|name|J1,J2,J3,J4,J5,J6|pos|-0.000063,-1.072649,1.098650,0.000038,-0.895181,-0.000021|vel|0.000000,0.251002,-0.254132,0.000000,0.256801,0.000000|eff|-161.132812,-1256.835938,-1466.308594,-225.585938,20.141602,28.198242
cobot_dynamixel_driver/joint_states|name|J1,J2,J3,J4,J5,J6|pos|-0.000063,-1.066190,1.092115,0.000038,-0.888603,-0.000021|vel|0.000000,0.234310,-0.259765,0.000000,0.244392,0.000000|eff|-161.132812,-1321.289062,-886.230469,-225.585938,28.198242,16.113281
cobot_dynamixel_driver/joint_states|name|J1,J2,J3,J4,J5,J6|pos|-0.000063,-1.059718,1.085606,0.000025,-0.881983,-0.000021|vel|0.000000,0.247246,-0.254549,0.000000,0.271623,0.000000|eff|-145.019531,-1434.082031,-902.343750,-225.585938,12.084961,28.198242
cobot_dynamixel_driver/joint_states|name|J1,J2,J3,J4,J5,J6|pos|-0.000063,-1.053321,1.079196,0.000025,-0.875385,-0.000021|vel|0.000000,0.243699,-0.246203,0.000000,0.240945,0.000000|eff|-128.906250,-1208.496094,-966.796875,-225.585938,28.198242,28.198242
cobot_dynamixel_driver/joint_states|name|J1,J2,J3,J4,J5,J6|pos|-0.000063,-1.046924,1.072787,0.000025,-0.868827,-0.000021|vel|0.000000,0.248290,-0.240152,0.000000,0.243358,0.000000|eff|-145.019531,-1079.589844,-999.023438,-225.585938,24.169922,28.198242
cobot_dynamixel_driver/joint_states|name|J1,J2,J3,J4,J5,J6|pos|-0.000063,-1.040465,1.066315,0.000025,-0.862270,-0.000021|vel|0.000000,0.252254,-0.247664,0.000000,0.264729,0.000000|eff|-145.019531,-1095.703125,-1031.250000,-145.019531,28.198242,20.141602
cobot_dynamixel_driver/joint_states|name|J1,J2,J3,J4,J5,J6|pos|-0.000063,-1.034056,1.059893,0.000025,-0.855920,-0.000021|vel|0.000000,0.224504,-0.247664,0.000000,0.217850,0.000000|eff|-145.019531,-1224.609375,-999.023438,-145.019531,28.198242,24.169922
cobot_dynamixel_driver/joint_states|name|J1,J2,J3,J4,J5,J6|pos|-0.000063,-1.027621,1.053484,0.000025,-0.849342,-0.000021|vel|0.000000,0.234936,-0.251628,0.000000,0.249218,0.000000|eff|-80.566406,-1305.175781,-966.796875,-225.585938,8.056641,24.169922
cobot_dynamixel_driver/joint_states|name|J1,J2,J3,J4,J5,J6|pos|-0.000063,-1.021174,1.047112,0.000025,-0.842557,-0.000021|vel|0.000000,0.259765,-0.222417,0.000000,0.243703,0.000000|eff|-145.019531,-982.910156,-982.910156,-225.585938,20.141602,24.169922
cobot_dynamixel_driver/joint_states|name|J1,J2,J3,J4,J5,J6|pos|-0.000063,-1.014740,1.040678,0.000025,-0.836207,-0.000021|vel|0.000000,0.243908,-0.218036,0.000000,0.248873,0.000000|eff|-145.019531,-1240.722656,-1015.136719,-225.585938,28.198242,24.169922
cobot_dynamixel_driver/joint_states|name|J1,J2,J3,J4,J5,J6|pos|-0.000063,-1.008356,1.034181,0.000025,-0.829380,-0.000021|vel|0.000000,0.232432,-0.261017,0.000000,0.241979,0.000000|eff|-161.132812,-1127.929688,-1047.363281,-225.585938,24.169922,24.169922
cobot_dynamixel_driver/joint_states|name|J1,J2,J3,J4,J5,J6|pos|-0.000063,-1.001896,1.027634,0.000025,-0.823030,-0.000021|vel|0.000000,0.237649,-0.222626,0.000000,0.269210,0.000000|eff|-128.906250,-1063.476562,-1079.589844,-225.585938,24.169922,24.169922
cobot_dynamixel_driver/joint_states|name|J1,J2,J3,J4,J5,J6|pos|-0.000063,-0.995462,1.021149,0.000025,-0.816183,-0.000021|vel|0.000000,0.237023,-0.219914,0.000000,0.270589,0.000000|eff|-64.453125,-1224.609375,-950.683594,-225.585938,24.169922,24.169922
cobot_dynamixel_driver/joint_states|name|J1,J2,J3,J4,J5,J6|pos|-0.000063,-0.989002,1.014727,0.000025,-0.809605,-0.000021|vel|0.000000,0.234519,-0.259348,0.000000,0.276104,0.000000|eff|0.000000,-1240.722656,-918.457031,-225.585938,24.169922,24.169922
cobot_dynamixel_driver/joint_states|name|J1,J2,J3,J4,J5,J6|pos|-0.000063,-0.982493,1.008280,0.000025,-0.803296,-0.000021|vel|0.000000,0.234102,-0.250793,0.000000,0.246116,0.000000|eff|-145.019531,-1450.195312,-982.910156,-225.585938,24.169922,24.169922
cobot_dynamixel_driver/joint_states|name|J1,J2,J3,J4,J5,J6|pos|-0.000063,-0.976008,1.001834,0.000025,-0.796698,-0.000021|vel|0.000000,0.257053,-0.266859,0.000000,0.263006,0.000000|eff|-145.019531,-1079.589844,-1015.136719,-177.246094,20.141602,24.169922
cobot_dynamixel_driver/joint_states|name|J1,J2,J3,J4,J5,J6|pos|-0.000063,-0.969461,0.995412,0.000025,-0.790099,-0.000021|vel|0.000000,0.220957,-0.253088,0.000000,0.267832,0.000000|eff|-145.019531,-1015.136719,-1079.589844,-225.585938,24.169922,24.169922
cobot_dynamixel_driver/joint_states|name|J1,J2,J3,J4,J5,J6|pos|-0.000063,-0.963002,0.989040,0.000025,-0.783273,-0.000021|vel|0.000000,0.252880,-0.220957,0.000000,0.261972,0.000000|eff|-112.792969,-1176.269531,-1385.742188,-225.585938,24.169922,24.169922
cobot_dynamixel_driver/joint_states|name|J1,J2,J3,J4,J5,J6|pos|-0.000063,-0.956505,0.982556,0.000013,-0.776964,-0.000021|vel|0.000000,0.248290,-0.213654,0.000000,0.258180,0.000000|eff|-145.019531,-1305.175781,-950.683594,-225.585938,32.226562,24.169922
cobot_dynamixel_driver/joint_states|name|J1,J2,J3,J4,J5,J6|pos|-0.000063,-0.950021,0.976034,0.000013,-0.770386,-0.000021|vel|0.000000,0.244117,-0.228468,0.000000,0.255078,0.000000|eff|-145.019531,-1176.269531,-982.910156,-209.472656,28.198242,24.169922
cobot_dynamixel_driver/joint_states|name|J1,J2,J3,J4,J5,J6|pos|-0.000063,-0.943561,0.969537,0.000013,-0.763787,-0.000021|vel|0.000000,0.243699,-0.214489,0.000000,0.254733,0.000000|eff|0.000000,-950.683594,-982.910156,-225.585938,20.141602,24.169922
cobot_dynamixel_driver/joint_states|name|J1,J2,J3,J4,J5,J6|pos|-0.000063,-0.937114,0.963015,0.000013,-0.757188,-0.000021|vel|0.000000,0.251211,-0.207395,0.000000,0.255422,0.000000|eff|-64.453125,-966.796875,-1031.250000,-161.132812,20.141602,24.169922
cobot_dynamixel_driver/joint_states|name|J1,J2,J3,J4,J5,J6|pos|-0.000063,-0.930705,0.956605,0.000013,-0.750611,-0.000021|vel|0.000000,0.237857,-0.251211,0.000000,0.255078,0.000000|eff|-64.453125,-1095.703125,-1015.136719,-225.585938,24.169922,24.169922
cobot_dynamixel_driver/joint_states|name|J1,J2,J3,J4,J5,J6|pos|-0.000063,-0.924308,0.950158,0.000013,-0.744012,-0.000021|vel|0.000000,0.255175,-0.242865,0.000000,0.221987,0.000000|eff|-128.906250,-1240.722656,-902.343750,-225.585938,28.198242,24.169922
cobot_dynamixel_driver/joint_states|name|J1,J2,J3,J4,J5,J6|pos|-0.000063,-0.917836,0.943711,0.000013,-0.737434,-0.000021|vel|0.000000,0.224712,-0.258722,0.000000,0.245771,0.000000|eff|-64.453125,-1385.742188,-918.457031,-209.472656,20.141602,24.169922
cobot_dynamixel_driver/joint_states|name|J1,J2,J3,J4,J5,J6|pos|-0.000063,-0.911414,0.937252,0.000013,-0.730877,-0.000021|vel|0.000000,0.242447,-0.266024,0.000000,0.261627,0.000000|eff|-145.019531,-1095.703125,-966.796875,-225.585938,28.198242,24.169922
cobot_dynamixel_driver/joint_states|name|J1,J2,J3,J4,J5,J6|pos|-0.000063,-0.904980,0.930868,0.000013,-0.724257,-0.000021|vel|0.000000,0.249333,-0.244534,0.000000,0.224399,0.000000|eff|0.000000,-902.343750,-1031.250000,-225.585938,20.141602,24.169922
cobot_dynamixel_driver/joint_states|name|J1,J2,J3,J4,J5,J6|pos|-0.000063,-0.898558,0.924509,0.000013,-0.717659,-0.000021|vel|0.000000,0.238692,-0.239735,0.000000,0.211990,0.000000|eff|-64.453125,-982.910156,-1095.703125,-225.585938,28.198242,24.169922
cobot_dynamixel_driver/joint_states|name|J1,J2,J3,J4,J5,J6|pos|-0.000050,-0.892074,0.918062,0.000013,-0.711060,-0.000021|vel|0.000000,0.243491,-0.241613,0.000000,0.212680,0.000000|eff|-48.339844,-1144.042969,-1708.007812,-225.585938,20.141602,24.169922
cobot_dynamixel_driver/joint_states|name|J1,J2,J3,J4,J5,J6|pos|-0.000050,-0.885727,0.911552,0.000013,-0.704461,-0.000021|vel|0.000000,0.247872,-0.249750,0.000000,0.215437,0.000000|eff|-96.679688,-1208.496094,-918.457031,-177.246094,12.084961,24.169922
cobot_dynamixel_driver/joint_states|name|J1,J2,J3,J4,J5,J6|pos|-0.000050,-0.879305,0.905005,0.000013,-0.697904,-0.000021|vel|0.000000,0.252254,-0.265399,0.000000,0.215093,0.000000|eff|0.000000,-1321.289062,-918.457031,-145.019531,20.141602,24.169922
cobot_dynamixel_driver/joint_states|name|J1,J2,J3,J4,J5,J6|pos|-0.000050,-0.872846,0.898496,0.000013,-0.691306,-0.000021|vel|0.000000,0.230346,-0.257887,0.000000,0.244392,0.000000|eff|0.000000,-1240.722656,-999.023438,-225.585938,16.113281,24.169922
cobot_dynamixel_driver/joint_states|name|J1,J2,J3,J4,J5,J6|pos|-0.000050,-0.866374,0.892099,0.000013,-0.684748,-0.000021|vel|0.000000,0.242656,-0.245994,0.000000,0.264729,0.000000|eff|0.000000,-837.890625,-1079.589844,-177.246094,28.198242,24.169922
cobot_dynamixel_driver/joint_states|name|J1,J2,J3,J4,J5,J6|pos|-0.000050,-0.859839,0.885639,0.000013,-0.678170,-0.000021|vel|0.000000,0.241821,-0.241821,0.000000,0.243703,0.000000|eff|-96.679688,-1047.363281,-950.683594,-225.585938,16.113281,24.169922
cobot_dynamixel_driver/joint_states|name|J1,J2,J3,J4,J5,J6|pos|-0.000050,-0.853367,0.879193,0.000013,-0.671592,-0.000021|vel|0.000000,0.241196,-0.256218,0.000000,0.248184,0.000000|eff|0.000000,-1160.156250,-918.457031,-225.585938,24.169922,24.169922
cobot_dynamixel_driver/joint_states|name|J1,J2,J3,J4,J5,J6|pos|-0.000050,-0.846820,0.872721,0.000013,-0.665035,-0.000021|vel|0.000000,0.253297,-0.252671,0.000000,0.273692,0.000000|eff|-64.453125,-1272.949219,-950.683594,-225.585938,28.198242,24.169922
cobot_dynamixel_driver/joint_states|name|J1,J2,J3,J4,J5,J6|pos|-0.000050,-0.840348,0.866349,0.000013,-0.658499,-0.000021|vel|0.000000,0.243699,-0.220540,0.000000,0.277828,0.000000|eff|0.000000,-934.570312,-1031.250000,-225.585938,28.198242,24.169922
cobot_dynamixel_driver/joint_states|name|J1,J2,J3,J4,J5,J6|pos|-0.000050,-0.833877,0.859852,0.000013,-0.651921,-0.000021|vel|0.000000,0.258305,-0.220331,0.000000,0.282309,0.000000|eff|0.000000,-870.117188,-1015.136719,-177.246094,32.226562,24.169922
cobot_dynamixel_driver/joint_states|name|J1,J2,J3,J4,J5,J6|pos|-0.000050,-0.827380,0.853342,0.000013,-0.645343,-0.000021|vel|0.000000,0.248707,-0.220540,0.000000,0.266453,0.000000|eff|0.000000,-1047.363281,-1111.816406,-161.132812,36.254883,28.198242
cobot_dynamixel_driver/joint_states|name|J1,J2,J3,J4,J5,J6|pos|-0.000050,-0.820920,0.846896,0.000013,-0.638765,-0.000021|vel|0.000000,0.256218,-0.250167,0.000000,0.249907,0.000000|eff|0.000000,-1160.156250,-918.457031,-225.585938,48.339844,20.141602
cobot_dynamixel_driver/joint_states|name|J1,J2,J3,J4,J5,J6|pos|-0.000038,-0.814461,0.840361,0.000013,-0.632166,-0.000021|vel|0.000000,0.249333,-0.255592,0.000000,0.253010,0.000000|eff|-96.679688,-1208.496094,-886.230469,-225.585938,32.226562,28.198242
cobot_dynamixel_driver/joint_states|name|J1,J2,J3,J4,J5,J6|pos|-0.000038,-0.808051,0.833889,0.000013,-0.625609,-0.000021|vel|0.000000,0.232224,-0.249750,0.000000,0.236464,0.000000|eff|0.000000,-918.457031,-982.910156,-225.585938,24.169922,16.113281
cobot_dynamixel_driver/joint_states|name|J1,J2,J3,J4,J5,J6|pos|-0.000038,-0.801680,0.827455,0.000013,-0.619051,-0.000021|vel|0.000000,0.248290,-0.252045,0.000000,0.243358,0.000000|eff|-64.453125,-789.550781,-1015.136719,-209.472656,32.226562,24.169922
cobot_dynamixel_driver/joint_states|name|J1,J2,J3,J4,J5,J6|pos|-0.000038,-0.795220,0.821033,0.000013,-0.612474,-0.000021|vel|0.000000,0.245577,-0.242865,0.000000,0.235430,0.000000|eff|0.000000,-902.343750,-999.023438,-193.359375,40.283203,28.198242
cobot_dynamixel_driver/joint_states|name|J1,J2,J3,J4,J5,J6|pos|-0.000038,-0.789049,0.814636,0.000013,-0.605896,-0.000021|vel|0.000000,0.250793,-0.254132,0.000000,0.227502,0.000000|eff|0.000000,-966.796875,-999.023438,-193.359375,36.254883,28.198242
cobot_dynamixel_driver/joint_states|name|J1,J2,J3,J4,J5,J6|pos|-0.000038,-0.782377,0.808214,0.000013,-0.599338,-0.000021|vel|0.000000,0.237440,-0.230555,0.000000,0.222331,0.000000|eff|0.000000,-1079.589844,-934.570312,-225.585938,44.311523,20.141602
cobot_dynamixel_driver/joint_states|name|J1,J2,J3,J4,J5,J6|pos|-0.000038,-0.776155,0.801842,0.000013,-0.592740,-0.000021|vel|0.000000,0.246829,-0.241196,0.000000,0.230259,0.000000|eff|0.000000,-1224.609375,-950.683594,-209.472656,36.254883,20.141602
cobot_dynamixel_driver/joint_states|name|J1,J2,J3,J4,J5,J6|pos|-0.000038,-0.769633,0.795421,0.000013,-0.586141,-0.000021|vel|0.000000,0.242656,-0.239526,0.000000,0.225434,0.000000|eff|0.000000,-837.890625,-982.910156,-209.472656,32.226562,20.141602
cobot_dynamixel_driver/joint_states|name|J1,J2,J3,J4,J5,J6|pos|-0.000038,-0.762986,0.788961,0.000013,-0.579501,-0.000021|vel|0.000000,0.219288,-0.267485,0.000000,0.218540,0.000000|eff|0.000000,-854.003906,-1031.250000,-225.585938,28.198242,20.141602
cobot_dynamixel_driver/joint_states|name|J1,J2,J3,J4,J5,J6|pos|-0.000038,-0.756802,0.782427,0.000013,-0.572944,-0.000021|vel|0.000000,0.252671,-0.248707,0.000000,0.244392,0.000000|eff|0.000000,-837.890625,-1192.382812,-225.585938,32.226562,20.141602
cobot_dynamixel_driver/joint_states|name|J1,J2,J3,J4,J5,J6|pos|-0.000038,-0.750380,0.775880,0.000013,-0.566366,-0.000021|vel|0.000000,0.250793,-0.266233,0.000000,0.264040,0.000000|eff|0.000000,-1015.136719,-934.570312,-225.585938,36.254883,24.169922
cobot_dynamixel_driver/joint_states|name|J1,J2,J3,J4,J5,J6|pos|-0.000025,-0.743946,0.769483,0.000013,-0.559767,-0.000021|vel|0.000000,0.252254,-0.255384,0.000000,0.255422,0.000000|eff|0.000000,-1031.250000,-950.683594,-225.585938,36.254883,24.169922
cobot_dynamixel_driver/joint_states|name|J1,J2,J3,J4,J5,J6|pos|-0.000025,-0.737436,0.763036,0.000013,-0.553189,-0.000021|vel|0.000000,0.249124,-0.238900,0.000000,0.266108,0.000000|eff|0.000000,-1160.156250,-982.910156,-177.246094,32.226562,24.169922
cobot_dynamixel_driver/joint_states|name|J1,J2,J3,J4,J5,J6|pos|-0.000025,-0.730964,0.756602,0.000013,-0.546591,-0.000021|vel|0.000000,0.294818,-0.213028,0.000000,0.265419,0.000000|eff|-96.679688,-660.644531,-1047.363281,-177.246094,36.254883,24.169922
cobot_dynamixel_driver/joint_states|name|J1,J2,J3,J4,J5,J6|pos|-0.000025,-0.724405,0.750130,0.000013,-0.539992,-0.000021|vel|0.000000,0.253506,-0.218244,0.000000,0.271623,0.000000|eff|0.000000,-741.210938,-1047.363281,-225.585938,32.226562,24.169922
cobot_dynamixel_driver/joint_states|name|J1,J2,J3,J4,J5,J6|pos|-0.000025,-0.717920,0.743770,0.000013,-0.533414,-0.000021|vel|0.000000,0.263729,-0.241196,0.000000,0.250252,0.000000|eff|0.000000,-982.910156,-1160.156250,-225.585938,28.198242,24.169922
cobot_dynamixel_driver/joint_states|name|J1,J2,J3,J4,J5,J6|pos|-0.000013,-0.711473,0.737286,0.000013,-0.526857,-0.000021|vel|0.000000,0.242865,-0.245368,0.000000,0.276794,0.000000|eff|0.000000,-1063.476562,-934.570312,-193.359375,48.339844,24.169922
cobot_dynamixel_driver/joint_states|name|J1,J2,J3,J4,J5,J6|pos|-0.000013,-0.704976,0.730751,0.000013,-0.520279,-0.000021|vel|0.000000,0.248707,-0.255801,0.000000,0.259904,0.000000|eff|-64.453125,-773.437500,-966.796875,-177.246094,28.198242,24.169922
cobot_dynamixel_driver/joint_states|name|J1,J2,J3,J4,J5,J6|pos|-0.000013,-0.698530,0.724267,0.000013,-0.513722,-0.000021|vel|0.000000,0.234310,-0.244534,0.000000,0.257491,0.000000|eff|0.000000,-660.644531,-982.910156,-225.585938,40.283203,24.169922
cobot_dynamixel_driver/joint_states|name|J1,J2,J3,J4,J5,J6|pos|-0.000013,-0.692058,0.717770,0.000013,-0.507144,-0.000021|vel|0.000000,0.236397,-0.244325,0.000000,0.251286,0.000000|eff|-32.226562,-773.437500,-1047.363281,-193.359375,44.311523,24.169922
cobot_dynamixel_driver/joint_states|name|J1,J2,J3,J4,J5,J6|pos|-0.000013,-0.685648,0.711298,0.000013,-0.500566,-0.000021|vel|0.000000,0.231598,-0.262060,0.000000,0.266108,0.000000|eff|0.000000,-821.777344,-950.683594,-225.585938,52.368164,24.169922
cobot_dynamixel_driver/joint_states|name|J1,J2,J3,J4,J5,J6|pos|-0.000013,-0.679214,0.704801,0.000013,-0.493988,-0.000021|vel|0.000000,0.246203,-0.258513,0.000000,0.232672,0.000000|eff|0.000000,-1031.250000,-870.117188,-225.585938,48.339844,24.169922
cobot_dynamixel_driver/joint_states|name|J1,J2,J3,J4,J5,J6|pos|0.000000,-0.672780,0.698367,0.000013,-0.487430,-0.000021|vel|0.000000,0.237440,-0.252462,0.000000,0.242669,0.000000|eff|0.000000,-1079.589844,-934.570312,-177.246094,44.311523,20.141602
cobot_dynamixel_driver/joint_states|name|J1,J2,J3,J4,J5,J6|pos|0.000000,-0.666358,0.691970,0.000013,-0.480811,-0.000021|vel|0.000000,0.245577,-0.250376,0.000000,0.244392,0.000000|eff|0.000000,-725.097656,-950.683594,-225.585938,36.254883,20.141602
cobot_dynamixel_driver/joint_states|name|J1,J2,J3,J4,J5,J6|pos|0.000000,-0.659948,0.685548,0.000013,-0.474274,-0.000021|vel|0.000000,0.239735,-0.256635,0.000000,0.265074,0.000000|eff|0.000000,-612.304688,-1031.250000,-128.906250,48.339844,32.226562
cobot_dynamixel_driver/joint_states|name|J1,J2,J3,J4,J5,J6|pos|0.000000,-0.653464,0.679201,0.000013,-0.467655,-0.000021|vel|0.000000,0.248081,-0.240152,0.000000,0.229570,0.000000|eff|0.000000,-805.664062,-1079.589844,-145.019531,40.283203,28.198242
cobot_dynamixel_driver/joint_states|name|J1,J2,J3,J4,J5,J6|pos|0.000000,-0.646967,0.672780,0.000013,-0.461077,-0.000021|vel|0.000000,0.240987,-0.257887,0.000000,0.209233,0.000000|eff|-64.453125,-886.230469,-1031.250000,-225.585938,52.368164,20.141602
cobot_dynamixel_driver/joint_states|name|J1,J2,J3,J4,J5,J6|pos|0.000000,-0.640533,0.666320,0.000013,-0.454479,-0.000021|vel|0.000000,0.250167,-0.250167,0.000000,0.209577,0.000000|eff|0.000000,-982.910156,-934.570312,-225.585938,36.254883,28.198242
cobot_dynamixel_driver/joint_states|name|J1,J2,J3,J4,J5,J6|pos|0.000000,-0.634136,0.659786,0.000000,-0.447921,-0.000021|vel|0.000000,0.252671,-0.257887,0.000000,0.246460,0.000000|eff|0.000000,-999.023438,-918.457031,-209.472656,40.283203,16.113281
cobot_dynamixel_driver/joint_states|name|J1,J2,J3,J4,J5,J6|pos|0.000000,-0.627676,0.653264,0.000000,-0.441364,-0.000021|vel|0.000000,0.253088,-0.257679,0.000000,0.262661,0.000000|eff|-64.453125,-708.984375,-999.023438,-225.585938,40.283203,16.113281
cobot_dynamixel_driver/joint_states|name|J1,J2,J3,J4,J5,J6|pos|0.000000,-0.621305,0.646817,0.000000,-0.434786,-0.000021|vel|0.000000,0.246203,-0.244743,0.000000,0.242669,0.000000|eff|-32.226562,-547.851562,-1063.476562,-225.585938,44.311523,20.141602
cobot_dynamixel_driver/joint_states|name|J1,J2,J3,J4,J5,J6|pos|0.000000,-0.614808,0.640583,0.000000,-0.428229,-0.000021|vel|0.000000,0.247038,-0.221165,0.000000,0.267832,0.000000|eff|0.000000,-789.550781,-950.683594,-177.246094,44.311523,32.226562
cobot_dynamixel_driver/joint_states|name|J1,J2,J3,J4,J5,J6|pos|0.000000,-0.608386,0.633948,0.000000,-0.421651,-0.000021|vel|0.000000,0.237231,-0.222835,0.000000,0.250252,0.000000|eff|0.000000,-870.117188,-934.570312,-145.019531,44.311523,16.113281
cobot_dynamixel_driver/joint_states|name|J1,J2,J3,J4,J5,J6|pos|0.000000,-0.601826,0.627739,0.000000,-0.415052,-0.000021|vel|0.000000,0.238692,-0.241404,0.000000,0.247839,0.000000|eff|-64.453125,-1031.250000,-934.570312,-225.585938,40.283203,24.169922
cobot_dynamixel_driver/joint_states|name|J1,J2,J3,J4,J5,J6|pos|0.000000,-0.595342,0.621092,0.000000,-0.408474,-0.000021|vel|0.000000,0.241613,-0.246620,0.000000,0.248528,0.000000|eff|-32.226562,-435.058594,-1063.476562,-177.246094,56.396484,20.141602
cobot_dynamixel_driver/joint_states|name|J1,J2,J3,J4,J5,J6|pos|0.000000,-0.588882,0.614632,0.000000,-0.401896,-0.000021|vel|0.000000,0.253923,-0.252254,0.000000,0.258180,0.000000|eff|-64.453125,-644.531250,-1031.250000,-225.585938,40.283203,20.141602
cobot_dynamixel_driver/joint_states|name|J1,J2,J3,J4,J5,J6|pos|0.000000,-0.582373,0.608348,0.000000,-0.395318,-0.000021|vel|0.000000,0.257470,-0.248290,0.000000,0.279207,0.000000|eff|-32.226562,-676.757812,-821.777344,-225.585938,48.339844,28.198242
cobot_dynamixel_driver/joint_states|name|J1,J2,J3,J4,J5,J6|pos|0.000000,-0.575913,0.601864,0.000000,-0.388720,-0.000021|vel|0.000000,0.238900,-0.255801,0.000000,0.279551,0.000000|eff|0.000000,-902.343750,-950.683594,-225.585938,40.283203,28.198242
cobot_dynamixel_driver/joint_states|name|J1,J2,J3,J4,J5,J6|pos|0.000000,-0.569492,0.595141,0.000000,-0.382183,-0.000021|vel|0.000000,0.240987,-0.240361,0.000000,0.277483,0.000000|eff|0.000000,-918.457031,-918.457031,-225.585938,52.368164,28.198242
cobot_dynamixel_driver/joint_states|name|J1,J2,J3,J4,J5,J6|pos|0.000013,-0.563032,0.588907,0.000000,-0.375605,-0.000021|vel|0.000000,0.244117,-0.245160,0.000000,0.255767,0.000000|eff|0.000000,-515.625000,-966.796875,-209.472656,36.254883,20.141602
cobot_dynamixel_driver/joint_states|name|J1,J2,J3,J4,J5,J6|pos|0.000013,-0.556623,0.582410,0.000000,-0.369027,-0.000021|vel|0.000000,0.256844,-0.252462,0.000000,0.218884,0.000000|eff|-64.453125,-418.945312,-999.023438,-225.585938,40.283203,20.141602
cobot_dynamixel_driver/joint_states|name|J1,J2,J3,J4,J5,J6|pos|0.000013,-0.550151,0.575726,0.000000,-0.362449,-0.000021|vel|0.000000,0.243491,-0.250585,0.000000,0.210611,0.000000|eff|-32.226562,-612.304688,-982.910156,-177.246094,48.339844,16.113281
cobot_dynamixel_driver/joint_states|name|J1,J2,J3,J4,J5,J6|pos|0.000013,-0.543717,0.569542,0.000000,-0.355892,-0.000021|vel|0.000000,0.233684,-0.218244,0.000000,0.245426,0.000000|eff|0.000000,-773.437500,-886.230469,-193.359375,56.396484,24.169922
cobot_dynamixel_driver/joint_states|name|J1,J2,J3,J4,J5,J6|pos|0.000013,-0.537282,0.563107,0.000000,-0.349293,-0.000021|vel|0.000000,0.228051,-0.240987,0.000000,0.220952,0.000000|eff|0.000000,-821.777344,-886.230469,-193.359375,48.339844,20.141602
cobot_dynamixel_driver/joint_states|name|J1,J2,J3,J4,J5,J6|pos|0.000013,-0.530798,0.556761,0.000000,-0.342715,-0.000021|vel|0.000000,0.257470,-0.254132,0.000000,0.209577,0.000000|eff|0.000000,-741.210938,-982.910156,-145.019531,52.368164,24.169922
cobot_dynamixel_driver/joint_states|name|J1,J2,J3,J4,J5,J6|pos|0.000013,-0.524301,0.550389,0.000000,-0.336158,-0.000021|vel|0.000000,0.253923,-0.236814,0.000000,0.222676,0.000000|eff|0.000000,-354.492188,-999.023438,-225.585938,44.311523,16.113281
cobot_dynamixel_driver/joint_states|name|J1,J2,J3,J4,J5,J6|pos|0.000013,-0.517904,0.543942,0.000000,-0.329580,-0.000021|vel|0.000000,0.241404,-0.248915,0.000000,0.243703,0.000000|eff|-32.226562,-531.738281,-1015.136719,-177.246094,44.311523,32.226562
cobot_dynamixel_driver/joint_states|name|J1,J2,J3,J4,J5,J6|pos|0.000013,-0.511532,0.537457,0.000000,-0.323044,-0.000021|vel|0.000000,0.249750,-0.209481,0.000000,0.233362,0.000000|eff|0.000000,-596.191406,-1079.589844,-225.585938,52.368164,32.226562
cobot_dynamixel_driver/joint_states|name|J1,J2,J3,J4,J5,J6|pos|0.000013,-0.505060,0.530935,0.000000,-0.316486,-0.000021|vel|0.000000,0.262686,-0.212820,0.000000,0.266453,0.000000|eff|0.000000,-725.097656,-918.457031,-145.019531,52.368164,20.141602
cobot_dynamixel_driver/joint_states|name|J1,J2,J3,J4,J5,J6|pos|0.000013,-0.498638,0.524451,0.000000,-0.309867,-0.000021|vel|0.000000,0.244117,-0.212402,0.000000,0.278517,0.000000|eff|0.000000,-854.003906,-886.230469,-177.246094,52.368164,20.141602
cobot_dynamixel_driver/joint_states|name|J1,J2,J3,J4,J5,J6|pos|0.000013,-0.492154,0.517979,0.000000,-0.303268,-0.000021|vel|0.000000,0.237440,-0.231389,0.000000,0.278173,0.000000|eff|0.000000,-580.078125,-950.683594,-193.359375,60.424805,20.141602
cobot_dynamixel_driver/joint_states|name|J1,J2,J3,J4,J5,J6|pos|0.000013,-0.485670,0.511545,0.000000,-0.296690,-0.000021|vel|0.000000,0.255175,-0.239526,0.000000,0.247494,0.000000|eff|0.000000,-370.605469,-1015.136719,-225.585938,56.396484,20.141602
cobot_dynamixel_driver/joint_states|name|J1,J2,J3,J4,J5,J6|pos|0.000013,-0.479148,0.505148,0.000000,-0.290133,-0.000021|vel|0.000000,0.241196,-0.240361,0.000000,0.257491,0.000000|eff|0.000000,-644.531250,-1063.476562,-209.472656,56.396484,20.141602
cobot_dynamixel_driver/joint_states|name|J1,J2,J3,J4,J5,J6|pos|0.000013,-0.472663,0.498726,0.000000,-0.283576,-0.000021|vel|0.000000,0.247664,-0.248498,0.000000,0.285756,0.000000|eff|-64.453125,-773.437500,-1111.816406,-209.472656,60.424805,32.226562
cobot_dynamixel_driver/joint_states|name|J1,J2,J3,J4,J5,J6|pos|0.000013,-0.466216,0.492304,0.000000,-0.277060,-0.000021|vel|0.000000,0.235353,-0.237231,0.000000,0.246805,0.000000|eff|0.000000,-805.664062,-966.796875,-225.585938,64.453125,24.169922
cobot_dynamixel_driver/joint_states|name|J1,J2,J3,J4,J5,J6|pos|0.000013,-0.459719,0.485770,0.000000,-0.270503,-0.000021|vel|0.000000,0.231180,-0.253297,0.000000,0.232328,0.000000|eff|0.000000,-273.925781,-918.457031,-225.585938,68.481445,20.141602
cobot_dynamixel_driver/joint_states|name|J1,J2,J3,J4,J5,J6|pos|0.000013,-0.453247,0.479273,0.000000,-0.263904,-0.000021|vel|0.000000,0.247664,-0.252045,0.000000,0.257835,0.000000|eff|0.000000,-370.605469,-966.796875,-225.585938,60.424805,28.198242
cobot_dynamixel_driver/joint_states|name|J1,J2,J3,J4,J5,J6|pos|0.000013,-0.446851,0.472801,0.000000,-0.257305,-0.000021|vel|0.000000,0.254758,-0.229303,0.000000,0.236119,0.000000|eff|0.000000,-531.738281,-1015.136719,-225.585938,60.424805,20.141602
cobot_dynamixel_driver/joint_states|name|J1,J2,J3,J4,J5,J6|pos|0.000013,-0.440429,0.466354,0.000000,-0.250748,-0.000021|vel|0.000000,0.248707,-0.221374,0.000000,0.243703,0.000000|eff|0.000000,-580.078125,-982.910156,-225.585938,60.424805,28.198242
cobot_dynamixel_driver/joint_states|name|J1,J2,J3,J4,J5,J6|pos|0.000013,-0.433994,0.459844,0.000000,-0.244191,0.000000|vel|0.000000,0.249959,-0.223043,0.000000,0.226123,0.000000|eff|0.000000,-725.097656,-870.117188,-225.585938,60.424805,20.141602
cobot_dynamixel_driver/joint_states|name|J1,J2,J3,J4,J5,J6|pos|0.000013,-0.427485,0.453373,0.000000,-0.237613,0.000000|vel|0.000000,0.248498,-0.225964,0.000000,0.215093,0.000000|eff|0.000000,-563.964844,-902.343750,-225.585938,60.424805,24.169922
cobot_dynamixel_driver/joint_states|name|J1,J2,J3,J4,J5,J6|pos|0.000013,-0.421076,0.446913,0.000000,-0.231014,0.000000|vel|0.000000,0.257679,-0.251628,0.000000,0.214058,0.000000|eff|0.000000,-177.246094,-934.570312,-225.585938,48.339844,24.169922
cobot_dynamixel_driver/joint_states|name|J1,J2,J3,J4,J5,J6|pos|0.000013,-0.414616,0.440491,0.000000,-0.224395,0.000000|vel|0.000000,0.237023,-0.247246,0.000000,0.212680,0.000000|eff|0.000000,-322.265625,-999.023438,-225.585938,52.368164,32.226562
cobot_dynamixel_driver/joint_states|name|J1,J2,J3,J4,J5,J6|pos|0.000013,-0.408144,0.434145,0.000000,-0.217796,0.000000|vel|0.000000,0.226590,-0.239318,-0.001043,0.209233,0.000000|eff|-64.453125,-515.625000,-1095.703125,-177.246094,48.339844,20.141602
cobot_dynamixel_driver/joint_states|name|J1,J2,J3,J4,J5,J6|pos|0.000013,-0.401672,0.427735,0.000000,-0.211281,0.000000|vel|0.000000,0.249333,-0.203848,-0.001043,0.264040,0.000000|eff|0.000000,-612.304688,-1031.250000,-145.019531,68.481445,20.141602
cobot_dynamixel_driver/joint_states|name|J1,J2,J3,J4,J5,J6|pos|0.000013,-0.395250,0.421301,0.000000,-0.204951,0.000000|vel|0.000000,0.240570,-0.258305,-0.000835,0.276794,0.000000|eff|0.000000,-596.191406,-918.457031,-225.585938,56.396484,32.226562
cobot_dynamixel_driver/joint_states|name|J1,J2,J3,J4,J5,J6|pos|0.000013,-0.388866,0.414829,0.000000,-0.198063,0.000000|vel|0.000000,0.237231,-0.241196,-0.000835,0.264040,0.000000|eff|0.000000,-483.398438,-918.457031,-225.585938,52.368164,32.226562
cobot_dynamixel_driver/joint_states|name|J1,J2,J3,J4,J5,J6|pos|0.000013,-0.382419,0.408319,0.000000,-0.191795,0.000000|vel|0.000000,0.249750,-0.252254,-0.000835,0.245426,0.000000|eff|-64.453125,-128.906250,-950.683594,-209.472656,60.424805,28.198242
cobot_dynamixel_driver/joint_states|name|J1,J2,J3,J4,J5,J6|pos|0.000013,-0.375960,0.401848,0.000000,-0.184969,0.000000|vel|0.000000,0.240361,-0.258722,-0.000835,0.248528,0.000000|eff|-64.453125,-370.605469,-1015.136719,-225.585938,68.481445,32.226562
cobot_dynamixel_driver/joint_states|name|J1,J2,J3,J4,J5,J6|pos|0.000013,-0.369475,0.395326,0.000000,-0.178598,0.000000|vel|0.000000,0.237857,-0.254340,-0.000835,0.251631,0.000000|eff|0.000000,-515.625000,-950.683594,-161.132812,52.368164,20.141602
cobot_dynamixel_driver/joint_states|name|J1,J2,J3,J4,J5,J6|pos|0.000013,-0.362953,0.388916,0.000000,-0.171730,0.000000|vel|0.000000,0.251211,-0.249750,-0.000835,0.248528,0.000000|eff|-64.453125,-676.757812,-918.457031,-161.132812,56.396484,32.226562
cobot_dynamixel_driver/joint_states|name|J1,J2,J3,J4,J5,J6|pos|0.000013,-0.356494,0.382532,0.000000,-0.165442,0.000000|vel|0.000000,0.241404,-0.230972,-0.000835,0.279896,0.000000|eff|0.000000,-515.625000,-950.683594,-225.585938,60.424805,20.141602
cobot_dynamixel_driver/joint_states|name|J1,J2,J3,J4,J5,J6|pos|0.000013,-0.350010,0.376110,0.000000,-0.158884,0.000000|vel|0.000000,0.228677,-0.244951,-0.000835,0.256801,0.000000|eff|0.000000,-80.566406,-999.023438,-225.585938,68.481445,24.169922
cobot_dynamixel_driver/joint_states|name|J1,J2,J3,J4,J5,J6|pos|0.000013,-0.343525,0.369676,0.000000,-0.152369,0.000000|vel|0.000000,0.251211,-0.216158,-0.000835,0.239911,0.000000|eff|0.000000,-322.265625,-982.910156,-225.585938,76.538086,20.141602
cobot_dynamixel_driver/joint_states|name|J1,J2,J3,J4,J5,J6|pos|0.000013,-0.337091,0.363116,0.000000,-0.145791,0.000000|vel|0.000000,0.243908,-0.227008,-0.000835,0.219229,0.000000|eff|0.000000,-402.832031,-1144.042969,-225.585938,64.453125,28.198242
cobot_dynamixel_driver/joint_states|name|J1,J2,J3,J4,J5,J6|pos|0.000013,-0.330656,0.356619,0.000000,-0.139192,0.000000|vel|0.000000,0.240361,-0.226173,-0.000835,0.229225,0.000000|eff|-64.453125,-547.851562,-886.230469,-225.585938,72.509766,28.198242
cobot_dynamixel_driver/joint_states|name|J1,J2,J3,J4,J5,J6|pos|0.000013,-0.324260,0.350147,0.000000,-0.132552,0.000000|vel|0.000000,0.262895,-0.215532,-0.000835,0.242669,0.000000|eff|0.000000,-725.097656,-886.230469,-177.246094,64.453125,20.141602
cobot_dynamixel_driver/joint_states|name|J1,J2,J3,J4,J5,J6|pos|0.000013,-0.317825,0.343713,0.000000,-0.125974,0.000000|vel|0.000000,0.239944,-0.250793,-0.000835,0.243013,0.000000|eff|0.000000,-145.019531,-966.796875,-193.359375,72.509766,28.198242
cobot_dynamixel_driver/joint_states|name|J1,J2,J3,J4,J5,J6|pos|0.000013,-0.311366,0.337228,0.000000,-0.119396,0.000000|vel|0.000000,0.231806,-0.239735,-0.000835,0.264729,0.000000|eff|-96.679688,-128.906250,-982.910156,-161.132812,60.424805,20.141602
cobot_dynamixel_driver/joint_states|name|J1,J2,J3,J4,J5,J6|pos|0.000013,-0.304919,0.330732,0.000000,-0.112839,0.000000|vel|0.000000,0.208229,-0.252880,-0.000835,0.212335,0.000000|eff|0.000000,-290.039062,-982.910156,-128.906250,72.509766,20.141602
cobot_dynamixel_driver/joint_states|name|J1,J2,J3,J4,J5,J6|pos|0.000013,-0.298397,0.324297,0.000000,-0.106302,0.000000|vel|0.000000,0.239109,-0.240987,0.000835,0.220608,0.000000|eff|0.000000,-467.285156,-902.343750,-128.906250,64.453125,24.169922
cobot_dynamixel_driver/joint_states|name|J1,J2,J3,J4,J5,J6|pos|0.000013,-0.291913,0.317863,0.000000,-0.099745,0.000000|vel|0.000000,0.225130,-0.253714,0.000835,0.249218,0.000000|eff|0.000000,-741.210938,-870.117188,-128.906250,76.538086,32.226562
cobot_dynamixel_driver/joint_states|name|J1,J2,J3,J4,J5,J6|pos|0.000013,-0.285516,0.311453,0.000000,-0.093146,0.000000|vel|0.000000,0.241196,-0.248498,0.000835,0.263351,0.000000|eff|0.000000,-451.171875,-934.570312,-209.472656,60.424805,28.198242
cobot_dynamixel_driver/joint_states|name|J1,J2,J3,J4,J5,J6|pos|0.000013,-0.279131,0.305057,0.000000,-0.086548,0.000000|vel|0.000000,0.253714,-0.229511,0.000835,0.249218,0.000000|eff|-32.226562,0.000000,-966.796875,-177.246094,56.396484,32.226562
cobot_dynamixel_driver/joint_states|name|J1,J2,J3,J4,J5,J6|pos|0.000013,-0.272672,0.298622,0.000000,-0.079990,0.000000|vel|0.000000,0.248498,-0.260600,0.000835,0.279896,0.000000|eff|0.000000,-177.246094,-1015.136719,-225.585938,72.509766,32.226562
cobot_dynamixel_driver/joint_states|name|J1,J2,J3,J4,J5,J6|pos|0.000013,-0.266200,0.292188,0.000000,-0.073412,0.000000|vel|0.000000,0.245994,-0.245368,0.000835,0.250597,0.000000|eff|0.000000,-306.152344,-1063.476562,-225.585938,64.453125,20.141602
cobot_dynamixel_driver/joint_states|name|J1,J2,J3,J4,J5,J6|pos|0.000013,-0.259766,0.285678,0.000000,-0.066855,0.000000|vel|0.000000,0.251628,-0.246620,0.000835,0.247839,0.000000|eff|0.000000,-515.625000,-902.343750,-128.906250,72.509766,24.169922
cobot_dynamixel_driver/joint_states|name|J1,J2,J3,J4,J5,J6|pos|0.000013,-0.253319,0.279207,0.000000,-0.060277,0.000000|vel|0.000000,0.243908,-0.243491,0.000835,0.247150,0.000000|eff|0.000000,-612.304688,-918.457031,-225.585938,72.509766,28.198242
cobot_dynamixel_driver/joint_states|name|J1,J2,J3,J4,J5,J6|pos|0.000013,-0.246797,0.272685,0.000000,-0.053637,0.000000|vel|0.000000,0.257470,-0.239318,0.000835,0.261972,0.000000|eff|0.000000,96.679688,-934.570312,-225.585938,72.509766,32.226562
cobot_dynamixel_driver/joint_states|name|J1,J2,J3,J4,J5,J6|pos|0.000025,-0.240287,0.266300,0.000000,-0.047080,0.000000|vel|0.000000,0.240570,-0.246412,0.000835,0.289548,0.000000|eff|0.000000,-128.906250,-1015.136719,-209.472656,68.481445,20.141602
cobot_dynamixel_driver/joint_states|name|J1,J2,J3,J4,J5,J6|pos|0.000025,-0.233865,0.259866,0.000000,-0.040564,0.000000|vel|0.000000,0.248498,-0.248290,-0.000835,0.255767,0.000000|eff|0.000000,-290.039062,-1240.722656,-209.472656,68.481445,20.141602
cobot_dynamixel_driver/joint_states|name|J1,J2,J3,J4,J5,J6|pos|0.000025,-0.227444,0.253394,0.000000,-0.033965,0.000000|vel|0.000000,0.238066,-0.248081,-0.000835,0.255422,0.000000|eff|-64.453125,-354.492188,-950.683594,-193.359375,36.254883,28.198242
cobot_dynamixel_driver/joint_states|name|J1,J2,J3,J4,J5,J6|pos|0.000025,-0.221009,0.246997,0.000000,-0.028132,0.000000|vel|0.000000,0.252045,-0.255175,-0.000835,0.195445,0.000000|eff|0.000000,-515.625000,-918.457031,-209.472656,40.283203,32.226562
cobot_dynamixel_driver/joint_states|name|J1,J2,J3,J4,J5,J6|pos|0.000025,-0.214525,0.240500,0.000000,-0.023499,0.000000|vel|0.000000,0.253714,-0.256427,-0.000835,0.154770,0.000000|eff|0.000000,64.453125,-902.343750,-225.585938,40.283203,32.226562
cobot_dynamixel_driver/joint_states|name|J1,J2,J3,J4,J5,J6|pos|0.000025,-0.208328,0.233991,0.000000,-0.019672,0.000000|vel|0.000000,0.246829,-0.254758,-0.000835,0.149600,0.000000|eff|0.000000,64.453125,-966.796875,-225.585938,56.396484,24.169922
cobot_dynamixel_driver/joint_states|name|J1,J2,J3,J4,J5,J6|pos|0.000025,-0.201919,0.227494,0.000000,-0.016445,0.000000|vel|0.000000,0.234727,-0.252045,-0.000835,0.116508,0.000000|eff|0.000000,-145.019531,-1031.250000,-177.246094,56.396484,28.198242
cobot_dynamixel_driver/joint_states|name|J1,J2,J3,J4,J5,J6|pos|0.000025,-0.195472,0.221034,0.000000,-0.013735,0.000000|vel|0.000000,0.249124,-0.248915,-0.000835,0.093758,0.000000|eff|0.000000,-257.812500,-950.683594,-128.906250,52.368164,24.169922
cobot_dynamixel_driver/joint_states|name|J1,J2,J3,J4,J5,J6|pos|0.000025,-0.188762,0.214550,0.000000,-0.011480,0.000000|vel|0.000000,0.231180,-0.253506,-0.000835,0.077557,0.000000|eff|-96.679688,-418.945312,-886.230469,-209.472656,68.481445,24.169922
cobot_dynamixel_driver/joint_states|name|J1,J2,J3,J4,J5,J6|pos|0.000025,-0.182516,0.208053,0.000000,-0.009619,0.000000|vel|0.000000,0.237440,-0.251628,-0.000835,0.064459,0.000000|eff|0.000000,-370.605469,-886.230469,-193.359375,64.453125,24.169922
cobot_dynamixel_driver/joint_states|name|J1,J2,J3,J4,J5,J6|pos|0.000025,-0.176031,0.201619,0.000000,-0.008005,0.000000|vel|0.000000,0.245786,-0.280838,-0.000835,0.056531,0.000000|eff|-32.226562,161.132812,-966.796875,-161.132812,52.368164,28.198242
cobot_dynamixel_driver/joint_states|name|J1,J2,J3,J4,J5,J6|pos|0.000038,-0.169572,0.195159,0.000000,-0.006723,0.000000|vel|0.000000,0.257470,-0.247038,-0.000835,0.046534,0.000000|eff|0.000000,-48.339844,-1015.136719,-225.585938,60.424805,24.169922
cobot_dynamixel_driver/joint_states|name|J1,J2,J3,J4,J5,J6|pos|0.000038,-0.163125,0.188750,0.000000,-0.005647,0.000000|vel|0.000000,0.244534,-0.216367,-0.000835,0.041364,0.000000|eff|-96.679688,-193.359375,-1015.136719,-193.359375,64.453125,20.141602
cobot_dynamixel_driver/joint_states|name|J1,J2,J3,J4,J5,J6|pos|0.000038,-0.156703,0.182366,0.000000,-0.004716,0.000000|vel|0.000000,0.245994,-0.243491,-0.000835,0.034125,0.000000|eff|0.000000,-209.472656,-950.683594,-145.019531,64.453125,20.141602
cobot_dynamixel_driver/joint_states|name|J1,J2,J3,J4,J5,J6|pos|0.000038,-0.150231,0.175919,0.000000,-0.003992,0.000000|vel|0.000000,0.245368,-0.251419,-0.000835,0.026887,0.000000|eff|0.000000,-483.398438,-902.343750,-209.472656,92.651367,24.169922
cobot_dynamixel_driver/joint_states|name|J1,J2,J3,J4,J5,J6|pos|0.000038,-0.143797,0.169497,0.000000,-0.003351,0.000000|vel|0.000000,0.255592,-0.250585,-0.000835,0.023095,0.000000|eff|0.000000,241.699219,-950.683594,-209.472656,80.566406,24.169922
cobot_dynamixel_driver/joint_states|name|J1,J2,J3,J4,J5,J6|pos|0.000038,-0.137400,0.162987,0.000000,-0.002772,0.000000|vel|0.000000,0.252045,-0.266442,-0.000835,0.019993,0.000000|eff|0.000000,177.246094,-982.910156,-177.246094,72.509766,24.169922
cobot_dynamixel_driver/joint_states|name|J1,J2,J3,J4,J5,J6|pos|0.000038,-0.130903,0.156590,0.000000,-0.002358,0.000000|vel|0.000000,0.253088,-0.253297,0.000835,0.015167,0.000000|eff|-64.453125,48.339844,-1047.363281,-177.246094,80.566406,24.169922
cobot_dynamixel_driver/joint_states|name|J1,J2,J3,J4,J5,J6|pos|0.000038,-0.124406,0.150068,0.000000,-0.001986,0.000000|vel|0.000000,0.246829,-0.255384,0.000835,0.015167,0.000000|eff|0.000000,-177.246094,-918.457031,-209.472656,80.566406,24.169922
cobot_dynamixel_driver/joint_states|name|J1,J2,J3,J4,J5,J6|pos|0.000038,-0.117922,0.143609,0.000000,-0.001613,0.000000|vel|0.000000,0.230763,-0.232641,0.000835,0.012409,0.000000|eff|-112.792969,-386.718750,-934.570312,-128.906250,72.509766,24.169922
cobot_dynamixel_driver/joint_states|name|J1,J2,J3,J4,J5,J6|pos|0.000038,-0.111500,0.137225,0.000000,-0.001345,0.000000|vel|0.000000,0.257470,-0.212820,0.000835,0.008962,0.000000|eff|0.000000,-64.453125,-934.570312,-145.019531,76.538086,20.141602
cobot_dynamixel_driver/joint_states|name|J1,J2,J3,J4,J5,J6|pos|0.000038,-0.105065,0.130790,0.000000,-0.001158,0.000000|vel|0.000000,0.292940,-0.237857,0.000835,0.006894,0.000000|eff|0.000000,177.246094,-982.910156,-209.472656,64.453125,32.226562
cobot_dynamixel_driver/joint_states|name|J1,J2,J3,J4,J5,J6|pos|0.000038,-0.098569,0.124381,0.000000,-0.000993,0.000000|vel|0.000000,0.239735,-0.247038,0.000835,0.005170,0.000000|eff|0.000000,0.000000,-1015.136719,-177.246094,84.594727,24.169922
cobot_dynamixel_driver/joint_states|name|J1,J2,J3,J4,J5,J6|pos|0.000038,-0.092134,0.117847,0.000000,-0.000807,0.000000|vel|0.000000,0.238274,-0.256844,0.000835,0.006894,0.000000|eff|0.000000,-145.019531,-1047.363281,-128.906250,68.481445,20.141602
