surachairobotic/cobot/cobot_dynamixel_driver/log/2019-02-07T08:51:27.150982_driver_cmd.txt
1549529500.009958,cobot_dynamixel_driver/goal|-:J1,J2,J3,J4,J5,J6:0.000000,0.000000,0.000000,0.000000,0.000000,0.000000:0.500000,0.500000,0.500000,0.500000,0.500000,0.500000:pos_vel_
1549529786.350779,cobot_dynamixel_driver/goal|-:J1,J2,J3,J4,J5,J6:0.000000,0.000000,0.000000,0.000000,0.000000,0.000000:0.500000,0.500000,0.500000,0.500000,0.500000,0.500000:pos_vel_
1549529793.128265,cobot_dynamixel_driver/goal|-:J3:0.000000:eff_
1549529793.219097,cobot_dynamixel_driver/goal|-:J1,J2,J3,J4,J5,J6:0.000000,0.000000,0.523599,0.000000,0.000000,0.000000:0.250000,0.250000,0.250000,0.250000,0.250000,0.250000:pos_vel_
1549529806.050937,cobot_dynamixel_driver/goal|-:J3:-244.492188:eff_
1549529811.650894,cobot_dynamixel_driver/goal|-:J3:-254.492188:eff_
1549529819.235457,cobot_dynamixel_driver/goal|-:J3:-264.492188:eff_
1549529826.850559,cobot_dynamixel_driver/goal|-:J3:-274.492188:eff_
1549529835.165622,cobot_dynamixel_driver/goal|-:J1,J2,J3,J4,J5,J6:0.000000,0.000000,0.000000,0.000000,0.000000,0.000000:0.500000,0.500000,0.500000,0.500000,0.500000,0.500000:pos_vel_
1549530047.669799,cobot_dynamixel_driver/goal|-:J3:0.000000:eff_
1549530047.760761,cobot_dynamixel_driver/goal|-:J1,J2,J3,J4,J5,J6:0.000000,0.000000,0.523599,0.000000,0.000000,0.000000:0.250000,0.250000,0.250000,0.250000,0.250000,0.250000:pos_vel_
1549530060.679523,cobot_dynamixel_driver/goal|-:J3:-279.672852:eff_
1549530066.306033,cobot_dynamixel_driver/goal|-:J3:-289.672852:eff_
1549530073.895061,cobot_dynamixel_driver/goal|-:J3:-299.672852:eff_
1549530081.509923,cobot_dynamixel_driver/goal|-:J3:-309.672852:eff_
1549530089.097291,cobot_dynamixel_driver/goal|-:J3:-319.672852:eff_
1549530097.656723,cobot_dynamixel_driver/goal|-:J1,J2,J3,J4,J5,J6:0.000000,0.000000,0.000000,0.000000,0.000000,0.000000:0.500000,0.500000,0.500000,0.500000,0.500000,0.500000:pos_vel_
1549530108.952790,cobot_dynamixel_driver/goal|-:J3:0.000000:eff_
1549530109.071075,cobot_dynamixel_driver/goal|-:J1,J2,J3,J4,J5,J6:0.000000,0.000000,0.523599,0.000000,0.000000,0.000000:0.250000,0.250000,0.250000,0.250000,0.250000,0.250000:pos_vel_
1549530121.879558,cobot_dynamixel_driver/goal|-:J3:-191.699868:eff_
1549530122.483389,cobot_dynamixel_driver/goal|-:J1,J2,J3,J4,J5,J6:0.000000,0.000000,0.523599,0.000000,0.000000,0.000000:0.250000,0.250000,0.250000,0.250000,0.250000,0.250000:pos_vel_
1549530128.377785,cobot_dynamixel_driver/goal|-:J3:-181.699868:eff_
1549530128.981654,cobot_dynamixel_driver/goal|-:J1,J2,J3,J4,J5,J6:0.000000,0.000000,0.523599,0.000000,0.000000,0.000000:0.250000,0.250000,0.250000,0.250000,0.250000,0.250000:pos_vel_
1549530134.688068,cobot_dynamixel_driver/goal|-:J3:-171.699868:eff_
1549530135.292308,cobot_dynamixel_driver/goal|-:J1,J2,J3,J4,J5,J6:0.000000,0.000000,0.523599,0.000000,0.000000,0.000000:0.250000,0.250000,0.250000,0.250000,0.250000,0.250000:pos_vel_
1549530141.294711,cobot_dynamixel_driver/goal|-:J3:-181.699868:eff_
1549530141.873181,cobot_dynamixel_driver/goal|-:J1,J2,J3,J4,J5,J6:0.000000,0.000000,0.523599,0.000000,0.000000,0.000000:0.250000,0.250000,0.250000,0.250000,0.250000,0.250000:pos_vel_
1549530147.687672,cobot_dynamixel_driver/goal|-:J3:-191.699868:eff_
1549530148.291703,cobot_dynamixel_driver/goal|-:J1,J2,J3,J4,J5,J6:0.000000,0.000000,0.523599,0.000000,0.000000,0.000000:0.250000,0.250000,0.250000,0.250000,0.250000,0.250000:pos_vel_
1549530153.998940,cobot_dynamixel_driver/goal|-:J3:-201.699868:eff_
1549530159.599478,cobot_dynamixel_driver/goal|-:J3:-211.699868:eff_
1549530167.187485,cobot_dynamixel_driver/goal|-:J3:-221.699868:eff_
1549530174.801383,cobot_dynamixel_driver/goal|-:J3:-231.699868:eff_
1549530182.388189,cobot_dynamixel_driver/goal|-:J3:-241.699868:eff_
1549530190.000157,cobot_dynamixel_driver/goal|-:J3:-251.699868:eff_
1549530197.591113,cobot_dynamixel_driver/goal|-:J3:-261.699868:eff_
1549530205.206201,cobot_dynamixel_driver/goal|-:J3:-271.699868:eff_
1549530212.796225,cobot_dynamixel_driver/goal|-:J3:-281.699868:eff_
1549530220.410436,cobot_dynamixel_driver/goal|-:J3:-291.699868:eff_
1549530228.024026,cobot_dynamixel_driver/goal|-:J3:-301.699868:eff_
1549530235.610028,cobot_dynamixel_driver/goal|-:J3:-311.699868:eff_
1549530243.224996,cobot_dynamixel_driver/goal|-:J3:-321.699868:eff_
1549530250.812079,cobot_dynamixel_driver/goal|-:J3:-331.699868:eff_
1549530258.425838,cobot_dynamixel_driver/goal|-:J3:-341.699868:eff_
1549530266.012850,cobot_dynamixel_driver/goal|-:J3:-351.699868:eff_
1549530273.625987,cobot_dynamixel_driver/goal|-:J3:-361.699868:eff_
1549530281.239691,cobot_dynamixel_driver/goal|-:J3:-371.699868:eff_
1549530288.828553,cobot_dynamixel_driver/goal|-:J3:-381.699868:eff_
1549530296.442510,cobot_dynamixel_driver/goal|-:J3:-391.699868:eff_
1549530304.027543,cobot_dynamixel_driver/goal|-:J3:-401.699868:eff_
1549530311.643365,cobot_dynamixel_driver/goal|-:J3:-411.699868:eff_
1549530319.229502,cobot_dynamixel_driver/goal|-:J3:-421.699868:eff_
1549530326.843215,cobot_dynamixel_driver/goal|-:J3:-431.699868:eff_
1549530334.456369,cobot_dynamixel_driver/goal|-:J3:-441.699868:eff_
1549530342.044339,cobot_dynamixel_driver/goal|-:J3:-451.699868:eff_
1549530349.656200,cobot_dynamixel_driver/goal|-:J3:-461.699868:eff_
1549530357.242039,cobot_dynamixel_driver/goal|-:J3:-471.699868:eff_
1549530364.857068,cobot_dynamixel_driver/goal|-:J3:-481.699868:eff_
1549530372.469976,cobot_dynamixel_driver/goal|-:J3:-491.699868:eff_
1549530380.056127,cobot_dynamixel_driver/goal|-:J3:-501.699868:eff_
1549530387.672046,cobot_dynamixel_driver/goal|-:J3:-511.699868:eff_
1549530395.258024,cobot_dynamixel_driver/goal|-:J3:-521.699868:eff_
1549530402.869971,cobot_dynamixel_driver/goal|-:J3:-531.699868:eff_
1549530410.459857,cobot_dynamixel_driver/goal|-:J3:-541.699868:eff_
1549530418.072707,cobot_dynamixel_driver/goal|-:J3:-551.699868:eff_
1549530425.684575,cobot_dynamixel_driver/goal|-:J3:-561.699868:eff_
1549530433.270614,cobot_dynamixel_driver/goal|-:J3:-571.699868:eff_
1549530440.883564,cobot_dynamixel_driver/goal|-:J3:-581.699868:eff_
1549530448.470551,cobot_dynamixel_driver/goal|-:J3:-591.699868:eff_
1549530456.083482,cobot_dynamixel_driver/goal|-:J3:-601.699868:eff_
1549530463.669398,cobot_dynamixel_driver/goal|-:J3:-611.699868:eff_
1549530471.284274,cobot_dynamixel_driver/goal|-:J3:-621.699868:eff_
1549530478.898262,cobot_dynamixel_driver/goal|-:J3:-631.699868:eff_
1549530486.483166,cobot_dynamixel_driver/goal|-:J3:-641.699868:eff_
1549530494.097182,cobot_dynamixel_driver/goal|-:J3:-651.699868:eff_
1549530501.683114,cobot_dynamixel_driver/goal|-:J3:-661.699868:eff_
1549530509.299005,cobot_dynamixel_driver/goal|-:J3:-671.699868:eff_
1549530516.887020,cobot_dynamixel_driver/goal|-:J3:-681.699868:eff_
1549530524.502967,cobot_dynamixel_driver/goal|-:J3:-691.699868:eff_
1549530532.117861,cobot_dynamixel_driver/goal|-:J3:-701.699868:eff_
1549530539.704800,cobot_dynamixel_driver/goal|-:J3:-711.699868:eff_
1549530547.318537,cobot_dynamixel_driver/goal|-:J3:-721.699868:eff_
1549530554.906446,cobot_dynamixel_driver/goal|-:J3:-731.699868:eff_
1549530562.522463,cobot_dynamixel_driver/goal|-:J3:-741.699868:eff_
1549530570.108327,cobot_dynamixel_driver/goal|-:J3:-751.699868:eff_
1549530577.721309,cobot_dynamixel_driver/goal|-:J3:-761.699868:eff_
1549530585.307157,cobot_dynamixel_driver/goal|-:J3:-771.699868:eff_
1549530592.921279,cobot_dynamixel_driver/goal|-:J3:-781.699868:eff_
1549530600.532999,cobot_dynamixel_driver/goal|-:J3:-791.699868:eff_
1549530608.119061,cobot_dynamixel_driver/goal|-:J3:-801.699868:eff_
1549530615.731968,cobot_dynamixel_driver/goal|-:J3:-811.699868:eff_
1549530623.344903,cobot_dynamixel_driver/goal|-:J3:-821.699868:eff_
1549530630.932875,cobot_dynamixel_driver/goal|-:J3:-831.699868:eff_
1549530638.546824,cobot_dynamixel_driver/goal|-:J3:-841.699868:eff_
1549530646.131662,cobot_dynamixel_driver/goal|-:J3:-851.699868:eff_
1549530653.743942,cobot_dynamixel_driver/goal|-:J3:-861.699868:eff_
1549530661.331737,cobot_dynamixel_driver/goal|-:J3:-871.699868:eff_
1549530668.944499,cobot_dynamixel_driver/goal|-:J3:-881.699868:eff_
1549530676.557311,cobot_dynamixel_driver/goal|-:J3:-891.699868:eff_
1549530686.060025,cobot_dynamixel_driver/goal|-:J1,J2,J3,J4,J5,J6:0.000000,0.000000,0.000000,0.000000,0.000000,0.000000:0.500000,0.500000,0.500000,0.500000,0.500000,0.500000:pos_vel_
1549530701.969541,cobot_dynamixel_driver/goal|-:J3:0.000000:eff_
1549530702.087846,cobot_dynamixel_driver/goal|-:J1,J2,J3,J4,J5,J6:0.000000,0.000000,0.523599,0.000000,0.000000,0.000000:0.250000,0.250000,0.250000,0.250000,0.250000,0.250000:pos_vel_
1549530714.898088,cobot_dynamixel_driver/goal|-:J3:-230.742188:eff_
1549530718.015049,cobot_dynamixel_driver/goal|-:J3:-240.742188:eff_
1549530721.093235,cobot_dynamixel_driver/goal|-:J3:-250.742188:eff_
1549530724.198541,cobot_dynamixel_driver/goal|-:J3:-260.742188:eff_
1549530727.303266,cobot_dynamixel_driver/goal|-:J3:-270.742188:eff_
1549530730.408727,cobot_dynamixel_driver/goal|-:J3:-280.742188:eff_
1549530733.513845,cobot_dynamixel_driver/goal|-:J3:-290.742188:eff_
1549530736.621983,cobot_dynamixel_driver/goal|-:J3:-300.742188:eff_
1549530739.700133,cobot_dynamixel_driver/goal|-:J3:-310.742188:eff_
1549530742.804318,cobot_dynamixel_driver/goal|-:J3:-320.742188:eff_
1549530745.908506,cobot_dynamixel_driver/goal|-:J3:-330.742188:eff_
1549530749.013668,cobot_dynamixel_driver/goal|-:J3:-340.742188:eff_
1549530752.118915,cobot_dynamixel_driver/goal|-:J3:-350.742188:eff_
1549530755.224031,cobot_dynamixel_driver/goal|-:J3:-360.742188:eff_
1549530758.303170,cobot_dynamixel_driver/goal|-:J3:-370.742188:eff_
1549530761.408315,cobot_dynamixel_driver/goal|-:J3:-380.742188:eff_
1549530764.514409,cobot_dynamixel_driver/goal|-:J3:-390.742188:eff_
1549530767.619627,cobot_dynamixel_driver/goal|-:J3:-400.742188:eff_
1549530770.724656,cobot_dynamixel_driver/goal|-:J3:-410.742188:eff_
1549530773.831812,cobot_dynamixel_driver/goal|-:J3:-420.742188:eff_
1549530776.910000,cobot_dynamixel_driver/goal|-:J3:-430.742188:eff_
1549530780.015143,cobot_dynamixel_driver/goal|-:J3:-440.742188:eff_
1549530783.119200,cobot_dynamixel_driver/goal|-:J3:-450.742188:eff_
1549530786.223583,cobot_dynamixel_driver/goal|-:J3:-460.742188:eff_
1549530789.327573,cobot_dynamixel_driver/goal|-:J3:-470.742188:eff_
1549530792.431660,cobot_dynamixel_driver/goal|-:J3:-480.742188:eff_
1549530795.537174,cobot_dynamixel_driver/goal|-:J3:-490.742188:eff_
1549530798.640969,cobot_dynamixel_driver/goal|-:J3:-500.742188:eff_
1549530801.718099,cobot_dynamixel_driver/goal|-:J3:-510.742188:eff_
1549530804.824442,cobot_dynamixel_driver/goal|-:J3:-520.742188:eff_
1549530807.929670,cobot_dynamixel_driver/goal|-:J3:-530.742188:eff_
1549530811.033593,cobot_dynamixel_driver/goal|-:J3:-540.742188:eff_
1549530814.143104,cobot_dynamixel_driver/goal|-:J3:-550.742188:eff_
1549530817.222933,cobot_dynamixel_driver/goal|-:J3:-560.742188:eff_
1549530820.329067,cobot_dynamixel_driver/goal|-:J3:-570.742188:eff_
1549530823.434251,cobot_dynamixel_driver/goal|-:J3:-580.742188:eff_
1549530826.539354,cobot_dynamixel_driver/goal|-:J3:-590.742188:eff_
1549530829.648531,cobot_dynamixel_driver/goal|-:J3:-600.742188:eff_
1549530832.726610,cobot_dynamixel_driver/goal|-:J3:-610.742188:eff_
1549530835.831824,cobot_dynamixel_driver/goal|-:J3:-620.742188:eff_
1549530838.935953,cobot_dynamixel_driver/goal|-:J3:-630.742188:eff_
1549530842.040146,cobot_dynamixel_driver/goal|-:J3:-640.742188:eff_
1549530845.145577,cobot_dynamixel_driver/goal|-:J3:-650.742188:eff_
1549530848.249422,cobot_dynamixel_driver/goal|-:J3:-660.742188:eff_
1549530851.355565,cobot_dynamixel_driver/goal|-:J3:-670.742188:eff_
1549530854.460093,cobot_dynamixel_driver/goal|-:J3:-680.742188:eff_
1549530857.537844,cobot_dynamixel_driver/goal|-:J3:-690.742188:eff_
1549530860.643188,cobot_dynamixel_driver/goal|-:J3:-700.742188:eff_
1549530863.748099,cobot_dynamixel_driver/goal|-:J3:-710.742188:eff_
1549530866.852224,cobot_dynamixel_driver/goal|-:J3:-720.742188:eff_
1549530869.957343,cobot_dynamixel_driver/goal|-:J3:-730.742188:eff_
1549530873.061491,cobot_dynamixel_driver/goal|-:J3:-740.742188:eff_
1549530876.166662,cobot_dynamixel_driver/goal|-:J3:-750.742188:eff_
1549530879.243684,cobot_dynamixel_driver/goal|-:J3:-760.742188:eff_
1549530882.349031,cobot_dynamixel_driver/goal|-:J3:-770.742188:eff_
1549530885.453034,cobot_dynamixel_driver/goal|-:J3:-780.742188:eff_
1549530888.557138,cobot_dynamixel_driver/goal|-:J3:-790.742188:eff_
1549530891.661423,cobot_dynamixel_driver/goal|-:J3:-800.742188:eff_
1549530894.765421,cobot_dynamixel_driver/goal|-:J3:-810.742188:eff_
1549530897.869545,cobot_dynamixel_driver/goal|-:J3:-820.742188:eff_
1549530900.975627,cobot_dynamixel_driver/goal|-:J3:-830.742188:eff_
1549530904.055717,cobot_dynamixel_driver/goal|-:J3:-840.742188:eff_
1549530907.160969,cobot_dynamixel_driver/goal|-:J3:0.000000:eff_
1549530907.268927,cobot_dynamixel_driver/goal|-:J1,J2,J3,J4,J5,J6:0.000000,0.000000,0.523599,0.000000,0.000000,0.000000:0.250000,0.250000,0.250000,0.250000,0.250000,0.250000:pos_vel_
1549530910.088056,cobot_dynamixel_driver/goal|-:J3:0.000000:eff_
1549530910.179039,cobot_dynamixel_driver/goal|-:J1,J2,J3,J4,J5,J6:0.000000,0.000000,0.523599,0.000000,0.000000,0.000000:0.250000,0.250000,0.250000,0.250000,0.250000,0.250000:pos_vel_
1549530920.989099,cobot_dynamixel_driver/goal|-:J3:-367.179389:eff_
1549530924.103498,cobot_dynamixel_driver/goal|-:J3:-357.179389:eff_
1549530927.209194,cobot_dynamixel_driver/goal|-:J3:-347.179389:eff_
1549530930.313333,cobot_dynamixel_driver/goal|-:J3:-337.179389:eff_
1549530933.390451,cobot_dynamixel_driver/goal|-:J3:-327.179389:eff_
1549530936.495566,cobot_dynamixel_driver/goal|-:J3:-317.179389:eff_
1549530939.600816,cobot_dynamixel_driver/goal|-:J3:-307.179389:eff_
1549530942.706107,cobot_dynamixel_driver/goal|-:J3:-297.179389:eff_
1549530945.810154,cobot_dynamixel_driver/goal|-:J3:-287.179389:eff_
1549530948.914275,cobot_dynamixel_driver/goal|-:J3:-277.179389:eff_
1549530952.019487,cobot_dynamixel_driver/goal|-:J3:-267.179389:eff_
1549530955.096498,cobot_dynamixel_driver/goal|-:J3:-257.179389:eff_
1549530958.200719,cobot_dynamixel_driver/goal|-:J3:-247.179389:eff_
1549530961.304944,cobot_dynamixel_driver/goal|-:J3:-237.179389:eff_
1549530964.410037,cobot_dynamixel_driver/goal|-:J3:-227.179389:eff_
1549530967.514161,cobot_dynamixel_driver/goal|-:J3:-217.179389:eff_
1549530970.618230,cobot_dynamixel_driver/goal|-:J3:-207.179389:eff_
1549530973.723382,cobot_dynamixel_driver/goal|-:J3:-197.179389:eff_
1549530976.827652,cobot_dynamixel_driver/goal|-:J3:-187.179389:eff_
1549530979.904711,cobot_dynamixel_driver/goal|-:J3:-177.179389:eff_
1549530983.009829,cobot_dynamixel_driver/goal|-:J3:-167.179389:eff_
1549530986.113927,cobot_dynamixel_driver/goal|-:J3:-157.179389:eff_
1549530989.218587,cobot_dynamixel_driver/goal|-:J3:-147.179389:eff_
1549530992.324142,cobot_dynamixel_driver/goal|-:J3:-137.179389:eff_
1549530995.429297,cobot_dynamixel_driver/goal|-:J3:-127.179389:eff_
1549530998.533412,cobot_dynamixel_driver/goal|-:J3:0.000000:eff_
1549530998.614408,cobot_dynamixel_driver/goal|-:J1,J2,J3,J4,J5,J6:0.000000,0.000000,0.523599,0.000000,0.000000,0.000000:0.250000,0.250000,0.250000,0.250000,0.250000,0.250000:pos_vel_
1549531001.540769,cobot_dynamixel_driver/goal|-:J3:0.000000:eff_
1549531001.631646,cobot_dynamixel_driver/goal|-:J1,J2,J3,J4,J5,J6:0.000000,0.000000,0.436332,0.000000,0.000000,0.000000:0.250000,0.250000,0.250000,0.250000,0.250000,0.250000:pos_vel_
1549531012.763314,cobot_dynamixel_driver/goal|-:J3:-613.107675:eff_
1549531015.877405,cobot_dynamixel_driver/goal|-:J3:-623.107675:eff_
1549531018.954628,cobot_dynamixel_driver/goal|-:J3:-633.107675:eff_
1549531022.060669,cobot_dynamixel_driver/goal|-:J3:-643.107675:eff_
1549531025.165790,cobot_dynamixel_driver/goal|-:J3:-653.107675:eff_
1549531028.271013,cobot_dynamixel_driver/goal|-:J3:-663.107675:eff_
1549531031.378235,cobot_dynamixel_driver/goal|-:J3:-673.107675:eff_
1549531034.482309,cobot_dynamixel_driver/goal|-:J3:-683.107675:eff_
1549531037.559594,cobot_dynamixel_driver/goal|-:J3:-693.107675:eff_
1549531040.665822,cobot_dynamixel_driver/goal|-:J3:-703.107675:eff_
1549531043.769920,cobot_dynamixel_driver/goal|-:J3:-713.107675:eff_
1549531046.875132,cobot_dynamixel_driver/goal|-:J3:-723.107675:eff_
1549531049.979274,cobot_dynamixel_driver/goal|-:J3:-733.107675:eff_
1549531053.084525,cobot_dynamixel_driver/goal|-:J3:-743.107675:eff_
1549531056.190391,cobot_dynamixel_driver/goal|-:J3:-753.107675:eff_
1549531059.267560,cobot_dynamixel_driver/goal|-:J3:-763.107675:eff_
1549531062.371807,cobot_dynamixel_driver/goal|-:J3:-773.107675:eff_
1549531065.476993,cobot_dynamixel_driver/goal|-:J3:-783.107675:eff_
1549531068.581506,cobot_dynamixel_driver/goal|-:J3:-793.107675:eff_
1549531071.685293,cobot_dynamixel_driver/goal|-:J3:-803.107675:eff_
1549531074.789373,cobot_dynamixel_driver/goal|-:J3:-813.107675:eff_
1549531077.894426,cobot_dynamixel_driver/goal|-:J3:-823.107675:eff_
1549531080.999511,cobot_dynamixel_driver/goal|-:J3:-833.107675:eff_
1549531084.077641,cobot_dynamixel_driver/goal|-:J3:-843.107675:eff_
1549531087.181827,cobot_dynamixel_driver/goal|-:J3:-853.107675:eff_
1549531090.286905,cobot_dynamixel_driver/goal|-:J3:-863.107675:eff_
1549531093.391069,cobot_dynamixel_driver/goal|-:J3:-873.107675:eff_
1549531096.495128,cobot_dynamixel_driver/goal|-:J3:0.000000:eff_
1549531096.603059,cobot_dynamixel_driver/goal|-:J1,J2,J3,J4,J5,J6:0.000000,0.000000,0.436332,0.000000,0.000000,0.000000:0.250000,0.250000,0.250000,0.250000,0.250000,0.250000:pos_vel_
1549531099.798311,cobot_dynamixel_driver/goal|-:J3:0.000000:eff_
1549531099.916655,cobot_dynamixel_driver/goal|-:J1,J2,J3,J4,J5,J6:0.000000,0.000000,0.436332,0.000000,0.000000,0.000000:0.250000,0.250000,0.250000,0.250000,0.250000,0.250000:pos_vel_
1549531110.430285,cobot_dynamixel_driver/goal|-:J3:-402.402344:eff_
1549531113.518447,cobot_dynamixel_driver/goal|-:J3:-392.402344:eff_
1549531116.624767,cobot_dynamixel_driver/goal|-:J3:-382.402344:eff_
1549531119.729732,cobot_dynamixel_driver/goal|-:J3:-372.402344:eff_
1549531122.833939,cobot_dynamixel_driver/goal|-:J3:-362.402344:eff_
1549531125.937934,cobot_dynamixel_driver/goal|-:J3:-352.402344:eff_
1549531129.015202,cobot_dynamixel_driver/goal|-:J3:-342.402344:eff_
1549531132.119316,cobot_dynamixel_driver/goal|-:J3:-332.402344:eff_
1549531135.224587,cobot_dynamixel_driver/goal|-:J3:-322.402344:eff_
1549531138.328738,cobot_dynamixel_driver/goal|-:J3:-312.402344:eff_
1549531141.432888,cobot_dynamixel_driver/goal|-:J3:-302.402344:eff_
1549531144.537042,cobot_dynamixel_driver/goal|-:J3:-292.402344:eff_
1549531147.643173,cobot_dynamixel_driver/goal|-:J3:-282.402344:eff_
1549531150.720412,cobot_dynamixel_driver/goal|-:J3:-272.402344:eff_
1549531153.824621,cobot_dynamixel_driver/goal|-:J3:-262.402344:eff_
1549531156.932787,cobot_dynamixel_driver/goal|-:J3:-252.402344:eff_
1549531160.036826,cobot_dynamixel_driver/goal|-:J3:-242.402344:eff_
1549531163.140946,cobot_dynamixel_driver/goal|-:J3:-232.402344:eff_
1549531166.244986,cobot_dynamixel_driver/goal|-:J3:-222.402344:eff_
1549531169.349226,cobot_dynamixel_driver/goal|-:J3:-212.402344:eff_
1549531172.454227,cobot_dynamixel_driver/goal|-:J3:-202.402344:eff_
1549531175.533316,cobot_dynamixel_driver/goal|-:J3:-192.402344:eff_
1549531178.637543,cobot_dynamixel_driver/goal|-:J3:-182.402344:eff_
1549531181.742655,cobot_dynamixel_driver/goal|-:J3:-172.402344:eff_
1549531184.847851,cobot_dynamixel_driver/goal|-:J3:0.000000:eff_
1549531184.955795,cobot_dynamixel_driver/goal|-:J1,J2,J3,J4,J5,J6:0.000000,0.000000,0.436332,0.000000,0.000000,0.000000:0.250000,0.250000,0.250000,0.250000,0.250000,0.250000:pos_vel_
1549531187.368070,cobot_dynamixel_driver/goal|-:J3:0.000000:eff_
1549531187.459019,cobot_dynamixel_driver/goal|-:J1,J2,J3,J4,J5,J6:0.000000,0.000000,0.349066,0.000000,0.000000,0.000000:0.250000,0.250000,0.250000,0.250000,0.250000,0.250000:pos_vel_
1549531198.778881,cobot_dynamixel_driver/goal|-:J3:-756.467699:eff_
1549531201.892791,cobot_dynamixel_driver/goal|-:J3:-766.467699:eff_
1549531204.997037,cobot_dynamixel_driver/goal|-:J3:-776.467699:eff_
1549531208.102165,cobot_dynamixel_driver/goal|-:J3:-786.467699:eff_
1549531211.179377,cobot_dynamixel_driver/goal|-:J3:-796.467699:eff_
1549531214.283548,cobot_dynamixel_driver/goal|-:J3:-806.467699:eff_
1549531217.388630,cobot_dynamixel_driver/goal|-:J3:-816.467699:eff_
1549531220.492814,cobot_dynamixel_driver/goal|-:J3:-826.467699:eff_
1549531223.596915,cobot_dynamixel_driver/goal|-:J3:-836.467699:eff_
1549531226.702069,cobot_dynamixel_driver/goal|-:J3:-846.467699:eff_
1549531229.807226,cobot_dynamixel_driver/goal|-:J3:-856.467699:eff_
1549531232.884380,cobot_dynamixel_driver/goal|-:J3:-866.467699:eff_
1549531235.988492,cobot_dynamixel_driver/goal|-:J3:-876.467699:eff_
1549531239.092591,cobot_dynamixel_driver/goal|-:J3:-886.467699:eff_
1549531242.197784,cobot_dynamixel_driver/goal|-:J3:0.000000:eff_
1549531242.306796,cobot_dynamixel_driver/goal|-:J1,J2,J3,J4,J5,J6:0.000000,0.000000,0.349066,0.000000,0.000000,0.000000:0.250000,0.250000,0.250000,0.250000,0.250000,0.250000:pos_vel_
1549531245.123975,cobot_dynamixel_driver/goal|-:J3:0.000000:eff_
1549531245.214875,cobot_dynamixel_driver/goal|-:J1,J2,J3,J4,J5,J6:0.000000,0.000000,0.349066,0.000000,0.000000,0.000000:0.250000,0.250000,0.250000,0.250000,0.250000,0.250000:pos_vel_
1549531255.942188,cobot_dynamixel_driver/goal|-:J3:-441.074219:eff_
1549531259.055951,cobot_dynamixel_driver/goal|-:J3:-431.074219:eff_
1549531262.134969,cobot_dynamixel_driver/goal|-:J3:-421.074219:eff_
1549531265.239161,cobot_dynamixel_driver/goal|-:J3:-411.074219:eff_
1549531268.343407,cobot_dynamixel_driver/goal|-:J3:-401.074219:eff_
1549531271.448449,cobot_dynamixel_driver/goal|-:J3:-391.074219:eff_
1549531274.553546,cobot_dynamixel_driver/goal|-:J3:-381.074219:eff_
1549531277.657705,cobot_dynamixel_driver/goal|-:J3:-371.074219:eff_
1549531280.761863,cobot_dynamixel_driver/goal|-:J3:-361.074219:eff_
1549531283.865952,cobot_dynamixel_driver/goal|-:J3:-351.074219:eff_
1549531286.943143,cobot_dynamixel_driver/goal|-:J3:-341.074219:eff_
1549531290.047309,cobot_dynamixel_driver/goal|-:J3:-331.074219:eff_
1549531293.151410,cobot_dynamixel_driver/goal|-:J3:-321.074219:eff_
1549531296.256509,cobot_dynamixel_driver/goal|-:J3:-311.074219:eff_
1549531299.360691,cobot_dynamixel_driver/goal|-:J3:-301.074219:eff_
1549531302.464871,cobot_dynamixel_driver/goal|-:J3:-291.074219:eff_
1549531305.569911,cobot_dynamixel_driver/goal|-:J3:-281.074219:eff_
1549531308.649118,cobot_dynamixel_driver/goal|-:J3:-271.074219:eff_
1549531311.753254,cobot_dynamixel_driver/goal|-:J3:-261.074219:eff_
1549531314.858779,cobot_dynamixel_driver/goal|-:J3:-251.074219:eff_
1549531317.962647,cobot_dynamixel_driver/goal|-:J3:-241.074219:eff_
1549531321.066585,cobot_dynamixel_driver/goal|-:J3:-231.074219:eff_
1549531324.170724,cobot_dynamixel_driver/goal|-:J3:-221.074219:eff_
1549531327.275827,cobot_dynamixel_driver/goal|-:J3:-211.074219:eff_
1549531331.378587,cobot_dynamixel_driver/goal|-:J3:0.000000:eff_
1549531331.460042,cobot_dynamixel_driver/goal|-:J1,J2,J3,J4,J5,J6:0.000000,0.000000,0.349066,0.000000,0.000000,0.000000:0.250000,0.250000,0.250000,0.250000,0.250000,0.250000:pos_vel_
1549531331.982508,cobot_dynamixel_driver/goal|-:J3:-201.074219:eff_
1549531335.070611,cobot_dynamixel_driver/goal|-:J3:-191.074219:eff_
1549531338.174800,cobot_dynamixel_driver/goal|-:J3:-181.074219:eff_
1549531341.279874,cobot_dynamixel_driver/goal|-:J3:-171.074219:eff_
1549531344.385052,cobot_dynamixel_driver/goal|-:J3:0.000000:eff_
1549531344.465880,cobot_dynamixel_driver/goal|-:J1,J2,J3,J4,J5,J6:0.000000,0.000000,0.349066,0.000000,0.000000,0.000000:0.250000,0.250000,0.250000,0.250000,0.250000,0.250000:pos_vel_
1549531346.393507,cobot_dynamixel_driver/goal|-:J3:0.000000:eff_
1549531346.484402,cobot_dynamixel_driver/goal|-:J1,J2,J3,J4,J5,J6:0.000000,0.000000,0.261799,0.000000,0.000000,0.000000:0.250000,0.250000,0.250000,0.250000,0.250000,0.250000:pos_vel_
1549531357.509300,cobot_dynamixel_driver/goal|-:J3:-441.054233:eff_
1549531360.623389,cobot_dynamixel_driver/goal|-:J3:-451.054233:eff_
1549531363.727655,cobot_dynamixel_driver/goal|-:J3:-461.054233:eff_
1549531366.831752,cobot_dynamixel_driver/goal|-:J3:-471.054233:eff_
1549531369.908791,cobot_dynamixel_driver/goal|-:J3:-481.054233:eff_
1549531373.013944,cobot_dynamixel_driver/goal|-:J3:-491.054233:eff_
1549531376.118105,cobot_dynamixel_driver/goal|-:J3:-501.054233:eff_
1549531379.222191,cobot_dynamixel_driver/goal|-:J3:-511.054233:eff_
1549531382.327275,cobot_dynamixel_driver/goal|-:J3:-521.054233:eff_
1549531385.433345,cobot_dynamixel_driver/goal|-:J3:-531.054233:eff_
1549531388.537792,cobot_dynamixel_driver/goal|-:J3:-541.054233:eff_
1549531391.614742,cobot_dynamixel_driver/goal|-:J3:-551.054233:eff_
1549531394.718872,cobot_dynamixel_driver/goal|-:J3:-561.054233:eff_
1549531397.824113,cobot_dynamixel_driver/goal|-:J3:-571.054233:eff_
1549531400.928209,cobot_dynamixel_driver/goal|-:J3:-581.054233:eff_
1549531404.033280,cobot_dynamixel_driver/goal|-:J3:-591.054233:eff_
1549531407.139524,cobot_dynamixel_driver/goal|-:J3:-601.054233:eff_
1549531410.244597,cobot_dynamixel_driver/goal|-:J3:-611.054233:eff_
1549531413.321637,cobot_dynamixel_driver/goal|-:J3:-621.054233:eff_
1549531416.426901,cobot_dynamixel_driver/goal|-:J3:-631.054233:eff_
1549531419.531997,cobot_dynamixel_driver/goal|-:J3:-641.054233:eff_
1549531422.637184,cobot_dynamixel_driver/goal|-:J3:-651.054233:eff_
1549531425.742646,cobot_dynamixel_driver/goal|-:J3:-661.054233:eff_
1549531428.846546,cobot_dynamixel_driver/goal|-:J3:-671.054233:eff_
1549531431.950642,cobot_dynamixel_driver/goal|-:J3:-681.054233:eff_
1549531435.028824,cobot_dynamixel_driver/goal|-:J3:-691.054233:eff_
1549531438.133030,cobot_dynamixel_driver/goal|-:J3:-701.054233:eff_
1549531441.237123,cobot_dynamixel_driver/goal|-:J3:-711.054233:eff_
1549531444.343554,cobot_dynamixel_driver/goal|-:J3:-721.054233:eff_
1549531447.447298,cobot_dynamixel_driver/goal|-:J3:-731.054233:eff_
1549531450.551457,cobot_dynamixel_driver/goal|-:J3:-741.054233:eff_
1549531453.656552,cobot_dynamixel_driver/goal|-:J3:-751.054233:eff_
1549531456.760748,cobot_dynamixel_driver/goal|-:J3:-761.054233:eff_
1549531459.838978,cobot_dynamixel_driver/goal|-:J3:-771.054233:eff_
1549531462.943069,cobot_dynamixel_driver/goal|-:J3:-781.054233:eff_
1549531466.047265,cobot_dynamixel_driver/goal|-:J3:-791.054233:eff_
1549531469.151435,cobot_dynamixel_driver/goal|-:J3:-801.054233:eff_
1549531472.256565,cobot_dynamixel_driver/goal|-:J3:-811.054233:eff_
1549531475.360728,cobot_dynamixel_driver/goal|-:J3:-821.054233:eff_
1549531478.464856,cobot_dynamixel_driver/goal|-:J3:-831.054233:eff_
1549531481.569083,cobot_dynamixel_driver/goal|-:J3:-841.054233:eff_
1549531484.647175,cobot_dynamixel_driver/goal|-:J3:-851.054233:eff_
1549531487.752363,cobot_dynamixel_driver/goal|-:J3:-861.054233:eff_
1549531490.857447,cobot_dynamixel_driver/goal|-:J3:-871.054233:eff_
1549531493.961720,cobot_dynamixel_driver/goal|-:J3:-881.054233:eff_
1549531497.065862,cobot_dynamixel_driver/goal|-:J3:-891.054233:eff_
1549531500.169978,cobot_dynamixel_driver/goal|-:J3:-901.054233:eff_
1549531503.274087,cobot_dynamixel_driver/goal|-:J3:-911.054233:eff_
1549531506.351197,cobot_dynamixel_driver/goal|-:J3:-921.054233:eff_
1549531509.455323,cobot_dynamixel_driver/goal|-:J3:-931.054233:eff_
1549531512.559405,cobot_dynamixel_driver/goal|-:J3:-941.054233:eff_
1549531515.663630,cobot_dynamixel_driver/goal|-:J3:0.000000:eff_
1549531515.771606,cobot_dynamixel_driver/goal|-:J1,J2,J3,J4,J5,J6:0.000000,0.000000,0.261799,0.000000,0.000000,0.000000:0.250000,0.250000,0.250000,0.250000,0.250000,0.250000:pos_vel_
1549531518.970737,cobot_dynamixel_driver/goal|-:J3:0.000000:eff_
1549531519.088917,cobot_dynamixel_driver/goal|-:J1,J2,J3,J4,J5,J6:0.000000,0.000000,0.261799,0.000000,0.000000,0.000000:0.250000,0.250000,0.250000,0.250000,0.250000,0.250000:pos_vel_
1549531529.895674,cobot_dynamixel_driver/goal|-:J3:-819.682617:eff_
1549531533.010782,cobot_dynamixel_driver/goal|-:J3:-809.682617:eff_
1549531536.087851,cobot_dynamixel_driver/goal|-:J3:-799.682617:eff_
1549531539.192067,cobot_dynamixel_driver/goal|-:J3:-789.682617:eff_
1549531542.296121,cobot_dynamixel_driver/goal|-:J3:-779.682617:eff_
1549531545.401147,cobot_dynamixel_driver/goal|-:J3:-769.682617:eff_
1549531548.505291,cobot_dynamixel_driver/goal|-:J3:-759.682617:eff_
1549531551.609572,cobot_dynamixel_driver/goal|-:J3:-749.682617:eff_
1549531554.713543,cobot_dynamixel_driver/goal|-:J3:-739.682617:eff_
1549531557.817720,cobot_dynamixel_driver/goal|-:J3:-729.682617:eff_
1549531560.894930,cobot_dynamixel_driver/goal|-:J3:-719.682617:eff_
1549531563.999101,cobot_dynamixel_driver/goal|-:J3:-709.682617:eff_
1549531567.103116,cobot_dynamixel_driver/goal|-:J3:-699.682617:eff_
1549531570.207242,cobot_dynamixel_driver/goal|-:J3:-689.682617:eff_
1549531573.312493,cobot_dynamixel_driver/goal|-:J3:-679.682617:eff_
1549531576.416585,cobot_dynamixel_driver/goal|-:J3:-669.682617:eff_
1549531579.523734,cobot_dynamixel_driver/goal|-:J3:-659.682617:eff_
1549531582.628093,cobot_dynamixel_driver/goal|-:J3:-649.682617:eff_
1549531585.705915,cobot_dynamixel_driver/goal|-:J3:-639.682617:eff_
1549531588.810089,cobot_dynamixel_driver/goal|-:J3:-629.682617:eff_
1549531591.914284,cobot_dynamixel_driver/goal|-:J3:-619.682617:eff_
1549531595.019555,cobot_dynamixel_driver/goal|-:J3:-609.682617:eff_
1549531598.109601,cobot_dynamixel_driver/goal|-:J3:-599.682617:eff_
1549531601.214799,cobot_dynamixel_driver/goal|-:J3:-589.682617:eff_
1549531604.318899,cobot_dynamixel_driver/goal|-:J3:-579.682617:eff_
1549531607.423063,cobot_dynamixel_driver/goal|-:J3:-569.682617:eff_
1549531610.527438,cobot_dynamixel_driver/goal|-:J3:-559.682617:eff_
1549531613.631886,cobot_dynamixel_driver/goal|-:J3:-549.682617:eff_
1549531616.736340,cobot_dynamixel_driver/goal|-:J3:-539.682617:eff_
1549531619.813824,cobot_dynamixel_driver/goal|-:J3:-529.682617:eff_
1549531622.919194,cobot_dynamixel_driver/goal|-:J3:-519.682617:eff_
1549531626.024679,cobot_dynamixel_driver/goal|-:J3:-509.682617:eff_
1549531629.129229,cobot_dynamixel_driver/goal|-:J3:-499.682617:eff_
1549531632.233688,cobot_dynamixel_driver/goal|-:J3:-489.682617:eff_
1549531635.340158,cobot_dynamixel_driver/goal|-:J3:-479.682617:eff_
1549531638.445725,cobot_dynamixel_driver/goal|-:J3:-469.682617:eff_
1549531641.522974,cobot_dynamixel_driver/goal|-:J3:-459.682617:eff_
1549531644.627481,cobot_dynamixel_driver/goal|-:J3:-449.682617:eff_
1549531647.731830,cobot_dynamixel_driver/goal|-:J3:-439.682617:eff_
1549531650.836229,cobot_dynamixel_driver/goal|-:J3:-429.682617:eff_
1549531653.941694,cobot_dynamixel_driver/goal|-:J3:-419.682617:eff_
1549531657.046149,cobot_dynamixel_driver/goal|-:J3:-409.682617:eff_
1549531660.151618,cobot_dynamixel_driver/goal|-:J3:-399.682617:eff_
1549531663.228908,cobot_dynamixel_driver/goal|-:J3:-389.682617:eff_
1549531666.334339,cobot_dynamixel_driver/goal|-:J3:-379.682617:eff_
1549531669.439732,cobot_dynamixel_driver/goal|-:J3:-369.682617:eff_
1549531672.544098,cobot_dynamixel_driver/goal|-:J3:-359.682617:eff_
1549531675.648551,cobot_dynamixel_driver/goal|-:J3:-349.682617:eff_
1549531678.753096,cobot_dynamixel_driver/goal|-:J3:-339.682617:eff_
1549531681.857496,cobot_dynamixel_driver/goal|-:J3:-329.682617:eff_
1549531684.935829,cobot_dynamixel_driver/goal|-:J3:-319.682617:eff_
1549531688.041276,cobot_dynamixel_driver/goal|-:J3:-309.682617:eff_
1549531691.145700,cobot_dynamixel_driver/goal|-:J3:-299.682617:eff_
1549531694.250061,cobot_dynamixel_driver/goal|-:J3:-289.682617:eff_
1549531697.354482,cobot_dynamixel_driver/goal|-:J3:-279.682617:eff_
1549531700.459079,cobot_dynamixel_driver/goal|-:J3:-269.682617:eff_
1549531703.563422,cobot_dynamixel_driver/goal|-:J3:-259.682617:eff_
1549531706.668008,cobot_dynamixel_driver/goal|-:J3:-249.682617:eff_
1549531709.745244,cobot_dynamixel_driver/goal|-:J3:-239.682617:eff_
1549531712.849736,cobot_dynamixel_driver/goal|-:J3:-229.682617:eff_
1549531715.954192,cobot_dynamixel_driver/goal|-:J3:-219.682617:eff_
1549531719.058546,cobot_dynamixel_driver/goal|-:J3:-209.682617:eff_
1549531722.163124,cobot_dynamixel_driver/goal|-:J3:-199.682617:eff_
1549531725.267374,cobot_dynamixel_driver/goal|-:J3:-189.682617:eff_
1549531728.372701,cobot_dynamixel_driver/goal|-:J3:-179.682617:eff_
1549531731.450144,cobot_dynamixel_driver/goal|-:J3:-169.682617:eff_
1549531734.554654,cobot_dynamixel_driver/goal|-:J3:0.000000:eff_
1549531734.662608,cobot_dynamixel_driver/goal|-:J1,J2,J3,J4,J5,J6:0.000000,0.000000,0.261799,0.000000,0.000000,0.000000:0.250000,0.250000,0.250000,0.250000,0.250000,0.250000:pos_vel_
1549531737.668985,cobot_dynamixel_driver/goal|-:J3:0.000000:eff_
1549531737.760029,cobot_dynamixel_driver/goal|-:J1,J2,J3,J4,J5,J6:0.000000,0.000000,0.174533,0.000000,0.000000,0.000000:0.250000,0.250000,0.250000,0.250000,0.250000,0.250000:pos_vel_
1549531748.892046,cobot_dynamixel_driver/goal|-:J3:-635.537791:eff_
1549531752.006333,cobot_dynamixel_driver/goal|-:J3:-645.537791:eff_
1549531755.083818,cobot_dynamixel_driver/goal|-:J3:-655.537791:eff_
1549531758.188265,cobot_dynamixel_driver/goal|-:J3:-665.537791:eff_
1549531761.293603,cobot_dynamixel_driver/goal|-:J3:-675.537791:eff_
1549531764.398079,cobot_dynamixel_driver/goal|-:J3:-685.537791:eff_
1549531767.502419,cobot_dynamixel_driver/goal|-:J3:-695.537791:eff_
1549531770.607068,cobot_dynamixel_driver/goal|-:J3:-705.537791:eff_
1549531773.711271,cobot_dynamixel_driver/goal|-:J3:-715.537791:eff_
1549531776.788584,cobot_dynamixel_driver/goal|-:J3:-725.537791:eff_
1549531779.892970,cobot_dynamixel_driver/goal|-:J3:-735.537791:eff_
1549531782.997300,cobot_dynamixel_driver/goal|-:J3:-745.537791:eff_
1549531786.101770,cobot_dynamixel_driver/goal|-:J3:-755.537791:eff_
1549531789.205988,cobot_dynamixel_driver/goal|-:J3:-765.537791:eff_
1549531792.310381,cobot_dynamixel_driver/goal|-:J3:-775.537791:eff_
1549531795.414811,cobot_dynamixel_driver/goal|-:J3:-785.537791:eff_
1549531798.519104,cobot_dynamixel_driver/goal|-:J3:-795.537791:eff_
1549531801.623596,cobot_dynamixel_driver/goal|-:J3:-805.537791:eff_
1549531804.702012,cobot_dynamixel_driver/goal|-:J3:-815.537791:eff_
1549531807.807246,cobot_dynamixel_driver/goal|-:J3:-825.537791:eff_
1549531810.911641,cobot_dynamixel_driver/goal|-:J3:-835.537791:eff_
1549531814.016129,cobot_dynamixel_driver/goal|-:J3:-845.537791:eff_
1549531817.120245,cobot_dynamixel_driver/goal|-:J3:-855.537791:eff_
1549531820.224610,cobot_dynamixel_driver/goal|-:J3:-865.537791:eff_
1549531823.329067,cobot_dynamixel_driver/goal|-:J3:-875.537791:eff_
1549531826.406404,cobot_dynamixel_driver/goal|-:J3:-885.537791:eff_
1549531829.510839,cobot_dynamixel_driver/goal|-:J3:-895.537791:eff_
1549531832.615375,cobot_dynamixel_driver/goal|-:J3:-905.537791:eff_
1549531835.719586,cobot_dynamixel_driver/goal|-:J3:0.000000:eff_
1549531835.827537,cobot_dynamixel_driver/goal|-:J1,J2,J3,J4,J5,J6:0.000000,0.000000,0.174533,0.000000,0.000000,0.000000:0.250000,0.250000,0.250000,0.250000,0.250000,0.250000:pos_vel_
1549531838.239993,cobot_dynamixel_driver/goal|-:J3:0.000000:eff_
1549531838.330963,cobot_dynamixel_driver/goal|-:J1,J2,J3,J4,J5,J6:0.000000,0.000000,0.174533,0.000000,0.000000,0.000000:0.250000,0.250000,0.250000,0.250000,0.250000,0.250000:pos_vel_
1549531849.060066,cobot_dynamixel_driver/goal|-:J3:-387.842932:eff_
1549531852.174056,cobot_dynamixel_driver/goal|-:J3:-377.842932:eff_
1549531855.252422,cobot_dynamixel_driver/goal|-:J3:-367.842932:eff_
1549531858.356815,cobot_dynamixel_driver/goal|-:J3:-357.842932:eff_
1549531861.461181,cobot_dynamixel_driver/goal|-:J3:-347.842932:eff_
1549531864.565520,cobot_dynamixel_driver/goal|-:J3:-337.842932:eff_
1549531867.670890,cobot_dynamixel_driver/goal|-:J3:-327.842932:eff_
1549531870.775305,cobot_dynamixel_driver/goal|-:J3:-317.842932:eff_
1549531873.879633,cobot_dynamixel_driver/goal|-:J3:-307.842932:eff_
1549531876.983900,cobot_dynamixel_driver/goal|-:J3:-297.842932:eff_
1549531880.061295,cobot_dynamixel_driver/goal|-:J3:-287.842932:eff_
1549531883.165590,cobot_dynamixel_driver/goal|-:J3:-277.842932:eff_
1549531886.269913,cobot_dynamixel_driver/goal|-:J3:-267.842932:eff_
1549531889.374243,cobot_dynamixel_driver/goal|-:J3:-257.842932:eff_
1549531892.479619,cobot_dynamixel_driver/goal|-:J3:-247.842932:eff_
1549531895.585051,cobot_dynamixel_driver/goal|-:J3:-237.842932:eff_
1549531898.689281,cobot_dynamixel_driver/goal|-:J3:-227.842932:eff_
1549531901.766724,cobot_dynamixel_driver/goal|-:J3:-217.842932:eff_
1549531904.871025,cobot_dynamixel_driver/goal|-:J3:-207.842932:eff_
1549531907.977250,cobot_dynamixel_driver/goal|-:J3:-197.842932:eff_
1549531911.082636,cobot_dynamixel_driver/goal|-:J3:-187.842932:eff_
1549531914.187080,cobot_dynamixel_driver/goal|-:J3:0.000000:eff_
1549531914.295053,cobot_dynamixel_driver/goal|-:J1,J2,J3,J4,J5,J6:0.000000,0.000000,0.174533,0.000000,0.000000,0.000000:0.250000,0.250000,0.250000,0.250000,0.250000,0.250000:pos_vel_
1549531917.194445,cobot_dynamixel_driver/goal|-:J3:0.000000:eff_
1549531917.285366,cobot_dynamixel_driver/goal|-:J1,J2,J3,J4,J5,J6:0.000000,0.000000,0.087266,0.000000,0.000000,0.000000:0.250000,0.250000,0.250000,0.250000,0.250000,0.250000:pos_vel_
1549531928.417875,cobot_dynamixel_driver/goal|-:J3:-834.946338:eff_
1549531931.532099,cobot_dynamixel_driver/goal|-:J3:-844.946338:eff_
1549531934.636598,cobot_dynamixel_driver/goal|-:J3:-854.946338:eff_
1549531937.741810,cobot_dynamixel_driver/goal|-:J3:-864.946338:eff_
1549531940.819154,cobot_dynamixel_driver/goal|-:J3:-874.946338:eff_
1549531943.925513,cobot_dynamixel_driver/goal|-:J3:-884.946338:eff_
1549531947.029732,cobot_dynamixel_driver/goal|-:J3:-894.946338:eff_
1549531950.135125,cobot_dynamixel_driver/goal|-:J3:-904.946338:eff_
1549531953.239471,cobot_dynamixel_driver/goal|-:J3:-914.946338:eff_
1549531956.343653,cobot_dynamixel_driver/goal|-:J3:-924.946338:eff_
1549531959.448189,cobot_dynamixel_driver/goal|-:J3:-934.946338:eff_
1549531962.552453,cobot_dynamixel_driver/goal|-:J3:-944.946338:eff_
1549531965.629630,cobot_dynamixel_driver/goal|-:J3:-954.946338:eff_
1549531968.734055,cobot_dynamixel_driver/goal|-:J3:-964.946338:eff_
1549531971.838453,cobot_dynamixel_driver/goal|-:J3:-974.946338:eff_
1549531974.942713,cobot_dynamixel_driver/goal|-:J3:-984.946338:eff_
1549531978.048007,cobot_dynamixel_driver/goal|-:J3:-994.946338:eff_
1549531981.152442,cobot_dynamixel_driver/goal|-:J3:-1004.946338:eff_
1549531984.257069,cobot_dynamixel_driver/goal|-:J3:-1014.946338:eff_
1549531987.334919,cobot_dynamixel_driver/goal|-:J3:-1024.946338:eff_
1549531990.439243,cobot_dynamixel_driver/goal|-:J3:-1034.946338:eff_
1549531993.543564,cobot_dynamixel_driver/goal|-:J3:0.000000:eff_
1549531993.651511,cobot_dynamixel_driver/goal|-:J1,J2,J3,J4,J5,J6:0.000000,0.000000,0.087266,0.000000,0.000000,0.000000:0.250000,0.250000,0.250000,0.250000,0.250000,0.250000:pos_vel_
1549532001.570763,cobot_dynamixel_driver/goal|-:J3:0.000000:eff_
1549532001.661720,cobot_dynamixel_driver/goal|-:J1,J2,J3,J4,J5,J6:0.000000,0.000000,0.087266,0.000000,0.000000,0.000000:0.250000,0.250000,0.250000,0.250000,0.250000,0.250000:pos_vel_
1549532012.389318,cobot_dynamixel_driver/goal|-:J3:-857.537051:eff_
1549532015.476608,cobot_dynamixel_driver/goal|-:J3:-847.537051:eff_
1549532018.580897,cobot_dynamixel_driver/goal|-:J3:-837.537051:eff_
1549532021.685080,cobot_dynamixel_driver/goal|-:J3:-827.537051:eff_
1549532024.789395,cobot_dynamixel_driver/goal|-:J3:-817.537051:eff_
1549532027.893537,cobot_dynamixel_driver/goal|-:J3:-807.537051:eff_
1549532030.997851,cobot_dynamixel_driver/goal|-:J3:-797.537051:eff_
1549532034.075150,cobot_dynamixel_driver/goal|-:J3:-787.537051:eff_
1549532037.179476,cobot_dynamixel_driver/goal|-:J3:-777.537051:eff_
1549532040.284730,cobot_dynamixel_driver/goal|-:J3:-767.537051:eff_
1549532043.389049,cobot_dynamixel_driver/goal|-:J3:-757.537051:eff_
1549532046.493614,cobot_dynamixel_driver/goal|-:J3:-747.537051:eff_
1549532049.597633,cobot_dynamixel_driver/goal|-:J3:-737.537051:eff_
1549532052.703292,cobot_dynamixel_driver/goal|-:J3:-727.537051:eff_
1549532055.781392,cobot_dynamixel_driver/goal|-:J3:-717.537051:eff_
1549532058.885665,cobot_dynamixel_driver/goal|-:J3:-707.537051:eff_
1549532061.989927,cobot_dynamixel_driver/goal|-:J3:-697.537051:eff_
1549532065.094147,cobot_dynamixel_driver/goal|-:J3:-687.537051:eff_
1549532068.198539,cobot_dynamixel_driver/goal|-:J3:-677.537051:eff_
1549532071.303774,cobot_dynamixel_driver/goal|-:J3:-667.537051:eff_
1549532074.408183,cobot_dynamixel_driver/goal|-:J3:-657.537051:eff_
1549532077.512332,cobot_dynamixel_driver/goal|-:J3:-647.537051:eff_
1549532080.590481,cobot_dynamixel_driver/goal|-:J3:-637.537051:eff_
1549532083.695741,cobot_dynamixel_driver/goal|-:J3:-627.537051:eff_
1549532086.801038,cobot_dynamixel_driver/goal|-:J3:-617.537051:eff_
1549532089.905370,cobot_dynamixel_driver/goal|-:J3:-607.537051:eff_
1549532093.009717,cobot_dynamixel_driver/goal|-:J3:-597.537051:eff_
1549532096.113911,cobot_dynamixel_driver/goal|-:J3:-587.537051:eff_
1549532099.218090,cobot_dynamixel_driver/goal|-:J3:-577.537051:eff_
1549532102.295423,cobot_dynamixel_driver/goal|-:J3:-567.537051:eff_
1549532105.399713,cobot_dynamixel_driver/goal|-:J3:-557.537051:eff_
1549532108.504890,cobot_dynamixel_driver/goal|-:J3:-547.537051:eff_
1549532111.603193,cobot_dynamixel_driver/goal|-:J3:-537.537051:eff_
1549532114.707491,cobot_dynamixel_driver/goal|-:J3:-527.537051:eff_
1549532117.811810,cobot_dynamixel_driver/goal|-:J3:-517.537051:eff_
1549532120.916068,cobot_dynamixel_driver/goal|-:J3:-507.537051:eff_
1549532124.020380,cobot_dynamixel_driver/goal|-:J3:-497.537051:eff_
1549532127.124623,cobot_dynamixel_driver/goal|-:J3:-487.537051:eff_
1549532130.229005,cobot_dynamixel_driver/goal|-:J3:-477.537051:eff_
1549532133.306177,cobot_dynamixel_driver/goal|-:J3:-467.537051:eff_
1549532136.410480,cobot_dynamixel_driver/goal|-:J3:-457.537051:eff_
1549532139.514721,cobot_dynamixel_driver/goal|-:J3:-447.537051:eff_
1549532142.619105,cobot_dynamixel_driver/goal|-:J3:-437.537051:eff_
1549532145.723456,cobot_dynamixel_driver/goal|-:J3:-427.537051:eff_
1549532148.827621,cobot_dynamixel_driver/goal|-:J3:-417.537051:eff_
1549532151.931872,cobot_dynamixel_driver/goal|-:J3:-407.537051:eff_
1549532155.036118,cobot_dynamixel_driver/goal|-:J3:-397.537051:eff_
1549532158.113335,cobot_dynamixel_driver/goal|-:J3:-387.537051:eff_
1549532161.219566,cobot_dynamixel_driver/goal|-:J3:-377.537051:eff_
1549532164.325876,cobot_dynamixel_driver/goal|-:J3:-367.537051:eff_
1549532167.430174,cobot_dynamixel_driver/goal|-:J3:-357.537051:eff_
1549532170.534405,cobot_dynamixel_driver/goal|-:J3:-347.537051:eff_
1549532173.638567,cobot_dynamixel_driver/goal|-:J3:-337.537051:eff_
1549532176.742867,cobot_dynamixel_driver/goal|-:J3:-327.537051:eff_
1549532179.820150,cobot_dynamixel_driver/goal|-:J3:-317.537051:eff_
1549532182.924392,cobot_dynamixel_driver/goal|-:J3:-307.537051:eff_
1549532186.028866,cobot_dynamixel_driver/goal|-:J3:-297.537051:eff_
1549532189.133015,cobot_dynamixel_driver/goal|-:J3:-287.537051:eff_
1549532192.237328,cobot_dynamixel_driver/goal|-:J3:-277.537051:eff_
1549532195.342636,cobot_dynamixel_driver/goal|-:J3:-267.537051:eff_
1549532198.447042,cobot_dynamixel_driver/goal|-:J3:-257.537051:eff_
1549532201.551161,cobot_dynamixel_driver/goal|-:J3:-247.537051:eff_
1549532204.629397,cobot_dynamixel_driver/goal|-:J3:-237.537051:eff_
1549532207.733692,cobot_dynamixel_driver/goal|-:J3:-227.537051:eff_
1549532210.837979,cobot_dynamixel_driver/goal|-:J3:-217.537051:eff_
1549532214.132280,cobot_dynamixel_driver/goal|-:J3:0.000000:eff_
1549532214.213255,cobot_dynamixel_driver/goal|-:J1,J2,J3,J4,J5,J6:0.000000,0.000000,0.087266,0.000000,0.000000,0.000000:0.250000,0.250000,0.250000,0.250000,0.250000,0.250000:pos_vel_
1549532216.221789,cobot_dynamixel_driver/goal|-:J3:0.000000:eff_
1549532216.339685,cobot_dynamixel_driver/goal|-:J1,J2,J3,J4,J5,J6:0.000000,0.000000,0.000000,0.000000,0.000000,0.000000:0.250000,0.250000,0.250000,0.250000,0.250000,0.250000:pos_vel_
1549532227.552086,cobot_dynamixel_driver/goal|-:J3:-499.028320:eff_
1549532230.666254,cobot_dynamixel_driver/goal|-:J3:-509.028320:eff_
1549532233.743559,cobot_dynamixel_driver/goal|-:J3:-519.028320:eff_
1549532236.847831,cobot_dynamixel_driver/goal|-:J3:-529.028320:eff_
1549532239.952030,cobot_dynamixel_driver/goal|-:J3:-539.028320:eff_
1549532243.056268,cobot_dynamixel_driver/goal|-:J3:-549.028320:eff_
1549532246.160510,cobot_dynamixel_driver/goal|-:J3:-559.028320:eff_
1549532249.264833,cobot_dynamixel_driver/goal|-:J3:-569.028320:eff_
1549532252.369176,cobot_dynamixel_driver/goal|-:J3:-579.028320:eff_
1549532255.473265,cobot_dynamixel_driver/goal|-:J3:-589.028320:eff_
1549532258.550520,cobot_dynamixel_driver/goal|-:J3:-599.028320:eff_
1549532261.654818,cobot_dynamixel_driver/goal|-:J3:-609.028320:eff_
1549532264.760055,cobot_dynamixel_driver/goal|-:J3:-619.028320:eff_
1549532267.864329,cobot_dynamixel_driver/goal|-:J3:-629.028320:eff_
1549532270.968645,cobot_dynamixel_driver/goal|-:J3:-639.028320:eff_
1549532274.072871,cobot_dynamixel_driver/goal|-:J3:-649.028320:eff_
1549532277.177153,cobot_dynamixel_driver/goal|-:J3:-659.028320:eff_
1549532280.281407,cobot_dynamixel_driver/goal|-:J3:-669.028320:eff_
1549532283.358665,cobot_dynamixel_driver/goal|-:J3:-679.028320:eff_
1549532286.463142,cobot_dynamixel_driver/goal|-:J3:-689.028320:eff_
1549532289.567149,cobot_dynamixel_driver/goal|-:J3:-699.028320:eff_
1549532292.671343,cobot_dynamixel_driver/goal|-:J3:-709.028320:eff_
1549532295.775622,cobot_dynamixel_driver/goal|-:J3:-719.028320:eff_
1549532298.879847,cobot_dynamixel_driver/goal|-:J3:-729.028320:eff_
1549532301.984010,cobot_dynamixel_driver/goal|-:J3:-739.028320:eff_
1549532305.088244,cobot_dynamixel_driver/goal|-:J3:-749.028320:eff_
1549532308.165514,cobot_dynamixel_driver/goal|-:J3:-759.028320:eff_
1549532311.269891,cobot_dynamixel_driver/goal|-:J3:-769.028320:eff_
1549532314.374104,cobot_dynamixel_driver/goal|-:J3:-779.028320:eff_
1549532317.478486,cobot_dynamixel_driver/goal|-:J3:-789.028320:eff_
1549532320.582552,cobot_dynamixel_driver/goal|-:J3:-799.028320:eff_
1549532323.686878,cobot_dynamixel_driver/goal|-:J3:-809.028320:eff_
1549532326.791070,cobot_dynamixel_driver/goal|-:J3:-819.028320:eff_
1549532329.895288,cobot_dynamixel_driver/goal|-:J3:-829.028320:eff_
1549532332.972549,cobot_dynamixel_driver/goal|-:J3:-839.028320:eff_
1549532336.076787,cobot_dynamixel_driver/goal|-:J3:-849.028320:eff_
1549532339.181045,cobot_dynamixel_driver/goal|-:J3:-859.028320:eff_
1549532342.285229,cobot_dynamixel_driver/goal|-:J3:-869.028320:eff_
1549532345.389610,cobot_dynamixel_driver/goal|-:J3:-879.028320:eff_
1549532348.493746,cobot_dynamixel_driver/goal|-:J3:-889.028320:eff_
1549532351.598042,cobot_dynamixel_driver/goal|-:J3:-899.028320:eff_
1549532354.702252,cobot_dynamixel_driver/goal|-:J3:-909.028320:eff_
1549532357.806608,cobot_dynamixel_driver/goal|-:J3:-919.028320:eff_
1549532360.883718,cobot_dynamixel_driver/goal|-:J3:-929.028320:eff_
1549532363.987987,cobot_dynamixel_driver/goal|-:J3:-939.028320:eff_
1549532367.092215,cobot_dynamixel_driver/goal|-:J3:-949.028320:eff_
1549532370.196487,cobot_dynamixel_driver/goal|-:J3:0.000000:eff_
1549532370.304424,cobot_dynamixel_driver/goal|-:J1,J2,J3,J4,J5,J6:0.000000,0.000000,0.000000,0.000000,0.000000,0.000000:0.250000,0.250000,0.250000,0.250000,0.250000,0.250000:pos_vel_
1549532373.013760,cobot_dynamixel_driver/goal|-:J3:0.000000:eff_
1549532373.104692,cobot_dynamixel_driver/goal|-:J1,J2,J3,J4,J5,J6:0.000000,0.000000,0.000000,0.000000,0.000000,0.000000:0.250000,0.250000,0.250000,0.250000,0.250000,0.250000:pos_vel_
1549532383.831030,cobot_dynamixel_driver/goal|-:J3:-387.896465:eff_
1549532386.918263,cobot_dynamixel_driver/goal|-:J3:-377.896465:eff_
1549532390.022518,cobot_dynamixel_driver/goal|-:J3:-367.896465:eff_
1549532393.126770,cobot_dynamixel_driver/goal|-:J3:-357.896465:eff_
1549532396.230922,cobot_dynamixel_driver/goal|-:J3:-347.896465:eff_
1549532399.335251,cobot_dynamixel_driver/goal|-:J3:-337.896465:eff_
1549532402.439482,cobot_dynamixel_driver/goal|-:J3:-327.896465:eff_
1549532405.543840,cobot_dynamixel_driver/goal|-:J3:-317.896465:eff_
1549532408.648012,cobot_dynamixel_driver/goal|-:J3:-307.896465:eff_
1549532411.725330,cobot_dynamixel_driver/goal|-:J3:-297.896465:eff_
1549532414.829488,cobot_dynamixel_driver/goal|-:J3:-287.896465:eff_
1549532417.933632,cobot_dynamixel_driver/goal|-:J3:-277.896465:eff_
1549532421.037970,cobot_dynamixel_driver/goal|-:J3:-267.896465:eff_
1549532424.142075,cobot_dynamixel_driver/goal|-:J3:-257.896465:eff_
1549532427.246431,cobot_dynamixel_driver/goal|-:J3:-247.896465:eff_
1549532430.350615,cobot_dynamixel_driver/goal|-:J3:-237.896465:eff_
1549532433.454900,cobot_dynamixel_driver/goal|-:J3:-227.896465:eff_
1549532436.532122,cobot_dynamixel_driver/goal|-:J3:-217.896465:eff_
1549532439.636342,cobot_dynamixel_driver/goal|-:J3:0.000000:eff_
1549532439.744296,cobot_dynamixel_driver/goal|-:J1,J2,J3,J4,J5,J6:0.000000,0.000000,0.000000,0.000000,0.000000,0.000000:0.250000,0.250000,0.250000,0.250000,0.250000,0.250000:pos_vel_
1549532442.075670,cobot_dynamixel_driver/goal|-:J3:0.000000:eff_
1549532442.166568,cobot_dynamixel_driver/goal|-:J1,J2,J3,J4,J5,J6:0.000000,0.000000,-0.087266,0.000000,0.000000,0.000000:0.250000,0.250000,0.250000,0.250000,0.250000,0.250000:pos_vel_
1549532453.378785,cobot_dynamixel_driver/goal|-:J3:-294.107532:eff_
1549532456.492964,cobot_dynamixel_driver/goal|-:J3:-304.107532:eff_
1549532459.598158,cobot_dynamixel_driver/goal|-:J3:-314.107532:eff_
1549532462.702492,cobot_dynamixel_driver/goal|-:J3:-324.107532:eff_
1549532465.806842,cobot_dynamixel_driver/goal|-:J3:-334.107532:eff_
1549532468.911925,cobot_dynamixel_driver/goal|-:J3:-344.107532:eff_
1549532471.989049,cobot_dynamixel_driver/goal|-:J3:-354.107532:eff_
1549532475.093294,cobot_dynamixel_driver/goal|-:J3:-364.107532:eff_
1549532478.197573,cobot_dynamixel_driver/goal|-:J3:-374.107532:eff_
1549532481.301907,cobot_dynamixel_driver/goal|-:J3:-384.107532:eff_
1549532484.406219,cobot_dynamixel_driver/goal|-:J3:-394.107532:eff_
1549532487.510279,cobot_dynamixel_driver/goal|-:J3:-404.107532:eff_
1549532490.614516,cobot_dynamixel_driver/goal|-:J3:-414.107532:eff_
1549532493.719655,cobot_dynamixel_driver/goal|-:J3:-424.107532:eff_
1549532496.796990,cobot_dynamixel_driver/goal|-:J3:-434.107532:eff_
1549532499.902145,cobot_dynamixel_driver/goal|-:J3:-444.107532:eff_
1549532503.006383,cobot_dynamixel_driver/goal|-:J3:-454.107532:eff_
1549532506.110544,cobot_dynamixel_driver/goal|-:J3:-464.107532:eff_
1549532509.214733,cobot_dynamixel_driver/goal|-:J3:-474.107532:eff_
1549532512.318992,cobot_dynamixel_driver/goal|-:J3:-484.107532:eff_
1549532515.423297,cobot_dynamixel_driver/goal|-:J3:-494.107532:eff_
1549532518.527471,cobot_dynamixel_driver/goal|-:J3:-504.107532:eff_
1549532521.604729,cobot_dynamixel_driver/goal|-:J3:-514.107532:eff_
1549532524.708884,cobot_dynamixel_driver/goal|-:J3:-524.107532:eff_
1549532527.813087,cobot_dynamixel_driver/goal|-:J3:-534.107532:eff_
1549532530.918338,cobot_dynamixel_driver/goal|-:J3:-544.107532:eff_
1549532534.022619,cobot_dynamixel_driver/goal|-:J3:-554.107532:eff_
1549532537.126970,cobot_dynamixel_driver/goal|-:J3:-564.107532:eff_
1549532540.231225,cobot_dynamixel_driver/goal|-:J3:-574.107532:eff_
1549532543.335397,cobot_dynamixel_driver/goal|-:J3:-584.107532:eff_
1549532546.412596,cobot_dynamixel_driver/goal|-:J3:-594.107532:eff_
1549532549.516772,cobot_dynamixel_driver/goal|-:J3:-604.107532:eff_
1549532552.620950,cobot_dynamixel_driver/goal|-:J3:-614.107532:eff_
1549532555.726117,cobot_dynamixel_driver/goal|-:J3:-624.107532:eff_
1549532558.830280,cobot_dynamixel_driver/goal|-:J3:-634.107532:eff_
1549532561.935535,cobot_dynamixel_driver/goal|-:J3:-644.107532:eff_
1549532565.041820,cobot_dynamixel_driver/goal|-:J3:-654.107532:eff_
1549532568.119126,cobot_dynamixel_driver/goal|-:J3:-664.107532:eff_
1549532571.223396,cobot_dynamixel_driver/goal|-:J3:-674.107532:eff_
1549532574.327646,cobot_dynamixel_driver/goal|-:J3:-684.107532:eff_
1549532577.431770,cobot_dynamixel_driver/goal|-:J3:-694.107532:eff_
1549532580.536072,cobot_dynamixel_driver/goal|-:J3:-704.107532:eff_
1549532583.640255,cobot_dynamixel_driver/goal|-:J3:-714.107532:eff_
1549532586.744515,cobot_dynamixel_driver/goal|-:J3:-724.107532:eff_
1549532589.848744,cobot_dynamixel_driver/goal|-:J3:-734.107532:eff_
1549532592.926049,cobot_dynamixel_driver/goal|-:J3:-744.107532:eff_
1549532596.031189,cobot_dynamixel_driver/goal|-:J3:-754.107532:eff_
1549532599.135535,cobot_dynamixel_driver/goal|-:J3:-764.107532:eff_
1549532602.239604,cobot_dynamixel_driver/goal|-:J3:-774.107532:eff_
1549532605.344746,cobot_dynamixel_driver/goal|-:J3:-784.107532:eff_
1549532608.449147,cobot_dynamixel_driver/goal|-:J3:-794.107532:eff_
1549532611.554173,cobot_dynamixel_driver/goal|-:J3:-804.107532:eff_
1549532614.658473,cobot_dynamixel_driver/goal|-:J3:-814.107532:eff_
1549532617.735643,cobot_dynamixel_driver/goal|-:J3:-824.107532:eff_
1549532620.839832,cobot_dynamixel_driver/goal|-:J3:-834.107532:eff_
1549532623.944149,cobot_dynamixel_driver/goal|-:J3:-844.107532:eff_
1549532627.048318,cobot_dynamixel_driver/goal|-:J3:-854.107532:eff_
1549532630.152547,cobot_dynamixel_driver/goal|-:J3:-864.107532:eff_
1549532633.256725,cobot_dynamixel_driver/goal|-:J3:-874.107532:eff_
1549532636.360910,cobot_dynamixel_driver/goal|-:J3:-884.107532:eff_
1549532639.465133,cobot_dynamixel_driver/goal|-:J3:-894.107532:eff_
1549532642.542346,cobot_dynamixel_driver/goal|-:J3:-904.107532:eff_
1549532645.646428,cobot_dynamixel_driver/goal|-:J3:-914.107532:eff_
1549532648.750641,cobot_dynamixel_driver/goal|-:J3:-924.107532:eff_
1549532651.854928,cobot_dynamixel_driver/goal|-:J3:-934.107532:eff_
1549532654.958992,cobot_dynamixel_driver/goal|-:J3:-944.107532:eff_
1549532658.063155,cobot_dynamixel_driver/goal|-:J3:-954.107532:eff_
1549532661.167475,cobot_dynamixel_driver/goal|-:J3:-964.107532:eff_
1549532664.271679,cobot_dynamixel_driver/goal|-:J3:-974.107532:eff_
1549532667.349941,cobot_dynamixel_driver/goal|-:J3:-984.107532:eff_
1549532670.454153,cobot_dynamixel_driver/goal|-:J3:-994.107532:eff_
1549532673.558333,cobot_dynamixel_driver/goal|-:J3:-1004.107532:eff_
1549532676.662524,cobot_dynamixel_driver/goal|-:J3:-1014.107532:eff_
1549532679.766831,cobot_dynamixel_driver/goal|-:J3:-1024.107532:eff_
1549532682.870992,cobot_dynamixel_driver/goal|-:J3:-1034.107532:eff_
1549532685.975187,cobot_dynamixel_driver/goal|-:J3:-1044.107532:eff_
1549532689.079384,cobot_dynamixel_driver/goal|-:J3:-1054.107532:eff_
1549532692.156511,cobot_dynamixel_driver/goal|-:J3:-1064.107532:eff_
1549532695.260750,cobot_dynamixel_driver/goal|-:J3:-1074.107532:eff_
1549532698.364913,cobot_dynamixel_driver/goal|-:J3:-1084.107532:eff_
1549532701.469213,cobot_dynamixel_driver/goal|-:J3:-1094.107532:eff_
1549532704.573364,cobot_dynamixel_driver/goal|-:J3:-1104.107532:eff_
1549532707.677708,cobot_dynamixel_driver/goal|-:J3:-1114.107532:eff_
1549532710.781888,cobot_dynamixel_driver/goal|-:J3:-1124.107532:eff_
1549532713.886173,cobot_dynamixel_driver/goal|-:J3:-1134.107532:eff_
1549532716.963232,cobot_dynamixel_driver/goal|-:J3:0.000000:eff_
1549532717.071207,cobot_dynamixel_driver/goal|-:J1,J2,J3,J4,J5,J6:0.000000,0.000000,-0.087266,0.000000,0.000000,0.000000:0.250000,0.250000,0.250000,0.250000,0.250000,0.250000:pos_vel_
1549532723.721448,cobot_dynamixel_driver/goal|-:J3:0.000000:eff_
1549532723.812520,cobot_dynamixel_driver/goal|-:J1,J2,J3,J4,J5,J6:0.000000,0.000000,-0.087266,0.000000,0.000000,0.000000:0.250000,0.250000,0.250000,0.250000,0.250000,0.250000:pos_vel_
1549532734.430736,cobot_dynamixel_driver/goal|-:J3:-523.654874:eff_
1549532737.544849,cobot_dynamixel_driver/goal|-:J3:-513.654874:eff_
1549532740.649050,cobot_dynamixel_driver/goal|-:J3:-503.654874:eff_
1549532743.754254,cobot_dynamixel_driver/goal|-:J3:-493.654874:eff_
1549532746.831486,cobot_dynamixel_driver/goal|-:J3:-483.654874:eff_
1549532749.935532,cobot_dynamixel_driver/goal|-:J3:-473.654874:eff_
1549532753.039789,cobot_dynamixel_driver/goal|-:J3:-463.654874:eff_
1549532756.144050,cobot_dynamixel_driver/goal|-:J3:-453.654874:eff_
1549532759.248150,cobot_dynamixel_driver/goal|-:J3:-443.654874:eff_
1549532762.352322,cobot_dynamixel_driver/goal|-:J3:-433.654874:eff_
1549532765.456547,cobot_dynamixel_driver/goal|-:J3:-423.654874:eff_
1549532768.560797,cobot_dynamixel_driver/goal|-:J3:-413.654874:eff_
1549532771.637977,cobot_dynamixel_driver/goal|-:J3:-403.654874:eff_
1549532774.742090,cobot_dynamixel_driver/goal|-:J3:-393.654874:eff_
1549532777.846376,cobot_dynamixel_driver/goal|-:J3:-383.654874:eff_
1549532780.950540,cobot_dynamixel_driver/goal|-:J3:-373.654874:eff_
1549532784.055759,cobot_dynamixel_driver/goal|-:J3:-363.654874:eff_
1549532787.159938,cobot_dynamixel_driver/goal|-:J3:-353.654874:eff_
1549532790.264138,cobot_dynamixel_driver/goal|-:J3:-343.654874:eff_
1549532793.368292,cobot_dynamixel_driver/goal|-:J3:-333.654874:eff_
1549532796.445553,cobot_dynamixel_driver/goal|-:J3:-323.654874:eff_
1549532799.549736,cobot_dynamixel_driver/goal|-:J3:-313.654874:eff_
1549532802.653870,cobot_dynamixel_driver/goal|-:J3:-303.654874:eff_
1549532805.758092,cobot_dynamixel_driver/goal|-:J3:-293.654874:eff_
1549532808.862254,cobot_dynamixel_driver/goal|-:J3:-283.654874:eff_
1549532811.966402,cobot_dynamixel_driver/goal|-:J3:-273.654874:eff_
1549532815.070604,cobot_dynamixel_driver/goal|-:J3:-263.654874:eff_
1549532818.174819,cobot_dynamixel_driver/goal|-:J3:-253.654874:eff_
1549532821.251968,cobot_dynamixel_driver/goal|-:J3:-243.654874:eff_
1549532824.356096,cobot_dynamixel_driver/goal|-:J3:-233.654874:eff_
1549532827.460378,cobot_dynamixel_driver/goal|-:J3:-223.654874:eff_
1549532830.564646,cobot_dynamixel_driver/goal|-:J3:0.000000:eff_
1549532830.672613,cobot_dynamixel_driver/goal|-:J1,J2,J3,J4,J5,J6:0.000000,0.000000,-0.087266,0.000000,0.000000,0.000000:0.250000,0.250000,0.250000,0.250000,0.250000,0.250000:pos_vel_
1549532833.273967,cobot_dynamixel_driver/goal|-:J3:0.000000:eff_
1549532833.391847,cobot_dynamixel_driver/goal|-:J1,J2,J3,J4,J5,J6:0.000000,0.000000,-0.174533,0.000000,0.000000,0.000000:0.250000,0.250000,0.250000,0.250000,0.250000,0.250000:pos_vel_
1549532844.604014,cobot_dynamixel_driver/goal|-:J3:-790.571289:eff_
1549532847.691086,cobot_dynamixel_driver/goal|-:J3:-800.571289:eff_
1549532850.795205,cobot_dynamixel_driver/goal|-:J3:-810.571289:eff_
1549532853.899379,cobot_dynamixel_driver/goal|-:J3:-820.571289:eff_
1549532857.003624,cobot_dynamixel_driver/goal|-:J3:-830.571289:eff_
1549532860.107745,cobot_dynamixel_driver/goal|-:J3:-840.571289:eff_
1549532863.213222,cobot_dynamixel_driver/goal|-:J3:-850.571289:eff_
1549532866.317167,cobot_dynamixel_driver/goal|-:J3:-860.571289:eff_
1549532869.421408,cobot_dynamixel_driver/goal|-:J3:-870.571289:eff_
1549532873.524348,cobot_dynamixel_driver/goal|-:J3:0.000000:eff_
1549532873.605274,cobot_dynamixel_driver/goal|-:J1,J2,J3,J4,J5,J6:0.000000,0.000000,-0.174533,0.000000,0.000000,0.000000:0.250000,0.250000,0.250000,0.250000,0.250000,0.250000:pos_vel_
1549532874.209104,cobot_dynamixel_driver/goal|-:J3:-880.571289:eff_
1549532877.323523,cobot_dynamixel_driver/goal|-:J3:-890.571289:eff_
1549532880.400647,cobot_dynamixel_driver/goal|-:J3:-900.571289:eff_
1549532883.504881,cobot_dynamixel_driver/goal|-:J3:-910.571289:eff_
1549532886.609030,cobot_dynamixel_driver/goal|-:J3:-920.571289:eff_
1549532889.713135,cobot_dynamixel_driver/goal|-:J3:-930.571289:eff_
1549532892.817297,cobot_dynamixel_driver/goal|-:J3:-940.571289:eff_
1549532895.921412,cobot_dynamixel_driver/goal|-:J3:-950.571289:eff_
1549532899.025559,cobot_dynamixel_driver/goal|-:J3:-960.571289:eff_
1549532902.129818,cobot_dynamixel_driver/goal|-:J3:-970.571289:eff_
1549532905.233995,cobot_dynamixel_driver/goal|-:J3:-980.571289:eff_
1549532908.311225,cobot_dynamixel_driver/goal|-:J3:-990.571289:eff_
1549532911.415486,cobot_dynamixel_driver/goal|-:J3:-1000.571289:eff_
1549532914.519612,cobot_dynamixel_driver/goal|-:J3:-1010.571289:eff_
1549532917.623804,cobot_dynamixel_driver/goal|-:J3:-1020.571289:eff_
1549532920.727955,cobot_dynamixel_driver/goal|-:J3:0.000000:eff_
1549532920.835924,cobot_dynamixel_driver/goal|-:J1,J2,J3,J4,J5,J6:0.000000,0.000000,-0.174533,0.000000,0.000000,0.000000:0.250000,0.250000,0.250000,0.250000,0.250000,0.250000:pos_vel_
1549532926.325570,cobot_dynamixel_driver/goal|-:J3:0.000000:eff_
1549532926.443826,cobot_dynamixel_driver/goal|-:J1,J2,J3,J4,J5,J6:0.000000,0.000000,-0.174533,0.000000,0.000000,0.000000:0.250000,0.250000,0.250000,0.250000,0.250000,0.250000:pos_vel_
1549532937.358616,cobot_dynamixel_driver/goal|-:J3:-404.277409:eff_
1549532940.472878,cobot_dynamixel_driver/goal|-:J3:-394.277409:eff_
1549532943.577045,cobot_dynamixel_driver/goal|-:J3:-384.277409:eff_
1549532946.681194,cobot_dynamixel_driver/goal|-:J3:-374.277409:eff_
1549532949.785454,cobot_dynamixel_driver/goal|-:J3:-364.277409:eff_
1549532952.863683,cobot_dynamixel_driver/goal|-:J3:-354.277409:eff_
1549532955.967807,cobot_dynamixel_driver/goal|-:J3:-344.277409:eff_
1549532959.071975,cobot_dynamixel_driver/goal|-:J3:-334.277409:eff_
1549532962.176256,cobot_dynamixel_driver/goal|-:J3:-324.277409:eff_
1549532965.280475,cobot_dynamixel_driver/goal|-:J3:-314.277409:eff_
1549532968.384665,cobot_dynamixel_driver/goal|-:J3:-304.277409:eff_
1549532971.488880,cobot_dynamixel_driver/goal|-:J3:-294.277409:eff_
1549532974.566138,cobot_dynamixel_driver/goal|-:J3:-284.277409:eff_
1549532977.670274,cobot_dynamixel_driver/goal|-:J3:-274.277409:eff_
1549532980.774470,cobot_dynamixel_driver/goal|-:J3:-264.277409:eff_
1549532983.878646,cobot_dynamixel_driver/goal|-:J3:-254.277409:eff_
1549532986.983893,cobot_dynamixel_driver/goal|-:J3:-244.277409:eff_
1549532990.088128,cobot_dynamixel_driver/goal|-:J3:-234.277409:eff_
1549532993.192341,cobot_dynamixel_driver/goal|-:J3:-224.277409:eff_
1549532996.296533,cobot_dynamixel_driver/goal|-:J3:-214.277409:eff_
1549532999.400611,cobot_dynamixel_driver/goal|-:J3:-204.277409:eff_
1549533002.477784,cobot_dynamixel_driver/goal|-:J3:0.000000:eff_
1549533002.586005,cobot_dynamixel_driver/goal|-:J1,J2,J3,J4,J5,J6:0.000000,0.000000,-0.174533,0.000000,0.000000,0.000000:0.250000,0.250000,0.250000,0.250000,0.250000,0.250000:pos_vel_
1549533005.322073,cobot_dynamixel_driver/goal|-:J3:0.000000:eff_
1549533005.413136,cobot_dynamixel_driver/goal|-:J1,J2,J3,J4,J5,J6:0.000000,0.000000,-0.261799,0.000000,0.000000,0.000000:0.250000,0.250000,0.250000,0.250000,0.250000,0.250000:pos_vel_
1549533016.625177,cobot_dynamixel_driver/goal|-:J3:-521.567107:eff_
1549533019.739353,cobot_dynamixel_driver/goal|-:J3:-531.567107:eff_
1549533022.843596,cobot_dynamixel_driver/goal|-:J3:-541.567107:eff_
1549533026.946543,cobot_dynamixel_driver/goal|-:J3:0.000000:eff_
1549533027.027477,cobot_dynamixel_driver/goal|-:J1,J2,J3,J4,J5,J6:0.000000,0.000000,-0.261799,0.000000,0.000000,0.000000:0.250000,0.250000,0.250000,0.250000,0.250000,0.250000:pos_vel_
1549533027.631367,cobot_dynamixel_driver/goal|-:J3:-551.567107:eff_
1549533030.745498,cobot_dynamixel_driver/goal|-:J3:-561.567107:eff_
1549533033.849869,cobot_dynamixel_driver/goal|-:J3:-571.567107:eff_
1549533036.927097,cobot_dynamixel_driver/goal|-:J3:-581.567107:eff_
1549533040.031258,cobot_dynamixel_driver/goal|-:J3:-591.567107:eff_
1549533043.135459,cobot_dynamixel_driver/goal|-:J3:-601.567107:eff_
1549533046.239621,cobot_dynamixel_driver/goal|-:J3:-611.567107:eff_
1549533049.343827,cobot_dynamixel_driver/goal|-:J3:-621.567107:eff_
1549533052.447984,cobot_dynamixel_driver/goal|-:J3:-631.567107:eff_
1549533055.552194,cobot_dynamixel_driver/goal|-:J3:-641.567107:eff_
1549533058.656407,cobot_dynamixel_driver/goal|-:J3:-651.567107:eff_
1549533061.733777,cobot_dynamixel_driver/goal|-:J3:-661.567107:eff_
1549533064.837874,cobot_dynamixel_driver/goal|-:J3:-671.567107:eff_
1549533067.942082,cobot_dynamixel_driver/goal|-:J3:-681.567107:eff_
1549533071.046254,cobot_dynamixel_driver/goal|-:J3:-691.567107:eff_
1549533074.150468,cobot_dynamixel_driver/goal|-:J3:-701.567107:eff_
1549533077.254560,cobot_dynamixel_driver/goal|-:J3:-711.567107:eff_
1549533080.358753,cobot_dynamixel_driver/goal|-:J3:-721.567107:eff_
1549533083.462912,cobot_dynamixel_driver/goal|-:J3:-731.567107:eff_
1549533086.567163,cobot_dynamixel_driver/goal|-:J3:-741.567107:eff_
1549533089.644447,cobot_dynamixel_driver/goal|-:J3:-751.567107:eff_
1549533092.748693,cobot_dynamixel_driver/goal|-:J3:-761.567107:eff_
1549533095.852896,cobot_dynamixel_driver/goal|-:J3:-771.567107:eff_
1549533098.957037,cobot_dynamixel_driver/goal|-:J3:-781.567107:eff_
1549533102.061157,cobot_dynamixel_driver/goal|-:J3:-791.567107:eff_
1549533105.165422,cobot_dynamixel_driver/goal|-:J3:-801.567107:eff_
1549533108.269571,cobot_dynamixel_driver/goal|-:J3:-811.567107:eff_
1549533111.373727,cobot_dynamixel_driver/goal|-:J3:-821.567107:eff_
1549533114.450933,cobot_dynamixel_driver/goal|-:J3:-831.567107:eff_
1549533117.555088,cobot_dynamixel_driver/goal|-:J3:-841.567107:eff_
1549533120.659186,cobot_dynamixel_driver/goal|-:J3:-851.567107:eff_
1549533123.763333,cobot_dynamixel_driver/goal|-:J3:-861.567107:eff_
1549533126.867623,cobot_dynamixel_driver/goal|-:J3:-871.567107:eff_
1549533129.971688,cobot_dynamixel_driver/goal|-:J3:-881.567107:eff_
1549533133.075788,cobot_dynamixel_driver/goal|-:J3:-891.567107:eff_
1549533136.179934,cobot_dynamixel_driver/goal|-:J3:-901.567107:eff_
1549533139.257290,cobot_dynamixel_driver/goal|-:J3:-911.567107:eff_
1549533142.361307,cobot_dynamixel_driver/goal|-:J3:-921.567107:eff_
1549533145.466607,cobot_dynamixel_driver/goal|-:J3:-931.567107:eff_
1549533148.570749,cobot_dynamixel_driver/goal|-:J3:-941.567107:eff_
1549533151.674949,cobot_dynamixel_driver/goal|-:J3:-951.567107:eff_
1549533154.779151,cobot_dynamixel_driver/goal|-:J3:-961.567107:eff_
1549533157.883363,cobot_dynamixel_driver/goal|-:J3:-971.567107:eff_
1549533160.988601,cobot_dynamixel_driver/goal|-:J3:-981.567107:eff_
1549533164.065732,cobot_dynamixel_driver/goal|-:J3:-991.567107:eff_
1549533167.169903,cobot_dynamixel_driver/goal|-:J3:-1001.567107:eff_
1549533170.274057,cobot_dynamixel_driver/goal|-:J3:-1011.567107:eff_
1549533173.378264,cobot_dynamixel_driver/goal|-:J3:-1021.567107:eff_
1549533176.482407,cobot_dynamixel_driver/goal|-:J3:-1031.567107:eff_
1549533179.586596,cobot_dynamixel_driver/goal|-:J3:-1041.567107:eff_
1549533182.690750,cobot_dynamixel_driver/goal|-:J3:-1051.567107:eff_
1549533185.794925,cobot_dynamixel_driver/goal|-:J3:-1061.567107:eff_
1549533188.872130,cobot_dynamixel_driver/goal|-:J3:-1071.567107:eff_
1549533191.976392,cobot_dynamixel_driver/goal|-:J3:-1081.567107:eff_
1549533195.080539,cobot_dynamixel_driver/goal|-:J3:-1091.567107:eff_
1549533198.184736,cobot_dynamixel_driver/goal|-:J3:-1101.567107:eff_
1549533201.288848,cobot_dynamixel_driver/goal|-:J3:-1111.567107:eff_
1549533204.393001,cobot_dynamixel_driver/goal|-:J3:-1121.567107:eff_
1549533207.497221,cobot_dynamixel_driver/goal|-:J3:-1131.567107:eff_
1549533210.601336,cobot_dynamixel_driver/goal|-:J3:-1141.567107:eff_
1549533213.678613,cobot_dynamixel_driver/goal|-:J3:-1151.567107:eff_
1549533216.782760,cobot_dynamixel_driver/goal|-:J3:-1161.567107:eff_
1549533219.643992,cobot_dynamixel_driver/goal|-:J3:0.000000:eff_
1549533219.643992,cobot_dynamixel_driver/goal|-:J1,J2,J3,J4,J5,J6:0.000000,0.000000,-0.261799,0.000000,0.000000,0.000000:0.250000,0.250000,0.250000,0.250000,0.250000,0.250000:pos_vel_
cobot_dynamixel_driver/goal|-:J1,J2,J3,J4,J5,J6:0.000000,0.000000,-0.261799,0.000000,0.000000,0.000000:0.250000,0.250000,0.250000,0.250000,0.250000,0.250000:pos_vel_
0
-:J1,J2,J3,J4,J5,J6:0.000000,0.000000,-0.261799,0.000000,0.000000,0.000000:0.250000,0.250000,0.250000,0.250000,0.250000,0.250000:pos_vel_
[TxRxResult] There is no status packet!
 /home/mtec/catkin_ws/src/cobot/cobot_dynamixel_driver/src/cJoint_pro.cpp:418
1549533219.643992,cobot_dynamixel_driver/goal|-:J1,J2,J3,J4,J5,J6:0.000000,0.000000,-0.261799,0.000000,0.000000,0.000000:0.250000,0.250000,0.250000,0.250000,0.250000,0.250000:pos_vel_
cobot_dynamixel_driver/goal|-:J1,J2,J3,J4,J5,J6:0.000000,0.000000,-0.261799,0.000000,0.000000,0.000000:0.250000,0.250000,0.250000,0.250000,0.250000,0.250000:pos_vel_
1
-:J1,J2,J3,J4,J5,J6:0.000000,0.000000,-0.261799,0.000000,0.000000,0.000000:0.250000,0.250000,0.250000,0.250000,0.250000,0.250000:pos_vel_
[TxRxResult] There is no status packet!
 /home/mtec/catkin_ws/src/cobot/cobot_dynamixel_driver/src/cJoint_pro.cpp:418
