surachairobotic/cobot/cobot_dynamixel_driver/log/2019-02-05T06:48:12.193661_driver_cmd.txt
1549349311.722447,cobot_dynamixel_driver/goal|-:J1,J2,J3,J4,J5,J6:0.000000,0.000000,0.000000,0.000000,0.000000,0.000000:0.500000,0.500000,0.500000,0.500000,0.500000,0.500000:pos_vel_
1549349442.767553,cobot_dynamixel_driver/goal|-:J3:0.000000:eff_
1549349442.869811,cobot_dynamixel_driver/goal|-:J1,J2,J3,J4,J5,J6:0.036528,0.535648,0.261799,-0.000006,0.000000,0.000041:0.500000,0.500000,0.500000,0.500000,0.500000,0.500000:pos_vel_
1549349445.783668,cobot_dynamixel_driver/goal|-:J3:-10.000000:eff_
1549349446.372207,cobot_dynamixel_driver/goal|-:J3:0.000000:eff_
1549349446.482128,cobot_dynamixel_driver/goal|-:J1,J2,J3,J4,J5,J6:0.036528,0.535648,0.261799,-0.000006,0.000000,0.000041:0.500000,0.500000,0.500000,0.500000,0.500000,0.500000:pos_vel_
1549349448.501810,cobot_dynamixel_driver/goal|-:J3:0.000000:eff_
1549349448.604995,cobot_dynamixel_driver/goal|-:J1,J2,J3,J4,J5,J6:0.036528,0.535648,0.261799,-0.000006,0.000000,0.000041:0.500000,0.500000,0.500000,0.500000,0.500000,0.500000:pos_vel_
1549349450.222818,cobot_dynamixel_driver/goal|-:J3:10.000000:eff_
1549349450.812457,cobot_dynamixel_driver/goal|-:J3:0.000000:eff_
1549349450.922441,cobot_dynamixel_driver/goal|-:J1,J2,J3,J4,J5,J6:0.036528,0.535648,0.261799,-0.000006,0.000000,0.000041:0.500000,0.500000,0.500000,0.500000,0.500000,0.500000:pos_vel_
1549349453.049304,cobot_dynamixel_driver/goal|-:J3:0.000000:eff_
1549349453.151454,cobot_dynamixel_driver/goal|-:J1,J2,J3,J4,J5,J6:0.036528,0.535648,0.000000,-0.000006,0.000000,0.000041:0.500000,0.500000,0.500000,0.500000,0.500000,0.500000:pos_vel_
1549349456.654996,cobot_dynamixel_driver/goal|-:J3:0.000000:eff_
1549349456.757526,cobot_dynamixel_driver/goal|-:J1,J2,J3,J4,J5,J6:0.036528,0.535648,0.000000,-0.000006,0.000000,0.000041:0.500000,0.500000,0.500000,0.500000,0.500000,0.500000:pos_vel_
1549349457.347944,cobot_dynamixel_driver/goal|-:J3:-10.000000:eff_
1549349457.963572,cobot_dynamixel_driver/goal|-:J3:0.000000:eff_
1549349458.046511,cobot_dynamixel_driver/goal|-:J1,J2,J3,J4,J5,J6:0.036528,0.535648,0.000000,-0.000006,0.000000,0.000041:0.500000,0.500000,0.500000,0.500000,0.500000,0.500000:pos_vel_
1549349460.470953,cobot_dynamixel_driver/goal|-:J3:0.000000:eff_
1549349460.573238,cobot_dynamixel_driver/goal|-:J1,J2,J3,J4,J5,J6:0.036528,0.535648,0.000000,-0.000006,0.000000,0.000041:0.500000,0.500000,0.500000,0.500000,0.500000,0.500000:pos_vel_
1549349462.189766,cobot_dynamixel_driver/goal|-:J3:10.000000:eff_
1549349462.778498,cobot_dynamixel_driver/goal|-:J3:0.000000:eff_
1549349462.889369,cobot_dynamixel_driver/goal|-:J1,J2,J3,J4,J5,J6:0.036528,0.535648,0.000000,-0.000006,0.000000,0.000041:0.500000,0.500000,0.500000,0.500000,0.500000,0.500000:pos_vel_
1549349465.422884,cobot_dynamixel_driver/goal|-:J3:0.000000:eff_
1549349465.525127,cobot_dynamixel_driver/goal|-:J1,J2,J3,J4,J5,J6:0.036528,0.535648,-0.261799,-0.000006,0.000000,0.000041:0.500000,0.500000,0.500000,0.500000,0.500000,0.500000:pos_vel_
1549349468.033688,cobot_dynamixel_driver/goal|-:J3:-10.000000:eff_
1549349468.622313,cobot_dynamixel_driver/goal|-:J3:0.000000:eff_
1549349468.732261,cobot_dynamixel_driver/goal|-:J1,J2,J3,J4,J5,J6:0.036528,0.535648,-0.261799,-0.000006,0.000000,0.000041:0.500000,0.500000,0.500000,0.500000,0.500000,0.500000:pos_vel_
1549349471.075808,cobot_dynamixel_driver/goal|-:J3:0.000000:eff_
1549349471.177831,cobot_dynamixel_driver/goal|-:J1,J2,J3,J4,J5,J6:0.036528,0.535648,-0.261799,-0.000006,0.000000,0.000041:0.500000,0.500000,0.500000,0.500000,0.500000,0.500000:pos_vel_
1549349473.655776,cobot_dynamixel_driver/goal|-:J3:0.000000:eff_
1549349473.758344,cobot_dynamixel_driver/goal|-:J1,J2,J3,J4,J5,J6:0.036528,0.535648,-0.261799,-0.000006,0.000000,0.000041:0.500000,0.500000,0.500000,0.500000,0.500000,0.500000:pos_vel_
1549349474.376689,cobot_dynamixel_driver/goal|-:J3:10.000000:eff_
1549349474.965368,cobot_dynamixel_driver/goal|-:J3:0.000000:eff_
1549349475.075182,cobot_dynamixel_driver/goal|-:J1,J2,J3,J4,J5,J6:0.036528,0.535648,-0.261799,-0.000006,0.000000,0.000041:0.500000,0.500000,0.500000,0.500000,0.500000,0.500000:pos_vel_
1549349480.900656,cobot_dynamixel_driver/goal|-:J1,J2,J3,J4,J5,J6:0.000000,0.000000,0.000000,0.000000,0.000000,0.000000:0.500000,0.500000,0.500000,0.500000,0.500000,0.500000:pos_vel_
1549349671.637561,cobot_dynamixel_driver/goal|-:J3:0.000000:eff_
1549349671.739603,cobot_dynamixel_driver/goal|-:J1,J2,J3,J4,J5,J6:0.000000,0.000000,0.261799,0.000000,0.000000,0.000000:0.250000,0.250000,0.250000,0.250000,0.250000,0.250000:pos_vel_
1549349674.624669,cobot_dynamixel_driver/goal|-:J3:-10.000000:eff_
1549349675.241507,cobot_dynamixel_driver/goal|-:J3:0.000000:eff_
1549349675.351188,cobot_dynamixel_driver/goal|-:J1,J2,J3,J4,J5,J6:0.000000,0.000000,0.261799,0.000000,0.000000,0.000000:0.250000,0.250000,0.250000,0.250000,0.250000,0.250000:pos_vel_
1549349678.155936,cobot_dynamixel_driver/goal|-:J3:0.000000:eff_
1549349678.258165,cobot_dynamixel_driver/goal|-:J1,J2,J3,J4,J5,J6:0.000000,0.000000,0.261799,0.000000,0.000000,0.000000:0.250000,0.250000,0.250000,0.250000,0.250000,0.250000:pos_vel_
1549349679.765966,cobot_dynamixel_driver/goal|-:J3:10.000000:eff_
1549349680.381568,cobot_dynamixel_driver/goal|-:J3:0.000000:eff_
1549349680.464578,cobot_dynamixel_driver/goal|-:J1,J2,J3,J4,J5,J6:0.000000,0.000000,0.261799,0.000000,0.000000,0.000000:0.250000,0.250000,0.250000,0.250000,0.250000,0.250000:pos_vel_
1549349683.187767,cobot_dynamixel_driver/goal|-:J3:0.000000:eff_
1549349683.290113,cobot_dynamixel_driver/goal|-:J1,J2,J3,J4,J5,J6:0.000000,0.000000,0.000000,0.000000,0.000000,0.000000:0.250000,0.250000,0.250000,0.250000,0.250000,0.250000:pos_vel_
1549349686.311963,cobot_dynamixel_driver/goal|-:J3:-10.000000:eff_
1549349686.900603,cobot_dynamixel_driver/goal|-:J3:0.000000:eff_
1549349687.010560,cobot_dynamixel_driver/goal|-:J1,J2,J3,J4,J5,J6:0.000000,0.000000,0.000000,0.000000,0.000000,0.000000:0.250000,0.250000,0.250000,0.250000,0.250000,0.250000:pos_vel_
1549349689.841095,cobot_dynamixel_driver/goal|-:J3:0.000000:eff_
1549349689.943158,cobot_dynamixel_driver/goal|-:J1,J2,J3,J4,J5,J6:0.000000,0.000000,0.000000,0.000000,0.000000,0.000000:0.250000,0.250000,0.250000,0.250000,0.250000,0.250000:pos_vel_
1549349691.831041,cobot_dynamixel_driver/goal|-:J3:10.000000:eff_
1549349692.446679,cobot_dynamixel_driver/goal|-:J3:0.000000:eff_
1549349692.555696,cobot_dynamixel_driver/goal|-:J1,J2,J3,J4,J5,J6:0.000000,0.000000,0.000000,0.000000,0.000000,0.000000:0.250000,0.250000,0.250000,0.250000,0.250000,0.250000:pos_vel_
1549349695.681617,cobot_dynamixel_driver/goal|-:J3:0.000000:eff_
1549349695.783808,cobot_dynamixel_driver/goal|-:J1,J2,J3,J4,J5,J6:0.000000,0.000000,-0.261799,0.000000,0.000000,0.000000:0.250000,0.250000,0.250000,0.250000,0.250000,0.250000:pos_vel_
1549349698.667397,cobot_dynamixel_driver/goal|-:J3:-10.000000:eff_
1549349699.285239,cobot_dynamixel_driver/goal|-:J3:0.000000:eff_
1549349699.395165,cobot_dynamixel_driver/goal|-:J1,J2,J3,J4,J5,J6:0.000000,0.000000,-0.261799,0.000000,0.000000,0.000000:0.250000,0.250000,0.250000,0.250000,0.250000,0.250000:pos_vel_
1549349701.873878,cobot_dynamixel_driver/goal|-:J1,J2,J3,J4,J5,J6:0.000000,0.000000,0.000000,0.000000,0.000000,0.000000:0.500000,0.500000,0.500000,0.500000,0.500000,0.500000:pos_vel_
1549349736.013813,cobot_dynamixel_driver/goal|-:J1,J2,J3,J4,J5,J6:0.000000,0.000000,0.000000,0.000000,0.000000,0.000000:0.500000,0.500000,0.500000,0.500000,0.500000,0.500000:pos_vel_
1549349782.016606,cobot_dynamixel_driver/goal|-:J3:0.000000:eff_
1549349782.118831,cobot_dynamixel_driver/goal|-:J1,J2,J3,J4,J5,J6:0.000000,0.000000,0.523599,0.000000,0.000000,0.000000:0.250000,0.250000,0.250000,0.250000,0.250000,0.250000:pos_vel_
1549349786.006448,cobot_dynamixel_driver/goal|-:J3:-10.000000:eff_
1549349786.620757,cobot_dynamixel_driver/goal|-:J3:0.000000:eff_
1549349786.703010,cobot_dynamixel_driver/goal|-:J1,J2,J3,J4,J5,J6:0.000000,0.000000,0.523599,0.000000,0.000000,0.000000:0.250000,0.250000,0.250000,0.250000,0.250000,0.250000:pos_vel_
1549349789.347214,cobot_dynamixel_driver/goal|-:J3:0.000000:eff_
1549349789.449381,cobot_dynamixel_driver/goal|-:J1,J2,J3,J4,J5,J6:0.000000,0.000000,0.523599,0.000000,0.000000,0.000000:0.250000,0.250000,0.250000,0.250000,0.250000,0.250000:pos_vel_
1549349791.041224,cobot_dynamixel_driver/goal|-:J3:10.000000:eff_
1549349791.657801,cobot_dynamixel_driver/goal|-:J3:0.000000:eff_
1549349791.767698,cobot_dynamixel_driver/goal|-:J1,J2,J3,J4,J5,J6:0.000000,0.000000,0.523599,0.000000,0.000000,0.000000:0.250000,0.250000,0.250000,0.250000,0.250000,0.250000:pos_vel_
1549349794.379350,cobot_dynamixel_driver/goal|-:J3:0.000000:eff_
1549349794.481641,cobot_dynamixel_driver/goal|-:J1,J2,J3,J4,J5,J6:0.000000,0.000000,0.436332,0.000000,0.000000,0.000000:0.250000,0.250000,0.250000,0.250000,0.250000,0.250000:pos_vel_
1549349796.668257,cobot_dynamixel_driver/goal|-:J3:-10.000000:eff_
1549349797.283895,cobot_dynamixel_driver/goal|-:J3:0.000000:eff_
1549349797.393699,cobot_dynamixel_driver/goal|-:J1,J2,J3,J4,J5,J6:0.000000,0.000000,0.436332,0.000000,0.000000,0.000000:0.250000,0.250000,0.250000,0.250000,0.250000,0.250000:pos_vel_
1549349800.117810,cobot_dynamixel_driver/goal|-:J3:0.000000:eff_
1549349800.219942,cobot_dynamixel_driver/goal|-:J1,J2,J3,J4,J5,J6:0.000000,0.000000,0.436332,0.000000,0.000000,0.000000:0.250000,0.250000,0.250000,0.250000,0.250000,0.250000:pos_vel_
1549349801.725878,cobot_dynamixel_driver/goal|-:J3:10.000000:eff_
1549349802.342462,cobot_dynamixel_driver/goal|-:J3:0.000000:eff_
1549349802.425444,cobot_dynamixel_driver/goal|-:J1,J2,J3,J4,J5,J6:0.000000,0.000000,0.436332,0.000000,0.000000,0.000000:0.250000,0.250000,0.250000,0.250000,0.250000,0.250000:pos_vel_
1549349805.066756,cobot_dynamixel_driver/goal|-:J3:0.000000:eff_
1549349805.168993,cobot_dynamixel_driver/goal|-:J1,J2,J3,J4,J5,J6:0.000000,0.000000,0.349066,0.000000,0.000000,0.000000:0.250000,0.250000,0.250000,0.250000,0.250000,0.250000:pos_vel_
1549349807.379614,cobot_dynamixel_driver/goal|-:J3:-10.000000:eff_
1549349807.968384,cobot_dynamixel_driver/goal|-:J3:0.000000:eff_
1549349808.078298,cobot_dynamixel_driver/goal|-:J1,J2,J3,J4,J5,J6:0.000000,0.000000,0.349066,0.000000,0.000000,0.000000:0.250000,0.250000,0.250000,0.250000,0.250000,0.250000:pos_vel_
1549349810.800825,cobot_dynamixel_driver/goal|-:J3:0.000000:eff_
1549349810.902978,cobot_dynamixel_driver/goal|-:J1,J2,J3,J4,J5,J6:0.000000,0.000000,0.349066,0.000000,0.000000,0.000000:0.250000,0.250000,0.250000,0.250000,0.250000,0.250000:pos_vel_
1549349812.414753,cobot_dynamixel_driver/goal|-:J3:10.000000:eff_
1549349813.003292,cobot_dynamixel_driver/goal|-:J3:0.000000:eff_
1549349813.113286,cobot_dynamixel_driver/goal|-:J1,J2,J3,J4,J5,J6:0.000000,0.000000,0.349066,0.000000,0.000000,0.000000:0.250000,0.250000,0.250000,0.250000,0.250000,0.250000:pos_vel_
1549349815.727526,cobot_dynamixel_driver/goal|-:J3:0.000000:eff_
1549349815.829812,cobot_dynamixel_driver/goal|-:J1,J2,J3,J4,J5,J6:0.000000,0.000000,0.261799,0.000000,0.000000,0.000000:0.250000,0.250000,0.250000,0.250000,0.250000,0.250000:pos_vel_
1549349818.040301,cobot_dynamixel_driver/goal|-:J3:-10.000000:eff_
1549349818.629012,cobot_dynamixel_driver/goal|-:J3:0.000000:eff_
1549349818.738867,cobot_dynamixel_driver/goal|-:J1,J2,J3,J4,J5,J6:0.000000,0.000000,0.261799,0.000000,0.000000,0.000000:0.250000,0.250000,0.250000,0.250000,0.250000,0.250000:pos_vel_
1549349821.568484,cobot_dynamixel_driver/goal|-:J3:0.000000:eff_
1549349821.670715,cobot_dynamixel_driver/goal|-:J1,J2,J3,J4,J5,J6:0.000000,0.000000,0.261799,0.000000,0.000000,0.000000:0.250000,0.250000,0.250000,0.250000,0.250000,0.250000:pos_vel_
1549349823.177762,cobot_dynamixel_driver/goal|-:J3:10.000000:eff_
1549349823.794288,cobot_dynamixel_driver/goal|-:J3:0.000000:eff_
1549349823.877340,cobot_dynamixel_driver/goal|-:J1,J2,J3,J4,J5,J6:0.000000,0.000000,0.261799,0.000000,0.000000,0.000000:0.250000,0.250000,0.250000,0.250000,0.250000,0.250000:pos_vel_
1549349826.625479,cobot_dynamixel_driver/goal|-:J3:0.000000:eff_
1549349826.727764,cobot_dynamixel_driver/goal|-:J1,J2,J3,J4,J5,J6:0.000000,0.000000,0.174533,0.000000,0.000000,0.000000:0.250000,0.250000,0.250000,0.250000,0.250000,0.250000:pos_vel_
1549349828.910069,cobot_dynamixel_driver/goal|-:J3:-10.000000:eff_
1549349829.527615,cobot_dynamixel_driver/goal|-:J3:0.000000:eff_
1549349829.637681,cobot_dynamixel_driver/goal|-:J1,J2,J3,J4,J5,J6:0.000000,0.000000,0.174533,0.000000,0.000000,0.000000:0.250000,0.250000,0.250000,0.250000,0.250000,0.250000:pos_vel_
1549349832.438977,cobot_dynamixel_driver/goal|-:J3:0.000000:eff_
1549349832.541177,cobot_dynamixel_driver/goal|-:J1,J2,J3,J4,J5,J6:0.000000,0.000000,0.174533,0.000000,0.000000,0.000000:0.250000,0.250000,0.250000,0.250000,0.250000,0.250000:pos_vel_
1549349834.267019,cobot_dynamixel_driver/goal|-:J3:10.000000:eff_
1549349834.855787,cobot_dynamixel_driver/goal|-:J3:0.000000:eff_
1549349834.964742,cobot_dynamixel_driver/goal|-:J1,J2,J3,J4,J5,J6:0.000000,0.000000,0.174533,0.000000,0.000000,0.000000:0.250000,0.250000,0.250000,0.250000,0.250000,0.250000:pos_vel_
1549349837.796391,cobot_dynamixel_driver/goal|-:J3:0.000000:eff_
1549349837.899366,cobot_dynamixel_driver/goal|-:J1,J2,J3,J4,J5,J6:0.000000,0.000000,0.087266,0.000000,0.000000,0.000000:0.250000,0.250000,0.250000,0.250000,0.250000,0.250000:pos_vel_
1549349841.083688,cobot_dynamixel_driver/goal|-:J3:0.000000:eff_
1549349841.186220,cobot_dynamixel_driver/goal|-:J1,J2,J3,J4,J5,J6:0.000000,0.000000,0.087266,0.000000,0.000000,0.000000:0.250000,0.250000,0.250000,0.250000,0.250000,0.250000:pos_vel_
1549349841.696627,cobot_dynamixel_driver/goal|-:J3:-10.000000:eff_
1549349842.313145,cobot_dynamixel_driver/goal|-:J3:0.000000:eff_
1549349842.396230,cobot_dynamixel_driver/goal|-:J1,J2,J3,J4,J5,J6:0.000000,0.000000,0.087266,0.000000,0.000000,0.000000:0.250000,0.250000,0.250000,0.250000,0.250000,0.250000:pos_vel_
1549349845.445612,cobot_dynamixel_driver/goal|-:J3:0.000000:eff_
1549349845.547938,cobot_dynamixel_driver/goal|-:J1,J2,J3,J4,J5,J6:0.000000,0.000000,0.087266,0.000000,0.000000,0.000000:0.250000,0.250000,0.250000,0.250000,0.250000,0.250000:pos_vel_
1549349847.028905,cobot_dynamixel_driver/goal|-:J3:10.000000:eff_
1549349847.647550,cobot_dynamixel_driver/goal|-:J3:0.000000:eff_
1549349847.757572,cobot_dynamixel_driver/goal|-:J1,J2,J3,J4,J5,J6:0.000000,0.000000,0.087266,0.000000,0.000000,0.000000:0.250000,0.250000,0.250000,0.250000,0.250000,0.250000:pos_vel_
1549349850.559940,cobot_dynamixel_driver/goal|-:J3:0.000000:eff_
1549349850.662030,cobot_dynamixel_driver/goal|-:J1,J2,J3,J4,J5,J6:0.000000,0.000000,0.000000,0.000000,0.000000,0.000000:0.250000,0.250000,0.250000,0.250000,0.250000,0.250000:pos_vel_
1549349852.763387,cobot_dynamixel_driver/goal|-:J3:-10.000000:eff_
1549349853.378859,cobot_dynamixel_driver/goal|-:J3:0.000000:eff_
1549349853.488025,cobot_dynamixel_driver/goal|-:J1,J2,J3,J4,J5,J6:0.000000,0.000000,0.000000,0.000000,0.000000,0.000000:0.250000,0.250000,0.250000,0.250000,0.250000,0.250000:pos_vel_
1549349856.506048,cobot_dynamixel_driver/goal|-:J3:0.000000:eff_
1549349856.608189,cobot_dynamixel_driver/goal|-:J1,J2,J3,J4,J5,J6:0.000000,0.000000,0.000000,0.000000,0.000000,0.000000:0.250000,0.250000,0.250000,0.250000,0.250000,0.250000:pos_vel_
1549349858.196101,cobot_dynamixel_driver/goal|-:J3:10.000000:eff_
1549349858.810835,cobot_dynamixel_driver/goal|-:J3:0.000000:eff_
1549349858.920740,cobot_dynamixel_driver/goal|-:J1,J2,J3,J4,J5,J6:0.000000,0.000000,0.000000,0.000000,0.000000,0.000000:0.250000,0.250000,0.250000,0.250000,0.250000,0.250000:pos_vel_
1549349861.941180,cobot_dynamixel_driver/goal|-:J3:0.000000:eff_
1549349862.043492,cobot_dynamixel_driver/goal|-:J1,J2,J3,J4,J5,J6:0.000000,0.000000,-0.087266,0.000000,0.000000,0.000000:0.250000,0.250000,0.250000,0.250000,0.250000,0.250000:pos_vel_
1549349864.145963,cobot_dynamixel_driver/goal|-:J3:-10.000000:eff_
1549349864.761283,cobot_dynamixel_driver/goal|-:J3:0.000000:eff_
1549349864.842191,cobot_dynamixel_driver/goal|-:J1,J2,J3,J4,J5,J6:0.000000,0.000000,-0.087266,0.000000,0.000000,0.000000:0.250000,0.250000,0.250000,0.250000,0.250000,0.250000:pos_vel_
1549349867.887555,cobot_dynamixel_driver/goal|-:J3:0.000000:eff_
1549349867.989736,cobot_dynamixel_driver/goal|-:J1,J2,J3,J4,J5,J6:0.000000,0.000000,-0.087266,0.000000,0.000000,0.000000:0.250000,0.250000,0.250000,0.250000,0.250000,0.250000:pos_vel_
1549349869.687577,cobot_dynamixel_driver/goal|-:J3:10.000000:eff_
1549349870.305269,cobot_dynamixel_driver/goal|-:J3:0.000000:eff_
1549349870.388230,cobot_dynamixel_driver/goal|-:J1,J2,J3,J4,J5,J6:0.000000,0.000000,-0.087266,0.000000,0.000000,0.000000:0.250000,0.250000,0.250000,0.250000,0.250000,0.250000:pos_vel_
1549349873.327648,cobot_dynamixel_driver/goal|-:J3:0.000000:eff_
1549349873.429814,cobot_dynamixel_driver/goal|-:J1,J2,J3,J4,J5,J6:0.000000,0.000000,-0.174533,0.000000,0.000000,0.000000:0.250000,0.250000,0.250000,0.250000,0.250000,0.250000:pos_vel_
1549349875.420605,cobot_dynamixel_driver/goal|-:J3:-10.000000:eff_
1549349876.036341,cobot_dynamixel_driver/goal|-:J3:0.000000:eff_
1549349876.145203,cobot_dynamixel_driver/goal|-:J1,J2,J3,J4,J5,J6:0.000000,0.000000,-0.174533,0.000000,0.000000,0.000000:0.250000,0.250000,0.250000,0.250000,0.250000,0.250000:pos_vel_
1549349879.270188,cobot_dynamixel_driver/goal|-:J3:0.000000:eff_
1549349879.372281,cobot_dynamixel_driver/goal|-:J1,J2,J3,J4,J5,J6:0.000000,0.000000,-0.174533,0.000000,0.000000,0.000000:0.250000,0.250000,0.250000,0.250000,0.250000,0.250000:pos_vel_
1549349881.959119,cobot_dynamixel_driver/goal|-:J3:0.000000:eff_
1549349882.061547,cobot_dynamixel_driver/goal|-:J1,J2,J3,J4,J5,J6:0.000000,0.000000,-0.174533,0.000000,0.000000,0.000000:0.250000,0.250000,0.250000,0.250000,0.250000,0.250000:pos_vel_
1549349882.677165,cobot_dynamixel_driver/goal|-:J3:10.000000:eff_
1549349883.292828,cobot_dynamixel_driver/goal|-:J3:0.000000:eff_
1549349883.375523,cobot_dynamixel_driver/goal|-:J1,J2,J3,J4,J5,J6:0.000000,0.000000,-0.174533,0.000000,0.000000,0.000000:0.250000,0.250000,0.250000,0.250000,0.250000,0.250000:pos_vel_
1549349886.314225,cobot_dynamixel_driver/goal|-:J3:0.000000:eff_
1549349886.416361,cobot_dynamixel_driver/goal|-:J1,J2,J3,J4,J5,J6:0.000000,0.000000,-0.261799,0.000000,0.000000,0.000000:0.250000,0.250000,0.250000,0.250000,0.250000,0.250000:pos_vel_
1549349888.414191,cobot_dynamixel_driver/goal|-:J3:-10.000000:eff_
1549349889.003783,cobot_dynamixel_driver/goal|-:J3:0.000000:eff_
1549349889.113730,cobot_dynamixel_driver/goal|-:J1,J2,J3,J4,J5,J6:0.000000,0.000000,-0.261799,0.000000,0.000000,0.000000:0.250000,0.250000,0.250000,0.250000,0.250000,0.250000:pos_vel_
1549349892.053087,cobot_dynamixel_driver/goal|-:J3:0.000000:eff_
1549349892.155221,cobot_dynamixel_driver/goal|-:J1,J2,J3,J4,J5,J6:0.000000,0.000000,-0.261799,0.000000,0.000000,0.000000:0.250000,0.250000,0.250000,0.250000,0.250000,0.250000:pos_vel_
1549349894.852019,cobot_dynamixel_driver/goal|-:J3:0.000000:eff_
1549349894.953908,cobot_dynamixel_driver/goal|-:J1,J2,J3,J4,J5,J6:0.000000,0.000000,-0.261799,0.000000,0.000000,0.000000:0.250000,0.250000,0.250000,0.250000,0.250000,0.250000:pos_vel_
1549349895.651759,cobot_dynamixel_driver/goal|-:J3:10.000000:eff_
1549349896.266175,cobot_dynamixel_driver/goal|-:J3:0.000000:eff_
1549349896.349228,cobot_dynamixel_driver/goal|-:J1,J2,J3,J4,J5,J6:0.000000,0.000000,-0.261799,0.000000,0.000000,0.000000:0.250000,0.250000,0.250000,0.250000,0.250000,0.250000:pos_vel_
1549349899.286859,cobot_dynamixel_driver/goal|-:J3:0.000000:eff_
1549349899.388930,cobot_dynamixel_driver/goal|-:J1,J2,J3,J4,J5,J6:0.000000,0.000000,-0.349066,0.000000,0.000000,0.000000:0.250000,0.250000,0.250000,0.250000,0.250000,0.250000:pos_vel_
1549349901.681566,cobot_dynamixel_driver/goal|-:J3:-10.000000:eff_
1549349902.297184,cobot_dynamixel_driver/goal|-:J3:0.000000:eff_
1549349902.380143,cobot_dynamixel_driver/goal|-:J1,J2,J3,J4,J5,J6:0.000000,0.000000,-0.349066,0.000000,0.000000,0.000000:0.250000,0.250000,0.250000,0.250000,0.250000,0.250000:pos_vel_
1549349905.211208,cobot_dynamixel_driver/goal|-:J3:0.000000:eff_
1549349905.313442,cobot_dynamixel_driver/goal|-:J1,J2,J3,J4,J5,J6:0.000000,0.000000,-0.349066,0.000000,0.000000,0.000000:0.250000,0.250000,0.250000,0.250000,0.250000,0.250000:pos_vel_
1549349907.117127,cobot_dynamixel_driver/goal|-:J3:10.000000:eff_
1549349907.705649,cobot_dynamixel_driver/goal|-:J3:0.000000:eff_
1549349907.814511,cobot_dynamixel_driver/goal|-:J1,J2,J3,J4,J5,J6:0.000000,0.000000,-0.349066,0.000000,0.000000,0.000000:0.250000,0.250000,0.250000,0.250000,0.250000,0.250000:pos_vel_
1549349910.751849,cobot_dynamixel_driver/goal|-:J3:0.000000:eff_
1549349910.826943,cobot_dynamixel_driver/goal|-:J1,J2,J3,J4,J5,J6:0.000000,0.000000,-0.436332,0.000000,0.000000,0.000000:0.250000,0.250000,0.250000,0.250000,0.250000,0.250000:pos_vel_
1549349912.955883,cobot_dynamixel_driver/goal|-:J3:-10.000000:eff_
1549349913.546219,cobot_dynamixel_driver/goal|-:J3:0.000000:eff_
1549349913.656411,cobot_dynamixel_driver/goal|-:J1,J2,J3,J4,J5,J6:0.000000,0.000000,-0.436332,0.000000,0.000000,0.000000:0.250000,0.250000,0.250000,0.250000,0.250000,0.250000:pos_vel_
1549349916.566637,cobot_dynamixel_driver/goal|-:J3:0.000000:eff_
1549349916.668741,cobot_dynamixel_driver/goal|-:J1,J2,J3,J4,J5,J6:0.000000,0.000000,-0.436332,0.000000,0.000000,0.000000:0.250000,0.250000,0.250000,0.250000,0.250000,0.250000:pos_vel_
1549349918.260491,cobot_dynamixel_driver/goal|-:J3:10.000000:eff_
1549349918.875159,cobot_dynamixel_driver/goal|-:J3:0.000000:eff_
1549349918.983922,cobot_dynamixel_driver/goal|-:J1,J2,J3,J4,J5,J6:0.000000,0.000000,-0.436332,0.000000,0.000000,0.000000:0.250000,0.250000,0.250000,0.250000,0.250000,0.250000:pos_vel_
1549349921.788317,cobot_dynamixel_driver/goal|-:J3:0.000000:eff_
1549349921.890459,cobot_dynamixel_driver/goal|-:J1,J2,J3,J4,J5,J6:0.000000,0.000000,-0.523599,0.000000,0.000000,0.000000:0.250000,0.250000,0.250000,0.250000,0.250000,0.250000:pos_vel_
1549349924.099184,cobot_dynamixel_driver/goal|-:J3:-10.000000:eff_
1549349924.714751,cobot_dynamixel_driver/goal|-:J3:0.000000:eff_
1549349924.796463,cobot_dynamixel_driver/goal|-:J1,J2,J3,J4,J5,J6:0.000000,0.000000,-0.523599,0.000000,0.000000,0.000000:0.250000,0.250000,0.250000,0.250000,0.250000,0.250000:pos_vel_
1549349927.544357,cobot_dynamixel_driver/goal|-:J3:0.000000:eff_
1549349927.646493,cobot_dynamixel_driver/goal|-:J1,J2,J3,J4,J5,J6:0.000000,0.000000,-0.523599,0.000000,0.000000,0.000000:0.250000,0.250000,0.250000,0.250000,0.250000,0.250000:pos_vel_
1549349929.047508,cobot_dynamixel_driver/goal|-:J3:10.000000:eff_
1549349929.636089,cobot_dynamixel_driver/goal|-:J3:0.000000:eff_
1549349929.745923,cobot_dynamixel_driver/goal|-:J1,J2,J3,J4,J5,J6:0.000000,0.000000,-0.523599,0.000000,0.000000,0.000000:0.250000,0.250000,0.250000,0.250000,0.250000,0.250000:pos_vel_
1549349939.357259,cobot_dynamixel_driver/goal|-:J1,J2,J3,J4,J5,J6:0.000000,0.000000,0.000000,0.000000,0.000000,0.000000:0.500000,0.500000,0.500000,0.500000,0.500000,0.500000:pos_vel_
1549350377.623973,cobot_dynamixel_driver/goal|-:J1,J2,J3,J4,J5,J6:0.000000,0.000000,0.000000,0.000000,0.000000,0.000000:0.500000,0.500000,0.500000,0.500000,0.500000,0.500000:pos_vel_
1549350872.221442,cobot_dynamixel_driver/goal|-:J3:0.000000:eff_
1549350872.323642,cobot_dynamixel_driver/goal|-:J1,J2,J3,J4,J5,J6:0.000000,0.000000,0.523599,0.000000,0.000000,0.000000:0.250000,0.250000,0.250000,0.250000,0.250000,0.250000:pos_vel_
1549350950.931575,cobot_dynamixel_driver/goal|-:J3:0.000000:eff_
1549350951.033652,cobot_dynamixel_driver/goal|-:J1,J2,J3,J4,J5,J6:0.000000,0.000000,0.523599,0.000000,0.000000,0.000000:0.250000,0.250000,0.250000,0.250000,0.250000,0.250000:pos_vel_
1549350967.930408,cobot_dynamixel_driver/goal|-:J3:0.000000:eff_
1549350968.032596,cobot_dynamixel_driver/goal|-:J1,J2,J3,J4,J5,J6:0.000000,0.000000,0.523599,0.000000,0.000000,0.000000:0.250000,0.250000,0.250000,0.250000,0.250000,0.250000:pos_vel_
1549350974.187654,cobot_dynamixel_driver/goal|-:J1,J2,J3,J4,J5,J6:0.000000,0.000000,0.000000,0.000000,0.000000,0.000000:0.500000,0.500000,0.500000,0.500000,0.500000,0.500000:pos_vel_
1549351029.402106,cobot_dynamixel_driver/goal|-:J3:0.000000:eff_
1549351029.504410,cobot_dynamixel_driver/goal|-:J1,J2,J3,J4,J5,J6:0.000000,0.000000,0.523599,0.000000,0.000000,0.000000:0.250000,0.250000,0.250000,0.250000,0.250000,0.250000:pos_vel_
1549351033.388636,cobot_dynamixel_driver/goal|-:J3:-10.000000:eff_
1549351034.004026,cobot_dynamixel_driver/goal|-:J3:0.000000:eff_
1549351034.114166,cobot_dynamixel_driver/goal|-:J1,J2,J3,J4,J5,J6:0.000000,0.000000,0.523599,0.000000,0.000000,0.000000:0.250000,0.250000,0.250000,0.250000,0.250000,0.250000:pos_vel_
1549351036.838551,cobot_dynamixel_driver/goal|-:J3:0.000000:eff_
1549351036.940712,cobot_dynamixel_driver/goal|-:J1,J2,J3,J4,J5,J6:0.000000,0.000000,0.523599,0.000000,0.000000,0.000000:0.250000,0.250000,0.250000,0.250000,0.250000,0.250000:pos_vel_
1549351038.529579,cobot_dynamixel_driver/goal|-:J3:10.000000:eff_
1549351039.145013,cobot_dynamixel_driver/goal|-:J3:0.000000:eff_
1549351039.226027,cobot_dynamixel_driver/goal|-:J1,J2,J3,J4,J5,J6:0.000000,0.000000,0.523599,0.000000,0.000000,0.000000:0.250000,0.250000,0.250000,0.250000,0.250000,0.250000:pos_vel_
1549351041.866839,cobot_dynamixel_driver/goal|-:J3:0.000000:eff_
1549351041.969105,cobot_dynamixel_driver/goal|-:J1,J2,J3,J4,J5,J6:0.000000,0.000000,0.436332,0.000000,0.000000,0.000000:0.250000,0.250000,0.250000,0.250000,0.250000,0.250000:pos_vel_
1549351044.072671,cobot_dynamixel_driver/goal|-:J3:-10.000000:eff_
1549351044.660215,cobot_dynamixel_driver/goal|-:J3:0.000000:eff_
1549351044.769960,cobot_dynamixel_driver/goal|-:J1,J2,J3,J4,J5,J6:0.000000,0.000000,0.436332,0.000000,0.000000,0.000000:0.250000,0.250000,0.250000,0.250000,0.250000,0.250000:pos_vel_
1549351047.493295,cobot_dynamixel_driver/goal|-:J3:0.000000:eff_
1549351047.595676,cobot_dynamixel_driver/goal|-:J1,J2,J3,J4,J5,J6:0.000000,0.000000,0.436332,0.000000,0.000000,0.000000:0.250000,0.250000,0.250000,0.250000,0.250000,0.250000:pos_vel_
1549351049.210408,cobot_dynamixel_driver/goal|-:J3:10.000000:eff_
1549351049.798922,cobot_dynamixel_driver/goal|-:J3:0.000000:eff_
1549351049.907766,cobot_dynamixel_driver/goal|-:J1,J2,J3,J4,J5,J6:0.000000,0.000000,0.436332,0.000000,0.000000,0.000000:0.250000,0.250000,0.250000,0.250000,0.250000,0.250000:pos_vel_
1549351052.522632,cobot_dynamixel_driver/goal|-:J3:0.000000:eff_
1549351052.624784,cobot_dynamixel_driver/goal|-:J1,J2,J3,J4,J5,J6:0.000000,0.000000,0.349066,0.000000,0.000000,0.000000:0.250000,0.250000,0.250000,0.250000,0.250000,0.250000:pos_vel_
1549351054.915426,cobot_dynamixel_driver/goal|-:J3:-10.000000:eff_
1549351055.530994,cobot_dynamixel_driver/goal|-:J3:0.000000:eff_
1549351055.638826,cobot_dynamixel_driver/goal|-:J1,J2,J3,J4,J5,J6:0.000000,0.000000,0.349066,0.000000,0.000000,0.000000:0.250000,0.250000,0.250000,0.250000,0.250000,0.250000:pos_vel_
1549351058.468313,cobot_dynamixel_driver/goal|-:J3:0.000000:eff_
1549351058.570105,cobot_dynamixel_driver/goal|-:J1,J2,J3,J4,J5,J6:0.000000,0.000000,0.349066,0.000000,0.000000,0.000000:0.250000,0.250000,0.250000,0.250000,0.250000,0.250000:pos_vel_
1549351060.077347,cobot_dynamixel_driver/goal|-:J3:10.000000:eff_
1549351060.664958,cobot_dynamixel_driver/goal|-:J3:0.000000:eff_
1549351060.773775,cobot_dynamixel_driver/goal|-:J1,J2,J3,J4,J5,J6:0.000000,0.000000,0.349066,0.000000,0.000000,0.000000:0.250000,0.250000,0.250000,0.250000,0.250000,0.250000:pos_vel_
1549351063.414336,cobot_dynamixel_driver/goal|-:J3:0.000000:eff_
1549351063.516533,cobot_dynamixel_driver/goal|-:J1,J2,J3,J4,J5,J6:0.000000,0.000000,0.261799,0.000000,0.000000,0.000000:0.250000,0.250000,0.250000,0.250000,0.250000,0.250000:pos_vel_
1549351066.619402,cobot_dynamixel_driver/goal|-:J3:0.000000:eff_
1549351066.721601,cobot_dynamixel_driver/goal|-:J1,J2,J3,J4,J5,J6:0.000000,0.000000,0.261799,0.000000,0.000000,0.000000:0.250000,0.250000,0.250000,0.250000,0.250000,0.250000:pos_vel_
1549351067.525329,cobot_dynamixel_driver/goal|-:J3:-10.000000:eff_
1549351068.114016,cobot_dynamixel_driver/goal|-:J3:0.000000:eff_
1549351068.222034,cobot_dynamixel_driver/goal|-:J1,J2,J3,J4,J5,J6:0.000000,0.000000,0.261799,0.000000,0.000000,0.000000:0.250000,0.250000,0.250000,0.250000,0.250000,0.250000:pos_vel_
1549351070.970215,cobot_dynamixel_driver/goal|-:J3:0.000000:eff_
1549351071.045036,cobot_dynamixel_driver/goal|-:J1,J2,J3,J4,J5,J6:0.000000,0.000000,0.261799,0.000000,0.000000,0.000000:0.250000,0.250000,0.250000,0.250000,0.250000,0.250000:pos_vel_
1549351073.469337,cobot_dynamixel_driver/goal|-:J3:0.000000:eff_
1549351073.571384,cobot_dynamixel_driver/goal|-:J1,J2,J3,J4,J5,J6:0.000000,0.000000,0.261799,0.000000,0.000000,0.000000:0.250000,0.250000,0.250000,0.250000,0.250000,0.250000:pos_vel_
1549351074.160184,cobot_dynamixel_driver/goal|-:J3:10.000000:eff_
1549351074.775568,cobot_dynamixel_driver/goal|-:J3:0.000000:eff_
1549351074.856944,cobot_dynamixel_driver/goal|-:J1,J2,J3,J4,J5,J6:0.000000,0.000000,0.261799,0.000000,0.000000,0.000000:0.250000,0.250000,0.250000,0.250000,0.250000,0.250000:pos_vel_
1549351077.685113,cobot_dynamixel_driver/goal|-:J3:0.000000:eff_
1549351077.787119,cobot_dynamixel_driver/goal|-:J1,J2,J3,J4,J5,J6:0.000000,0.000000,0.174533,0.000000,0.000000,0.000000:0.250000,0.250000,0.250000,0.250000,0.250000,0.250000:pos_vel_
1549351081.101429,cobot_dynamixel_driver/goal|-:J3:0.000000:eff_
1549351081.203903,cobot_dynamixel_driver/goal|-:J1,J2,J3,J4,J5,J6:0.000000,0.000000,0.174533,0.000000,0.000000,0.000000:0.250000,0.250000,0.250000,0.250000,0.250000,0.250000:pos_vel_
1549351081.899158,cobot_dynamixel_driver/goal|-:J3:-10.000000:eff_
1549351082.487074,cobot_dynamixel_driver/goal|-:J3:0.000000:eff_
1549351082.594802,cobot_dynamixel_driver/goal|-:J1,J2,J3,J4,J5,J6:0.000000,0.000000,0.174533,0.000000,0.000000,0.000000:0.250000,0.250000,0.250000,0.250000,0.250000,0.250000:pos_vel_
1549351085.611960,cobot_dynamixel_driver/goal|-:J3:0.000000:eff_
1549351085.713872,cobot_dynamixel_driver/goal|-:J1,J2,J3,J4,J5,J6:0.000000,0.000000,0.174533,0.000000,0.000000,0.000000:0.250000,0.250000,0.250000,0.250000,0.250000,0.250000:pos_vel_
1549351088.406239,cobot_dynamixel_driver/goal|-:J3:0.000000:eff_
1549351088.508262,cobot_dynamixel_driver/goal|-:J1,J2,J3,J4,J5,J6:0.000000,0.000000,0.174533,0.000000,0.000000,0.000000:0.250000,0.250000,0.250000,0.250000,0.250000,0.250000:pos_vel_
1549351089.123061,cobot_dynamixel_driver/goal|-:J3:10.000000:eff_
1549351089.710557,cobot_dynamixel_driver/goal|-:J3:0.000000:eff_
1549351089.818499,cobot_dynamixel_driver/goal|-:J1,J2,J3,J4,J5,J6:0.000000,0.000000,0.174533,0.000000,0.000000,0.000000:0.250000,0.250000,0.250000,0.250000,0.250000,0.250000:pos_vel_
1549351092.519272,cobot_dynamixel_driver/goal|-:J3:0.000000:eff_
1549351092.621398,cobot_dynamixel_driver/goal|-:J1,J2,J3,J4,J5,J6:0.000000,0.000000,0.087266,0.000000,0.000000,0.000000:0.250000,0.250000,0.250000,0.250000,0.250000,0.250000:pos_vel_
1549351094.829034,cobot_dynamixel_driver/goal|-:J3:-10.000000:eff_
1549351095.444713,cobot_dynamixel_driver/goal|-:J3:0.000000:eff_
1549351095.525625,cobot_dynamixel_driver/goal|-:J1,J2,J3,J4,J5,J6:0.000000,0.000000,0.087266,0.000000,0.000000,0.000000:0.250000,0.250000,0.250000,0.250000,0.250000,0.250000:pos_vel_
1549351098.434937,cobot_dynamixel_driver/goal|-:J3:0.000000:eff_
1549351098.536900,cobot_dynamixel_driver/goal|-:J1,J2,J3,J4,J5,J6:0.000000,0.000000,0.087266,0.000000,0.000000,0.000000:0.250000,0.250000,0.250000,0.250000,0.250000,0.250000:pos_vel_
1549351101.041153,cobot_dynamixel_driver/goal|-:J3:0.000000:eff_
1549351101.143290,cobot_dynamixel_driver/goal|-:J1,J2,J3,J4,J5,J6:0.000000,0.000000,0.087266,0.000000,0.000000,0.000000:0.250000,0.250000,0.250000,0.250000,0.250000,0.250000:pos_vel_
1549351101.757848,cobot_dynamixel_driver/goal|-:J3:10.000000:eff_
1549351102.345505,cobot_dynamixel_driver/goal|-:J3:0.000000:eff_
1549351102.453449,cobot_dynamixel_driver/goal|-:J1,J2,J3,J4,J5,J6:0.000000,0.000000,0.087266,0.000000,0.000000,0.000000:0.250000,0.250000,0.250000,0.250000,0.250000,0.250000:pos_vel_
1549351105.365402,cobot_dynamixel_driver/goal|-:J3:0.000000:eff_
1549351105.467757,cobot_dynamixel_driver/goal|-:J1,J2,J3,J4,J5,J6:0.000000,0.000000,0.000000,0.000000,0.000000,0.000000:0.250000,0.250000,0.250000,0.250000,0.250000,0.250000:pos_vel_
1549351107.676920,cobot_dynamixel_driver/goal|-:J3:-10.000000:eff_
1549351108.264595,cobot_dynamixel_driver/goal|-:J3:0.000000:eff_
1549351108.372465,cobot_dynamixel_driver/goal|-:J1,J2,J3,J4,J5,J6:0.000000,0.000000,0.000000,0.000000,0.000000,0.000000:0.250000,0.250000,0.250000,0.250000,0.250000,0.250000:pos_vel_
1549351111.282078,cobot_dynamixel_driver/goal|-:J3:0.000000:eff_
1549351111.383890,cobot_dynamixel_driver/goal|-:J1,J2,J3,J4,J5,J6:0.000000,0.000000,0.000000,0.000000,0.000000,0.000000:0.250000,0.250000,0.250000,0.250000,0.250000,0.250000:pos_vel_
1549351113.185626,cobot_dynamixel_driver/goal|-:J3:10.000000:eff_
1549351113.800223,cobot_dynamixel_driver/goal|-:J3:0.000000:eff_
1549351113.881278,cobot_dynamixel_driver/goal|-:J1,J2,J3,J4,J5,J6:0.000000,0.000000,0.000000,0.000000,0.000000,0.000000:0.250000,0.250000,0.250000,0.250000,0.250000,0.250000:pos_vel_
1549351116.900978,cobot_dynamixel_driver/goal|-:J3:0.000000:eff_
1549351117.002816,cobot_dynamixel_driver/goal|-:J1,J2,J3,J4,J5,J6:0.000000,0.000000,-0.087266,0.000000,0.000000,0.000000:0.250000,0.250000,0.250000,0.250000,0.250000,0.250000:pos_vel_
1549351118.994786,cobot_dynamixel_driver/goal|-:J3:-10.000000:eff_
1549351119.609505,cobot_dynamixel_driver/goal|-:J3:0.000000:eff_
1549351119.717510,cobot_dynamixel_driver/goal|-:J1,J2,J3,J4,J5,J6:0.000000,0.000000,-0.087266,0.000000,0.000000,0.000000:0.250000,0.250000,0.250000,0.250000,0.250000,0.250000:pos_vel_
1549351122.843962,cobot_dynamixel_driver/goal|-:J3:0.000000:eff_
1549351122.946124,cobot_dynamixel_driver/goal|-:J1,J2,J3,J4,J5,J6:0.000000,0.000000,-0.087266,0.000000,0.000000,0.000000:0.250000,0.250000,0.250000,0.250000,0.250000,0.250000:pos_vel_
1549351124.641721,cobot_dynamixel_driver/goal|-:J3:10.000000:eff_
1549351125.257118,cobot_dynamixel_driver/goal|-:J3:0.000000:eff_
1549351125.338316,cobot_dynamixel_driver/goal|-:J1,J2,J3,J4,J5,J6:0.000000,0.000000,-0.087266,0.000000,0.000000,0.000000:0.250000,0.250000,0.250000,0.250000,0.250000,0.250000:pos_vel_
1549351128.465174,cobot_dynamixel_driver/goal|-:J3:0.000000:eff_
1549351128.567206,cobot_dynamixel_driver/goal|-:J1,J2,J3,J4,J5,J6:0.000000,0.000000,-0.174533,0.000000,0.000000,0.000000:0.250000,0.250000,0.250000,0.250000,0.250000,0.250000:pos_vel_
1549351130.667233,cobot_dynamixel_driver/goal|-:J3:-10.000000:eff_
1549351131.256044,cobot_dynamixel_driver/goal|-:J3:0.000000:eff_
1549351131.365808,cobot_dynamixel_driver/goal|-:J1,J2,J3,J4,J5,J6:0.000000,0.000000,-0.174533,0.000000,0.000000,0.000000:0.250000,0.250000,0.250000,0.250000,0.250000,0.250000:pos_vel_
1549351134.604359,cobot_dynamixel_driver/goal|-:J3:0.000000:eff_
1549351134.706476,cobot_dynamixel_driver/goal|-:J1,J2,J3,J4,J5,J6:0.000000,0.000000,-0.174533,0.000000,0.000000,0.000000:0.250000,0.250000,0.250000,0.250000,0.250000,0.250000:pos_vel_
1549351136.404271,cobot_dynamixel_driver/goal|-:J3:10.000000:eff_
1549351136.993868,cobot_dynamixel_driver/goal|-:J3:0.000000:eff_
1549351137.103706,cobot_dynamixel_driver/goal|-:J1,J2,J3,J4,J5,J6:0.000000,0.000000,-0.174533,0.000000,0.000000,0.000000:0.250000,0.250000,0.250000,0.250000,0.250000,0.250000:pos_vel_
1549351139.934085,cobot_dynamixel_driver/goal|-:J3:0.000000:eff_
1549351140.036209,cobot_dynamixel_driver/goal|-:J1,J2,J3,J4,J5,J6:0.000000,0.000000,-0.261799,0.000000,0.000000,0.000000:0.250000,0.250000,0.250000,0.250000,0.250000,0.250000:pos_vel_
1549351142.219943,cobot_dynamixel_driver/goal|-:J3:-10.000000:eff_
1549351142.835519,cobot_dynamixel_driver/goal|-:J3:0.000000:eff_
1549351142.945500,cobot_dynamixel_driver/goal|-:J1,J2,J3,J4,J5,J6:0.000000,0.000000,-0.261799,0.000000,0.000000,0.000000:0.250000,0.250000,0.250000,0.250000,0.250000,0.250000:pos_vel_
1549351145.858071,cobot_dynamixel_driver/goal|-:J3:0.000000:eff_
1549351145.960324,cobot_dynamixel_driver/goal|-:J1,J2,J3,J4,J5,J6:0.000000,0.000000,-0.261799,0.000000,0.000000,0.000000:0.250000,0.250000,0.250000,0.250000,0.250000,0.250000:pos_vel_
1549351147.849027,cobot_dynamixel_driver/goal|-:J3:10.000000:eff_
1549351148.465584,cobot_dynamixel_driver/goal|-:J3:0.000000:eff_
1549351148.575483,cobot_dynamixel_driver/goal|-:J1,J2,J3,J4,J5,J6:0.000000,0.000000,-0.261799,0.000000,0.000000,0.000000:0.250000,0.250000,0.250000,0.250000,0.250000,0.250000:pos_vel_
1549351151.701529,cobot_dynamixel_driver/goal|-:J3:0.000000:eff_
1549351151.803469,cobot_dynamixel_driver/goal|-:J1,J2,J3,J4,J5,J6:0.000000,0.000000,-0.349066,0.000000,0.000000,0.000000:0.250000,0.250000,0.250000,0.250000,0.250000,0.250000:pos_vel_
1549351153.903456,cobot_dynamixel_driver/goal|-:J3:-10.000000:eff_
1549351154.495873,cobot_dynamixel_driver/goal|-:J3:0.000000:eff_
1549351154.605659,cobot_dynamixel_driver/goal|-:J1,J2,J3,J4,J5,J6:0.000000,0.000000,-0.349066,0.000000,0.000000,0.000000:0.250000,0.250000,0.250000,0.250000,0.250000,0.250000:pos_vel_
1549351157.516073,cobot_dynamixel_driver/goal|-:J3:0.000000:eff_
1549351157.618040,cobot_dynamixel_driver/goal|-:J1,J2,J3,J4,J5,J6:0.000000,0.000000,-0.349066,0.000000,0.000000,0.000000:0.250000,0.250000,0.250000,0.250000,0.250000,0.250000:pos_vel_
1549351159.339368,cobot_dynamixel_driver/goal|-:J3:10.000000:eff_
1549351159.927162,cobot_dynamixel_driver/goal|-:J3:0.000000:eff_
1549351160.037165,cobot_dynamixel_driver/goal|-:J1,J2,J3,J4,J5,J6:0.000000,0.000000,-0.349066,0.000000,0.000000,0.000000:0.250000,0.250000,0.250000,0.250000,0.250000,0.250000:pos_vel_
1549351162.866356,cobot_dynamixel_driver/goal|-:J3:0.000000:eff_
1549351162.968724,cobot_dynamixel_driver/goal|-:J1,J2,J3,J4,J5,J6:0.000000,0.000000,-0.436332,0.000000,0.000000,0.000000:0.250000,0.250000,0.250000,0.250000,0.250000,0.250000:pos_vel_
1549351165.177954,cobot_dynamixel_driver/goal|-:J3:-10.000000:eff_
1549351165.767644,cobot_dynamixel_driver/goal|-:J3:0.000000:eff_
1549351165.877546,cobot_dynamixel_driver/goal|-:J1,J2,J3,J4,J5,J6:0.000000,0.000000,-0.436332,0.000000,0.000000,0.000000:0.250000,0.250000,0.250000,0.250000,0.250000,0.250000:pos_vel_
1549351168.787106,cobot_dynamixel_driver/goal|-:J3:0.000000:eff_
1549351168.889221,cobot_dynamixel_driver/goal|-:J1,J2,J3,J4,J5,J6:0.000000,0.000000,-0.436332,0.000000,0.000000,0.000000:0.250000,0.250000,0.250000,0.250000,0.250000,0.250000:pos_vel_
1549351170.587143,cobot_dynamixel_driver/goal|-:J3:10.000000:eff_
1549351171.203823,cobot_dynamixel_driver/goal|-:J3:0.000000:eff_
1549351171.286832,cobot_dynamixel_driver/goal|-:J1,J2,J3,J4,J5,J6:0.000000,0.000000,-0.436332,0.000000,0.000000,0.000000:0.250000,0.250000,0.250000,0.250000,0.250000,0.250000:pos_vel_
1549351174.034349,cobot_dynamixel_driver/goal|-:J3:0.000000:eff_
1549351174.136572,cobot_dynamixel_driver/goal|-:J1,J2,J3,J4,J5,J6:0.000000,0.000000,-0.523599,0.000000,0.000000,0.000000:0.250000,0.250000,0.250000,0.250000,0.250000,0.250000:pos_vel_
1549351176.131042,cobot_dynamixel_driver/goal|-:J3:-10.000000:eff_
1549351176.721711,cobot_dynamixel_driver/goal|-:J3:0.000000:eff_
1549351176.831710,cobot_dynamixel_driver/goal|-:J1,J2,J3,J4,J5,J6:0.000000,0.000000,-0.523599,0.000000,0.000000,0.000000:0.250000,0.250000,0.250000,0.250000,0.250000,0.250000:pos_vel_
1549351179.958794,cobot_dynamixel_driver/goal|-:J3:0.000000:eff_
1549351180.060900,cobot_dynamixel_driver/goal|-:J1,J2,J3,J4,J5,J6:0.000000,0.000000,-0.523599,0.000000,0.000000,0.000000:0.250000,0.250000,0.250000,0.250000,0.250000,0.250000:pos_vel_
1549351182.675964,cobot_dynamixel_driver/goal|-:J3:0.000000:eff_
1549351182.778446,cobot_dynamixel_driver/goal|-:J1,J2,J3,J4,J5,J6:0.000000,0.000000,-0.523599,0.000000,0.000000,0.000000:0.250000,0.250000,0.250000,0.250000,0.250000,0.250000:pos_vel_
1549351183.476911,cobot_dynamixel_driver/goal|-:J3:10.000000:eff_
1549351184.091504,cobot_dynamixel_driver/goal|-:J3:0.000000:eff_
1549351184.173516,cobot_dynamixel_driver/goal|-:J1,J2,J3,J4,J5,J6:0.000000,0.000000,-0.523599,0.000000,0.000000,0.000000:0.250000,0.250000,0.250000,0.250000,0.250000,0.250000:pos_vel_
1549351644.450204,cobot_dynamixel_driver/goal|-:J1,J2,J3,J4,J5,J6:0.000000,0.000000,0.000000,0.000000,0.000000,0.000000:0.500000,0.500000,0.500000,0.500000,0.500000,0.500000:pos_vel_
1549352913.828757,cobot_dynamixel_driver/goal|-:J1,J2,J3,J4,J5,J6:0.000000,0.000000,0.000000,0.000000,0.000000,0.000000:0.500000,0.500000,0.500000,0.500000,0.500000,0.500000:pos_vel_
1549352915.884720,cobot_dynamixel_driver/goal|-:J1,J2,J3,J4,J5,J6:0.197354,0.018226,-0.018356,-0.000024,0.000172,0.197435:0.500000,0.500000,0.500000,0.500000,0.500000,0.500000:pos_vel_
1549352916.805185,cobot_dynamixel_driver/goal|-:J1,J2,J3,J4,J5,J6:0.000000,0.000000,0.000000,0.000000,0.000000,0.000000:0.500000,0.500000,0.500000,0.500000,0.500000,0.500000:pos_vel_
1549352921.668143,cobot_dynamixel_driver/goal|-:J3:0.000000:eff_
1549352921.770338,cobot_dynamixel_driver/goal|-:J1,J2,J3,J4,J5,J6:0.000000,0.000000,0.523599,0.000000,0.000000,0.000000:0.250000,0.250000,0.250000,0.250000,0.250000,0.250000:pos_vel_
1549352925.169190,cobot_dynamixel_driver/goal|-:J3:-257.812500:eff_
1549352925.272421,cobot_dynamixel_driver/goal|-:J3:-257.812500:eff_
1549352925.383247,cobot_dynamixel_driver/goal|-:J3:-257.812500:eff_
1549352925.466087,cobot_dynamixel_driver/goal|-:J3:-10.000000:eff_
1549352926.089009,cobot_dynamixel_driver/goal|-:J3:0.000000:eff_
1549352926.172764,cobot_dynamixel_driver/goal|-:J1,J2,J3,J4,J5,J6:0.000000,0.000000,0.523599,0.000000,0.000000,0.000000:0.250000,0.250000,0.250000,0.250000,0.250000,0.250000:pos_vel_
1549352928.518565,cobot_dynamixel_driver/goal|-:J3:0.000000:eff_
1549352928.621655,cobot_dynamixel_driver/goal|-:J1,J2,J3,J4,J5,J6:0.000000,0.000000,0.523599,0.000000,0.000000,0.000000:0.250000,0.250000,0.250000,0.250000,0.250000,0.250000:pos_vel_
1549352929.831878,cobot_dynamixel_driver/goal|-:J3:-644.531250:eff_
1549352929.934202,cobot_dynamixel_driver/goal|-:J3:-644.531250:eff_
1549352930.016803,cobot_dynamixel_driver/goal|-:J3:-644.531250:eff_
1549352930.126532,cobot_dynamixel_driver/goal|-:J3:-644.531250:eff_
1549352930.236594,cobot_dynamixel_driver/goal|-:J3:-644.531250:eff_
1549352930.344403,cobot_dynamixel_driver/goal|-:J3:-644.531250:eff_
1549352930.426583,cobot_dynamixel_driver/goal|-:J3:10.000000:eff_
1549352931.049307,cobot_dynamixel_driver/goal|-:J3:0.000000:eff_
1549352931.131110,cobot_dynamixel_driver/goal|-:J1,J2,J3,J4,J5,J6:0.000000,0.000000,0.523599,0.000000,0.000000,0.000000:0.250000,0.250000,0.250000,0.250000,0.250000,0.250000:pos_vel_
1549352933.880444,cobot_dynamixel_driver/goal|-:J3:0.000000:eff_
1549352933.955357,cobot_dynamixel_driver/goal|-:J1,J2,J3,J4,J5,J6:0.000000,0.000000,0.436332,0.000000,0.000000,0.000000:0.250000,0.250000,0.250000,0.250000,0.250000,0.250000:pos_vel_
1549352935.464359,cobot_dynamixel_driver/goal|-:J3:-612.304688:eff_
1549352935.566509,cobot_dynamixel_driver/goal|-:J3:-612.304688:eff_
1549352935.677339,cobot_dynamixel_driver/goal|-:J3:-612.304688:eff_
1549352935.787150,cobot_dynamixel_driver/goal|-:J3:-10.000000:eff_
1549352936.381808,cobot_dynamixel_driver/goal|-:J3:0.000000:eff_
1549352936.491735,cobot_dynamixel_driver/goal|-:J1,J2,J3,J4,J5,J6:0.000000,0.000000,0.436332,0.000000,0.000000,0.000000:0.250000,0.250000,0.250000,0.250000,0.250000,0.250000:pos_vel_
1549352939.104483,cobot_dynamixel_driver/goal|-:J3:0.000000:eff_
1549352939.206624,cobot_dynamixel_driver/goal|-:J1,J2,J3,J4,J5,J6:0.000000,0.000000,0.436332,0.000000,0.000000,0.000000:0.250000,0.250000,0.250000,0.250000,0.250000,0.250000:pos_vel_
1549352940.418796,cobot_dynamixel_driver/goal|-:J3:-789.550781:eff_
1549352940.521158,cobot_dynamixel_driver/goal|-:J3:-789.550781:eff_
1549352940.603744,cobot_dynamixel_driver/goal|-:J3:-789.550781:eff_
1549352940.712758,cobot_dynamixel_driver/goal|-:J3:-789.550781:eff_
1549352940.822609,cobot_dynamixel_driver/goal|-:J3:-789.550781:eff_
1549352940.931476,cobot_dynamixel_driver/goal|-:J3:-789.550781:eff_
1549352941.013547,cobot_dynamixel_driver/goal|-:J3:-789.550781:eff_
1549352941.123596,cobot_dynamixel_driver/goal|-:J3:-789.550781:eff_
1549352941.233319,cobot_dynamixel_driver/goal|-:J3:-789.550781:eff_
1549352941.341453,cobot_dynamixel_driver/goal|-:J3:10.000000:eff_
1549352941.937126,cobot_dynamixel_driver/goal|-:J3:0.000000:eff_
1549352942.047018,cobot_dynamixel_driver/goal|-:J1,J2,J3,J4,J5,J6:0.000000,0.000000,0.436332,0.000000,0.000000,0.000000:0.250000,0.250000,0.250000,0.250000,0.250000,0.250000:pos_vel_
1549352944.662414,cobot_dynamixel_driver/goal|-:J3:0.000000:eff_
1549352944.764336,cobot_dynamixel_driver/goal|-:J1,J2,J3,J4,J5,J6:0.000000,0.000000,0.349066,0.000000,0.000000,0.000000:0.250000,0.250000,0.250000,0.250000,0.250000,0.250000:pos_vel_
1549352946.351429,cobot_dynamixel_driver/goal|-:J3:-612.304688:eff_
1549352946.453692,cobot_dynamixel_driver/goal|-:J3:-612.304688:eff_
1549352946.564473,cobot_dynamixel_driver/goal|-:J3:-612.304688:eff_
1549352946.673306,cobot_dynamixel_driver/goal|-:J3:-10.000000:eff_
1549352947.269938,cobot_dynamixel_driver/goal|-:J3:0.000000:eff_
1549352947.379818,cobot_dynamixel_driver/goal|-:J1,J2,J3,J4,J5,J6:0.000000,0.000000,0.349066,0.000000,0.000000,0.000000:0.250000,0.250000,0.250000,0.250000,0.250000,0.250000:pos_vel_
1549352949.802357,cobot_dynamixel_driver/goal|-:J3:0.000000:eff_
1549352949.904641,cobot_dynamixel_driver/goal|-:J1,J2,J3,J4,J5,J6:0.000000,0.000000,0.349066,0.000000,0.000000,0.000000:0.250000,0.250000,0.250000,0.250000,0.250000,0.250000:pos_vel_
1549352951.196715,cobot_dynamixel_driver/goal|-:J3:-837.890625:eff_
1549352951.298867,cobot_dynamixel_driver/goal|-:J3:-837.890625:eff_
1549352951.409700,cobot_dynamixel_driver/goal|-:J3:-837.890625:eff_
1549352951.519543,cobot_dynamixel_driver/goal|-:J3:-837.890625:eff_
1549352951.602524,cobot_dynamixel_driver/goal|-:J3:-837.890625:eff_
1549352951.712450,cobot_dynamixel_driver/goal|-:J3:-837.890625:eff_
1549352951.821387,cobot_dynamixel_driver/goal|-:J3:-837.890625:eff_
1549352951.930289,cobot_dynamixel_driver/goal|-:J3:-837.890625:eff_
1549352952.013127,cobot_dynamixel_driver/goal|-:J3:-837.890625:eff_
1549352952.122093,cobot_dynamixel_driver/goal|-:J3:-837.890625:eff_
1549352952.232167,cobot_dynamixel_driver/goal|-:J3:-837.890625:eff_
1549352952.315261,cobot_dynamixel_driver/goal|-:J3:-837.890625:eff_
1549352952.423015,cobot_dynamixel_driver/goal|-:J3:-837.890625:eff_
1549352952.532988,cobot_dynamixel_driver/goal|-:J3:-837.890625:eff_
1549352952.641689,cobot_dynamixel_driver/goal|-:J3:-837.890625:eff_
1549352952.722667,cobot_dynamixel_driver/goal|-:J3:-837.890625:eff_
1549352952.831001,cobot_dynamixel_driver/goal|-:J3:-837.890625:eff_
1549352952.941563,cobot_dynamixel_driver/goal|-:J3:-837.890625:eff_
1549352953.049532,cobot_dynamixel_driver/goal|-:J3:10.000000:eff_
1549352953.645415,cobot_dynamixel_driver/goal|-:J3:0.000000:eff_
1549352953.755368,cobot_dynamixel_driver/goal|-:J1,J2,J3,J4,J5,J6:0.000000,0.000000,0.349066,0.000000,0.000000,0.000000:0.250000,0.250000,0.250000,0.250000,0.250000,0.250000:pos_vel_
1549352956.153069,cobot_dynamixel_driver/goal|-:J3:0.000000:eff_
1549352956.255127,cobot_dynamixel_driver/goal|-:J1,J2,J3,J4,J5,J6:0.000000,0.000000,0.261799,0.000000,0.000000,0.000000:0.250000,0.250000,0.250000,0.250000,0.250000,0.250000:pos_vel_
1549352957.872996,cobot_dynamixel_driver/goal|-:J3:-757.324219:eff_
1549352957.974802,cobot_dynamixel_driver/goal|-:J3:-757.324219:eff_
1549352958.055677,cobot_dynamixel_driver/goal|-:J3:-757.324219:eff_
1549352958.164852,cobot_dynamixel_driver/goal|-:J3:-757.324219:eff_
1549352958.274737,cobot_dynamixel_driver/goal|-:J3:-757.324219:eff_
1549352958.383465,cobot_dynamixel_driver/goal|-:J3:-10.000000:eff_
1549352958.977361,cobot_dynamixel_driver/goal|-:J3:0.000000:eff_
1549352959.086067,cobot_dynamixel_driver/goal|-:J1,J2,J3,J4,J5,J6:0.000000,0.000000,0.261799,0.000000,0.000000,0.000000:0.250000,0.250000,0.250000,0.250000,0.250000,0.250000:pos_vel_
1549352962.214475,cobot_dynamixel_driver/goal|-:J3:0.000000:eff_
1549352962.290315,cobot_dynamixel_driver/goal|-:J1,J2,J3,J4,J5,J6:0.000000,0.000000,0.261799,0.000000,0.000000,0.000000:0.250000,0.250000,0.250000,0.250000,0.250000,0.250000:pos_vel_
1549352963.310701,cobot_dynamixel_driver/goal|-:J3:-708.984375:eff_
1549352963.412903,cobot_dynamixel_driver/goal|-:J3:-708.984375:eff_
1549352963.496636,cobot_dynamixel_driver/goal|-:J3:-708.984375:eff_
1549352963.606553,cobot_dynamixel_driver/goal|-:J3:-708.984375:eff_
1549352963.715533,cobot_dynamixel_driver/goal|-:J3:10.000000:eff_
1549352964.310175,cobot_dynamixel_driver/goal|-:J3:0.000000:eff_
1549352964.420163,cobot_dynamixel_driver/goal|-:J1,J2,J3,J4,J5,J6:0.000000,0.000000,0.261799,0.000000,0.000000,0.000000:0.250000,0.250000,0.250000,0.250000,0.250000,0.250000:pos_vel_
1549352967.140712,cobot_dynamixel_driver/goal|-:J3:0.000000:eff_
1549352967.242931,cobot_dynamixel_driver/goal|-:J1,J2,J3,J4,J5,J6:0.000000,0.000000,0.174533,0.000000,0.000000,0.000000:0.250000,0.250000,0.250000,0.250000,0.250000,0.250000:pos_vel_
1549352968.940867,cobot_dynamixel_driver/goal|-:J3:-789.550781:eff_
1549352969.043089,cobot_dynamixel_driver/goal|-:J3:-789.550781:eff_
1549352969.151581,cobot_dynamixel_driver/goal|-:J3:-789.550781:eff_
1549352969.259388,cobot_dynamixel_driver/goal|-:J3:-789.550781:eff_
1549352969.340290,cobot_dynamixel_driver/goal|-:J3:-10.000000:eff_
1549352969.963047,cobot_dynamixel_driver/goal|-:J3:0.000000:eff_
1549352970.046141,cobot_dynamixel_driver/goal|-:J1,J2,J3,J4,J5,J6:0.000000,0.000000,0.174533,0.000000,0.000000,0.000000:0.250000,0.250000,0.250000,0.250000,0.250000,0.250000:pos_vel_
1549352972.984029,cobot_dynamixel_driver/goal|-:J3:0.000000:eff_
1549352973.086051,cobot_dynamixel_driver/goal|-:J1,J2,J3,J4,J5,J6:0.000000,0.000000,0.174533,0.000000,0.000000,0.000000:0.250000,0.250000,0.250000,0.250000,0.250000,0.250000:pos_vel_
1549352974.188463,cobot_dynamixel_driver/goal|-:J3:-837.890625:eff_
1549352974.290324,cobot_dynamixel_driver/goal|-:J3:-837.890625:eff_
1549352974.371032,cobot_dynamixel_driver/goal|-:J3:-837.890625:eff_
1549352974.479021,cobot_dynamixel_driver/goal|-:J3:-837.890625:eff_
1549352974.586970,cobot_dynamixel_driver/goal|-:J3:-837.890625:eff_
1549352974.695913,cobot_dynamixel_driver/goal|-:J3:-837.890625:eff_
1549352974.777895,cobot_dynamixel_driver/goal|-:J3:10.000000:eff_
1549352975.398575,cobot_dynamixel_driver/goal|-:J3:0.000000:eff_
1549352975.481774,cobot_dynamixel_driver/goal|-:J1,J2,J3,J4,J5,J6:0.000000,0.000000,0.174533,0.000000,0.000000,0.000000:0.250000,0.250000,0.250000,0.250000,0.250000,0.250000:pos_vel_
1549352978.316050,cobot_dynamixel_driver/goal|-:J3:0.000000:eff_
1549352978.418270,cobot_dynamixel_driver/goal|-:J1,J2,J3,J4,J5,J6:0.000000,0.000000,0.087266,0.000000,0.000000,0.000000:0.250000,0.250000,0.250000,0.250000,0.250000,0.250000:pos_vel_
1549352980.007101,cobot_dynamixel_driver/goal|-:J3:-854.003906:eff_
1549352980.109153,cobot_dynamixel_driver/goal|-:J3:-854.003906:eff_
1549352980.218252,cobot_dynamixel_driver/goal|-:J3:-854.003906:eff_
1549352980.328131,cobot_dynamixel_driver/goal|-:J3:-854.003906:eff_
1549352980.411029,cobot_dynamixel_driver/goal|-:J3:-854.003906:eff_
1549352980.521181,cobot_dynamixel_driver/goal|-:J3:-854.003906:eff_
1549352980.630948,cobot_dynamixel_driver/goal|-:J3:-854.003906:eff_
1549352980.741047,cobot_dynamixel_driver/goal|-:J3:-854.003906:eff_
1549352980.822835,cobot_dynamixel_driver/goal|-:J3:-854.003906:eff_
1549352980.932043,cobot_dynamixel_driver/goal|-:J3:-854.003906:eff_
1549352981.040733,cobot_dynamixel_driver/goal|-:J3:-854.003906:eff_
1549352981.150799,cobot_dynamixel_driver/goal|-:J3:-854.003906:eff_
1549352981.233812,cobot_dynamixel_driver/goal|-:J3:-854.003906:eff_
1549352981.342620,cobot_dynamixel_driver/goal|-:J3:-854.003906:eff_
1549352981.451678,cobot_dynamixel_driver/goal|-:J3:-10.000000:eff_
1549352982.049209,cobot_dynamixel_driver/goal|-:J3:0.000000:eff_
1549352982.159117,cobot_dynamixel_driver/goal|-:J1,J2,J3,J4,J5,J6:0.000000,0.000000,0.087266,0.000000,0.000000,0.000000:0.250000,0.250000,0.250000,0.250000,0.250000,0.250000:pos_vel_
1549352984.962738,cobot_dynamixel_driver/goal|-:J3:0.000000:eff_
1549352985.065753,cobot_dynamixel_driver/goal|-:J1,J2,J3,J4,J5,J6:0.000000,0.000000,0.087266,0.000000,0.000000,0.000000:0.250000,0.250000,0.250000,0.250000,0.250000,0.250000:pos_vel_
1549352986.276623,cobot_dynamixel_driver/goal|-:J3:-757.324219:eff_
1549352986.378918,cobot_dynamixel_driver/goal|-:J3:-757.324219:eff_
1549352986.489575,cobot_dynamixel_driver/goal|-:J3:-757.324219:eff_
1549352986.572431,cobot_dynamixel_driver/goal|-:J3:-757.324219:eff_
1549352986.682274,cobot_dynamixel_driver/goal|-:J3:10.000000:eff_
1549352987.278080,cobot_dynamixel_driver/goal|-:J3:0.000000:eff_
1549352987.386691,cobot_dynamixel_driver/goal|-:J1,J2,J3,J4,J5,J6:0.000000,0.000000,0.087266,0.000000,0.000000,0.000000:0.250000,0.250000,0.250000,0.250000,0.250000,0.250000:pos_vel_
1549352990.326287,cobot_dynamixel_driver/goal|-:J3:0.000000:eff_
1549352990.428598,cobot_dynamixel_driver/goal|-:J1,J2,J3,J4,J5,J6:0.000000,0.000000,0.000000,0.000000,0.000000,0.000000:0.250000,0.250000,0.250000,0.250000,0.250000,0.250000:pos_vel_
1549352992.126572,cobot_dynamixel_driver/goal|-:J3:-708.984375:eff_
1549352992.228806,cobot_dynamixel_driver/goal|-:J3:-708.984375:eff_
1549352992.339437,cobot_dynamixel_driver/goal|-:J3:-708.984375:eff_
1549352992.421441,cobot_dynamixel_driver/goal|-:J3:-10.000000:eff_
1549352993.044154,cobot_dynamixel_driver/goal|-:J3:0.000000:eff_
1549352993.154088,cobot_dynamixel_driver/goal|-:J1,J2,J3,J4,J5,J6:0.000000,0.000000,0.000000,0.000000,0.000000,0.000000:0.250000,0.250000,0.250000,0.250000,0.250000,0.250000:pos_vel_
1549352996.173524,cobot_dynamixel_driver/goal|-:J3:0.000000:eff_
1549352996.275684,cobot_dynamixel_driver/goal|-:J1,J2,J3,J4,J5,J6:0.000000,0.000000,0.000000,0.000000,0.000000,0.000000:0.250000,0.250000,0.250000,0.250000,0.250000,0.250000:pos_vel_
1549352997.486670,cobot_dynamixel_driver/goal|-:J3:-725.097656:eff_
1549352997.588822,cobot_dynamixel_driver/goal|-:J3:-725.097656:eff_
1549352997.672506,cobot_dynamixel_driver/goal|-:J3:-725.097656:eff_
1549352997.782544,cobot_dynamixel_driver/goal|-:J3:-725.097656:eff_
1549352997.892309,cobot_dynamixel_driver/goal|-:J3:10.000000:eff_
1549352998.487058,cobot_dynamixel_driver/goal|-:J3:0.000000:eff_
1549352998.596852,cobot_dynamixel_driver/goal|-:J1,J2,J3,J4,J5,J6:0.000000,0.000000,0.000000,0.000000,0.000000,0.000000:0.250000,0.250000,0.250000,0.250000,0.250000,0.250000:pos_vel_
1549353001.510259,cobot_dynamixel_driver/goal|-:J3:0.000000:eff_
1549353001.612360,cobot_dynamixel_driver/goal|-:J1,J2,J3,J4,J5,J6:0.000000,0.000000,-0.087266,0.000000,0.000000,0.000000:0.250000,0.250000,0.250000,0.250000,0.250000,0.250000:pos_vel_
1549353003.311123,cobot_dynamixel_driver/goal|-:J3:-837.890625:eff_
1549353003.413385,cobot_dynamixel_driver/goal|-:J3:-837.890625:eff_
1549353003.524031,cobot_dynamixel_driver/goal|-:J3:-837.890625:eff_
1549353003.606961,cobot_dynamixel_driver/goal|-:J3:-837.890625:eff_
1549353003.716949,cobot_dynamixel_driver/goal|-:J3:-10.000000:eff_
1549353004.314693,cobot_dynamixel_driver/goal|-:J3:0.000000:eff_
1549353004.424760,cobot_dynamixel_driver/goal|-:J1,J2,J3,J4,J5,J6:0.000000,0.000000,-0.087266,0.000000,0.000000,0.000000:0.250000,0.250000,0.250000,0.250000,0.250000,0.250000:pos_vel_
1549353007.553029,cobot_dynamixel_driver/goal|-:J3:0.000000:eff_
1549353007.655364,cobot_dynamixel_driver/goal|-:J1,J2,J3,J4,J5,J6:0.000000,0.000000,-0.087266,0.000000,0.000000,0.000000:0.250000,0.250000,0.250000,0.250000,0.250000,0.250000:pos_vel_
1549353008.650592,cobot_dynamixel_driver/goal|-:J3:-837.890625:eff_
1549353008.752746,cobot_dynamixel_driver/goal|-:J3:-837.890625:eff_
1549353008.863518,cobot_dynamixel_driver/goal|-:J3:-837.890625:eff_
1549353008.973403,cobot_dynamixel_driver/goal|-:J3:-837.890625:eff_
1549353009.083336,cobot_dynamixel_driver/goal|-:J3:10.000000:eff_
1549353009.679915,cobot_dynamixel_driver/goal|-:J3:0.000000:eff_
1549353009.789932,cobot_dynamixel_driver/goal|-:J1,J2,J3,J4,J5,J6:0.000000,0.000000,-0.087266,0.000000,0.000000,0.000000:0.250000,0.250000,0.250000,0.250000,0.250000,0.250000:pos_vel_
1549353012.621997,cobot_dynamixel_driver/goal|-:J3:0.000000:eff_
1549353012.724223,cobot_dynamixel_driver/goal|-:J1,J2,J3,J4,J5,J6:0.000000,0.000000,-0.174533,0.000000,0.000000,0.000000:0.250000,0.250000,0.250000,0.250000,0.250000,0.250000:pos_vel_
1549353014.420965,cobot_dynamixel_driver/goal|-:J3:-757.324219:eff_
1549353014.524088,cobot_dynamixel_driver/goal|-:J3:-757.324219:eff_
1549353014.606800,cobot_dynamixel_driver/goal|-:J3:-757.324219:eff_
1549353014.716791,cobot_dynamixel_driver/goal|-:J3:-757.324219:eff_
1549353014.826638,cobot_dynamixel_driver/goal|-:J3:-10.000000:eff_
1549353015.422392,cobot_dynamixel_driver/goal|-:J3:0.000000:eff_
1549353015.532301,cobot_dynamixel_driver/goal|-:J1,J2,J3,J4,J5,J6:0.000000,0.000000,-0.174533,0.000000,0.000000,0.000000:0.250000,0.250000,0.250000,0.250000,0.250000,0.250000:pos_vel_
1549353018.659440,cobot_dynamixel_driver/goal|-:J3:0.000000:eff_
1549353018.761971,cobot_dynamixel_driver/goal|-:J1,J2,J3,J4,J5,J6:0.000000,0.000000,-0.174533,0.000000,0.000000,0.000000:0.250000,0.250000,0.250000,0.250000,0.250000,0.250000:pos_vel_
1549353019.755069,cobot_dynamixel_driver/goal|-:J3:-757.324219:eff_
1549353019.857530,cobot_dynamixel_driver/goal|-:J3:-757.324219:eff_
1549353019.967184,cobot_dynamixel_driver/goal|-:J3:-757.324219:eff_
1549353020.077218,cobot_dynamixel_driver/goal|-:J3:10.000000:eff_
1549353020.672785,cobot_dynamixel_driver/goal|-:J3:0.000000:eff_
1549353020.782696,cobot_dynamixel_driver/goal|-:J1,J2,J3,J4,J5,J6:0.000000,0.000000,-0.174533,0.000000,0.000000,0.000000:0.250000,0.250000,0.250000,0.250000,0.250000,0.250000:pos_vel_
1549353023.800946,cobot_dynamixel_driver/goal|-:J3:0.000000:eff_
1549353023.903009,cobot_dynamixel_driver/goal|-:J1,J2,J3,J4,J5,J6:0.000000,0.000000,-0.261799,0.000000,0.000000,0.000000:0.250000,0.250000,0.250000,0.250000,0.250000,0.250000:pos_vel_
1549353025.598721,cobot_dynamixel_driver/goal|-:J3:-773.437500:eff_
1549353025.700985,cobot_dynamixel_driver/goal|-:J3:-773.437500:eff_
1549353025.811669,cobot_dynamixel_driver/goal|-:J3:-773.437500:eff_
1549353025.920501,cobot_dynamixel_driver/goal|-:J3:-773.437500:eff_
1549353026.003597,cobot_dynamixel_driver/goal|-:J3:-10.000000:eff_
1549353026.627299,cobot_dynamixel_driver/goal|-:J3:0.000000:eff_
1549353026.736223,cobot_dynamixel_driver/goal|-:J1,J2,J3,J4,J5,J6:0.000000,0.000000,-0.261799,0.000000,0.000000,0.000000:0.250000,0.250000,0.250000,0.250000,0.250000,0.250000:pos_vel_
1549353029.649440,cobot_dynamixel_driver/goal|-:J3:0.000000:eff_
1549353029.751533,cobot_dynamixel_driver/goal|-:J1,J2,J3,J4,J5,J6:0.000000,0.000000,-0.261799,0.000000,0.000000,0.000000:0.250000,0.250000,0.250000,0.250000,0.250000,0.250000:pos_vel_
1549353031.043117,cobot_dynamixel_driver/goal|-:J3:-950.683594:eff_
1549353031.146102,cobot_dynamixel_driver/goal|-:J3:-950.683594:eff_
1549353031.256914,cobot_dynamixel_driver/goal|-:J3:-950.683594:eff_
1549353031.366450,cobot_dynamixel_driver/goal|-:J3:-950.683594:eff_
1549353031.448642,cobot_dynamixel_driver/goal|-:J3:-950.683594:eff_
1549353031.557714,cobot_dynamixel_driver/goal|-:J3:-950.683594:eff_
1549353031.666385,cobot_dynamixel_driver/goal|-:J3:-950.683594:eff_
1549353031.776338,cobot_dynamixel_driver/goal|-:J3:-950.683594:eff_
1549353031.857659,cobot_dynamixel_driver/goal|-:J3:-950.683594:eff_
1549353031.967551,cobot_dynamixel_driver/goal|-:J3:-950.683594:eff_
1549353032.076453,cobot_dynamixel_driver/goal|-:J3:-950.683594:eff_
1549353032.186148,cobot_dynamixel_driver/goal|-:J3:-950.683594:eff_
1549353032.268086,cobot_dynamixel_driver/goal|-:J3:-950.683594:eff_
1549353032.377288,cobot_dynamixel_driver/goal|-:J3:-950.683594:eff_
1549353032.487117,cobot_dynamixel_driver/goal|-:J3:-950.683594:eff_
1549353032.597199,cobot_dynamixel_driver/goal|-:J3:-950.683594:eff_
1549353032.680327,cobot_dynamixel_driver/goal|-:J3:-950.683594:eff_
1549353032.791162,cobot_dynamixel_driver/goal|-:J3:-950.683594:eff_
1549353032.901184,cobot_dynamixel_driver/goal|-:J3:-950.683594:eff_
1549353032.982992,cobot_dynamixel_driver/goal|-:J3:-950.683594:eff_
1549353033.091887,cobot_dynamixel_driver/goal|-:J3:-950.683594:eff_
1549353033.201690,cobot_dynamixel_driver/goal|-:J3:-950.683594:eff_
1549353033.309590,cobot_dynamixel_driver/goal|-:J3:-950.683594:eff_
1549353033.391509,cobot_dynamixel_driver/goal|-:J3:-950.683594:eff_
1549353033.500512,cobot_dynamixel_driver/goal|-:J3:-950.683594:eff_
1549353033.608695,cobot_dynamixel_driver/goal|-:J3:-950.683594:eff_
1549353033.717500,cobot_dynamixel_driver/goal|-:J3:-950.683594:eff_
1549353033.798312,cobot_dynamixel_driver/goal|-:J3:-950.683594:eff_
1549353033.908496,cobot_dynamixel_driver/goal|-:J3:-950.683594:eff_
1549353034.016243,cobot_dynamixel_driver/goal|-:J3:-950.683594:eff_
1549353034.115343,cobot_dynamixel_driver/goal|-:J3:-950.683594:eff_
1549353034.170161,cobot_dynamixel_driver/goal|-:J3:-950.683594:eff_
1549353034.170161,cobot_dynamixel_driver/goal|-:J3:-950.683594:eff_
1549353034.170161,cobot_dynamixel_driver/goal|-:J3:-950.683594:eff_
1549353034.170161,cobot_dynamixel_driver/goal|-:J3:-950.683594:eff_
1549353034.170161,cobot_dynamixel_driver/goal|-:J3:-950.683594:eff_
1549353034.170161,cobot_dynamixel_driver/goal|-:J3:-950.683594:eff_
1549353034.170161,cobot_dynamixel_driver/goal|-:J3:-950.683594:eff_
1549353034.170161,cobot_dynamixel_driver/goal|-:J3:-950.683594:eff_
1549353034.170161,cobot_dynamixel_driver/goal|-:J3:-950.683594:eff_
1549353034.170161,cobot_dynamixel_driver/goal|-:J3:-950.683594:eff_
1549353034.170161,cobot_dynamixel_driver/goal|-:J3:-950.683594:eff_
1549353034.170161,cobot_dynamixel_driver/goal|-:J3:-950.683594:eff_
1549353034.170161,cobot_dynamixel_driver/goal|-:J3:-950.683594:eff_
1549353034.170161,cobot_dynamixel_driver/goal|-:J3:-950.683594:eff_
1549353034.170161,cobot_dynamixel_driver/goal|-:J3:-950.683594:eff_
1549353034.170161,cobot_dynamixel_driver/goal|-:J3:-950.683594:eff_
1549353034.170161,cobot_dynamixel_driver/goal|-:J3:-950.683594:eff_
1549353034.170161,cobot_dynamixel_driver/goal|-:J3:-950.683594:eff_
1549353034.170161,cobot_dynamixel_driver/goal|-:J3:-950.683594:eff_
1549353034.170161,cobot_dynamixel_driver/goal|-:J3:-950.683594:eff_
1549353034.170161,cobot_dynamixel_driver/goal|-:J3:-950.683594:eff_
1549353034.170161,cobot_dynamixel_driver/goal|-:J3:-950.683594:eff_
1549353034.170161,cobot_dynamixel_driver/goal|-:J3:-950.683594:eff_
1549353034.170161,cobot_dynamixel_driver/goal|-:J3:-950.683594:eff_
1549353034.170161,cobot_dynamixel_driver/goal|-:J3:-950.683594:eff_
1549353034.170161,cobot_dynamixel_driver/goal|-:J3:-950.683594:eff_
1549353034.170161,cobot_dynamixel_driver/goal|-:J3:-950.683594:eff_
1549353034.170161,cobot_dynamixel_driver/goal|-:J3:-950.683594:eff_
1549353034.170161,cobot_dynamixel_driver/goal|-:J3:-950.683594:eff_
1549353034.170161,cobot_dynamixel_driver/goal|-:J3:-950.683594:eff_
1549353034.170161,cobot_dynamixel_driver/goal|-:J3:-950.683594:eff_
1549353034.170161,cobot_dynamixel_driver/goal|-:J3:-950.683594:eff_
1549353034.170161,cobot_dynamixel_driver/goal|-:J3:-950.683594:eff_
1549353034.170161,cobot_dynamixel_driver/goal|-:J3:-950.683594:eff_
1549353034.170161,cobot_dynamixel_driver/goal|-:J3:-950.683594:eff_
1549353034.170161,cobot_dynamixel_driver/goal|-:J3:-950.683594:eff_
1549353034.170161,cobot_dynamixel_driver/goal|-:J3:-950.683594:eff_
1549353034.170161,cobot_dynamixel_driver/goal|-:J3:-950.683594:eff_
1549353034.170161,cobot_dynamixel_driver/goal|-:J3:-950.683594:eff_
1549353034.170161,cobot_dynamixel_driver/goal|-:J3:-950.683594:eff_
1549353034.170161,cobot_dynamixel_driver/goal|-:J3:-950.683594:eff_
1549353034.170161,cobot_dynamixel_driver/goal|-:J3:-950.683594:eff_
1549353034.170161,cobot_dynamixel_driver/goal|-:J3:-950.683594:eff_
1549353034.170161,cobot_dynamixel_driver/goal|-:J3:-950.683594:eff_
1549353034.170161,cobot_dynamixel_driver/goal|-:J3:-950.683594:eff_
1549353034.170161,cobot_dynamixel_driver/goal|-:J3:-950.683594:eff_
1549353034.170161,cobot_dynamixel_driver/goal|-:J3:-950.683594:eff_
1549353034.170161,cobot_dynamixel_driver/goal|-:J3:-950.683594:eff_
1549353034.170161,cobot_dynamixel_driver/goal|-:J3:-950.683594:eff_
1549353034.170161,cobot_dynamixel_driver/goal|-:J3:-950.683594:eff_
1549353034.170161,cobot_dynamixel_driver/goal|-:J3:-950.683594:eff_
1549353034.170161,cobot_dynamixel_driver/goal|-:J3:-950.683594:eff_
1549353034.170161,cobot_dynamixel_driver/goal|-:J3:-950.683594:eff_
1549353034.170161,cobot_dynamixel_driver/goal|-:J3:-950.683594:eff_
1549353034.170161,cobot_dynamixel_driver/goal|-:J3:-950.683594:eff_
1549353034.170161,cobot_dynamixel_driver/goal|-:J3:-950.683594:eff_
1549353034.170161,cobot_dynamixel_driver/goal|-:J3:-950.683594:eff_
1549353034.170161,cobot_dynamixel_driver/goal|-:J3:-950.683594:eff_
1549353034.170161,cobot_dynamixel_driver/goal|-:J3:-950.683594:eff_
1549353034.170161,cobot_dynamixel_driver/goal|-:J3:-950.683594:eff_
1549353034.170161,cobot_dynamixel_driver/goal|-:J3:-950.683594:eff_
1549353034.170161,cobot_dynamixel_driver/goal|-:J3:-950.683594:eff_
1549353034.170161,cobot_dynamixel_driver/goal|-:J3:-950.683594:eff_
1549353034.170161,cobot_dynamixel_driver/goal|-:J3:-950.683594:eff_
1549353034.170161,cobot_dynamixel_driver/goal|-:J3:-950.683594:eff_
1549353034.170161,cobot_dynamixel_driver/goal|-:J3:-950.683594:eff_
1549353034.170161,cobot_dynamixel_driver/goal|-:J3:-950.683594:eff_
1549353034.170161,cobot_dynamixel_driver/goal|-:J3:-950.683594:eff_
1549353034.170161,cobot_dynamixel_driver/goal|-:J3:-950.683594:eff_
1549353034.170161,cobot_dynamixel_driver/goal|-:J3:-950.683594:eff_
1549353034.170161,cobot_dynamixel_driver/goal|-:J3:-950.683594:eff_
1549353034.170161,cobot_dynamixel_driver/goal|-:J3:-950.683594:eff_
1549353034.170161,cobot_dynamixel_driver/goal|-:J3:-950.683594:eff_
1549353034.170161,cobot_dynamixel_driver/goal|-:J3:-950.683594:eff_
1549353034.170161,cobot_dynamixel_driver/goal|-:J3:-950.683594:eff_
1549353034.170161,cobot_dynamixel_driver/goal|-:J3:-950.683594:eff_
1549353034.170161,cobot_dynamixel_driver/goal|-:J3:-950.683594:eff_
1549353034.170161,cobot_dynamixel_driver/goal|-:J3:-950.683594:eff_
1549353034.170161,cobot_dynamixel_driver/goal|-:J3:-950.683594:eff_
1549353034.170161,cobot_dynamixel_driver/goal|-:J3:-950.683594:eff_
1549353034.170161,cobot_dynamixel_driver/goal|-:J3:-950.683594:eff_
1549353034.170161,cobot_dynamixel_driver/goal|-:J3:-950.683594:eff_
1549353034.170161,cobot_dynamixel_driver/goal|-:J3:-950.683594:eff_
1549353034.170161,cobot_dynamixel_driver/goal|-:J3:-950.683594:eff_
1549353034.170161,cobot_dynamixel_driver/goal|-:J3:-950.683594:eff_
1549353034.170161,cobot_dynamixel_driver/goal|-:J3:-950.683594:eff_
1549353034.170161,cobot_dynamixel_driver/goal|-:J3:-950.683594:eff_
1549353034.170161,cobot_dynamixel_driver/goal|-:J3:-950.683594:eff_
1549353034.170161,cobot_dynamixel_driver/goal|-:J3:-950.683594:eff_
1549353034.170161,cobot_dynamixel_driver/goal|-:J3:-950.683594:eff_
1549353034.170161,cobot_dynamixel_driver/goal|-:J3:-950.683594:eff_
1549353034.170161,cobot_dynamixel_driver/goal|-:J3:-950.683594:eff_
1549353034.170161,cobot_dynamixel_driver/goal|-:J3:-950.683594:eff_
1549353034.170161,cobot_dynamixel_driver/goal|-:J3:-950.683594:eff_
1549353034.170161,cobot_dynamixel_driver/goal|-:J3:-950.683594:eff_
1549353034.170161,cobot_dynamixel_driver/goal|-:J3:-950.683594:eff_
1549353034.170161,cobot_dynamixel_driver/goal|-:J3:-950.683594:eff_
1549353034.170161,cobot_dynamixel_driver/goal|-:J3:-950.683594:eff_
1549353034.170161,cobot_dynamixel_driver/goal|-:J3:-950.683594:eff_
1549353034.170161,cobot_dynamixel_driver/goal|-:J3:-950.683594:eff_
1549353034.170161,cobot_dynamixel_driver/goal|-:J3:-950.683594:eff_
1549353034.170161,cobot_dynamixel_driver/goal|-:J3:-950.683594:eff_
1549353034.170161,cobot_dynamixel_driver/goal|-:J3:-950.683594:eff_
1549353034.170161,cobot_dynamixel_driver/goal|-:J3:-950.683594:eff_
1549353034.170161,cobot_dynamixel_driver/goal|-:J3:-950.683594:eff_
1549353034.170161,cobot_dynamixel_driver/goal|-:J3:-950.683594:eff_
1549353034.170161,cobot_dynamixel_driver/goal|-:J3:-950.683594:eff_
1549353034.170161,cobot_dynamixel_driver/goal|-:J3:-950.683594:eff_
1549353034.170161,cobot_dynamixel_driver/goal|-:J3:-950.683594:eff_
1549353034.170161,cobot_dynamixel_driver/goal|-:J3:-950.683594:eff_
1549353034.170161,cobot_dynamixel_driver/goal|-:J3:-950.683594:eff_
1549353034.170161,cobot_dynamixel_driver/goal|-:J3:-950.683594:eff_
1549353034.170161,cobot_dynamixel_driver/goal|-:J3:-950.683594:eff_
1549353034.170161,cobot_dynamixel_driver/goal|-:J3:-950.683594:eff_
1549353034.170161,cobot_dynamixel_driver/goal|-:J3:-950.683594:eff_
1549353034.170161,cobot_dynamixel_driver/goal|-:J3:-950.683594:eff_
1549353034.170161,cobot_dynamixel_driver/goal|-:J3:-950.683594:eff_
1549353034.170161,cobot_dynamixel_driver/goal|-:J3:-950.683594:eff_
1549353034.170161,cobot_dynamixel_driver/goal|-:J3:-950.683594:eff_
1549353034.170161,cobot_dynamixel_driver/goal|-:J3:-950.683594:eff_
1549353034.170161,cobot_dynamixel_driver/goal|-:J3:-950.683594:eff_
1549353034.170161,cobot_dynamixel_driver/goal|-:J3:-950.683594:eff_
1549353034.170161,cobot_dynamixel_driver/goal|-:J3:-950.683594:eff_
1549353034.170161,cobot_dynamixel_driver/goal|-:J3:-950.683594:eff_
1549353034.170161,cobot_dynamixel_driver/goal|-:J3:-950.683594:eff_
1549353034.170161,cobot_dynamixel_driver/goal|-:J3:-950.683594:eff_
1549353034.170161,cobot_dynamixel_driver/goal|-:J3:-950.683594:eff_
1549353034.170161,cobot_dynamixel_driver/goal|-:J3:-950.683594:eff_
1549353034.170161,cobot_dynamixel_driver/goal|-:J3:-950.683594:eff_
1549353034.170161,cobot_dynamixel_driver/goal|-:J3:-950.683594:eff_
1549353034.170161,cobot_dynamixel_driver/goal|-:J3:-950.683594:eff_
1549353034.170161,cobot_dynamixel_driver/goal|-:J3:-950.683594:eff_
1549353034.170161,cobot_dynamixel_driver/goal|-:J3:-950.683594:eff_
1549353034.170161,cobot_dynamixel_driver/goal|-:J3:-950.683594:eff_
1549353034.170161,cobot_dynamixel_driver/goal|-:J3:-950.683594:eff_
1549353034.170161,cobot_dynamixel_driver/goal|-:J3:-950.683594:eff_
1549353034.170161,cobot_dynamixel_driver/goal|-:J3:-950.683594:eff_
1549353034.170161,cobot_dynamixel_driver/goal|-:J3:-950.683594:eff_
1549353034.170161,cobot_dynamixel_driver/goal|-:J3:-950.683594:eff_
1549353034.170161,cobot_dynamixel_driver/goal|-:J3:-950.683594:eff_
1549353034.170161,cobot_dynamixel_driver/goal|-:J3:-950.683594:eff_
1549353034.170161,cobot_dynamixel_driver/goal|-:J3:-950.683594:eff_
1549353034.170161,cobot_dynamixel_driver/goal|-:J3:-950.683594:eff_
1549353034.170161,cobot_dynamixel_driver/goal|-:J3:-950.683594:eff_
1549353034.170161,cobot_dynamixel_driver/goal|-:J3:-950.683594:eff_
1549353034.170161,cobot_dynamixel_driver/goal|-:J3:-950.683594:eff_
1549353034.170161,cobot_dynamixel_driver/goal|-:J3:-950.683594:eff_
1549353034.170161,cobot_dynamixel_driver/goal|-:J3:-950.683594:eff_
1549353034.170161,cobot_dynamixel_driver/goal|-:J3:-950.683594:eff_
1549353034.170161,cobot_dynamixel_driver/goal|-:J3:-950.683594:eff_
1549353034.170161,cobot_dynamixel_driver/goal|-:J3:-950.683594:eff_
1549353034.170161,cobot_dynamixel_driver/goal|-:J3:-950.683594:eff_
1549353034.170161,cobot_dynamixel_driver/goal|-:J3:-950.683594:eff_
1549353034.170161,cobot_dynamixel_driver/goal|-:J3:-950.683594:eff_
1549353034.170161,cobot_dynamixel_driver/goal|-:J3:-950.683594:eff_
1549353034.170161,cobot_dynamixel_driver/goal|-:J3:-950.683594:eff_
1549353034.170161,cobot_dynamixel_driver/goal|-:J3:-950.683594:eff_
1549353034.170161,cobot_dynamixel_driver/goal|-:J3:-950.683594:eff_
1549353034.170161,cobot_dynamixel_driver/goal|-:J3:-950.683594:eff_
1549353034.170161,cobot_dynamixel_driver/goal|-:J3:-950.683594:eff_
1549353034.170161,cobot_dynamixel_driver/goal|-:J3:-950.683594:eff_
1549353034.170161,cobot_dynamixel_driver/goal|-:J3:-950.683594:eff_
1549353034.170161,cobot_dynamixel_driver/goal|-:J3:-950.683594:eff_
1549353034.170161,cobot_dynamixel_driver/goal|-:J3:-950.683594:eff_
1549353034.170161,cobot_dynamixel_driver/goal|-:J3:-950.683594:eff_
1549353034.170161,cobot_dynamixel_driver/goal|-:J3:-950.683594:eff_
1549353034.170161,cobot_dynamixel_driver/goal|-:J3:-950.683594:eff_
1549353034.170161,cobot_dynamixel_driver/goal|-:J3:-950.683594:eff_
1549353034.170161,cobot_dynamixel_driver/goal|-:J3:-950.683594:eff_
1549353034.170161,cobot_dynamixel_driver/goal|-:J3:-950.683594:eff_
1549353034.170161,cobot_dynamixel_driver/goal|-:J3:-950.683594:eff_
1549353034.170161,cobot_dynamixel_driver/goal|-:J3:-950.683594:eff_
1549353034.170161,cobot_dynamixel_driver/goal|-:J3:-950.683594:eff_
1549353034.170161,cobot_dynamixel_driver/goal|-:J3:-950.683594:eff_
1549353034.170161,cobot_dynamixel_driver/goal|-:J3:-950.683594:eff_
1549353034.170161,cobot_dynamixel_driver/goal|-:J3:-950.683594:eff_
1549353034.170161,cobot_dynamixel_driver/goal|-:J3:-950.683594:eff_
1549353034.170161,cobot_dynamixel_driver/goal|-:J3:-950.683594:eff_
1549353034.170161,cobot_dynamixel_driver/goal|-:J3:-950.683594:eff_
1549353034.170161,cobot_dynamixel_driver/goal|-:J3:-950.683594:eff_
1549353034.170161,cobot_dynamixel_driver/goal|-:J3:-950.683594:eff_
1549353034.170161,cobot_dynamixel_driver/goal|-:J3:-950.683594:eff_
1549353034.170161,cobot_dynamixel_driver/goal|-:J3:-950.683594:eff_
1549353034.170161,cobot_dynamixel_driver/goal|-:J3:-950.683594:eff_
1549353034.170161,cobot_dynamixel_driver/goal|-:J3:-950.683594:eff_
1549353034.170161,cobot_dynamixel_driver/goal|-:J3:-950.683594:eff_
1549353034.170161,cobot_dynamixel_driver/goal|-:J3:-950.683594:eff_
1549353034.170161,cobot_dynamixel_driver/goal|-:J3:-950.683594:eff_
1549353034.170161,cobot_dynamixel_driver/goal|-:J3:-950.683594:eff_
1549353034.170161,cobot_dynamixel_driver/goal|-:J3:-950.683594:eff_
1549353034.170161,cobot_dynamixel_driver/goal|-:J3:-950.683594:eff_
1549353034.170161,cobot_dynamixel_driver/goal|-:J3:-950.683594:eff_
1549353034.170161,cobot_dynamixel_driver/goal|-:J3:-950.683594:eff_
1549353034.170161,cobot_dynamixel_driver/goal|-:J3:-950.683594:eff_
1549353034.170161,cobot_dynamixel_driver/goal|-:J3:-950.683594:eff_
1549353034.170161,cobot_dynamixel_driver/goal|-:J3:-950.683594:eff_
1549353034.170161,cobot_dynamixel_driver/goal|-:J3:-950.683594:eff_
1549353034.170161,cobot_dynamixel_driver/goal|-:J3:-950.683594:eff_
1549353034.170161,cobot_dynamixel_driver/goal|-:J3:-950.683594:eff_
1549353034.170161,cobot_dynamixel_driver/goal|-:J3:-950.683594:eff_
1549353034.170161,cobot_dynamixel_driver/goal|-:J3:-950.683594:eff_
1549353034.170161,cobot_dynamixel_driver/goal|-:J3:-950.683594:eff_
1549353034.170161,cobot_dynamixel_driver/goal|-:J3:-950.683594:eff_
1549353034.170161,cobot_dynamixel_driver/goal|-:J3:-950.683594:eff_
1549353034.170161,cobot_dynamixel_driver/goal|-:J3:-950.683594:eff_
1549353034.170161,cobot_dynamixel_driver/goal|-:J3:-950.683594:eff_
1549353034.170161,cobot_dynamixel_driver/goal|-:J3:-950.683594:eff_
1549353034.170161,cobot_dynamixel_driver/goal|-:J3:-950.683594:eff_
1549353034.170161,cobot_dynamixel_driver/goal|-:J3:-950.683594:eff_
1549353034.170161,cobot_dynamixel_driver/goal|-:J3:-950.683594:eff_
1549353034.170161,cobot_dynamixel_driver/goal|-:J3:-950.683594:eff_
1549353034.170161,cobot_dynamixel_driver/goal|-:J3:-950.683594:eff_
1549353034.170161,cobot_dynamixel_driver/goal|-:J3:-950.683594:eff_
1549353034.170161,cobot_dynamixel_driver/goal|-:J3:-950.683594:eff_
1549353034.170161,cobot_dynamixel_driver/goal|-:J3:-950.683594:eff_
1549353034.170161,cobot_dynamixel_driver/goal|-:J3:-950.683594:eff_
1549353034.170161,cobot_dynamixel_driver/goal|-:J3:-950.683594:eff_
1549353034.170161,cobot_dynamixel_driver/goal|-:J3:-950.683594:eff_
1549353034.170161,cobot_dynamixel_driver/goal|-:J3:-950.683594:eff_
1549353034.170161,cobot_dynamixel_driver/goal|-:J3:-950.683594:eff_
1549353034.170161,cobot_dynamixel_driver/goal|-:J3:-950.683594:eff_
1549353034.170161,cobot_dynamixel_driver/goal|-:J3:-950.683594:eff_
1549353034.170161,cobot_dynamixel_driver/goal|-:J3:-950.683594:eff_
1549353034.170161,cobot_dynamixel_driver/goal|-:J3:-950.683594:eff_
1549353034.170161,cobot_dynamixel_driver/goal|-:J3:-950.683594:eff_
1549353034.170161,cobot_dynamixel_driver/goal|-:J3:-950.683594:eff_
1549353034.170161,cobot_dynamixel_driver/goal|-:J3:-950.683594:eff_
1549353034.170161,cobot_dynamixel_driver/goal|-:J3:-950.683594:eff_
1549353034.170161,cobot_dynamixel_driver/goal|-:J3:-950.683594:eff_
1549353034.170161,cobot_dynamixel_driver/goal|-:J3:-950.683594:eff_
1549353034.170161,cobot_dynamixel_driver/goal|-:J3:-950.683594:eff_
1549353034.170161,cobot_dynamixel_driver/goal|-:J3:-950.683594:eff_
1549353034.170161,cobot_dynamixel_driver/goal|-:J3:-950.683594:eff_
1549353034.170161,cobot_dynamixel_driver/goal|-:J3:-950.683594:eff_
1549353034.170161,cobot_dynamixel_driver/goal|-:J3:-950.683594:eff_
1549353034.170161,cobot_dynamixel_driver/goal|-:J3:-950.683594:eff_
1549353034.170161,cobot_dynamixel_driver/goal|-:J3:-950.683594:eff_
1549353034.170161,cobot_dynamixel_driver/goal|-:J3:-950.683594:eff_
1549353034.170161,cobot_dynamixel_driver/goal|-:J3:-950.683594:eff_
1549353034.170161,cobot_dynamixel_driver/goal|-:J3:-950.683594:eff_
1549353034.170161,cobot_dynamixel_driver/goal|-:J3:-950.683594:eff_
1549353034.170161,cobot_dynamixel_driver/goal|-:J3:-950.683594:eff_
1549353034.170161,cobot_dynamixel_driver/goal|-:J3:-950.683594:eff_
1549353034.170161,cobot_dynamixel_driver/goal|-:J3:-950.683594:eff_
1549353034.170161,cobot_dynamixel_driver/goal|-:J3:-950.683594:eff_
1549353034.170161,cobot_dynamixel_driver/goal|-:J3:-950.683594:eff_
1549353034.170161,cobot_dynamixel_driver/goal|-:J3:-950.683594:eff_
1549353034.170161,cobot_dynamixel_driver/goal|-:J3:-950.683594:eff_
1549353034.170161,cobot_dynamixel_driver/goal|-:J3:-950.683594:eff_
1549353034.170161,cobot_dynamixel_driver/goal|-:J3:-950.683594:eff_
1549353034.170161,cobot_dynamixel_driver/goal|-:J3:-950.683594:eff_
1549353034.170161,cobot_dynamixel_driver/goal|-:J3:-950.683594:eff_
1549353034.170161,cobot_dynamixel_driver/goal|-:J3:-950.683594:eff_
1549353034.170161,cobot_dynamixel_driver/goal|-:J3:-950.683594:eff_
1549353034.170161,cobot_dynamixel_driver/goal|-:J3:-950.683594:eff_
1549353034.170161,cobot_dynamixel_driver/goal|-:J3:-950.683594:eff_
1549353034.170161,cobot_dynamixel_driver/goal|-:J3:-950.683594:eff_
1549353034.170161,cobot_dynamixel_driver/goal|-:J3:-950.683594:eff_
1549353034.170161,cobot_dynamixel_driver/goal|-:J3:-950.683594:eff_
1549353034.170161,cobot_dynamixel_driver/goal|-:J3:-950.683594:eff_
1549353034.170161,cobot_dynamixel_driver/goal|-:J3:-950.683594:eff_
1549353034.170161,cobot_dynamixel_driver/goal|-:J3:-950.683594:eff_
1549353034.170161,cobot_dynamixel_driver/goal|-:J3:-950.683594:eff_
1549353034.170161,cobot_dynamixel_driver/goal|-:J3:-950.683594:eff_
1549353034.170161,cobot_dynamixel_driver/goal|-:J3:-950.683594:eff_
1549353034.170161,cobot_dynamixel_driver/goal|-:J3:-950.683594:eff_
1549353034.170161,cobot_dynamixel_driver/goal|-:J3:-950.683594:eff_
1549353034.170161,cobot_dynamixel_driver/goal|-:J3:-950.683594:eff_
1549353034.170161,cobot_dynamixel_driver/goal|-:J3:-950.683594:eff_
1549353034.170161,cobot_dynamixel_driver/goal|-:J3:-950.683594:eff_
1549353034.170161,cobot_dynamixel_driver/goal|-:J3:-950.683594:eff_
1549353034.170161,cobot_dynamixel_driver/goal|-:J3:-950.683594:eff_
1549353034.170161,cobot_dynamixel_driver/goal|-:J3:-950.683594:eff_
1549353034.170161,cobot_dynamixel_driver/goal|-:J3:-950.683594:eff_
1549353034.170161,cobot_dynamixel_driver/goal|-:J3:-950.683594:eff_
1549353034.170161,cobot_dynamixel_driver/goal|-:J3:-950.683594:eff_
1549353034.170161,cobot_dynamixel_driver/goal|-:J3:-950.683594:eff_
1549353034.170161,cobot_dynamixel_driver/goal|-:J3:-950.683594:eff_
1549353034.170161,cobot_dynamixel_driver/goal|-:J3:-950.683594:eff_
1549353034.170161,cobot_dynamixel_driver/goal|-:J3:-950.683594:eff_
1549353034.170161,cobot_dynamixel_driver/goal|-:J3:-950.683594:eff_
1549353034.170161,cobot_dynamixel_driver/goal|-:J3:-950.683594:eff_
1549353034.170161,cobot_dynamixel_driver/goal|-:J3:-950.683594:eff_
1549353034.170161,cobot_dynamixel_driver/goal|-:J3:-950.683594:eff_
1549353034.170161,cobot_dynamixel_driver/goal|-:J3:-950.683594:eff_
1549353034.170161,cobot_dynamixel_driver/goal|-:J3:-950.683594:eff_
1549353034.170161,cobot_dynamixel_driver/goal|-:J3:-950.683594:eff_
1549353034.170161,cobot_dynamixel_driver/goal|-:J3:-950.683594:eff_
1549353034.170161,cobot_dynamixel_driver/goal|-:J3:-950.683594:eff_
1549353034.170161,cobot_dynamixel_driver/goal|-:J3:-950.683594:eff_
1549353034.170161,cobot_dynamixel_driver/goal|-:J3:-950.683594:eff_
1549353034.170161,cobot_dynamixel_driver/goal|-:J3:-950.683594:eff_
1549353034.170161,cobot_dynamixel_driver/goal|-:J3:-950.683594:eff_
1549353034.170161,cobot_dynamixel_driver/goal|-:J3:-950.683594:eff_
1549353034.170161,cobot_dynamixel_driver/goal|-:J3:-950.683594:eff_
1549353034.170161,cobot_dynamixel_driver/goal|-:J3:-950.683594:eff_
1549353034.170161,cobot_dynamixel_driver/goal|-:J3:-950.683594:eff_
1549353034.170161,cobot_dynamixel_driver/goal|-:J3:-950.683594:eff_
1549353034.170161,cobot_dynamixel_driver/goal|-:J3:-950.683594:eff_
1549353034.170161,cobot_dynamixel_driver/goal|-:J3:-950.683594:eff_
1549353034.170161,cobot_dynamixel_driver/goal|-:J3:-950.683594:eff_
1549353034.170161,cobot_dynamixel_driver/goal|-:J3:-950.683594:eff_
1549353034.170161,cobot_dynamixel_driver/goal|-:J3:-950.683594:eff_
1549353034.170161,cobot_dynamixel_driver/goal|-:J3:-950.683594:eff_
1549353034.170161,cobot_dynamixel_driver/goal|-:J3:-950.683594:eff_
1549353034.170161,cobot_dynamixel_driver/goal|-:J3:-950.683594:eff_
1549353034.170161,cobot_dynamixel_driver/goal|-:J3:-950.683594:eff_
1549353034.170161,cobot_dynamixel_driver/goal|-:J3:-950.683594:eff_
1549353034.170161,cobot_dynamixel_driver/goal|-:J3:-950.683594:eff_
1549353034.170161,cobot_dynamixel_driver/goal|-:J3:-950.683594:eff_
1549353034.170161,cobot_dynamixel_driver/goal|-:J3:-950.683594:eff_
1549353034.170161,cobot_dynamixel_driver/goal|-:J3:-950.683594:eff_
1549353034.170161,cobot_dynamixel_driver/goal|-:J3:-950.683594:eff_
1549353034.170161,cobot_dynamixel_driver/goal|-:J3:-950.683594:eff_
1549353034.170161,cobot_dynamixel_driver/goal|-:J3:-950.683594:eff_
1549353034.170161,cobot_dynamixel_driver/goal|-:J3:-950.683594:eff_
1549353034.170161,cobot_dynamixel_driver/goal|-:J3:-950.683594:eff_
1549353034.170161,cobot_dynamixel_driver/goal|-:J3:-950.683594:eff_
1549353034.170161,cobot_dynamixel_driver/goal|-:J3:-950.683594:eff_
1549353034.170161,cobot_dynamixel_driver/goal|-:J3:-950.683594:eff_
1549353034.170161,cobot_dynamixel_driver/goal|-:J3:-950.683594:eff_
1549353034.170161,cobot_dynamixel_driver/goal|-:J3:-950.683594:eff_
1549353034.170161,cobot_dynamixel_driver/goal|-:J3:-950.683594:eff_
1549353034.170161,cobot_dynamixel_driver/goal|-:J3:-950.683594:eff_
1549353034.170161,cobot_dynamixel_driver/goal|-:J3:-950.683594:eff_
1549353034.170161,cobot_dynamixel_driver/goal|-:J3:-950.683594:eff_
1549353034.170161,cobot_dynamixel_driver/goal|-:J3:-950.683594:eff_
1549353034.170161,cobot_dynamixel_driver/goal|-:J3:-950.683594:eff_
1549353034.170161,cobot_dynamixel_driver/goal|-:J3:-950.683594:eff_
1549353034.170161,cobot_dynamixel_driver/goal|-:J3:-950.683594:eff_
1549353034.170161,cobot_dynamixel_driver/goal|-:J3:-950.683594:eff_
1549353034.170161,cobot_dynamixel_driver/goal|-:J3:-950.683594:eff_
1549353034.170161,cobot_dynamixel_driver/goal|-:J3:-950.683594:eff_
1549353034.170161,cobot_dynamixel_driver/goal|-:J3:-950.683594:eff_
1549353034.170161,cobot_dynamixel_driver/goal|-:J3:-950.683594:eff_
1549353034.170161,cobot_dynamixel_driver/goal|-:J3:-950.683594:eff_
1549353034.170161,cobot_dynamixel_driver/goal|-:J3:-950.683594:eff_
1549353034.170161,cobot_dynamixel_driver/goal|-:J3:-950.683594:eff_
1549353034.170161,cobot_dynamixel_driver/goal|-:J3:-950.683594:eff_
1549353034.170161,cobot_dynamixel_driver/goal|-:J3:-950.683594:eff_
1549353034.170161,cobot_dynamixel_driver/goal|-:J3:-950.683594:eff_
1549353034.170161,cobot_dynamixel_driver/goal|-:J3:-950.683594:eff_
1549353034.170161,cobot_dynamixel_driver/goal|-:J3:-950.683594:eff_
1549353034.170161,cobot_dynamixel_driver/goal|-:J3:-950.683594:eff_
1549353034.170161,cobot_dynamixel_driver/goal|-:J3:-950.683594:eff_
1549353034.170161,cobot_dynamixel_driver/goal|-:J3:-950.683594:eff_
1549353034.170161,cobot_dynamixel_driver/goal|-:J3:-950.683594:eff_
1549353034.170161,cobot_dynamixel_driver/goal|-:J3:-950.683594:eff_
1549353034.170161,cobot_dynamixel_driver/goal|-:J3:-950.683594:eff_
1549353034.170161,cobot_dynamixel_driver/goal|-:J3:-950.683594:eff_
1549353034.170161,cobot_dynamixel_driver/goal|-:J3:-950.683594:eff_
1549353034.170161,cobot_dynamixel_driver/goal|-:J3:-950.683594:eff_
1549353034.170161,cobot_dynamixel_driver/goal|-:J3:-950.683594:eff_
1549353034.170161,cobot_dynamixel_driver/goal|-:J3:-950.683594:eff_
1549353034.170161,cobot_dynamixel_driver/goal|-:J3:-950.683594:eff_
1549353034.170161,cobot_dynamixel_driver/goal|-:J3:-950.683594:eff_
1549353034.170161,cobot_dynamixel_driver/goal|-:J3:-950.683594:eff_
1549353034.170161,cobot_dynamixel_driver/goal|-:J3:-950.683594:eff_
1549353034.170161,cobot_dynamixel_driver/goal|-:J3:-950.683594:eff_
1549353034.170161,cobot_dynamixel_driver/goal|-:J3:-950.683594:eff_
1549353034.170161,cobot_dynamixel_driver/goal|-:J3:-950.683594:eff_
1549353034.170161,cobot_dynamixel_driver/goal|-:J3:-950.683594:eff_
1549353034.170161,cobot_dynamixel_driver/goal|-:J3:-950.683594:eff_
1549353034.170161,cobot_dynamixel_driver/goal|-:J3:-950.683594:eff_
1549353034.170161,cobot_dynamixel_driver/goal|-:J3:-950.683594:eff_
1549353034.170161,cobot_dynamixel_driver/goal|-:J3:-950.683594:eff_
1549353034.170161,cobot_dynamixel_driver/goal|-:J3:-950.683594:eff_
1549353034.170161,cobot_dynamixel_driver/goal|-:J3:-950.683594:eff_
1549353034.170161,cobot_dynamixel_driver/goal|-:J3:-950.683594:eff_
1549353034.170161,cobot_dynamixel_driver/goal|-:J3:-950.683594:eff_
1549353034.170161,cobot_dynamixel_driver/goal|-:J3:-950.683594:eff_
1549353034.170161,cobot_dynamixel_driver/goal|-:J3:-950.683594:eff_
1549353034.170161,cobot_dynamixel_driver/goal|-:J3:-950.683594:eff_
1549353034.170161,cobot_dynamixel_driver/goal|-:J3:-950.683594:eff_
1549353034.170161,cobot_dynamixel_driver/goal|-:J3:-950.683594:eff_
1549353034.170161,cobot_dynamixel_driver/goal|-:J3:-950.683594:eff_
1549353034.170161,cobot_dynamixel_driver/goal|-:J3:-950.683594:eff_
1549353034.170161,cobot_dynamixel_driver/goal|-:J3:-950.683594:eff_
1549353034.170161,cobot_dynamixel_driver/goal|-:J3:-950.683594:eff_
1549353034.170161,cobot_dynamixel_driver/goal|-:J3:-950.683594:eff_
1549353034.170161,cobot_dynamixel_driver/goal|-:J3:-950.683594:eff_
1549353034.170161,cobot_dynamixel_driver/goal|-:J3:-950.683594:eff_
1549353034.170161,cobot_dynamixel_driver/goal|-:J3:-950.683594:eff_
1549353034.170161,cobot_dynamixel_driver/goal|-:J3:-950.683594:eff_
1549353034.170161,cobot_dynamixel_driver/goal|-:J3:-950.683594:eff_
1549353034.170161,cobot_dynamixel_driver/goal|-:J3:-950.683594:eff_
1549353034.170161,cobot_dynamixel_driver/goal|-:J3:-950.683594:eff_
1549353034.170161,cobot_dynamixel_driver/goal|-:J3:-950.683594:eff_
1549353034.170161,cobot_dynamixel_driver/goal|-:J3:-950.683594:eff_
1549353034.170161,cobot_dynamixel_driver/goal|-:J3:-950.683594:eff_
1549353034.170161,cobot_dynamixel_driver/goal|-:J3:-950.683594:eff_
1549353034.170161,cobot_dynamixel_driver/goal|-:J3:-950.683594:eff_
1549353034.170161,cobot_dynamixel_driver/goal|-:J3:-950.683594:eff_
1549353034.170161,cobot_dynamixel_driver/goal|-:J3:-950.683594:eff_
1549353034.170161,cobot_dynamixel_driver/goal|-:J3:-950.683594:eff_
1549353034.170161,cobot_dynamixel_driver/goal|-:J3:-950.683594:eff_
1549353034.170161,cobot_dynamixel_driver/goal|-:J3:-950.683594:eff_
1549353034.170161,cobot_dynamixel_driver/goal|-:J3:-950.683594:eff_
1549353034.170161,cobot_dynamixel_driver/goal|-:J3:-950.683594:eff_
1549353034.170161,cobot_dynamixel_driver/goal|-:J3:-950.683594:eff_
1549353034.170161,cobot_dynamixel_driver/goal|-:J3:-950.683594:eff_
1549353034.170161,cobot_dynamixel_driver/goal|-:J3:-950.683594:eff_
1549353034.170161,cobot_dynamixel_driver/goal|-:J3:-950.683594:eff_
1549353034.170161,cobot_dynamixel_driver/goal|-:J3:-950.683594:eff_
1549353034.170161,cobot_dynamixel_driver/goal|-:J3:-950.683594:eff_
1549353034.170161,cobot_dynamixel_driver/goal|-:J3:-950.683594:eff_
1549353034.170161,cobot_dynamixel_driver/goal|-:J3:-950.683594:eff_
1549353034.170161,cobot_dynamixel_driver/goal|-:J3:-950.683594:eff_
1549353034.170161,cobot_dynamixel_driver/goal|-:J3:-950.683594:eff_
1549353034.170161,cobot_dynamixel_driver/goal|-:J3:-950.683594:eff_
1549353034.170161,cobot_dynamixel_driver/goal|-:J3:-950.683594:eff_
1549353034.170161,cobot_dynamixel_driver/goal|-:J3:-950.683594:eff_
1549353034.170161,cobot_dynamixel_driver/goal|-:J3:-950.683594:eff_
1549353034.170161,cobot_dynamixel_driver/goal|-:J3:-950.683594:eff_
1549353034.170161,cobot_dynamixel_driver/goal|-:J3:-950.683594:eff_
1549353034.170161,cobot_dynamixel_driver/goal|-:J3:-950.683594:eff_
1549353034.170161,cobot_dynamixel_driver/goal|-:J3:-950.683594:eff_
1549353034.170161,cobot_dynamixel_driver/goal|-:J3:-950.683594:eff_
1549353034.170161,cobot_dynamixel_driver/goal|-:J3:-950.683594:eff_
1549353034.170161,cobot_dynamixel_driver/goal|-:J3:-950.683594:eff_
1549353034.170161,cobot_dynamixel_driver/goal|-:J3:-950.683594:eff_
1549353034.170161,cobot_dynamixel_driver/goal|-:J3:-950.683594:eff_
1549353034.170161,cobot_dynamixel_driver/goal|-:J3:-950.683594:eff_
1549353034.170161,cobot_dynamixel_driver/goal|-:J3:-950.683594:eff_
1549353034.170161,cobot_dynamixel_driver/goal|-:J3:-950.683594:eff_
1549353034.170161,cobot_dynamixel_driver/goal|-:J3:-950.683594:eff_
1549353034.170161,cobot_dynamixel_driver/goal|-:J3:-950.683594:eff_
1549353034.170161,cobot_dynamixel_driver/goal|-:J3:-950.683594:eff_
1549353034.170161,cobot_dynamixel_driver/goal|-:J3:-950.683594:eff_
1549353034.170161,cobot_dynamixel_driver/goal|-:J3:-950.683594:eff_
1549353034.170161,cobot_dynamixel_driver/goal|-:J3:-950.683594:eff_
1549353034.170161,cobot_dynamixel_driver/goal|-:J3:-950.683594:eff_
1549353034.170161,cobot_dynamixel_driver/goal|-:J3:-950.683594:eff_
1549353034.170161,cobot_dynamixel_driver/goal|-:J3:-950.683594:eff_
1549353034.170161,cobot_dynamixel_driver/goal|-:J3:-950.683594:eff_
1549353034.170161,cobot_dynamixel_driver/goal|-:J3:-950.683594:eff_
1549353034.170161,cobot_dynamixel_driver/goal|-:J3:-950.683594:eff_
1549353034.170161,cobot_dynamixel_driver/goal|-:J3:-950.683594:eff_
1549353034.170161,cobot_dynamixel_driver/goal|-:J3:-950.683594:eff_
1549353034.170161,cobot_dynamixel_driver/goal|-:J3:-950.683594:eff_
1549353034.170161,cobot_dynamixel_driver/goal|-:J3:-950.683594:eff_
1549353034.170161,cobot_dynamixel_driver/goal|-:J3:-950.683594:eff_
1549353034.170161,cobot_dynamixel_driver/goal|-:J3:-950.683594:eff_
1549353034.170161,cobot_dynamixel_driver/goal|-:J3:-950.683594:eff_
1549353034.170161,cobot_dynamixel_driver/goal|-:J3:-950.683594:eff_
1549353034.170161,cobot_dynamixel_driver/goal|-:J3:-950.683594:eff_
1549353034.170161,cobot_dynamixel_driver/goal|-:J3:-950.683594:eff_
1549353034.170161,cobot_dynamixel_driver/goal|-:J3:-950.683594:eff_
1549353034.170161,cobot_dynamixel_driver/goal|-:J3:-950.683594:eff_
1549353034.170161,cobot_dynamixel_driver/goal|-:J3:-950.683594:eff_
1549353034.170161,cobot_dynamixel_driver/goal|-:J3:-950.683594:eff_
1549353034.170161,cobot_dynamixel_driver/goal|-:J3:-950.683594:eff_
1549353034.170161,cobot_dynamixel_driver/goal|-:J3:-950.683594:eff_
1549353034.170161,cobot_dynamixel_driver/goal|-:J3:-950.683594:eff_
1549353034.170161,cobot_dynamixel_driver/goal|-:J3:-950.683594:eff_
1549353034.170161,cobot_dynamixel_driver/goal|-:J3:-950.683594:eff_
1549353034.170161,cobot_dynamixel_driver/goal|-:J3:-950.683594:eff_
1549353034.170161,cobot_dynamixel_driver/goal|-:J3:-950.683594:eff_
1549353034.170161,cobot_dynamixel_driver/goal|-:J3:-950.683594:eff_
1549353034.170161,cobot_dynamixel_driver/goal|-:J3:-950.683594:eff_
1549353034.170161,cobot_dynamixel_driver/goal|-:J3:-950.683594:eff_
1549353034.170161,cobot_dynamixel_driver/goal|-:J3:-950.683594:eff_
1549353034.170161,cobot_dynamixel_driver/goal|-:J3:-950.683594:eff_
1549353034.170161,cobot_dynamixel_driver/goal|-:J3:-950.683594:eff_
1549353034.170161,cobot_dynamixel_driver/goal|-:J3:-950.683594:eff_
1549353034.170161,cobot_dynamixel_driver/goal|-:J3:-950.683594:eff_
1549353034.170161,cobot_dynamixel_driver/goal|-:J3:-950.683594:eff_
1549353034.170161,cobot_dynamixel_driver/goal|-:J3:-950.683594:eff_
1549353034.170161,cobot_dynamixel_driver/goal|-:J3:-950.683594:eff_
1549353034.170161,cobot_dynamixel_driver/goal|-:J3:-950.683594:eff_
1549353034.170161,cobot_dynamixel_driver/goal|-:J3:-950.683594:eff_
1549353034.170161,cobot_dynamixel_driver/goal|-:J3:-950.683594:eff_
1549353034.170161,cobot_dynamixel_driver/goal|-:J3:-950.683594:eff_
1549353034.170161,cobot_dynamixel_driver/goal|-:J3:-950.683594:eff_
1549353034.170161,cobot_dynamixel_driver/goal|-:J3:-950.683594:eff_
1549353034.170161,cobot_dynamixel_driver/goal|-:J3:-950.683594:eff_
1549353034.170161,cobot_dynamixel_driver/goal|-:J3:-950.683594:eff_
1549353034.170161,cobot_dynamixel_driver/goal|-:J3:-950.683594:eff_
1549353034.170161,cobot_dynamixel_driver/goal|-:J3:-950.683594:eff_
1549353034.170161,cobot_dynamixel_driver/goal|-:J3:-950.683594:eff_
1549353034.170161,cobot_dynamixel_driver/goal|-:J3:-950.683594:eff_
1549353034.170161,cobot_dynamixel_driver/goal|-:J3:-950.683594:eff_
1549353034.170161,cobot_dynamixel_driver/goal|-:J3:-950.683594:eff_
1549353034.170161,cobot_dynamixel_driver/goal|-:J3:-950.683594:eff_
1549353034.170161,cobot_dynamixel_driver/goal|-:J3:-950.683594:eff_
1549353034.170161,cobot_dynamixel_driver/goal|-:J3:-950.683594:eff_
1549353034.170161,cobot_dynamixel_driver/goal|-:J3:-950.683594:eff_
1549353034.170161,cobot_dynamixel_driver/goal|-:J3:-950.683594:eff_
1549353034.170161,cobot_dynamixel_driver/goal|-:J3:-950.683594:eff_
1549353034.170161,cobot_dynamixel_driver/goal|-:J3:-950.683594:eff_
1549353034.170161,cobot_dynamixel_driver/goal|-:J3:-950.683594:eff_
1549353034.170161,cobot_dynamixel_driver/goal|-:J3:-950.683594:eff_
1549353034.170161,cobot_dynamixel_driver/goal|-:J3:-950.683594:eff_
1549353034.170161,cobot_dynamixel_driver/goal|-:J3:-950.683594:eff_
1549353034.170161,cobot_dynamixel_driver/goal|-:J3:-950.683594:eff_
1549353034.170161,cobot_dynamixel_driver/goal|-:J3:-950.683594:eff_
1549353034.170161,cobot_dynamixel_driver/goal|-:J3:-950.683594:eff_
1549353034.170161,cobot_dynamixel_driver/goal|-:J3:-950.683594:eff_
1549353034.170161,cobot_dynamixel_driver/goal|-:J3:-950.683594:eff_
1549353034.170161,cobot_dynamixel_driver/goal|-:J3:-950.683594:eff_
1549353034.170161,cobot_dynamixel_driver/goal|-:J3:-950.683594:eff_
1549353034.170161,cobot_dynamixel_driver/goal|-:J3:-950.683594:eff_
1549353034.170161,cobot_dynamixel_driver/goal|-:J3:-950.683594:eff_
1549353034.170161,cobot_dynamixel_driver/goal|-:J3:-950.683594:eff_
1549353034.170161,cobot_dynamixel_driver/goal|-:J3:-950.683594:eff_
1549353034.170161,cobot_dynamixel_driver/goal|-:J3:-950.683594:eff_
1549353034.170161,cobot_dynamixel_driver/goal|-:J3:-950.683594:eff_
1549353034.170161,cobot_dynamixel_driver/goal|-:J3:-950.683594:eff_
1549353034.170161,cobot_dynamixel_driver/goal|-:J3:-950.683594:eff_
1549353034.170161,cobot_dynamixel_driver/goal|-:J3:-950.683594:eff_
1549353034.170161,cobot_dynamixel_driver/goal|-:J3:-950.683594:eff_
1549353034.170161,cobot_dynamixel_driver/goal|-:J3:-950.683594:eff_
1549353034.170161,cobot_dynamixel_driver/goal|-:J3:-950.683594:eff_
1549353034.170161,cobot_dynamixel_driver/goal|-:J3:-950.683594:eff_
1549353034.170161,cobot_dynamixel_driver/goal|-:J3:-950.683594:eff_
1549353034.170161,cobot_dynamixel_driver/goal|-:J3:-950.683594:eff_
1549353034.170161,cobot_dynamixel_driver/goal|-:J3:-950.683594:eff_
1549353034.170161,cobot_dynamixel_driver/goal|-:J3:-950.683594:eff_
1549353034.170161,cobot_dynamixel_driver/goal|-:J3:-950.683594:eff_
1549353034.170161,cobot_dynamixel_driver/goal|-:J3:-950.683594:eff_
1549353034.170161,cobot_dynamixel_driver/goal|-:J3:-950.683594:eff_
1549353034.170161,cobot_dynamixel_driver/goal|-:J3:-950.683594:eff_
1549353034.170161,cobot_dynamixel_driver/goal|-:J3:-950.683594:eff_
1549353034.170161,cobot_dynamixel_driver/goal|-:J3:-950.683594:eff_
1549353034.170161,cobot_dynamixel_driver/goal|-:J3:-950.683594:eff_
1549353034.170161,cobot_dynamixel_driver/goal|-:J3:-950.683594:eff_
1549353034.170161,cobot_dynamixel_driver/goal|-:J3:-950.683594:eff_
1549353034.170161,cobot_dynamixel_driver/goal|-:J3:-950.683594:eff_
1549353034.170161,cobot_dynamixel_driver/goal|-:J3:-950.683594:eff_
1549353034.170161,cobot_dynamixel_driver/goal|-:J3:-950.683594:eff_
1549353034.170161,cobot_dynamixel_driver/goal|-:J3:-950.683594:eff_
1549353034.170161,cobot_dynamixel_driver/goal|-:J3:-950.683594:eff_
1549353034.170161,cobot_dynamixel_driver/goal|-:J3:-950.683594:eff_
1549353034.170161,cobot_dynamixel_driver/goal|-:J3:-950.683594:eff_
1549353034.170161,cobot_dynamixel_driver/goal|-:J3:-950.683594:eff_
1549353034.170161,cobot_dynamixel_driver/goal|-:J3:-950.683594:eff_
1549353034.170161,cobot_dynamixel_driver/goal|-:J3:-950.683594:eff_
1549353034.170161,cobot_dynamixel_driver/goal|-:J3:-950.683594:eff_
1549353034.170161,cobot_dynamixel_driver/goal|-:J3:-950.683594:eff_
1549353034.170161,cobot_dynamixel_driver/goal|-:J3:-950.683594:eff_
1549353034.170161,cobot_dynamixel_driver/goal|-:J3:-950.683594:eff_
1549353034.170161,cobot_dynamixel_driver/goal|-:J3:-950.683594:eff_
1549353034.170161,cobot_dynamixel_driver/goal|-:J3:-950.683594:eff_
1549353034.170161,cobot_dynamixel_driver/goal|-:J3:-950.683594:eff_
1549353034.170161,cobot_dynamixel_driver/goal|-:J3:-950.683594:eff_
1549353034.170161,cobot_dynamixel_driver/goal|-:J3:-950.683594:eff_
1549353034.170161,cobot_dynamixel_driver/goal|-:J3:-950.683594:eff_
1549353034.170161,cobot_dynamixel_driver/goal|-:J3:-950.683594:eff_
1549353034.170161,cobot_dynamixel_driver/goal|-:J3:-950.683594:eff_
1549353034.170161,cobot_dynamixel_driver/goal|-:J3:-950.683594:eff_
1549353034.170161,cobot_dynamixel_driver/goal|-:J3:-950.683594:eff_
1549353034.170161,cobot_dynamixel_driver/goal|-:J3:-950.683594:eff_
1549353034.170161,cobot_dynamixel_driver/goal|-:J3:-950.683594:eff_
1549353034.170161,cobot_dynamixel_driver/goal|-:J3:-950.683594:eff_
1549353034.170161,cobot_dynamixel_driver/goal|-:J3:-950.683594:eff_
1549353034.170161,cobot_dynamixel_driver/goal|-:J3:-950.683594:eff_
1549353034.170161,cobot_dynamixel_driver/goal|-:J3:-950.683594:eff_
1549353034.170161,cobot_dynamixel_driver/goal|-:J3:-950.683594:eff_
1549353034.170161,cobot_dynamixel_driver/goal|-:J3:-950.683594:eff_
1549353034.170161,cobot_dynamixel_driver/goal|-:J3:-950.683594:eff_
1549353034.170161,cobot_dynamixel_driver/goal|-:J3:-950.683594:eff_
1549353034.170161,cobot_dynamixel_driver/goal|-:J3:-950.683594:eff_
1549353034.170161,cobot_dynamixel_driver/goal|-:J3:-950.683594:eff_
1549353034.170161,cobot_dynamixel_driver/goal|-:J3:-950.683594:eff_
1549353034.170161,cobot_dynamixel_driver/goal|-:J3:-950.683594:eff_
1549353034.170161,cobot_dynamixel_driver/goal|-:J3:-950.683594:eff_
1549353034.170161,cobot_dynamixel_driver/goal|-:J3:-950.683594:eff_
1549353034.170161,cobot_dynamixel_driver/goal|-:J3:-950.683594:eff_
1549353034.170161,cobot_dynamixel_driver/goal|-:J3:-950.683594:eff_
1549353034.170161,cobot_dynamixel_driver/goal|-:J3:-950.683594:eff_
