surachairobotic/cobot/cobot_dynamixel_driver/log/2019-06-20T08:16:27.036874_driver_cmd.txt
1561018604.424619,cobot_dynamixel_driver/goal|-:J1,J2,J3,J4,J5,J6:0.000000,0.000000,0.000000,0.000000,0.000000,0.000000:0.500000,0.500000,0.500000,0.500000,0.500000,0.500000:pos_vel_
1561018710.971411,cobot_dynamixel_driver/goal|-:J1,J2,J3,J4,J5,J6:0.000000,0.000000,0.000000,0.000000,0.000000,0.000000:0.500000,0.500000,0.500000,0.500000,0.500000,0.500000:pos_vel_
1561019302.311347,cobot_dynamixel_driver/goal|-:J1,J2,J3,J4,J5,J6:0.000000,0.000000,0.000000,0.000000,0.000000,0.000000:0.500000,0.500000,0.500000,0.500000,0.500000,0.500000:pos_vel_
1561019303.207366,cobot_dynamixel_driver/goal|-:J1,J2,J3,J4,J5,J6:-0.197428,0.018230,-0.018376,-0.000037,0.000197,-0.197344:0.500000,0.500000,0.500000,0.500000,0.500000,0.500000:pos_vel_
1561019304.023211,cobot_dynamixel_driver/goal|-:J1,J2,J3,J4,J5,J6:0.000000,0.000000,0.000000,0.000000,0.000000,0.000000:0.500000,0.500000,0.500000,0.500000,0.500000,0.500000:pos_vel_
1561019398.862745,cobot_dynamixel_driver/goal|-:J1,J2,J3,J4,J5,J6:-0.004072,0.029271,0.103148,-0.024086,-0.142256,-0.576149:vel_
1561019399.294207,cobot_dynamixel_driver/goal|-:J1,J2,J3,J4,J5,J6:-0.004020,0.019362,0.096908,-0.025087,-0.147906,-0.606375:vel_
1561019399.326193,cobot_dynamixel_driver/goal|-:J1,J2,J3,J4,J5,J6:-0.004032,0.019483,0.097308,-0.026318,-0.151172,-0.671535:vel_
1561019399.358242,cobot_dynamixel_driver/goal|-:J1,J2,J3,J4,J5,J6:-0.004377,0.019650,0.097370,-0.026973,-0.152298,-0.744278:vel_
1561019399.390270,cobot_dynamixel_driver/goal|-:J1,J2,J3,J4,J5,J6:-0.004681,0.019552,0.096416,-0.027064,-0.153049,-0.785398:vel_
1561019399.422217,cobot_dynamixel_driver/goal|-:J1,J2,J3,J4,J5,J6:-0.008793,0.045448,0.164876,-0.039825,-0.245687,-0.785398:vel_
1561019399.454168,cobot_dynamixel_driver/goal|-:J1,J2,J3,J4,J5,J6:-0.009500,0.048914,0.174734,-0.042129,-0.258932,-0.785398:vel_
1561019399.486128,cobot_dynamixel_driver/goal|-:J1,J2,J3,J4,J5,J6:-0.009907,0.049916,0.179076,-0.043119,-0.264700,-0.785398:vel_
1561019399.518101,cobot_dynamixel_driver/goal|-:J1,J2,J3,J4,J5,J6:-0.009830,0.050498,0.178493,-0.044008,-0.263370,-0.785398:vel_
1561019399.550112,cobot_dynamixel_driver/goal|-:J1,J2,J3,J4,J5,J6:-0.009577,0.049485,0.178930,-0.045255,-0.265003,-0.785398:vel_
1561019399.582149,cobot_dynamixel_driver/goal|-:J1,J2,J3,J4,J5,J6:-0.009322,0.048765,0.179358,-0.045405,-0.267574,-0.785398:vel_
1561019399.614151,cobot_dynamixel_driver/goal|-:J1,J2,J3,J4,J5,J6:-0.016343,0.078309,0.246505,-0.053199,-0.370623,-0.785398:vel_
1561019399.646105,cobot_dynamixel_driver/goal|-:J1,J2,J3,J4,J5,J6:-0.018392,0.085064,0.263266,-0.055367,-0.396292,-0.785398:vel_
1561019399.678191,cobot_dynamixel_driver/goal|-:J1,J2,J3,J4,J5,J6:-0.019393,0.089474,0.274107,-0.057216,-0.413506,-0.785398:vel_
1561019399.710096,cobot_dynamixel_driver/goal|-:J1,J2,J3,J4,J5,J6:-0.021986,0.091693,0.279466,-0.059254,-0.421310,-0.785398:vel_
1561019399.742117,cobot_dynamixel_driver/goal|-:J1,J2,J3,J4,J5,J6:-0.026533,0.099650,0.278874,-0.051635,-0.436549,-0.785398:vel_
1561019399.774114,cobot_dynamixel_driver/goal|-:J1,J2,J3,J4,J5,J6:-0.028737,0.102385,0.279311,-0.049673,-0.443824,-0.785398:vel_
1561019399.806074,cobot_dynamixel_driver/goal|-:J1,J2,J3,J4,J5,J6:-0.031336,0.104652,0.284195,-0.049689,-0.454313,-0.785398:vel_
1561019399.838152,cobot_dynamixel_driver/goal|-:J1,J2,J3,J4,J5,J6:-0.033930,0.109959,0.276413,-0.042270,-0.455001,-0.785398:vel_
1561019399.870077,cobot_dynamixel_driver/goal|-:J1,J2,J3,J4,J5,J6:-0.035503,0.112284,0.277045,-0.040712,-0.455014,-0.785398:vel_
1561019399.902101,cobot_dynamixel_driver/goal|-:J1,J2,J3,J4,J5,J6:-0.036835,0.114469,0.283812,-0.040745,-0.463725,-0.785398:vel_
1561019399.934076,cobot_dynamixel_driver/goal|-:J1,J2,J3,J4,J5,J6:-0.042216,0.124723,0.280628,-0.034307,-0.477575,-0.785398:vel_
1561019399.966070,cobot_dynamixel_driver/goal|-:J1,J2,J3,J4,J5,J6:-0.042510,0.121632,0.268673,-0.030748,-0.461587,-0.785398:vel_
1561019399.998055,cobot_dynamixel_driver/goal|-:J1,J2,J3,J4,J5,J6:-0.043968,0.123066,0.265072,-0.029304,-0.458878,-0.785398:vel_
1561019400.030105,cobot_dynamixel_driver/goal|-:J1,J2,J3,J4,J5,J6:-0.048263,0.130327,0.257013,-0.021462,-0.462718,-0.785398:vel_
1561019400.062106,cobot_dynamixel_driver/goal|-:J1,J2,J3,J4,J5,J6:-0.049509,0.133071,0.259183,-0.019486,-0.470796,-0.785398:vel_
1561019400.094051,cobot_dynamixel_driver/goal|-:J1,J2,J3,J4,J5,J6:-0.049961,0.135765,0.261729,-0.019549,-0.476972,-0.785398:vel_
1561019400.126055,cobot_dynamixel_driver/goal|-:J1,J2,J3,J4,J5,J6:-0.056043,0.142775,0.249336,-0.009626,-0.469689,-0.785398:vel_
1561019400.158043,cobot_dynamixel_driver/goal|-:J1,J2,J3,J4,J5,J6:-0.058419,0.145349,0.248645,-0.006639,-0.472158,-0.785398:vel_
1561019400.190057,cobot_dynamixel_driver/goal|-:J1,J2,J3,J4,J5,J6:-0.059636,0.147007,0.249842,-0.005637,-0.476842,-0.785398:vel_
1561019400.222079,cobot_dynamixel_driver/goal|-:J1,J2,J3,J4,J5,J6:-0.064424,0.155424,0.234839,0.004967,-0.468546,-0.785398:vel_
1561019400.254069,cobot_dynamixel_driver/goal|-:J1,J2,J3,J4,J5,J6:-0.072874,0.174155,0.255046,0.009276,-0.514760,-0.785398:vel_
1561019400.286123,cobot_dynamixel_driver/goal|-:J1,J2,J3,J4,J5,J6:-0.066705,0.158740,0.230523,0.012460,-0.474159,-0.785398:vel_
1561019400.318078,cobot_dynamixel_driver/goal|-:J1,J2,J3,J4,J5,J6:-0.071456,0.169290,0.217750,0.022207,-0.460299,-0.785398:vel_
1561019400.350072,cobot_dynamixel_driver/goal|-:J1,J2,J3,J4,J5,J6:-0.072506,0.171122,0.214587,0.028880,-0.458545,-0.785398:vel_
1561019400.382041,cobot_dynamixel_driver/goal|-:J1,J2,J3,J4,J5,J6:-0.073370,0.172943,0.218006,0.035027,-0.464581,-0.785398:vel_
1561019400.414010,cobot_dynamixel_driver/goal|-:J1,J2,J3,J4,J5,J6:-0.079552,0.186385,0.205524,0.039378,-0.464980,-0.785398:vel_
1561019400.446185,cobot_dynamixel_driver/goal|-:J1,J2,J3,J4,J5,J6:-0.081906,0.192124,0.204583,0.042542,-0.469478,-0.785398:vel_
1561019400.478046,cobot_dynamixel_driver/goal|-:J1,J2,J3,J4,J5,J6:-0.083333,0.195676,0.206612,0.045079,-0.475480,-0.785398:vel_
1561019400.510123,cobot_dynamixel_driver/goal|-:J1,J2,J3,J4,J5,J6:-0.085807,0.203118,0.187028,0.049993,-0.457246,-0.785398:vel_
1561019400.542077,cobot_dynamixel_driver/goal|-:J1,J2,J3,J4,J5,J6:-0.087402,0.207215,0.182808,0.052879,-0.455108,-0.785398:vel_
1561019400.574072,cobot_dynamixel_driver/goal|-:J1,J2,J3,J4,J5,J6:-0.090353,0.212643,0.185097,0.056573,-0.466595,-0.785398:vel_
1561019400.606022,cobot_dynamixel_driver/goal|-:J1,J2,J3,J4,J5,J6:-0.093345,0.223122,0.167768,0.064751,-0.450148,-0.785398:vel_
1561019400.638061,cobot_dynamixel_driver/goal|-:J1,J2,J3,J4,J5,J6:-0.094457,0.226822,0.163711,0.067637,-0.446804,-0.785398:vel_
1561019400.671569,cobot_dynamixel_driver/goal|-:J1,J2,J3,J4,J5,J6:-0.098617,0.235501,0.168293,0.072485,-0.462405,-0.785398:vel_
1561019400.702056,cobot_dynamixel_driver/goal|-:J1,J2,J3,J4,J5,J6:-0.097417,0.243173,0.146861,0.078352,-0.439647,-0.785398:vel_
1561019400.734115,cobot_dynamixel_driver/goal|-:J1,J2,J3,J4,J5,J6:-0.096318,0.243848,0.140578,0.078505,-0.429856,-0.785398:vel_
1561019400.766069,cobot_dynamixel_driver/goal|-:J1,J2,J3,J4,J5,J6:-0.097109,0.250319,0.143196,0.079603,-0.440610,-0.785398:vel_
1561019400.798031,cobot_dynamixel_driver/goal|-:J1,J2,J3,J4,J5,J6:-0.098978,0.259722,0.123803,0.088954,-0.422543,-0.785398:vel_
1561019400.830063,cobot_dynamixel_driver/goal|-:J1,J2,J3,J4,J5,J6:-0.099467,0.263081,0.118214,0.091159,-0.415203,-0.785398:vel_
1561019400.861987,cobot_dynamixel_driver/goal|-:J1,J2,J3,J4,J5,J6:-0.100638,0.264886,0.116898,0.091154,-0.415447,-0.785398:vel_
1561019400.894000,cobot_dynamixel_driver/goal|-:J1,J2,J3,J4,J5,J6:-0.101616,0.278240,0.097620,0.100478,-0.400727,-0.785398:vel_
1561019400.926022,cobot_dynamixel_driver/goal|-:J1,J2,J3,J4,J5,J6:-0.102229,0.282059,0.093310,0.102394,-0.398703,-0.785398:vel_
1561019400.958092,cobot_dynamixel_driver/goal|-:J1,J2,J3,J4,J5,J6:-0.104232,0.289366,0.093917,0.104470,-0.406755,-0.785398:vel_
1561019400.990177,cobot_dynamixel_driver/goal|-:J1,J2,J3,J4,J5,J6:-0.102581,0.296847,0.073344,0.111583,-0.381036,-0.785398:vel_
1561019401.022405,cobot_dynamixel_driver/goal|-:J1,J2,J3,J4,J5,J6:-0.101700,0.298961,0.068115,0.113168,-0.376690,-0.785398:vel_
1561019401.054293,cobot_dynamixel_driver/goal|-:J1,J2,J3,J4,J5,J6:-0.102808,0.302486,0.068158,0.114693,-0.382602,-0.785398:vel_
1561019401.086254,cobot_dynamixel_driver/goal|-:J1,J2,J3,J4,J5,J6:-0.089078,0.277403,0.041372,0.105727,-0.314668,-0.785398:vel_
1561019401.118354,cobot_dynamixel_driver/goal|-:J1,J2,J3,J4,J5,J6:-0.087129,0.272724,0.036143,0.103905,-0.302210,-0.785398:vel_
1561019401.150302,cobot_dynamixel_driver/goal|-:J1,J2,J3,J4,J5,J6:-0.085954,0.270582,0.034944,0.103937,-0.298482,-0.785398:vel_
1561019401.182344,cobot_dynamixel_driver/goal|-:J1,J2,J3,J4,J5,J6:-0.087056,0.275268,0.037628,0.104950,-0.307587,-0.785398:vel_
1561019401.214269,cobot_dynamixel_driver/goal|-:J1,J2,J3,J4,J5,J6:-0.038915,0.132344,0.007136,0.050228,-0.131854,-0.785398:vel_
1561019401.246139,cobot_dynamixel_driver/goal|-:J1,J2,J3,J4,J5,J6:-0.033940,0.116749,0.003663,0.044189,-0.111910,-0.785398:vel_
1561019401.278064,cobot_dynamixel_driver/goal|-:J1,J2,J3,J4,J5,J6:-0.032361,0.104643,0.002665,0.043183,-0.097656,-0.785398:vel_
1561019401.310010,cobot_dynamixel_driver/goal|-:J1,J2,J3,J4,J5,J6:-0.032136,0.103042,0.002651,0.043453,-0.095049,-0.785398:vel_
1561019401.342052,cobot_dynamixel_driver/goal|-:J1,J2,J3,J4,J5,J6:-0.032155,0.105281,0.003042,0.043790,-0.098166,-0.785398:vel_
1561019401.374223,cobot_dynamixel_driver/goal|-:J1,J2,J3,J4,J5,J6:-0.033095,0.109028,0.003709,0.044686,-0.100464,0.785398:vel_
1561019401.406260,cobot_dynamixel_driver/goal|-:J1,J2,J3,J4,J5,J6:-0.007731,0.097630,0.025309,0.018096,-0.118536,0.785398:vel_
1561019401.438017,cobot_dynamixel_driver/goal|-:J1,J2,J3,J4,J5,J6:-0.005554,0.097051,0.027518,0.016039,-0.120035,0.785398:vel_
1561019401.469921,cobot_dynamixel_driver/goal|-:J1,J2,J3,J4,J5,J6:-0.005123,0.097372,0.028433,0.015755,-0.119704,0.785398:vel_
1561019401.502042,cobot_dynamixel_driver/goal|-:J1,J2,J3,J4,J5,J6:-0.004981,0.097545,0.028651,0.015592,-0.119539,0.785398:vel_
1561019401.533913,cobot_dynamixel_driver/goal|-:J1,J2,J3,J4,J5,J6:-0.005063,0.097871,0.028686,0.015670,-0.119997,0.785398:vel_
1561019401.565960,cobot_dynamixel_driver/goal|-:J1,J2,J3,J4,J5,J6:-0.005074,0.098094,0.028499,0.016172,-0.120764,0.785398:vel_
1561019401.597929,cobot_dynamixel_driver/goal|-:J1,J2,J3,J4,J5,J6:-0.005193,0.098129,0.028227,0.016160,-0.121578,0.785398:vel_
1561019401.630031,cobot_dynamixel_driver/goal|-:J1,J2,J3,J4,J5,J6:-0.005235,0.098807,0.027863,0.016165,-0.122844,0.785398:vel_
1561019401.661929,cobot_dynamixel_driver/goal|-:J1,J2,J3,J4,J5,J6:0.001422,0.159670,0.048697,0.015221,-0.206384,0.785398:vel_
1561019401.693877,cobot_dynamixel_driver/goal|-:J1,J2,J3,J4,J5,J6:0.002270,0.169826,0.052324,0.015314,-0.219461,0.785398:vel_
1561019401.726454,cobot_dynamixel_driver/goal|-:J1,J2,J3,J4,J5,J6:0.002793,0.176530,0.054160,0.015804,-0.225230,0.785398:vel_
1561019401.759504,cobot_dynamixel_driver/goal|-:J1,J2,J3,J4,J5,J6:0.003470,0.178128,0.054484,0.016573,-0.226320,0.785398:vel_
1561019401.789909,cobot_dynamixel_driver/goal|-:J1,J2,J3,J4,J5,J6:0.004350,0.172903,0.052848,0.016327,-0.223966,0.785398:vel_
1561019401.821961,cobot_dynamixel_driver/goal|-:J1,J2,J3,J4,J5,J6:0.009027,0.240811,0.066511,0.018697,-0.307800,0.785398:vel_
1561019401.853899,cobot_dynamixel_driver/goal|-:J1,J2,J3,J4,J5,J6:0.011170,0.256803,0.070525,0.018418,-0.328764,0.785398:vel_
1561019401.885955,cobot_dynamixel_driver/goal|-:J1,J2,J3,J4,J5,J6:0.013545,0.268593,0.070878,0.018602,-0.339216,0.785398:vel_
1561019401.917880,cobot_dynamixel_driver/goal|-:J1,J2,J3,J4,J5,J6:0.016953,0.277248,0.071294,0.018863,-0.342558,0.785398:vel_
1561019401.949897,cobot_dynamixel_driver/goal|-:J1,J2,J3,J4,J5,J6:0.014658,0.300713,0.068532,0.022719,-0.365674,0.785398:vel_
1561019401.981919,cobot_dynamixel_driver/goal|-:J1,J2,J3,J4,J5,J6:0.014716,0.310712,0.068063,0.024035,-0.376958,0.785398:vel_
1561019402.013945,cobot_dynamixel_driver/goal|-:J1,J2,J3,J4,J5,J6:0.014785,0.322950,0.070703,0.024638,-0.390543,0.785398:vel_
1561019402.045928,cobot_dynamixel_driver/goal|-:J1,J2,J3,J4,J5,J6:0.012487,0.314128,0.056827,0.025038,-0.373689,0.785398:vel_
1561019402.077935,cobot_dynamixel_driver/goal|-:J1,J2,J3,J4,J5,J6:0.012915,0.315425,0.052346,0.026908,-0.368586,0.785398:vel_
1561019402.113059,cobot_dynamixel_driver/goal|-:J1,J2,J3,J4,J5,J6:0.011042,0.280345,0.036663,0.024483,-0.319284,0.785398:vel_
1561019402.141868,cobot_dynamixel_driver/goal|-:J1,J2,J3,J4,J5,J6:0.010792,0.266050,0.033427,0.023206,-0.302732,0.785398:vel_
1561019402.173863,cobot_dynamixel_driver/goal|-:J1,J2,J3,J4,J5,J6:0.011842,0.260651,0.033258,0.022620,-0.301282,0.785398:vel_
1561019402.205872,cobot_dynamixel_driver/goal|-:J1,J2,J3,J4,J5,J6:0.005386,0.135751,0.013157,0.012069,-0.150070,0.785398:vel_
1561019402.237809,cobot_dynamixel_driver/goal|-:J1,J2,J3,J4,J5,J6:0.004937,0.123423,0.011256,0.011009,-0.133993,0.785398:vel_
1561019402.269910,cobot_dynamixel_driver/goal|-:J1,J2,J3,J4,J5,J6:0.005106,0.114696,0.011174,0.011339,-0.123268,0.785398:vel_
1561019402.301893,cobot_dynamixel_driver/goal|-:J1,J2,J3,J4,J5,J6:0.005215,0.115013,0.011754,0.011493,-0.123643,0.785398:vel_
1561019402.333863,cobot_dynamixel_driver/goal|-:J1,J2,J3,J4,J5,J6:0.005384,0.118716,0.012450,0.011223,-0.126328,0.785398:vel_
1561019402.365865,cobot_dynamixel_driver/goal|-:J1,J2,J3,J4,J5,J6:0.005355,0.121544,0.013283,0.011652,-0.127465,0.785398:vel_
1561019402.397954,cobot_dynamixel_driver/goal|-:J1,J2,J3,J4,J5,J6:0.005552,0.126143,0.014843,0.012390,-0.129327,0.785398:vel_
1561019402.430218,cobot_dynamixel_driver/goal|-:J1,J2,J3,J4,J5,J6:-0.001525,-0.055619,-0.003088,-0.004925,0.062455,0.785398:vel_
1561019402.462397,cobot_dynamixel_driver/goal|-:J1,J2,J3,J4,J5,J6:-0.002033,-0.072115,-0.004362,-0.006118,0.079595,0.785398:vel_
1561019402.494340,cobot_dynamixel_driver/goal|-:J1,J2,J3,J4,J5,J6:-0.002199,-0.085857,-0.004883,-0.006696,0.092542,0.785398:vel_
1561019402.526042,cobot_dynamixel_driver/goal|-:J1,J2,J3,J4,J5,J6:-0.002442,-0.092531,-0.005335,-0.007439,0.097656,0.785398:vel_
1561019402.557878,cobot_dynamixel_driver/goal|-:J1,J2,J3,J4,J5,J6:-0.002756,-0.095302,-0.005969,-0.008393,0.097808,0.785398:vel_
1561019402.589846,cobot_dynamixel_driver/goal|-:J1,J2,J3,J4,J5,J6:-0.003158,-0.097296,-0.006726,-0.009618,0.099052,0.785398:vel_
1561019402.621876,cobot_dynamixel_driver/goal|-:J1,J2,J3,J4,J5,J6:-0.003716,-0.099920,-0.007711,-0.010911,0.099872,0.785398:vel_
1561019402.653829,cobot_dynamixel_driver/goal|-:J1,J2,J3,J4,J5,J6:-0.006702,-0.176650,-0.020522,-0.016669,0.191675,0.785398:vel_
1561019402.685900,cobot_dynamixel_driver/goal|-:J1,J2,J3,J4,J5,J6:-0.007464,-0.188554,-0.022916,-0.017955,0.204822,0.785398:vel_
1561019402.717827,cobot_dynamixel_driver/goal|-:J1,J2,J3,J4,J5,J6:-0.008362,-0.195585,-0.024658,-0.018818,0.208648,0.785398:vel_
1561019402.749900,cobot_dynamixel_driver/goal|-:J1,J2,J3,J4,J5,J6:-0.009221,-0.206743,-0.026911,-0.020358,0.216880,0.785398:vel_
1561019402.783549,cobot_dynamixel_driver/goal|-:J1,J2,J3,J4,J5,J6:-0.009785,-0.201582,-0.028728,-0.019971,0.210097,0.785398:vel_
1561019402.813825,cobot_dynamixel_driver/goal|-:J1,J2,J3,J4,J5,J6:-0.010803,-0.200431,-0.030010,-0.020293,0.206308,0.785398:vel_
1561019402.845797,cobot_dynamixel_driver/goal|-:J1,J2,J3,J4,J5,J6:-0.011528,-0.202919,-0.032169,-0.021689,0.208695,0.785398:vel_
1561019402.877898,cobot_dynamixel_driver/goal|-:J1,J2,J3,J4,J5,J6:-0.012340,-0.279134,-0.051214,-0.024104,0.321063,0.785398:vel_
1561019402.909813,cobot_dynamixel_driver/goal|-:J1,J2,J3,J4,J5,J6:-0.013443,-0.301153,-0.055592,-0.025607,0.351156,0.785398:vel_
1561019402.941846,cobot_dynamixel_driver/goal|-:J1,J2,J3,J4,J5,J6:-0.014989,-0.323424,-0.057616,-0.026355,0.379480,0.785398:vel_
1561019402.973888,cobot_dynamixel_driver/goal|-:J1,J2,J3,J4,J5,J6:-0.016486,-0.334905,-0.059632,-0.026312,0.387014,0.785398:vel_
1561019403.005943,cobot_dynamixel_driver/goal|-:J1,J2,J3,J4,J5,J6:-0.012906,-0.306386,-0.072010,-0.022646,0.378284,0.785398:vel_
1561019403.037906,cobot_dynamixel_driver/goal|-:J1,J2,J3,J4,J5,J6:-0.012609,-0.301184,-0.076181,-0.022473,0.377650,0.785398:vel_
1561019403.070009,cobot_dynamixel_driver/goal|-:J1,J2,J3,J4,J5,J6:-0.012161,-0.302401,-0.078952,-0.023632,0.391776,0.785398:vel_
1561019403.101984,cobot_dynamixel_driver/goal|-:J1,J2,J3,J4,J5,J6:-0.010328,-0.258355,-0.077603,-0.018388,0.340590,0.785398:vel_
1561019403.133847,cobot_dynamixel_driver/goal|-:J1,J2,J3,J4,J5,J6:-0.010366,-0.247538,-0.076527,-0.017788,0.327132,0.785398:vel_
1561019403.165810,cobot_dynamixel_driver/goal|-:J1,J2,J3,J4,J5,J6:-0.010046,-0.239517,-0.076939,-0.019071,0.324651,0.785398:vel_
1561019403.197872,cobot_dynamixel_driver/goal|-:J1,J2,J3,J4,J5,J6:-0.004867,-0.117845,-0.042874,-0.008215,0.162890,0.785398:vel_
1561019403.229813,cobot_dynamixel_driver/goal|-:J1,J2,J3,J4,J5,J6:-0.004241,-0.105903,-0.039477,-0.006927,0.146417,0.785398:vel_
1561019403.261830,cobot_dynamixel_driver/goal|-:J1,J2,J3,J4,J5,J6:-0.004052,-0.097307,-0.039144,-0.006692,0.135841,0.785398:vel_
1561019403.293808,cobot_dynamixel_driver/goal|-:J1,J2,J3,J4,J5,J6:-0.003793,-0.096968,-0.039682,-0.006632,0.135808,0.785398:vel_
1561019403.325758,cobot_dynamixel_driver/goal|-:J1,J2,J3,J4,J5,J6:-0.003639,-0.099968,-0.040570,-0.006173,0.138025,0.785398:vel_
1561019403.357866,cobot_dynamixel_driver/goal|-:J1,J2,J3,J4,J5,J6:-0.003428,-0.102538,-0.039996,-0.005841,0.139110,0.785398:vel_
1561019403.390173,cobot_dynamixel_driver/goal|-:J1,J2,J3,J4,J5,J6:-0.003258,-0.105941,-0.041439,-0.006374,0.141741,0.785398:vel_
1561019403.421852,cobot_dynamixel_driver/goal|-:J1,J2,J3,J4,J5,J6:-0.003151,-0.108441,-0.042839,-0.006854,0.142561,0.785398:vel_
1561019403.453814,cobot_dynamixel_driver/goal|-:J1,J2,J3,J4,J5,J6:-0.164339,-0.048239,0.003099,-0.018061,0.052337,0.785398:vel_
1561019403.485824,cobot_dynamixel_driver/goal|-:J1,J2,J3,J4,J5,J6:-0.173868,-0.044775,0.005734,-0.018595,0.047356,0.785398:vel_
1561019403.517753,cobot_dynamixel_driver/goal|-:J1,J2,J3,J4,J5,J6:-0.181407,-0.043501,0.006559,-0.018627,0.046461,0.785398:vel_
1561019403.549759,cobot_dynamixel_driver/goal|-:J1,J2,J3,J4,J5,J6:-0.183714,-0.043798,0.006977,-0.018764,0.047265,0.785398:vel_
1561019403.581822,cobot_dynamixel_driver/goal|-:J1,J2,J3,J4,J5,J6:-0.184092,-0.044554,0.007444,-0.018849,0.047769,0.785398:vel_
1561019403.613728,cobot_dynamixel_driver/goal|-:J1,J2,J3,J4,J5,J6:-0.183777,-0.044997,0.007871,-0.018989,0.047812,0.785398:vel_
1561019403.645792,cobot_dynamixel_driver/goal|-:J1,J2,J3,J4,J5,J6:-0.183998,-0.045056,0.008441,-0.019090,0.047932,0.785398:vel_
1561019403.677751,cobot_dynamixel_driver/goal|-:J1,J2,J3,J4,J5,J6:-0.184809,-0.045242,0.008992,-0.019075,0.048014,0.785398:vel_
1561019403.709757,cobot_dynamixel_driver/goal|-:J1,J2,J3,J4,J5,J6:-0.184865,-0.045157,0.009589,-0.019076,0.047823,0.785398:vel_
1561019403.741866,cobot_dynamixel_driver/goal|-:J1,J2,J3,J4,J5,J6:-0.185195,-0.045194,0.010319,-0.018746,0.047936,0.785398:vel_
1561019403.774001,cobot_dynamixel_driver/goal|-:J1,J2,J3,J4,J5,J6:-0.186475,-0.045459,0.010695,-0.018476,0.047928,0.785398:vel_
1561019403.805745,cobot_dynamixel_driver/goal|-:J1,J2,J3,J4,J5,J6:-0.186792,-0.045451,0.010889,-0.018541,0.048216,0.785398:vel_
1561019403.837707,cobot_dynamixel_driver/goal|-:J1,J2,J3,J4,J5,J6:-0.187295,-0.045637,0.010851,-0.018944,0.048056,0.785398:vel_
1561019403.869790,cobot_dynamixel_driver/goal|-:J1,J2,J3,J4,J5,J6:-0.188060,-0.045564,0.010965,-0.019581,0.048609,0.785398:vel_
1561019403.901697,cobot_dynamixel_driver/goal|-:J1,J2,J3,J4,J5,J6:-0.190104,-0.045758,0.011142,-0.019616,0.048809,0.785398:vel_
1561019403.933748,cobot_dynamixel_driver/goal|-:J1,J2,J3,J4,J5,J6:-0.190436,-0.045774,0.010396,-0.019219,0.049380,0.785398:vel_
1561019403.965783,cobot_dynamixel_driver/goal|-:J1,J2,J3,J4,J5,J6:-0.300068,-0.063801,0.015696,-0.031168,0.064546,0.785398:vel_
1561019403.997792,cobot_dynamixel_driver/goal|-:J1,J2,J3,J4,J5,J6:-0.311641,-0.065839,0.016129,-0.032294,0.065936,0.785398:vel_
1561019404.029836,cobot_dynamixel_driver/goal|-:J1,J2,J3,J4,J5,J6:-0.320269,-0.066738,0.015987,-0.032602,0.066127,0.785398:vel_
1561019404.061812,cobot_dynamixel_driver/goal|-:J1,J2,J3,J4,J5,J6:-0.321862,-0.066667,0.015752,-0.032417,0.065715,0.785398:vel_
1561019404.094072,cobot_dynamixel_driver/goal|-:J1,J2,J3,J4,J5,J6:-0.323604,-0.066862,0.015998,-0.032344,0.065810,0.785398:vel_
1561019404.126049,cobot_dynamixel_driver/goal|-:J1,J2,J3,J4,J5,J6:-0.323032,-0.066505,0.016493,-0.032214,0.065967,0.785398:vel_
1561019404.158080,cobot_dynamixel_driver/goal|-:J1,J2,J3,J4,J5,J6:-0.323289,-0.066033,0.016368,-0.032053,0.065755,0.785398:vel_
1561019404.190010,cobot_dynamixel_driver/goal|-:J1,J2,J3,J4,J5,J6:-0.326412,-0.066094,0.016425,-0.032298,0.066360,0.785398:vel_
1561019404.222078,cobot_dynamixel_driver/goal|-:J1,J2,J3,J4,J5,J6:-0.330548,-0.066159,0.015547,-0.032417,0.066593,0.785398:vel_
1561019404.254136,cobot_dynamixel_driver/goal|-:J1,J2,J3,J4,J5,J6:-0.337069,-0.065680,0.015128,-0.032137,0.066878,0.785398:vel_
1561019404.286040,cobot_dynamixel_driver/goal|-:J1,J2,J3,J4,J5,J6:-0.323878,-0.067322,0.016827,-0.033298,0.067580,0.785398:vel_
1561019404.318267,cobot_dynamixel_driver/goal|-:J1,J2,J3,J4,J5,J6:-0.323742,-0.067905,0.017131,-0.033274,0.068046,0.785398:vel_
1561019404.349852,cobot_dynamixel_driver/goal|-:J1,J2,J3,J4,J5,J6:-0.322998,-0.067669,0.016759,-0.033276,0.067647,0.785398:vel_
1561019404.381900,cobot_dynamixel_driver/goal|-:J1,J2,J3,J4,J5,J6:-0.325272,-0.068184,0.016628,-0.033744,0.068379,0.785398:vel_
1561019404.413826,cobot_dynamixel_driver/goal|-:J1,J2,J3,J4,J5,J6:-0.327719,-0.068646,0.016528,-0.034190,0.069231,0.785398:vel_
1561019404.446115,cobot_dynamixel_driver/goal|-:J1,J2,J3,J4,J5,J6:-0.329243,-0.068804,0.016263,-0.033986,0.069387,0.785398:vel_
1561019404.477945,cobot_dynamixel_driver/goal|-:J1,J2,J3,J4,J5,J6:-0.323754,-0.067628,0.016279,-0.033662,0.068007,0.785398:vel_
1561019404.509739,cobot_dynamixel_driver/goal|-:J1,J2,J3,J4,J5,J6:-0.337120,-0.070661,0.016722,-0.035120,0.070250,0.785398:vel_
1561019404.541852,cobot_dynamixel_driver/goal|-:J1,J2,J3,J4,J5,J6:-0.347943,-0.073330,0.016928,-0.036565,0.073412,0.785398:vel_
1561019404.573623,cobot_dynamixel_driver/goal|-:J1,J2,J3,J4,J5,J6:-0.327664,-0.068777,0.016854,-0.034311,0.069146,0.785398:vel_
1561019404.605658,cobot_dynamixel_driver/goal|-:J1,J2,J3,J4,J5,J6:-0.326378,-0.068292,0.016705,-0.034220,0.068777,0.785398:vel_
1561019404.637680,cobot_dynamixel_driver/goal|-:J1,J2,J3,J4,J5,J6:-0.327816,-0.068477,0.016468,-0.034323,0.069140,0.785398:vel_
1561019404.669693,cobot_dynamixel_driver/goal|-:J1,J2,J3,J4,J5,J6:-0.328197,-0.068861,0.016376,-0.034348,0.069273,0.785398:vel_
1561019404.701647,cobot_dynamixel_driver/goal|-:J1,J2,J3,J4,J5,J6:-0.330948,-0.069651,0.016205,-0.035082,0.069631,0.785398:vel_
1561019404.733676,cobot_dynamixel_driver/goal|-:J1,J2,J3,J4,J5,J6:-0.336109,-0.070517,0.015819,-0.035879,0.070593,0.785398:vel_
1561019404.765727,cobot_dynamixel_driver/goal|-:J1,J2,J3,J4,J5,J6:-0.334185,-0.070000,0.015092,-0.035676,0.070189,0.785398:vel_
1561019404.797844,cobot_dynamixel_driver/goal|-:J1,J2,J3,J4,J5,J6:-0.339321,-0.070570,0.015463,-0.036002,0.071433,0.785398:vel_
1561019404.829605,cobot_dynamixel_driver/goal|-:J1,J2,J3,J4,J5,J6:-0.344958,-0.070328,0.017576,-0.034808,0.072572,0.785398:vel_
1561019404.861707,cobot_dynamixel_driver/goal|-:J1,J2,J3,J4,J5,J6:-0.329912,-0.068908,0.017784,-0.034062,0.069318,0.785398:vel_
1561019404.893744,cobot_dynamixel_driver/goal|-:J1,J2,J3,J4,J5,J6:-0.330266,-0.068735,0.018032,-0.033998,0.068943,0.785398:vel_
1561019404.925672,cobot_dynamixel_driver/goal|-:J1,J2,J3,J4,J5,J6:-0.330662,-0.068473,0.018121,-0.034324,0.069090,0.785398:vel_
1561019404.957644,cobot_dynamixel_driver/goal|-:J1,J2,J3,J4,J5,J6:-0.331158,-0.068604,0.018234,-0.034743,0.069060,0.785398:vel_
1561019404.989800,cobot_dynamixel_driver/goal|-:J1,J2,J3,J4,J5,J6:-0.334832,-0.069895,0.018561,-0.035142,0.069399,0.785398:vel_
1561019405.021703,cobot_dynamixel_driver/goal|-:J1,J2,J3,J4,J5,J6:-0.337137,-0.071043,0.018555,-0.034587,0.069724,0.785398:vel_
1561019405.053696,cobot_dynamixel_driver/goal|-:J1,J2,J3,J4,J5,J6:-0.341741,-0.072697,0.019065,-0.034713,0.070092,0.785398:vel_
1561019405.085764,cobot_dynamixel_driver/goal|-:J1,J2,J3,J4,J5,J6:-0.346432,-0.074112,0.019799,-0.035564,0.070258,0.785398:vel_
1561019405.117693,cobot_dynamixel_driver/goal|-:J1,J2,J3,J4,J5,J6:-0.334321,-0.070311,0.017514,-0.034851,0.069888,0.785398:vel_
1561019405.149631,cobot_dynamixel_driver/goal|-:J1,J2,J3,J4,J5,J6:-0.333284,-0.070385,0.017094,-0.034855,0.070095,0.785398:vel_
1561019405.181705,cobot_dynamixel_driver/goal|-:J1,J2,J3,J4,J5,J6:-0.334824,-0.070748,0.016974,-0.034749,0.070461,0.785398:vel_
1561019405.214365,cobot_dynamixel_driver/goal|-:J1,J2,J3,J4,J5,J6:-0.335542,-0.071130,0.017496,-0.034515,0.070776,0.785398:vel_
1561019405.245679,cobot_dynamixel_driver/goal|-:J1,J2,J3,J4,J5,J6:-0.336662,-0.071101,0.018010,-0.034297,0.071046,0.785398:vel_
1561019405.277617,cobot_dynamixel_driver/goal|-:J1,J2,J3,J4,J5,J6:-0.340071,-0.071471,0.018382,-0.034467,0.071727,0.785398:vel_
1561019405.309933,cobot_dynamixel_driver/goal|-:J1,J2,J3,J4,J5,J6:-0.341615,-0.071841,0.018874,-0.035450,0.072767,0.785398:vel_
1561019405.341657,cobot_dynamixel_driver/goal|-:J1,J2,J3,J4,J5,J6:-0.345691,-0.072090,0.019038,-0.035552,0.072189,0.785398:vel_
1561019405.373668,cobot_dynamixel_driver/goal|-:J1,J2,J3,J4,J5,J6:-0.350735,-0.071541,0.018482,-0.034560,0.072939,0.785398:vel_
1561019405.405633,cobot_dynamixel_driver/goal|-:J1,J2,J3,J4,J5,J6:-0.337298,-0.070343,0.017371,-0.034735,0.070416,0.785398:vel_
1561019405.437696,cobot_dynamixel_driver/goal|-:J1,J2,J3,J4,J5,J6:-0.337001,-0.070505,0.017239,-0.034968,0.070759,0.785398:vel_
1561019405.469585,cobot_dynamixel_driver/goal|-:J1,J2,J3,J4,J5,J6:-0.338137,-0.070501,0.017074,-0.035057,0.070816,0.785398:vel_
1561019405.501571,cobot_dynamixel_driver/goal|-:J1,J2,J3,J4,J5,J6:-0.339258,-0.070543,0.016973,-0.035225,0.071555,0.785398:vel_
1561019405.533553,cobot_dynamixel_driver/goal|-:J1,J2,J3,J4,J5,J6:-0.340589,-0.070524,0.016920,-0.035207,0.071706,0.785398:vel_
1561019405.565587,cobot_dynamixel_driver/goal|-:J1,J2,J3,J4,J5,J6:-0.343834,-0.070842,0.017181,-0.034935,0.072690,0.785398:vel_
1561019405.597639,cobot_dynamixel_driver/goal|-:J1,J2,J3,J4,J5,J6:-0.349124,-0.071128,0.017910,-0.035156,0.073340,0.785398:vel_
1561019405.629590,cobot_dynamixel_driver/goal|-:J1,J2,J3,J4,J5,J6:-0.351044,-0.070314,0.018266,-0.034601,0.073608,0.785398:vel_
1561019405.661593,cobot_dynamixel_driver/goal|-:J1,J2,J3,J4,J5,J6:-0.359610,-0.070956,0.020270,-0.034817,0.075467,0.785398:vel_
1561019405.693550,cobot_dynamixel_driver/goal|-:J1,J2,J3,J4,J5,J6:-0.340825,-0.071015,0.017988,-0.035347,0.071603,0.785398:vel_
1561019405.725533,cobot_dynamixel_driver/goal|-:J1,J2,J3,J4,J5,J6:-0.340880,-0.071343,0.017597,-0.035252,0.071508,0.785398:vel_
1561019405.757611,cobot_dynamixel_driver/goal|-:J1,J2,J3,J4,J5,J6:-0.341648,-0.071452,0.017619,-0.035031,0.071795,0.785398:vel_
1561019405.805578,cobot_dynamixel_driver/goal|-:J1,J2,J3,J4,J5,J6:-0.361367,-0.075718,0.018724,-0.036777,0.075934,0.785398:vel_
1561019405.837565,cobot_dynamixel_driver/goal|-:J1,J2,J3,J4,J5,J6:-0.346737,-0.072855,0.017358,-0.035486,0.072398,0.785398:vel_
1561019405.869593,cobot_dynamixel_driver/goal|-:J1,J2,J3,J4,J5,J6:-0.344278,-0.072728,0.017018,-0.035542,0.071617,0.785398:vel_
1561019405.901505,cobot_dynamixel_driver/goal|-:J1,J2,J3,J4,J5,J6:-0.344915,-0.072894,0.017209,-0.034886,0.071695,0.785398:vel_
1561019405.933503,cobot_dynamixel_driver/goal|-:J1,J2,J3,J4,J5,J6:-0.364928,-0.077405,0.020377,-0.035510,0.076028,0.785398:vel_
1561019405.965550,cobot_dynamixel_driver/goal|-:J1,J2,J3,J4,J5,J6:-0.344153,-0.072225,0.018285,-0.035567,0.072253,0.785398:vel_
1561019405.997611,cobot_dynamixel_driver/goal|-:J1,J2,J3,J4,J5,J6:-0.343029,-0.071868,0.018176,-0.035755,0.071996,0.785398:vel_
1561019406.029560,cobot_dynamixel_driver/goal|-:J1,J2,J3,J4,J5,J6:-0.344638,-0.071856,0.018423,-0.036163,0.072435,0.785398:vel_
1561019406.061527,cobot_dynamixel_driver/goal|-:J1,J2,J3,J4,J5,J6:-0.345206,-0.072148,0.018714,-0.036187,0.072517,0.785398:vel_
1561019406.098515,cobot_dynamixel_driver/goal|-:J1,J2,J3,J4,J5,J6:-0.351427,-0.073564,0.019074,-0.036571,0.073768,0.785398:vel_
1561019406.141620,cobot_dynamixel_driver/goal|-:J1,J2,J3,J4,J5,J6:-0.351920,-0.073572,0.019703,-0.036436,0.074256,0.785398:vel_
1561019406.173510,cobot_dynamixel_driver/goal|-:J1,J2,J3,J4,J5,J6:-0.354215,-0.073268,0.018816,-0.036525,0.075542,0.785398:vel_
1561019406.205506,cobot_dynamixel_driver/goal|-:J1,J2,J3,J4,J5,J6:-0.361251,-0.072924,0.016321,-0.038336,0.076654,0.785398:vel_
1561019406.237592,cobot_dynamixel_driver/goal|-:J1,J2,J3,J4,J5,J6:-0.348217,-0.072655,0.017527,-0.036406,0.073076,0.785398:vel_
1561019406.269542,cobot_dynamixel_driver/goal|-:J1,J2,J3,J4,J5,J6:-0.348164,-0.073040,0.017849,-0.035993,0.072988,0.785398:vel_
1561019406.301584,cobot_dynamixel_driver/goal|-:J1,J2,J3,J4,J5,J6:-0.348369,-0.072934,0.018354,-0.036035,0.073299,0.785398:vel_
1561019406.333563,cobot_dynamixel_driver/goal|-:J1,J2,J3,J4,J5,J6:-0.351132,-0.073453,0.018669,-0.036351,0.074113,0.785398:vel_
1561019406.365592,cobot_dynamixel_driver/goal|-:J1,J2,J3,J4,J5,J6:-0.352300,-0.073493,0.018997,-0.036731,0.074149,0.785398:vel_
1561019406.397624,cobot_dynamixel_driver/goal|-:J1,J2,J3,J4,J5,J6:-0.353620,-0.073175,0.019025,-0.037160,0.074809,0.785398:vel_
1561019406.429719,cobot_dynamixel_driver/goal|-:J1,J2,J3,J4,J5,J6:-0.356110,-0.073438,0.018480,-0.037758,0.075858,0.785398:vel_
1561019406.462578,cobot_dynamixel_driver/goal|-:J1,J2,J3,J4,J5,J6:-0.375423,-0.075872,0.018229,-0.039334,0.077277,0.785398:vel_
1561019406.493679,cobot_dynamixel_driver/goal|-:J1,J2,J3,J4,J5,J6:-0.353288,-0.073816,0.018325,-0.036965,0.073972,0.412421:vel_
1561019406.525702,cobot_dynamixel_driver/goal|-:J1,J2,J3,J4,J5,J6:-0.354120,-0.074156,0.018406,-0.036974,0.074090,0.370295:vel_
1561019406.557612,cobot_dynamixel_driver/goal|-:J1,J2,J3,J4,J5,J6:-0.352605,-0.073520,0.018555,-0.037404,0.074131,0.324942:vel_
1561019406.589482,cobot_dynamixel_driver/goal|-:J1,J2,J3,J4,J5,J6:-0.354459,-0.073953,0.018676,-0.037566,0.075008,0.285405:vel_
1561019406.621489,cobot_dynamixel_driver/goal|-:J1,J2,J3,J4,J5,J6:-0.357243,-0.074491,0.019093,-0.037686,0.075997,0.247546:vel_
1561019406.653484,cobot_dynamixel_driver/goal|-:J1,J2,J3,J4,J5,J6:-0.358339,-0.074400,0.020044,-0.038071,0.075857,0.213481:vel_
1561019406.685489,cobot_dynamixel_driver/goal|-:J1,J2,J3,J4,J5,J6:-0.359812,-0.074095,0.020107,-0.038064,0.075593,0.187380:vel_
1561019406.717488,cobot_dynamixel_driver/goal|-:J1,J2,J3,J4,J5,J6:-0.366382,-0.076253,0.020844,-0.038186,0.076654,0.182947:vel_
1561019406.750232,cobot_dynamixel_driver/goal|-:J1,J2,J3,J4,J5,J6:-0.358324,-0.075368,0.018781,-0.037216,0.075092,-0.275576:vel_
1561019406.781487,cobot_dynamixel_driver/goal|-:J1,J2,J3,J4,J5,J6:-0.357980,-0.075519,0.018492,-0.036974,0.074880,-0.330962:vel_
1561019406.813428,cobot_dynamixel_driver/goal|-:J1,J2,J3,J4,J5,J6:-0.359527,-0.075657,0.018662,-0.037099,0.074983,-0.388269:vel_
1561019406.845511,cobot_dynamixel_driver/goal|-:J1,J2,J3,J4,J5,J6:-0.360380,-0.075769,0.018790,-0.037319,0.075029,-0.448127:vel_
1561019406.877959,cobot_dynamixel_driver/goal|-:J1,J2,J3,J4,J5,J6:-0.363158,-0.076560,0.018922,-0.037975,0.075503,-0.515603:vel_
1561019406.909873,cobot_dynamixel_driver/goal|-:J1,J2,J3,J4,J5,J6:-0.362275,-0.076046,0.018608,-0.038553,0.074872,-0.584908:vel_
1561019406.941830,cobot_dynamixel_driver/goal|-:J1,J2,J3,J4,J5,J6:-0.366176,-0.077029,0.018878,-0.038203,0.075568,-0.671686:vel_
1561019406.973899,cobot_dynamixel_driver/goal|-:J1,J2,J3,J4,J5,J6:-0.373253,-0.078689,0.020915,-0.038044,0.076860,-0.785398:vel_
1561019407.005563,cobot_dynamixel_driver/goal|-:J1,J2,J3,J4,J5,J6:-0.362892,-0.076071,0.019430,-0.037446,0.075725,-0.442468:vel_
1561019407.037564,cobot_dynamixel_driver/goal|-:J1,J2,J3,J4,J5,J6:-0.362624,-0.075730,0.019300,-0.037392,0.075732,-0.424879:vel_
1561019407.069638,cobot_dynamixel_driver/goal|-:J1,J2,J3,J4,J5,J6:-0.363784,-0.075206,0.019206,-0.037889,0.075810,-0.407228:vel_
1561019407.101764,cobot_dynamixel_driver/goal|-:J1,J2,J3,J4,J5,J6:-0.364962,-0.074815,0.019050,-0.038172,0.076379,-0.408116:vel_
1561019407.133839,cobot_dynamixel_driver/goal|-:J1,J2,J3,J4,J5,J6:-0.366106,-0.074795,0.018470,-0.037609,0.076934,-0.411380:vel_
1561019407.165725,cobot_dynamixel_driver/goal|-:J1,J2,J3,J4,J5,J6:-0.370555,-0.075551,0.018221,-0.037991,0.077622,-0.417090:vel_
1561019407.197581,cobot_dynamixel_driver/goal|-:J1,J2,J3,J4,J5,J6:-0.372797,-0.076094,0.018424,-0.038268,0.078379,-0.418755:vel_
1561019407.229601,cobot_dynamixel_driver/goal|-:J1,J2,J3,J4,J5,J6:-0.377461,-0.076504,0.018075,-0.039304,0.078138,-0.422852:vel_
1561019407.261562,cobot_dynamixel_driver/goal|-:J1,J2,J3,J4,J5,J6:-0.367965,-0.076387,0.018852,-0.038527,0.076760,-0.364909:vel_
1561019407.293569,cobot_dynamixel_driver/goal|-:J1,J2,J3,J4,J5,J6:-0.367866,-0.076403,0.019145,-0.038269,0.077132,-0.359038:vel_
1561019407.325507,cobot_dynamixel_driver/goal|-:J1,J2,J3,J4,J5,J6:-0.368443,-0.076185,0.019659,-0.038169,0.077530,-0.359793:vel_
1561019407.357564,cobot_dynamixel_driver/goal|-:J1,J2,J3,J4,J5,J6:-0.369496,-0.075782,0.019577,-0.038135,0.077586,-0.361655:vel_
1561019407.389499,cobot_dynamixel_driver/goal|-:J1,J2,J3,J4,J5,J6:-0.373119,-0.076131,0.019730,-0.038467,0.078991,-0.365321:vel_
1561019407.421530,cobot_dynamixel_driver/goal|-:J1,J2,J3,J4,J5,J6:-0.375015,-0.075711,0.019536,-0.038303,0.079261,-0.367373:vel_
1561019407.453380,cobot_dynamixel_driver/goal|-:J1,J2,J3,J4,J5,J6:-0.376478,-0.075530,0.019229,-0.037461,0.078345,-0.369568:vel_
1561019407.485379,cobot_dynamixel_driver/goal|-:J1,J2,J3,J4,J5,J6:-0.385089,-0.076333,0.019072,-0.037898,0.080171,-0.377030:vel_
1561019407.517474,cobot_dynamixel_driver/goal|-:J1,J2,J3,J4,J5,J6:-0.220853,-0.045772,0.011151,-0.022910,0.046256,-0.214389:vel_
1561019407.549483,cobot_dynamixel_driver/goal|-:J1,J2,J3,J4,J5,J6:-0.210434,-0.044020,0.010556,-0.022036,0.044330,-0.204094:vel_
1561019407.581446,cobot_dynamixel_driver/goal|-:J1,J2,J3,J4,J5,J6:-0.201774,-0.043645,0.010554,-0.021982,0.044615,-0.197129:vel_
1561019407.613417,cobot_dynamixel_driver/goal|-:J1,J2,J3,J4,J5,J6:-0.200257,-0.044097,0.010504,-0.021984,0.044881,-0.198108:vel_
1561019407.645437,cobot_dynamixel_driver/goal|-:J1,J2,J3,J4,J5,J6:-0.200799,-0.044590,0.010419,-0.021934,0.044915,-0.199401:vel_
1561019407.677400,cobot_dynamixel_driver/goal|-:J1,J2,J3,J4,J5,J6:-0.202420,-0.044859,0.010650,-0.022089,0.045152,-0.200416:vel_
1561019407.709360,cobot_dynamixel_driver/goal|-:J1,J2,J3,J4,J5,J6:-0.202890,-0.044688,0.010891,-0.022072,0.045135,-0.200496:vel_
1561019407.741399,cobot_dynamixel_driver/goal|-:J1,J2,J3,J4,J5,J6:-0.203070,-0.044845,0.010897,-0.022025,0.045098,-0.200518:vel_
1561019407.773427,cobot_dynamixel_driver/goal|-:J1,J2,J3,J4,J5,J6:-0.205494,-0.044939,0.011129,-0.022308,0.045716,-0.202528:vel_
1561019407.805413,cobot_dynamixel_driver/goal|-:J1,J2,J3,J4,J5,J6:-0.206507,-0.045160,0.011199,-0.022577,0.045914,-0.203225:vel_
1561019407.837371,cobot_dynamixel_driver/goal|-:J1,J2,J3,J4,J5,J6:-0.206964,-0.045217,0.011142,-0.022497,0.045915,-0.203569:vel_
1561019407.869391,cobot_dynamixel_driver/goal|-:J1,J2,J3,J4,J5,J6:-0.209282,-0.045265,0.010871,-0.022629,0.046538,-0.205519:vel_
1561019407.901347,cobot_dynamixel_driver/goal|-:J1,J2,J3,J4,J5,J6:-0.210047,-0.045370,0.010797,-0.021932,0.046514,-0.206657:vel_
1561019407.933359,cobot_dynamixel_driver/goal|-:J1,J2,J3,J4,J5,J6:-0.200988,-0.050950,0.018464,-0.035964,0.039517,-0.192991:vel_
1561019407.965408,cobot_dynamixel_driver/goal|-:J1,J2,J3,J4,J5,J6:-0.037868,0.049387,0.073023,-0.013299,-0.121783,-0.022056:vel_
1561019407.997594,cobot_dynamixel_driver/goal|-:J1,J2,J3,J4,J5,J6:-0.021295,0.060213,0.079459,-0.011249,-0.139354,-0.004836:vel_
1561019408.029395,cobot_dynamixel_driver/goal|-:J1,J2,J3,J4,J5,J6:-0.006015,0.068029,0.080824,-0.010774,-0.153765,0.008824:vel_
1561019408.112151,cobot_dynamixel_driver/goal|-:J1,J2,J3,J4,J5,J6:0.003544,0.080609,0.080928,-0.011697,-0.166636,0.015157:vel_
1561019408.141436,cobot_dynamixel_driver/goal|-:J1,J2,J3,J4,J5,J6:0.004494,0.084031,0.080697,-0.011603,-0.166946,0.018146:vel_
1561019408.173289,cobot_dynamixel_driver/goal|-:J1,J2,J3,J4,J5,J6:-0.012522,0.130709,0.134784,-0.017087,-0.265931,0.015860:vel_
1561019408.205464,cobot_dynamixel_driver/goal|-:J1,J2,J3,J4,J5,J6:-0.014796,0.139523,0.144654,-0.018076,-0.284508,0.015981:vel_
1561019408.237358,cobot_dynamixel_driver/goal|-:J1,J2,J3,J4,J5,J6:-0.016209,0.143635,0.147462,-0.018132,-0.293924,0.015772:vel_
1561019408.269344,cobot_dynamixel_driver/goal|-:J1,J2,J3,J4,J5,J6:-0.017522,0.143122,0.145891,-0.018203,-0.290591,0.016288:vel_
1561019408.301340,cobot_dynamixel_driver/goal|-:J1,J2,J3,J4,J5,J6:-0.018422,0.143734,0.145140,-0.018235,-0.292742,0.016881:vel_
1561019408.333311,cobot_dynamixel_driver/goal|-:J1,J2,J3,J4,J5,J6:-0.030521,0.196277,0.188444,-0.025840,-0.390223,0.018498:vel_
1561019408.365338,cobot_dynamixel_driver/goal|-:J1,J2,J3,J4,J5,J6:-0.033713,0.209238,0.201137,-0.028111,-0.415385,0.019180:vel_
1561019408.397352,cobot_dynamixel_driver/goal|-:J1,J2,J3,J4,J5,J6:-0.036475,0.220684,0.209777,-0.029170,-0.439094,0.020449:vel_
1561019408.429398,cobot_dynamixel_driver/goal|-:J1,J2,J3,J4,J5,J6:-0.039421,0.225458,0.210961,-0.030404,-0.444740,0.020101:vel_
1561019408.461501,cobot_dynamixel_driver/goal|-:J1,J2,J3,J4,J5,J6:-0.038868,0.244475,0.204344,-0.034451,-0.453710,0.022948:vel_
1561019408.493430,cobot_dynamixel_driver/goal|-:J1,J2,J3,J4,J5,J6:-0.038342,0.249764,0.204165,-0.036852,-0.454720,0.023880:vel_
1561019408.525416,cobot_dynamixel_driver/goal|-:J1,J2,J3,J4,J5,J6:-0.036837,0.259698,0.193657,-0.038827,-0.451335,0.025581:vel_
1561019408.557259,cobot_dynamixel_driver/goal|-:J1,J2,J3,J4,J5,J6:-0.036640,0.263765,0.195356,-0.039218,-0.460185,0.027166:vel_
1561019408.589283,cobot_dynamixel_driver/goal|-:J1,J2,J3,J4,J5,J6:-0.037335,0.265871,0.198264,-0.039001,-0.465866,0.026721:vel_
1561019408.621334,cobot_dynamixel_driver/goal|-:J1,J2,J3,J4,J5,J6:-0.037984,0.276152,0.185429,-0.043080,-0.463444,0.030823:vel_
1561019408.653272,cobot_dynamixel_driver/goal|-:J1,J2,J3,J4,J5,J6:-0.038298,0.280035,0.182074,-0.044226,-0.462564,0.031818:vel_
1561019408.685297,cobot_dynamixel_driver/goal|-:J1,J2,J3,J4,J5,J6:-0.038562,0.285470,0.183314,-0.045993,-0.471760,0.032414:vel_
1561019408.717300,cobot_dynamixel_driver/goal|-:J1,J2,J3,J4,J5,J6:-0.036820,0.292779,0.169230,-0.048850,-0.464173,0.035861:vel_
1561019408.749322,cobot_dynamixel_driver/goal|-:J1,J2,J3,J4,J5,J6:-0.036436,0.296182,0.166339,-0.049670,-0.462805,0.036671:vel_
1561019408.781595,cobot_dynamixel_driver/goal|-:J1,J2,J3,J4,J5,J6:-0.037966,0.302492,0.165263,-0.051486,-0.473241,0.036933:vel_
1561019408.813344,cobot_dynamixel_driver/goal|-:J1,J2,J3,J4,J5,J6:-0.037570,0.308820,0.153567,-0.056320,-0.463785,0.042519:vel_
1561019408.845268,cobot_dynamixel_driver/goal|-:J1,J2,J3,J4,J5,J6:-0.037378,0.314704,0.152872,-0.058132,-0.467849,0.044734:vel_
1561019408.877275,cobot_dynamixel_driver/goal|-:J1,J2,J3,J4,J5,J6:-0.036808,0.318773,0.154014,-0.060332,-0.472987,0.045169:vel_
1561019408.909331,cobot_dynamixel_driver/goal|-:J1,J2,J3,J4,J5,J6:-0.036896,0.325456,0.139525,-0.064880,-0.464776,0.049830:vel_
1561019408.941419,cobot_dynamixel_driver/goal|-:J1,J2,J3,J4,J5,J6:-0.037905,0.329969,0.133869,-0.066366,-0.464026,0.051456:vel_
1561019408.973360,cobot_dynamixel_driver/goal|-:J1,J2,J3,J4,J5,J6:-0.040106,0.336750,0.132866,-0.066896,-0.472079,0.052374:vel_
1561019409.005457,cobot_dynamixel_driver/goal|-:J1,J2,J3,J4,J5,J6:-0.031534,0.288097,0.103014,-0.061456,-0.392078,0.049926:vel_
1561019409.037400,cobot_dynamixel_driver/goal|-:J1,J2,J3,J4,J5,J6:-0.028799,0.274867,0.095106,-0.060093,-0.369889,0.049939:vel_
1561019409.069429,cobot_dynamixel_driver/goal|-:J1,J2,J3,J4,J5,J6:-0.026953,0.271610,0.094698,-0.060409,-0.360701,0.050923:vel_
1561019409.101326,cobot_dynamixel_driver/goal|-:J1,J2,J3,J4,J5,J6:-0.013957,0.138260,0.042604,-0.032542,-0.179843,0.027254:vel_
1561019409.133380,cobot_dynamixel_driver/goal|-:J1,J2,J3,J4,J5,J6:-0.012801,0.124102,0.037137,-0.029811,-0.161553,0.024778:vel_
1561019409.165380,cobot_dynamixel_driver/goal|-:J1,J2,J3,J4,J5,J6:-0.012724,0.113722,0.035616,-0.029231,-0.146779,0.025713:vel_
1561019409.197323,cobot_dynamixel_driver/goal|-:J1,J2,J3,J4,J5,J6:-0.012555,0.112618,0.037022,-0.029338,-0.143028,0.026227:vel_
1561019409.229332,cobot_dynamixel_driver/goal|-:J1,J2,J3,J4,J5,J6:-0.012756,0.115534,0.038270,-0.029675,-0.146783,0.026178:vel_
1561019409.261360,cobot_dynamixel_driver/goal|-:J1,J2,J3,J4,J5,J6:-0.012861,0.118063,0.038669,-0.029593,-0.148528,0.025907:vel_
1561019409.293299,cobot_dynamixel_driver/goal|-:J1,J2,J3,J4,J5,J6:-0.012396,0.120718,0.038691,-0.029929,-0.149103,0.026228:vel_
1561019409.325262,cobot_dynamixel_driver/goal|-:J1,J2,J3,J4,J5,J6:0.007179,-0.067008,-0.019075,0.015842,0.088144,-0.012875:vel_
1561019409.357566,cobot_dynamixel_driver/goal|-:J1,J2,J3,J4,J5,J6:0.008976,-0.084446,-0.024382,0.020134,0.110144,-0.016309:vel_
1561019409.389611,cobot_dynamixel_driver/goal|-:J1,J2,J3,J4,J5,J6:0.009891,-0.099633,-0.026524,0.021866,0.128970,-0.017432:vel_
1561019409.421202,cobot_dynamixel_driver/goal|-:J1,J2,J3,J4,J5,J6:0.010931,-0.107546,-0.028504,0.023036,0.140850,-0.017907:vel_
1561019409.453242,cobot_dynamixel_driver/goal|-:J1,J2,J3,J4,J5,J6:0.012012,-0.112149,-0.029798,0.024522,0.144524,-0.018289:vel_
1561019409.485279,cobot_dynamixel_driver/goal|-:J1,J2,J3,J4,J5,J6:0.012998,-0.113916,-0.030658,0.025423,0.144019,-0.018484:vel_
1561019409.517438,cobot_dynamixel_driver/goal|-:J1,J2,J3,J4,J5,J6:0.014411,-0.116486,-0.031491,0.026284,0.145134,-0.018846:vel_
1561019409.549262,cobot_dynamixel_driver/goal|-:J1,J2,J3,J4,J5,J6:0.022542,-0.193110,-0.063311,0.042316,0.253711,-0.033068:vel_
1561019409.581273,cobot_dynamixel_driver/goal|-:J1,J2,J3,J4,J5,J6:0.024164,-0.204398,-0.067944,0.044508,0.270020,-0.034882:vel_
1561019409.613209,cobot_dynamixel_driver/goal|-:J1,J2,J3,J4,J5,J6:0.024723,-0.210072,-0.068452,0.044890,0.278434,-0.034895:vel_
1561019409.645272,cobot_dynamixel_driver/goal|-:J1,J2,J3,J4,J5,J6:0.024891,-0.210651,-0.068512,0.045846,0.278390,-0.035127:vel_
1561019409.677201,cobot_dynamixel_driver/goal|-:J1,J2,J3,J4,J5,J6:0.025176,-0.208715,-0.069028,0.046325,0.278951,-0.035722:vel_
1561019409.709228,cobot_dynamixel_driver/goal|-:J1,J2,J3,J4,J5,J6:0.026348,-0.208498,-0.069693,0.047117,0.282776,-0.036785:vel_
1561019409.741320,cobot_dynamixel_driver/goal|-:J1,J2,J3,J4,J5,J6:0.032951,-0.274918,-0.109327,0.057371,0.385625,-0.044553:vel_
1561019409.773300,cobot_dynamixel_driver/goal|-:J1,J2,J3,J4,J5,J6:0.034968,-0.292612,-0.120325,0.060808,0.415235,-0.046700:vel_
1561019409.805480,cobot_dynamixel_driver/goal|-:J1,J2,J3,J4,J5,J6:0.035860,-0.302353,-0.123971,0.061209,0.430309,-0.046282:vel_
1561019409.837223,cobot_dynamixel_driver/goal|-:J1,J2,J3,J4,J5,J6:0.036951,-0.305440,-0.123366,0.060743,0.430972,-0.045885:vel_
1561019409.869204,cobot_dynamixel_driver/goal|-:J1,J2,J3,J4,J5,J6:0.036758,-0.306257,-0.144053,0.056912,0.451588,-0.043697:vel_
1561019409.901188,cobot_dynamixel_driver/goal|-:J1,J2,J3,J4,J5,J6:0.036511,-0.305988,-0.150011,0.056541,0.458489,-0.043280:vel_
1561019409.933176,cobot_dynamixel_driver/goal|-:J1,J2,J3,J4,J5,J6:0.036996,-0.310376,-0.155599,0.055731,0.467853,-0.044664:vel_
1561019409.965196,cobot_dynamixel_driver/goal|-:J1,J2,J3,J4,J5,J6:0.036934,-0.295748,-0.165625,0.050371,0.462791,-0.039022:vel_
1561019409.997175,cobot_dynamixel_driver/goal|-:J1,J2,J3,J4,J5,J6:0.037766,-0.292577,-0.169705,0.050020,0.464704,-0.037625:vel_
1561019410.029213,cobot_dynamixel_driver/goal|-:J1,J2,J3,J4,J5,J6:0.038801,-0.291219,-0.172331,0.049512,0.467643,-0.038313:vel_
1561019410.061181,cobot_dynamixel_driver/goal|-:J1,J2,J3,J4,J5,J6:0.037205,-0.295388,-0.175317,0.050544,0.475840,-0.037475:vel_
1561019410.095642,cobot_dynamixel_driver/goal|-:J1,J2,J3,J4,J5,J6:0.037236,-0.282112,-0.187568,0.044662,0.470940,-0.031197:vel_
1561019410.125160,cobot_dynamixel_driver/goal|-:J1,J2,J3,J4,J5,J6:0.035440,-0.263072,-0.180829,0.040411,0.441844,-0.027309:vel_
1561019410.157227,cobot_dynamixel_driver/goal|-:J1,J2,J3,J4,J5,J6:0.037622,-0.264038,-0.189440,0.039925,0.459764,-0.028124:vel_
1561019410.189229,cobot_dynamixel_driver/goal|-:J1,J2,J3,J4,J5,J6:0.038245,-0.256938,-0.200963,0.037517,0.462740,-0.026001:vel_
1561019410.221278,cobot_dynamixel_driver/goal|-:J1,J2,J3,J4,J5,J6:0.037982,-0.256460,-0.206250,0.037417,0.465141,-0.025294:vel_
1561019410.254295,cobot_dynamixel_driver/goal|-:J1,J2,J3,J4,J5,J6:0.037629,-0.262359,-0.214739,0.040317,0.478412,-0.025319:vel_
1561019410.285159,cobot_dynamixel_driver/goal|-:J1,J2,J3,J4,J5,J6:0.036602,-0.240613,-0.212607,0.034515,0.453894,-0.020630:vel_
1561019410.317177,cobot_dynamixel_driver/goal|-:J1,J2,J3,J4,J5,J6:0.036962,-0.237888,-0.217564,0.033461,0.453200,-0.019206:vel_
1561019410.349274,cobot_dynamixel_driver/goal|-:J1,J2,J3,J4,J5,J6:0.038869,-0.238645,-0.224683,0.032044,0.462228,-0.019526:vel_
1561019410.381239,cobot_dynamixel_driver/goal|-:J1,J2,J3,J4,J5,J6:0.033223,-0.195681,-0.200633,0.025144,0.396737,-0.014969:vel_
1561019410.413160,cobot_dynamixel_driver/goal|-:J1,J2,J3,J4,J5,J6:0.031357,-0.185115,-0.194491,0.023343,0.380935,-0.013684:vel_
1561019410.445370,cobot_dynamixel_driver/goal|-:J1,J2,J3,J4,J5,J6:0.031541,-0.182646,-0.197151,0.023602,0.385782,-0.014255:vel_
1561019410.477279,cobot_dynamixel_driver/goal|-:J1,J2,J3,J4,J5,J6:0.015738,-0.086723,-0.101572,0.011010,0.190110,-0.006118:vel_
1561019410.509343,cobot_dynamixel_driver/goal|-:J1,J2,J3,J4,J5,J6:0.014317,-0.077610,-0.092485,0.009869,0.171926,-0.005540:vel_
1561019410.541102,cobot_dynamixel_driver/goal|-:J1,J2,J3,J4,J5,J6:0.014188,-0.071983,-0.088236,0.009557,0.156101,-0.006098:vel_
1561019410.573207,cobot_dynamixel_driver/goal|-:J1,J2,J3,J4,J5,J6:0.014184,-0.072584,-0.089858,0.009127,0.151895,-0.006938:vel_
1561019410.605134,cobot_dynamixel_driver/goal|-:J1,J2,J3,J4,J5,J6:0.014477,-0.075340,-0.091672,0.009128,0.155014,-0.008006:vel_
1561019410.637150,cobot_dynamixel_driver/goal|-:J1,J2,J3,J4,J5,J6:0.014238,-0.076955,-0.093617,0.009621,0.157457,-0.009521:vel_
1561019410.669164,cobot_dynamixel_driver/goal|-:J1,J2,J3,J4,J5,J6:0.013794,-0.078587,-0.094565,0.009623,0.159222,-0.011591:vel_
1561019410.701144,cobot_dynamixel_driver/goal|-:J1,J2,J3,J4,J5,J6:0.013668,-0.079289,-0.094838,0.009124,0.159181,-0.012015:vel_
1561019415.468780,cobot_dynamixel_driver/goal|-:J1,J2,J3,J4,J5,J6:0.000000,0.000000,0.000000,0.000000,0.000000,0.000000:0.500000,0.500000,0.500000,0.500000,0.500000,0.500000:pos_vel_
1561019856.699227,cobot_dynamixel_driver/goal|-:J1,J2,J3,J4,J5,J6:-0.013905,0.036116,0.095788,-0.010167,-0.134670,-0.589694:vel_
1561019857.128540,cobot_dynamixel_driver/goal|-:J1,J2,J3,J4,J5,J6:-0.014059,0.026926,0.085509,-0.010230,-0.139932,-0.624256:vel_
1561019857.160818,cobot_dynamixel_driver/goal|-:J1,J2,J3,J4,J5,J6:-0.014474,0.026786,0.084314,-0.010999,-0.140725,-0.689179:vel_
1561019857.192557,cobot_dynamixel_driver/goal|-:J1,J2,J3,J4,J5,J6:-0.015281,0.026927,0.084116,-0.011753,-0.141863,-0.761353:vel_
1561019857.224731,cobot_dynamixel_driver/goal|-:J1,J2,J3,J4,J5,J6:-0.016013,0.026932,0.084182,-0.012546,-0.143894,-0.785398:vel_
1561019857.256778,cobot_dynamixel_driver/goal|-:J1,J2,J3,J4,J5,J6:-0.024568,0.058811,0.148204,-0.017836,-0.229367,-0.785398:vel_
1561019857.288874,cobot_dynamixel_driver/goal|-:J1,J2,J3,J4,J5,J6:-0.025572,0.063598,0.157427,-0.018546,-0.241497,-0.785398:vel_
1561019857.321320,cobot_dynamixel_driver/goal|-:J1,J2,J3,J4,J5,J6:-0.026469,0.065246,0.161436,-0.018804,-0.245708,-0.785398:vel_
1561019857.352587,cobot_dynamixel_driver/goal|-:J1,J2,J3,J4,J5,J6:-0.027027,0.065963,0.161669,-0.019332,-0.246737,-0.785398:vel_
1561019857.384548,cobot_dynamixel_driver/goal|-:J1,J2,J3,J4,J5,J6:-0.027866,0.063876,0.160768,-0.019312,-0.246397,-0.785398:vel_
1561019857.416599,cobot_dynamixel_driver/goal|-:J1,J2,J3,J4,J5,J6:-0.029287,0.062679,0.161166,-0.019828,-0.248319,-0.785398:vel_
1561019857.448519,cobot_dynamixel_driver/goal|-:J1,J2,J3,J4,J5,J6:-0.037807,0.100323,0.220318,-0.023441,-0.341602,-0.785398:vel_
1561019857.480547,cobot_dynamixel_driver/goal|-:J1,J2,J3,J4,J5,J6:-0.039988,0.108767,0.235267,-0.024983,-0.364908,-0.785398:vel_
1561019857.512577,cobot_dynamixel_driver/goal|-:J1,J2,J3,J4,J5,J6:-0.040657,0.114524,0.242964,-0.026210,-0.379540,-0.785398:vel_
1561019857.544585,cobot_dynamixel_driver/goal|-:J1,J2,J3,J4,J5,J6:-0.042809,0.118373,0.247815,-0.028200,-0.386275,-0.785398:vel_
1561019857.576898,cobot_dynamixel_driver/goal|-:J1,J2,J3,J4,J5,J6:-0.043938,0.129919,0.244903,-0.024647,-0.396639,-0.785398:vel_
1561019857.608990,cobot_dynamixel_driver/goal|-:J1,J2,J3,J4,J5,J6:-0.045129,0.135002,0.245862,-0.024893,-0.404833,-0.785398:vel_
1561019857.640861,cobot_dynamixel_driver/goal|-:J1,J2,J3,J4,J5,J6:-0.043922,0.135934,0.245965,-0.025392,-0.408696,-0.785398:vel_
1561019857.673322,cobot_dynamixel_driver/goal|-:J1,J2,J3,J4,J5,J6:-0.044465,0.143176,0.238626,-0.020785,-0.408404,-0.785398:vel_
1561019857.704999,cobot_dynamixel_driver/goal|-:J1,J2,J3,J4,J5,J6:-0.044692,0.144707,0.236633,-0.019013,-0.407814,-0.785398:vel_
1561019857.736765,cobot_dynamixel_driver/goal|-:J1,J2,J3,J4,J5,J6:-0.044186,0.146489,0.239945,-0.017938,-0.413973,-0.785398:vel_
1561019857.768660,cobot_dynamixel_driver/goal|-:J1,J2,J3,J4,J5,J6:-0.045866,0.153625,0.228316,-0.015151,-0.409026,-0.785398:vel_
1561019857.800630,cobot_dynamixel_driver/goal|-:J1,J2,J3,J4,J5,J6:-0.045488,0.157186,0.226610,-0.015240,-0.410540,-0.785398:vel_
1561019857.832625,cobot_dynamixel_driver/goal|-:J1,J2,J3,J4,J5,J6:-0.047436,0.160551,0.232926,-0.016063,-0.424104,-0.785398:vel_
1561019857.864663,cobot_dynamixel_driver/goal|-:J1,J2,J3,J4,J5,J6:-0.049399,0.164420,0.216388,-0.012363,-0.410571,-0.785398:vel_
1561019857.896588,cobot_dynamixel_driver/goal|-:J1,J2,J3,J4,J5,J6:-0.049684,0.165588,0.212244,-0.011022,-0.409889,-0.785398:vel_
1561019857.928634,cobot_dynamixel_driver/goal|-:J1,J2,J3,J4,J5,J6:-0.050822,0.169692,0.215931,-0.011806,-0.420589,-0.785398:vel_
1561019857.960634,cobot_dynamixel_driver/goal|-:J1,J2,J3,J4,J5,J6:-0.052205,0.177045,0.204136,-0.007733,-0.413006,-0.785398:vel_
1561019857.992612,cobot_dynamixel_driver/goal|-:J1,J2,J3,J4,J5,J6:-0.053275,0.180150,0.203416,-0.006803,-0.413936,-0.785398:vel_
1561019858.024646,cobot_dynamixel_driver/goal|-:J1,J2,J3,J4,J5,J6:-0.053739,0.180699,0.202427,-0.006410,-0.415129,-0.785398:vel_
1561019858.056627,cobot_dynamixel_driver/goal|-:J1,J2,J3,J4,J5,J6:-0.054463,0.189370,0.191083,-0.001966,-0.412789,-0.785398:vel_
1561019858.088691,cobot_dynamixel_driver/goal|-:J1,J2,J3,J4,J5,J6:-0.054816,0.192735,0.189807,-0.000700,-0.415212,-0.785398:vel_
1561019858.120705,cobot_dynamixel_driver/goal|-:J1,J2,J3,J4,J5,J6:-0.055854,0.195481,0.191906,0.000464,-0.420995,-0.785398:vel_
1561019858.152599,cobot_dynamixel_driver/goal|-:J1,J2,J3,J4,J5,J6:-0.056971,0.201230,0.176855,0.004414,-0.410456,-0.785398:vel_
1561019858.184580,cobot_dynamixel_driver/goal|-:J1,J2,J3,J4,J5,J6:-0.057605,0.204029,0.173168,0.005814,-0.409343,-0.785398:vel_
1561019858.216572,cobot_dynamixel_driver/goal|-:J1,J2,J3,J4,J5,J6:-0.058573,0.205890,0.172773,0.008504,-0.411811,-0.785398:vel_
1561019858.248601,cobot_dynamixel_driver/goal|-:J1,J2,J3,J4,J5,J6:-0.059927,0.214642,0.161886,0.011904,-0.408897,-0.785398:vel_
1561019858.280584,cobot_dynamixel_driver/goal|-:J1,J2,J3,J4,J5,J6:-0.063663,0.226887,0.166611,0.016044,-0.427896,-0.785398:vel_
1561019858.312674,cobot_dynamixel_driver/goal|-:J1,J2,J3,J4,J5,J6:-0.060631,0.221439,0.162309,0.020532,-0.417289,-0.785398:vel_
1561019858.344677,cobot_dynamixel_driver/goal|-:J1,J2,J3,J4,J5,J6:-0.060852,0.226010,0.145729,0.018951,-0.400300,-0.785398:vel_
1561019858.376467,cobot_dynamixel_driver/goal|-:J1,J2,J3,J4,J5,J6:-0.061379,0.225904,0.141545,0.020421,-0.396001,-0.785398:vel_
1561019858.408656,cobot_dynamixel_driver/goal|-:J1,J2,J3,J4,J5,J6:-0.062225,0.229456,0.144282,0.023102,-0.404729,-0.785398:vel_
1561019858.443517,cobot_dynamixel_driver/goal|-:J1,J2,J3,J4,J5,J6:-0.064718,0.244595,0.133315,0.023459,-0.405152,-0.785398:vel_
1561019858.472507,cobot_dynamixel_driver/goal|-:J1,J2,J3,J4,J5,J6:-0.063543,0.242562,0.126288,0.023066,-0.394949,-0.785398:vel_
1561019858.504472,cobot_dynamixel_driver/goal|-:J1,J2,J3,J4,J5,J6:-0.063563,0.245191,0.126487,0.022422,-0.399787,-0.785398:vel_
1561019858.536510,cobot_dynamixel_driver/goal|-:J1,J2,J3,J4,J5,J6:-0.064246,0.252028,0.112889,0.025731,-0.388474,-0.785398:vel_
1561019858.568488,cobot_dynamixel_driver/goal|-:J1,J2,J3,J4,J5,J6:-0.064778,0.256433,0.110893,0.027408,-0.391389,-0.785398:vel_
1561019858.600435,cobot_dynamixel_driver/goal|-:J1,J2,J3,J4,J5,J6:-0.064696,0.259381,0.110367,0.028634,-0.395018,-0.785398:vel_
1561019858.633159,cobot_dynamixel_driver/goal|-:J1,J2,J3,J4,J5,J6:-0.066260,0.269812,0.096454,0.031616,-0.385029,-0.785398:vel_
1561019858.664425,cobot_dynamixel_driver/goal|-:J1,J2,J3,J4,J5,J6:-0.066267,0.271218,0.092086,0.032008,-0.380147,-0.785398:vel_
1561019858.696448,cobot_dynamixel_driver/goal|-:J1,J2,J3,J4,J5,J6:-0.065705,0.272058,0.092013,0.032424,-0.381394,-0.785398:vel_
1561019858.728546,cobot_dynamixel_driver/goal|-:J1,J2,J3,J4,J5,J6:-0.065947,0.279629,0.077308,0.035529,-0.371599,-0.785398:vel_
1561019858.760411,cobot_dynamixel_driver/goal|-:J1,J2,J3,J4,J5,J6:-0.066810,0.283225,0.074081,0.036716,-0.371968,-0.785398:vel_
1561019858.792487,cobot_dynamixel_driver/goal|-:J1,J2,J3,J4,J5,J6:-0.066318,0.284743,0.074623,0.038251,-0.374979,-0.785398:vel_
1561019858.824472,cobot_dynamixel_driver/goal|-:J1,J2,J3,J4,J5,J6:-0.066261,0.291730,0.058896,0.039875,-0.361728,-0.785398:vel_
1561019858.856504,cobot_dynamixel_driver/goal|-:J1,J2,J3,J4,J5,J6:-0.066341,0.295952,0.056820,0.039474,-0.360840,-0.785398:vel_
1561019858.888514,cobot_dynamixel_driver/goal|-:J1,J2,J3,J4,J5,J6:-0.065638,0.299857,0.057363,0.039306,-0.364215,-0.785398:vel_
1561019858.920520,cobot_dynamixel_driver/goal|-:J1,J2,J3,J4,J5,J6:-0.057792,0.269506,0.034997,0.036890,-0.307783,-0.785398:vel_
1561019858.952562,cobot_dynamixel_driver/goal|-:J1,J2,J3,J4,J5,J6:-0.056644,0.264359,0.030585,0.036950,-0.296297,-0.785398:vel_
1561019858.984736,cobot_dynamixel_driver/goal|-:J1,J2,J3,J4,J5,J6:-0.056154,0.262038,0.029661,0.037999,-0.295559,-0.785398:vel_
1561019859.016709,cobot_dynamixel_driver/goal|-:J1,J2,J3,J4,J5,J6:-0.056879,0.268223,0.032110,0.038443,-0.308286,-0.785398:vel_
1561019859.048609,cobot_dynamixel_driver/goal|-:J1,J2,J3,J4,J5,J6:-0.026025,0.127103,0.007457,0.017749,-0.134032,-0.785398:vel_
1561019859.080591,cobot_dynamixel_driver/goal|-:J1,J2,J3,J4,J5,J6:-0.022521,0.111526,0.004670,0.015413,-0.114488,-0.785398:vel_
1561019859.112517,cobot_dynamixel_driver/goal|-:J1,J2,J3,J4,J5,J6:-0.021617,0.098926,0.003853,0.015419,-0.099755,-0.785398:vel_
1561019859.144501,cobot_dynamixel_driver/goal|-:J1,J2,J3,J4,J5,J6:-0.021337,0.096396,0.003727,0.015788,-0.097265,-0.785398:vel_
1561019859.176544,cobot_dynamixel_driver/goal|-:J1,J2,J3,J4,J5,J6:-0.022025,0.099016,0.004030,0.016472,-0.100110,-0.785398:vel_
1561019859.208543,cobot_dynamixel_driver/goal|-:J1,J2,J3,J4,J5,J6:-0.023175,0.102759,0.004328,0.016577,-0.101913,0.785398:vel_
1561019859.240632,cobot_dynamixel_driver/goal|-:J1,J2,J3,J4,J5,J6:-0.006721,0.090557,0.029954,0.006022,-0.117767,0.785398:vel_
1561019859.272593,cobot_dynamixel_driver/goal|-:J1,J2,J3,J4,J5,J6:-0.005290,0.090219,0.032224,0.004814,-0.119395,0.785398:vel_
1561019859.320495,cobot_dynamixel_driver/goal|-:J1,J2,J3,J4,J5,J6:-0.005096,0.093332,0.033758,0.005001,-0.123161,0.785398:vel_
1561019859.352463,cobot_dynamixel_driver/goal|-:J1,J2,J3,J4,J5,J6:-0.004803,0.091267,0.032462,0.004930,-0.119606,0.785398:vel_
1561019859.384407,cobot_dynamixel_driver/goal|-:J1,J2,J3,J4,J5,J6:-0.004883,0.091619,0.032491,0.004763,-0.119824,0.785398:vel_
1561019859.416384,cobot_dynamixel_driver/goal|-:J1,J2,J3,J4,J5,J6:-0.004841,0.091500,0.032243,0.004459,-0.120214,0.785398:vel_
1561019859.448400,cobot_dynamixel_driver/goal|-:J1,J2,J3,J4,J5,J6:-0.005100,0.092137,0.032011,0.004284,-0.121299,0.785398:vel_
1561019859.480501,cobot_dynamixel_driver/goal|-:J1,J2,J3,J4,J5,J6:-0.001877,0.142723,0.057101,0.003778,-0.199065,0.785398:vel_
1561019859.512375,cobot_dynamixel_driver/goal|-:J1,J2,J3,J4,J5,J6:-0.001575,0.150064,0.060797,0.003867,-0.210506,0.785398:vel_
1561019859.544409,cobot_dynamixel_driver/goal|-:J1,J2,J3,J4,J5,J6:-0.001177,0.153808,0.061621,0.004074,-0.214575,0.785398:vel_
1561019859.576412,cobot_dynamixel_driver/goal|-:J1,J2,J3,J4,J5,J6:-0.000768,0.154239,0.060755,0.004264,-0.213702,0.785398:vel_
1561019859.608424,cobot_dynamixel_driver/goal|-:J1,J2,J3,J4,J5,J6:-0.000361,0.157298,0.062210,0.004031,-0.218961,0.785398:vel_
1561019859.640480,cobot_dynamixel_driver/goal|-:J1,J2,J3,J4,J5,J6:0.000217,0.152288,0.061700,0.002968,-0.215615,0.785398:vel_
1561019859.675735,cobot_dynamixel_driver/goal|-:J1,J2,J3,J4,J5,J6:0.002172,0.229024,0.086714,0.003561,-0.317072,0.785398:vel_
1561019859.720375,cobot_dynamixel_driver/goal|-:J1,J2,J3,J4,J5,J6:0.003181,0.260268,0.096626,0.004696,-0.359492,0.785398:vel_
1561019859.752372,cobot_dynamixel_driver/goal|-:J1,J2,J3,J4,J5,J6:0.004728,0.287159,0.102355,0.005051,-0.392222,0.785398:vel_
1561019859.784517,cobot_dynamixel_driver/goal|-:J1,J2,J3,J4,J5,J6:0.004605,0.293565,0.092887,0.005181,-0.385443,0.785398:vel_
1561019859.816390,cobot_dynamixel_driver/goal|-:J1,J2,J3,J4,J5,J6:0.006143,0.293855,0.089623,0.005626,-0.382519,0.785398:vel_
1561019859.848369,cobot_dynamixel_driver/goal|-:J1,J2,J3,J4,J5,J6:0.009623,0.291914,0.087350,0.006936,-0.389569,0.785398:vel_
1561019859.880306,cobot_dynamixel_driver/goal|-:J1,J2,J3,J4,J5,J6:0.006344,0.291790,0.077829,0.005693,-0.371859,0.785398:vel_
1561019859.912388,cobot_dynamixel_driver/goal|-:J1,J2,J3,J4,J5,J6:0.006520,0.291777,0.075460,0.003984,-0.368558,0.785398:vel_
1561019859.944308,cobot_dynamixel_driver/goal|-:J1,J2,J3,J4,J5,J6:0.004638,0.254283,0.057095,0.004284,-0.311976,0.785398:vel_
1561019859.976316,cobot_dynamixel_driver/goal|-:J1,J2,J3,J4,J5,J6:0.004958,0.247577,0.053085,0.004303,-0.302263,0.785398:vel_
1561019860.008353,cobot_dynamixel_driver/goal|-:J1,J2,J3,J4,J5,J6:0.006561,0.245208,0.051416,0.004424,-0.301289,0.785398:vel_
1561019860.040363,cobot_dynamixel_driver/goal|-:J1,J2,J3,J4,J5,J6:0.002311,0.128253,0.022876,0.002848,-0.152101,0.785398:vel_
1561019860.072349,cobot_dynamixel_driver/goal|-:J1,J2,J3,J4,J5,J6:0.002042,0.115873,0.020157,0.002768,-0.135954,0.785398:vel_
1561019860.104440,cobot_dynamixel_driver/goal|-:J1,J2,J3,J4,J5,J6:0.002205,0.108043,0.019599,0.002828,-0.127420,0.785398:vel_
1561019860.136520,cobot_dynamixel_driver/goal|-:J1,J2,J3,J4,J5,J6:0.002518,0.108518,0.019969,0.002893,-0.128085,0.785398:vel_
1561019860.168591,cobot_dynamixel_driver/goal|-:J1,J2,J3,J4,J5,J6:0.002940,0.111272,0.020308,0.003051,-0.130100,0.785398:vel_
1561019860.200611,cobot_dynamixel_driver/goal|-:J1,J2,J3,J4,J5,J6:0.003533,0.113259,0.020234,0.003588,-0.131510,0.785398:vel_
1561019860.232529,cobot_dynamixel_driver/goal|-:J1,J2,J3,J4,J5,J6:0.004231,0.114744,0.020628,0.004398,-0.132573,0.785398:vel_
1561019860.264571,cobot_dynamixel_driver/goal|-:J1,J2,J3,J4,J5,J6:0.000352,-0.052186,-0.007514,-0.000614,0.060798,0.785398:vel_
1561019860.296505,cobot_dynamixel_driver/goal|-:J1,J2,J3,J4,J5,J6:0.000023,-0.067746,-0.009895,-0.001042,0.079306,0.785398:vel_
1561019860.328356,cobot_dynamixel_driver/goal|-:J1,J2,J3,J4,J5,J6:-0.000094,-0.079623,-0.010734,-0.001139,0.091879,0.785398:vel_
1561019860.360393,cobot_dynamixel_driver/goal|-:J1,J2,J3,J4,J5,J6:-0.000149,-0.085514,-0.011492,-0.001222,0.098054,0.785398:vel_
1561019860.392272,cobot_dynamixel_driver/goal|-:J1,J2,J3,J4,J5,J6:-0.000168,-0.089879,-0.012444,-0.001376,0.097902,0.785398:vel_
1561019860.424288,cobot_dynamixel_driver/goal|-:J1,J2,J3,J4,J5,J6:-0.000193,-0.093616,-0.013493,-0.001581,0.098726,0.785398:vel_
1561019860.456298,cobot_dynamixel_driver/goal|-:J1,J2,J3,J4,J5,J6:-0.000226,-0.096481,-0.015044,-0.001850,0.099508,0.785398:vel_
1561019860.488419,cobot_dynamixel_driver/goal|-:J1,J2,J3,J4,J5,J6:-0.000274,-0.099114,-0.017256,-0.002242,0.100436,0.785398:vel_
1561019860.520338,cobot_dynamixel_driver/goal|-:J1,J2,J3,J4,J5,J6:-0.001329,-0.176945,-0.036411,-0.003828,0.203552,0.785398:vel_
1561019860.552265,cobot_dynamixel_driver/goal|-:J1,J2,J3,J4,J5,J6:-0.001546,-0.190624,-0.039752,-0.004394,0.221171,0.785398:vel_
1561019860.584335,cobot_dynamixel_driver/goal|-:J1,J2,J3,J4,J5,J6:-0.001809,-0.195416,-0.040532,-0.004999,0.226900,0.785398:vel_
1561019860.616364,cobot_dynamixel_driver/goal|-:J1,J2,J3,J4,J5,J6:-0.002133,-0.196521,-0.040576,-0.005698,0.226093,0.785398:vel_
1561019860.648352,cobot_dynamixel_driver/goal|-:J1,J2,J3,J4,J5,J6:-0.002739,-0.194549,-0.040879,-0.006419,0.225783,0.785398:vel_
1561019860.680361,cobot_dynamixel_driver/goal|-:J1,J2,J3,J4,J5,J6:-0.003664,-0.193886,-0.039803,-0.008171,0.227251,0.785398:vel_
1561019860.712308,cobot_dynamixel_driver/goal|-:J1,J2,J3,J4,J5,J6:-0.003865,-0.258967,-0.067540,-0.006998,0.326083,0.785398:vel_
1561019860.744349,cobot_dynamixel_driver/goal|-:J1,J2,J3,J4,J5,J6:-0.004701,-0.276376,-0.075759,-0.007713,0.351956,0.785398:vel_
1561019860.776355,cobot_dynamixel_driver/goal|-:J1,J2,J3,J4,J5,J6:-0.005788,-0.293432,-0.081052,-0.008777,0.372690,0.785398:vel_
1561019860.808376,cobot_dynamixel_driver/goal|-:J1,J2,J3,J4,J5,J6:-0.007170,-0.300136,-0.080974,-0.010057,0.377637,0.785398:vel_
1561019860.840384,cobot_dynamixel_driver/goal|-:J1,J2,J3,J4,J5,J6:-0.005412,-0.283427,-0.092827,-0.005925,0.376447,0.785398:vel_
1561019860.872402,cobot_dynamixel_driver/goal|-:J1,J2,J3,J4,J5,J6:-0.006232,-0.277259,-0.098067,-0.004505,0.377751,0.785398:vel_
1561019860.904341,cobot_dynamixel_driver/goal|-:J1,J2,J3,J4,J5,J6:-0.009490,-0.278332,-0.102321,-0.005140,0.389550,0.785398:vel_
1561019860.936343,cobot_dynamixel_driver/goal|-:J1,J2,J3,J4,J5,J6:-0.005255,-0.238518,-0.096733,-0.004023,0.338003,0.785398:vel_
1561019860.968316,cobot_dynamixel_driver/goal|-:J1,J2,J3,J4,J5,J6:-0.005187,-0.229113,-0.095440,-0.004631,0.325769,0.785398:vel_
1561019861.000302,cobot_dynamixel_driver/goal|-:J1,J2,J3,J4,J5,J6:-0.005070,-0.223857,-0.096672,-0.005429,0.327142,0.785398:vel_
1561019861.032368,cobot_dynamixel_driver/goal|-:J1,J2,J3,J4,J5,J6:-0.001690,-0.108808,-0.051776,-0.001962,0.162349,0.785398:vel_
1561019861.064360,cobot_dynamixel_driver/goal|-:J1,J2,J3,J4,J5,J6:-0.001490,-0.097125,-0.047686,-0.001707,0.145509,0.785398:vel_
1561019861.096343,cobot_dynamixel_driver/goal|-:J1,J2,J3,J4,J5,J6:-0.001622,-0.089334,-0.046651,-0.001771,0.133964,0.785398:vel_
1561019861.128368,cobot_dynamixel_driver/goal|-:J1,J2,J3,J4,J5,J6:-0.001853,-0.089297,-0.048026,-0.002022,0.134021,0.785398:vel_
1561019861.160372,cobot_dynamixel_driver/goal|-:J1,J2,J3,J4,J5,J6:-0.002150,-0.092148,-0.049678,-0.002346,0.136358,0.785398:vel_
1561019861.192328,cobot_dynamixel_driver/goal|-:J1,J2,J3,J4,J5,J6:-0.002558,-0.094020,-0.050438,-0.002792,0.137293,0.785398:vel_
1561019861.224248,cobot_dynamixel_driver/goal|-:J1,J2,J3,J4,J5,J6:-0.003061,-0.095579,-0.050538,-0.003349,0.138261,0.785398:vel_
1561019861.256333,cobot_dynamixel_driver/goal|-:J1,J2,J3,J4,J5,J6:-0.004027,-0.098807,-0.050350,-0.004042,0.140191,0.785398:vel_
1561019861.288373,cobot_dynamixel_driver/goal|-:J1,J2,J3,J4,J5,J6:-0.163512,-0.051303,0.009381,-0.015355,0.042071,0.785398:vel_
1561019861.320212,cobot_dynamixel_driver/goal|-:J1,J2,J3,J4,J5,J6:-0.173047,-0.048855,0.012838,-0.015921,0.036517,0.785398:vel_
1561019861.352235,cobot_dynamixel_driver/goal|-:J1,J2,J3,J4,J5,J6:-0.180173,-0.048138,0.014212,-0.016049,0.035233,0.785398:vel_
1561019861.384264,cobot_dynamixel_driver/goal|-:J1,J2,J3,J4,J5,J6:-0.182781,-0.048997,0.015008,-0.016043,0.036265,0.785398:vel_
1561019861.416251,cobot_dynamixel_driver/goal|-:J1,J2,J3,J4,J5,J6:-0.182740,-0.049700,0.015915,-0.016029,0.036426,0.785398:vel_
1561019861.448325,cobot_dynamixel_driver/goal|-:J1,J2,J3,J4,J5,J6:-0.182222,-0.050265,0.016748,-0.015767,0.036407,0.785398:vel_
1561019861.480301,cobot_dynamixel_driver/goal|-:J1,J2,J3,J4,J5,J6:-0.182099,-0.050708,0.017238,-0.015776,0.036750,0.785398:vel_
1561019861.512320,cobot_dynamixel_driver/goal|-:J1,J2,J3,J4,J5,J6:-0.182704,-0.051105,0.017596,-0.015923,0.036862,0.785398:vel_
1561019861.544269,cobot_dynamixel_driver/goal|-:J1,J2,J3,J4,J5,J6:-0.183290,-0.051128,0.017837,-0.016189,0.036949,0.785398:vel_
1561019861.576245,cobot_dynamixel_driver/goal|-:J1,J2,J3,J4,J5,J6:-0.182881,-0.050735,0.017600,-0.015995,0.037299,0.785398:vel_
1561019861.608322,cobot_dynamixel_driver/goal|-:J1,J2,J3,J4,J5,J6:-0.183866,-0.050594,0.017593,-0.016029,0.037534,0.785398:vel_
1561019861.640222,cobot_dynamixel_driver/goal|-:J1,J2,J3,J4,J5,J6:-0.184115,-0.050391,0.017728,-0.015820,0.037556,0.785398:vel_
1561019861.672230,cobot_dynamixel_driver/goal|-:J1,J2,J3,J4,J5,J6:-0.185837,-0.050112,0.017663,-0.015963,0.037674,0.785398:vel_
1561019861.704329,cobot_dynamixel_driver/goal|-:J1,J2,J3,J4,J5,J6:-0.186632,-0.049322,0.018365,-0.016312,0.037606,0.785398:vel_
1561019861.736198,cobot_dynamixel_driver/goal|-:J1,J2,J3,J4,J5,J6:-0.188779,-0.049147,0.019074,-0.016254,0.038160,0.785398:vel_
1561019861.768249,cobot_dynamixel_driver/goal|-:J1,J2,J3,J4,J5,J6:-0.190190,-0.048566,0.020079,-0.015967,0.037274,0.785398:vel_
1561019861.801896,cobot_dynamixel_driver/goal|-:J1,J2,J3,J4,J5,J6:-0.296930,-0.070645,0.029068,-0.026940,0.045657,0.785398:vel_
1561019861.832333,cobot_dynamixel_driver/goal|-:J1,J2,J3,J4,J5,J6:-0.307107,-0.072642,0.029693,-0.027516,0.046327,0.785398:vel_
1561019861.864212,cobot_dynamixel_driver/goal|-:J1,J2,J3,J4,J5,J6:-0.313650,-0.073127,0.029572,-0.027547,0.046257,0.785398:vel_
1561019861.896219,cobot_dynamixel_driver/goal|-:J1,J2,J3,J4,J5,J6:-0.314561,-0.072637,0.029248,-0.027810,0.046295,0.785398:vel_
1561019861.928196,cobot_dynamixel_driver/goal|-:J1,J2,J3,J4,J5,J6:-0.314045,-0.072091,0.028843,-0.027933,0.046640,0.785398:vel_
1561019861.960246,cobot_dynamixel_driver/goal|-:J1,J2,J3,J4,J5,J6:-0.315296,-0.072120,0.029067,-0.028265,0.046943,0.785398:vel_
1561019861.992352,cobot_dynamixel_driver/goal|-:J1,J2,J3,J4,J5,J6:-0.316403,-0.071686,0.029509,-0.028863,0.047323,0.785398:vel_
1561019862.024581,cobot_dynamixel_driver/goal|-:J1,J2,J3,J4,J5,J6:-0.318967,-0.071624,0.030281,-0.029666,0.047234,0.785398:vel_
1561019862.056625,cobot_dynamixel_driver/goal|-:J1,J2,J3,J4,J5,J6:-0.319351,-0.072305,0.030144,-0.029588,0.046939,0.785398:vel_
1561019862.088315,cobot_dynamixel_driver/goal|-:J1,J2,J3,J4,J5,J6:-0.323703,-0.073409,0.030084,-0.028826,0.047355,0.785398:vel_
1561019862.120257,cobot_dynamixel_driver/goal|-:J1,J2,J3,J4,J5,J6:-0.320282,-0.075174,0.030672,-0.028981,0.047302,0.785398:vel_
1561019862.152201,cobot_dynamixel_driver/goal|-:J1,J2,J3,J4,J5,J6:-0.322040,-0.075403,0.030650,-0.029157,0.047382,0.785398:vel_
1561019862.184270,cobot_dynamixel_driver/goal|-:J1,J2,J3,J4,J5,J6:-0.322253,-0.075436,0.031115,-0.028900,0.047423,0.785398:vel_
1561019862.216249,cobot_dynamixel_driver/goal|-:J1,J2,J3,J4,J5,J6:-0.322923,-0.075575,0.031839,-0.028864,0.047502,0.785398:vel_
1561019862.248248,cobot_dynamixel_driver/goal|-:J1,J2,J3,J4,J5,J6:-0.324751,-0.075765,0.032090,-0.029014,0.047502,0.785398:vel_
1561019862.289473,cobot_dynamixel_driver/goal|-:J1,J2,J3,J4,J5,J6:-0.327831,-0.076560,0.031849,-0.028691,0.047785,0.785398:vel_
1561019862.328258,cobot_dynamixel_driver/goal|-:J1,J2,J3,J4,J5,J6:-0.331023,-0.076987,0.030441,-0.027837,0.047642,0.785398:vel_
1561019862.360242,cobot_dynamixel_driver/goal|-:J1,J2,J3,J4,J5,J6:-0.334336,-0.077603,0.029363,-0.027290,0.047644,0.785398:vel_
1561019862.392193,cobot_dynamixel_driver/goal|-:J1,J2,J3,J4,J5,J6:-0.341847,-0.079313,0.031012,-0.028616,0.046818,0.785398:vel_
1561019862.424218,cobot_dynamixel_driver/goal|-:J1,J2,J3,J4,J5,J6:-0.325191,-0.076797,0.031906,-0.029781,0.048230,0.785398:vel_
1561019862.456127,cobot_dynamixel_driver/goal|-:J1,J2,J3,J4,J5,J6:-0.323484,-0.076515,0.032161,-0.030066,0.048358,0.785398:vel_
1561019862.488214,cobot_dynamixel_driver/goal|-:J1,J2,J3,J4,J5,J6:-0.325027,-0.076541,0.031997,-0.030296,0.048558,0.785398:vel_
1561019862.520204,cobot_dynamixel_driver/goal|-:J1,J2,J3,J4,J5,J6:-0.326045,-0.076680,0.031502,-0.030207,0.048978,0.785398:vel_
1561019862.552128,cobot_dynamixel_driver/goal|-:J1,J2,J3,J4,J5,J6:-0.327333,-0.076348,0.030820,-0.030290,0.048947,0.785398:vel_
1561019862.584195,cobot_dynamixel_driver/goal|-:J1,J2,J3,J4,J5,J6:-0.329809,-0.076707,0.031429,-0.030603,0.049649,0.785398:vel_
1561019862.616184,cobot_dynamixel_driver/goal|-:J1,J2,J3,J4,J5,J6:-0.331698,-0.076812,0.032714,-0.030757,0.050013,0.785398:vel_
1561019862.648174,cobot_dynamixel_driver/goal|-:J1,J2,J3,J4,J5,J6:-0.336323,-0.077200,0.033921,-0.031806,0.050121,0.785398:vel_
1561019862.680134,cobot_dynamixel_driver/goal|-:J1,J2,J3,J4,J5,J6:-0.341105,-0.077712,0.033834,-0.032933,0.049948,0.785398:vel_
1561019862.712174,cobot_dynamixel_driver/goal|-:J1,J2,J3,J4,J5,J6:-0.328139,-0.077368,0.031769,-0.029988,0.048679,0.785398:vel_
1561019862.744163,cobot_dynamixel_driver/goal|-:J1,J2,J3,J4,J5,J6:-0.327327,-0.077490,0.031410,-0.029466,0.048716,0.785398:vel_
1561019862.776240,cobot_dynamixel_driver/goal|-:J1,J2,J3,J4,J5,J6:-0.329542,-0.077973,0.031405,-0.029564,0.048970,0.785398:vel_
1561019862.808193,cobot_dynamixel_driver/goal|-:J1,J2,J3,J4,J5,J6:-0.330324,-0.078177,0.031963,-0.029714,0.049235,0.785398:vel_
1561019862.840318,cobot_dynamixel_driver/goal|-:J1,J2,J3,J4,J5,J6:-0.333398,-0.079143,0.032687,-0.030006,0.049986,0.785398:vel_
1561019862.872287,cobot_dynamixel_driver/goal|-:J1,J2,J3,J4,J5,J6:-0.333184,-0.079453,0.032252,-0.030228,0.050295,0.785398:vel_
1561019862.904213,cobot_dynamixel_driver/goal|-:J1,J2,J3,J4,J5,J6:-0.338841,-0.080275,0.031603,-0.031063,0.050622,0.785398:vel_
1561019862.936173,cobot_dynamixel_driver/goal|-:J1,J2,J3,J4,J5,J6:-0.343468,-0.080264,0.030485,-0.031049,0.050575,0.785398:vel_
1561019862.968217,cobot_dynamixel_driver/goal|-:J1,J2,J3,J4,J5,J6:-0.331858,-0.078135,0.031493,-0.030305,0.049378,0.785398:vel_
1561019863.000329,cobot_dynamixel_driver/goal|-:J1,J2,J3,J4,J5,J6:-0.331630,-0.077830,0.032099,-0.030482,0.049170,0.785398:vel_
1561019863.032241,cobot_dynamixel_driver/goal|-:J1,J2,J3,J4,J5,J6:-0.332268,-0.077792,0.032547,-0.030733,0.049360,0.785398:vel_
1561019863.064273,cobot_dynamixel_driver/goal|-:J1,J2,J3,J4,J5,J6:-0.334519,-0.078941,0.032674,-0.031149,0.050386,0.785398:vel_
1561019863.096187,cobot_dynamixel_driver/goal|-:J1,J2,J3,J4,J5,J6:-0.335565,-0.079784,0.032666,-0.031787,0.050210,0.785398:vel_
1561019863.128266,cobot_dynamixel_driver/goal|-:J1,J2,J3,J4,J5,J6:-0.337221,-0.080338,0.031966,-0.032212,0.050089,0.785398:vel_
1561019863.160114,cobot_dynamixel_driver/goal|-:J1,J2,J3,J4,J5,J6:-0.339224,-0.081020,0.031612,-0.031635,0.049629,0.785398:vel_
1561019863.192500,cobot_dynamixel_driver/goal|-:J1,J2,J3,J4,J5,J6:-0.345184,-0.083150,0.032579,-0.031480,0.049956,0.785398:vel_
1561019863.224189,cobot_dynamixel_driver/goal|-:J1,J2,J3,J4,J5,J6:-0.342204,-0.085491,0.033826,-0.030022,0.051745,0.785398:vel_
1561019863.256124,cobot_dynamixel_driver/goal|-:J1,J2,J3,J4,J5,J6:-0.335364,-0.079878,0.032632,-0.030404,0.050028,0.785398:vel_
1561019863.288102,cobot_dynamixel_driver/goal|-:J1,J2,J3,J4,J5,J6:-0.335039,-0.079232,0.032467,-0.030744,0.049907,0.785398:vel_
1561019863.320117,cobot_dynamixel_driver/goal|-:J1,J2,J3,J4,J5,J6:-0.336394,-0.079294,0.032393,-0.031045,0.050289,0.785398:vel_
1561019863.352040,cobot_dynamixel_driver/goal|-:J1,J2,J3,J4,J5,J6:-0.336856,-0.079143,0.032041,-0.030899,0.050469,0.785398:vel_
1561019863.384032,cobot_dynamixel_driver/goal|-:J1,J2,J3,J4,J5,J6:-0.340041,-0.079202,0.032603,-0.031194,0.050519,0.785398:vel_
1561019863.416122,cobot_dynamixel_driver/goal|-:J1,J2,J3,J4,J5,J6:-0.341569,-0.078700,0.033191,-0.031575,0.050537,0.785398:vel_
1561019863.448075,cobot_dynamixel_driver/goal|-:J1,J2,J3,J4,J5,J6:-0.345303,-0.078872,0.033636,-0.032101,0.051308,0.785398:vel_
1561019863.480246,cobot_dynamixel_driver/goal|-:J1,J2,J3,J4,J5,J6:-0.358441,-0.080996,0.034767,-0.032911,0.053144,0.785398:vel_
1561019863.512108,cobot_dynamixel_driver/goal|-:J1,J2,J3,J4,J5,J6:-0.351723,-0.077494,0.032739,-0.032326,0.051914,0.785398:vel_
1561019863.544139,cobot_dynamixel_driver/goal|-:J1,J2,J3,J4,J5,J6:-0.339575,-0.079606,0.032302,-0.031046,0.050369,0.785398:vel_
1561019863.576051,cobot_dynamixel_driver/goal|-:J1,J2,J3,J4,J5,J6:-0.338299,-0.079713,0.032754,-0.030743,0.050452,0.785398:vel_
1561019863.608052,cobot_dynamixel_driver/goal|-:J1,J2,J3,J4,J5,J6:-0.338425,-0.079558,0.033210,-0.030825,0.050541,0.785398:vel_
1561019863.640043,cobot_dynamixel_driver/goal|-:J1,J2,J3,J4,J5,J6:-0.339614,-0.079269,0.033115,-0.031153,0.050316,0.785398:vel_
1561019863.672091,cobot_dynamixel_driver/goal|-:J1,J2,J3,J4,J5,J6:-0.341525,-0.079140,0.033149,-0.031840,0.050038,0.785398:vel_
1561019863.704053,cobot_dynamixel_driver/goal|-:J1,J2,J3,J4,J5,J6:-0.344891,-0.079842,0.033117,-0.032932,0.050946,0.785398:vel_
1561019863.736057,cobot_dynamixel_driver/goal|-:J1,J2,J3,J4,J5,J6:-0.346119,-0.079391,0.032818,-0.033041,0.050689,0.785398:vel_
1561019863.768081,cobot_dynamixel_driver/goal|-:J1,J2,J3,J4,J5,J6:-0.353729,-0.080406,0.033583,-0.032910,0.050700,0.785398:vel_
1561019863.800042,cobot_dynamixel_driver/goal|-:J1,J2,J3,J4,J5,J6:-0.343308,-0.080781,0.033578,-0.031348,0.050963,0.785398:vel_
1561019863.832064,cobot_dynamixel_driver/goal|-:J1,J2,J3,J4,J5,J6:-0.342430,-0.081107,0.033509,-0.031244,0.051133,0.785398:vel_
1561019863.864057,cobot_dynamixel_driver/goal|-:J1,J2,J3,J4,J5,J6:-0.344202,-0.082066,0.033500,-0.031347,0.051077,0.785398:vel_
1561019863.896049,cobot_dynamixel_driver/goal|-:J1,J2,J3,J4,J5,J6:-0.345440,-0.082657,0.033195,-0.031815,0.051181,0.785398:vel_
1561019863.928086,cobot_dynamixel_driver/goal|-:J1,J2,J3,J4,J5,J6:-0.348162,-0.083163,0.033340,-0.032255,0.051446,0.785398:vel_
1561019863.960384,cobot_dynamixel_driver/goal|-:J1,J2,J3,J4,J5,J6:-0.351490,-0.083580,0.034721,-0.032031,0.051887,0.785398:vel_
1561019863.992371,cobot_dynamixel_driver/goal|-:J1,J2,J3,J4,J5,J6:-0.354261,-0.084075,0.035886,-0.031171,0.052388,0.785398:vel_
1561019864.024260,cobot_dynamixel_driver/goal|-:J1,J2,J3,J4,J5,J6:-0.355429,-0.085020,0.035627,-0.031037,0.053161,0.785398:vel_
1561019864.056347,cobot_dynamixel_driver/goal|-:J1,J2,J3,J4,J5,J6:-0.365834,-0.086531,0.035280,-0.031594,0.054404,0.785398:vel_
1561019864.088267,cobot_dynamixel_driver/goal|-:J1,J2,J3,J4,J5,J6:-0.346933,-0.082025,0.033499,-0.031870,0.051606,0.785398:vel_
1561019864.120234,cobot_dynamixel_driver/goal|-:J1,J2,J3,J4,J5,J6:-0.347732,-0.081497,0.033105,-0.032039,0.051443,0.785398:vel_
1561019864.152286,cobot_dynamixel_driver/goal|-:J1,J2,J3,J4,J5,J6:-0.348751,-0.081443,0.033859,-0.031777,0.051966,0.785398:vel_
1561019864.184342,cobot_dynamixel_driver/goal|-:J1,J2,J3,J4,J5,J6:-0.348477,-0.081783,0.034618,-0.031443,0.052472,0.785398:vel_
1561019864.216280,cobot_dynamixel_driver/goal|-:J1,J2,J3,J4,J5,J6:-0.352294,-0.081990,0.034978,-0.031642,0.052899,0.785398:vel_
1561019864.248214,cobot_dynamixel_driver/goal|-:J1,J2,J3,J4,J5,J6:-0.355839,-0.082264,0.034566,-0.032110,0.053049,0.785398:vel_
1561019864.280063,cobot_dynamixel_driver/goal|-:J1,J2,J3,J4,J5,J6:-0.358195,-0.082187,0.033293,-0.032028,0.053113,0.785398:vel_
1561019864.328171,cobot_dynamixel_driver/goal|-:J1,J2,J3,J4,J5,J6:-0.445929,-0.101273,0.040063,-0.039748,0.065657,0.785398:vel_
1561019864.360049,cobot_dynamixel_driver/goal|-:J1,J2,J3,J4,J5,J6:-0.351256,-0.082717,0.034338,-0.031746,0.051930,0.368909:vel_
1561019864.392136,cobot_dynamixel_driver/goal|-:J1,J2,J3,J4,J5,J6:-0.347533,-0.081503,0.033964,-0.031040,0.050371,0.323559:vel_
1561019864.423942,cobot_dynamixel_driver/goal|-:J1,J2,J3,J4,J5,J6:-0.341952,-0.080175,0.034106,-0.030771,0.050537,0.271178:vel_
1561019864.455940,cobot_dynamixel_driver/goal|-:J1,J2,J3,J4,J5,J6:-0.342931,-0.080908,0.034209,-0.031485,0.050906,0.220596:vel_
1561019864.487986,cobot_dynamixel_driver/goal|-:J1,J2,J3,J4,J5,J6:-0.344035,-0.081252,0.034051,-0.032517,0.050834,0.167354:vel_
1561019864.520005,cobot_dynamixel_driver/goal|-:J1,J2,J3,J4,J5,J6:-0.348655,-0.081802,0.035005,-0.033570,0.050851,0.114151:vel_
1561019864.551991,cobot_dynamixel_driver/goal|-:J1,J2,J3,J4,J5,J6:-0.351184,-0.081709,0.036618,-0.033263,0.050983,0.056020:vel_
1561019864.584026,cobot_dynamixel_driver/goal|-:J1,J2,J3,J4,J5,J6:-0.358816,-0.083555,0.037440,-0.033344,0.053338,-0.011514:vel_
1561019864.615976,cobot_dynamixel_driver/goal|-:J1,J2,J3,J4,J5,J6:-0.356747,-0.084308,0.034841,-0.032795,0.053155,-0.325068:vel_
1561019864.647990,cobot_dynamixel_driver/goal|-:J1,J2,J3,J4,J5,J6:-0.356893,-0.084715,0.034399,-0.032586,0.053001,-0.364074:vel_
1561019864.680081,cobot_dynamixel_driver/goal|-:J1,J2,J3,J4,J5,J6:-0.358552,-0.085172,0.033874,-0.032847,0.052857,-0.403320:vel_
1561019864.711980,cobot_dynamixel_driver/goal|-:J1,J2,J3,J4,J5,J6:-0.359606,-0.085771,0.034657,-0.033018,0.053333,-0.436677:vel_
1561019864.744075,cobot_dynamixel_driver/goal|-:J1,J2,J3,J4,J5,J6:-0.363259,-0.086168,0.035207,-0.033241,0.053711,-0.465710:vel_
1561019864.776059,cobot_dynamixel_driver/goal|-:J1,J2,J3,J4,J5,J6:-0.365019,-0.086587,0.035191,-0.032660,0.053243,-0.482337:vel_
1561019864.808107,cobot_dynamixel_driver/goal|-:J1,J2,J3,J4,J5,J6:-0.369950,-0.088146,0.035015,-0.033165,0.054465,-0.488125:vel_
1561019864.840070,cobot_dynamixel_driver/goal|-:J1,J2,J3,J4,J5,J6:-0.376707,-0.088392,0.033553,-0.033980,0.053511,-0.490500:vel_
1561019864.872135,cobot_dynamixel_driver/goal|-:J1,J2,J3,J4,J5,J6:-0.362937,-0.085398,0.034551,-0.033276,0.053580,-0.372422:vel_
1561019864.904059,cobot_dynamixel_driver/goal|-:J1,J2,J3,J4,J5,J6:-0.361834,-0.084749,0.035298,-0.033436,0.053596,-0.359142:vel_
1561019864.936033,cobot_dynamixel_driver/goal|-:J1,J2,J3,J4,J5,J6:-0.364017,-0.084589,0.035740,-0.033558,0.053831,-0.354793:vel_
1561019864.968126,cobot_dynamixel_driver/goal|-:J1,J2,J3,J4,J5,J6:-0.365474,-0.084589,0.035576,-0.033678,0.054085,-0.357859:vel_
1561019865.000053,cobot_dynamixel_driver/goal|-:J1,J2,J3,J4,J5,J6:-0.366382,-0.084520,0.035125,-0.033696,0.054065,-0.360128:vel_
1561019865.031992,cobot_dynamixel_driver/goal|-:J1,J2,J3,J4,J5,J6:-0.370490,-0.085264,0.034916,-0.034175,0.054456,-0.363960:vel_
1561019865.064057,cobot_dynamixel_driver/goal|-:J1,J2,J3,J4,J5,J6:-0.374940,-0.085605,0.035135,-0.035402,0.054615,-0.366610:vel_
1561019865.096005,cobot_dynamixel_driver/goal|-:J1,J2,J3,J4,J5,J6:-0.380535,-0.084975,0.036822,-0.037213,0.055513,-0.370151:vel_
1561019865.128464,cobot_dynamixel_driver/goal|-:J1,J2,J3,J4,J5,J6:-0.368895,-0.086111,0.035761,-0.033947,0.055083,-0.362915:vel_
1561019865.160012,cobot_dynamixel_driver/goal|-:J1,J2,J3,J4,J5,J6:-0.368751,-0.085926,0.035520,-0.033530,0.055392,-0.362920:vel_
1561019865.192055,cobot_dynamixel_driver/goal|-:J1,J2,J3,J4,J5,J6:-0.369923,-0.085615,0.035203,-0.033709,0.055409,-0.364491:vel_
1561019865.223993,cobot_dynamixel_driver/goal|-:J1,J2,J3,J4,J5,J6:-0.370860,-0.085887,0.034966,-0.033807,0.055630,-0.365837:vel_
1561019865.255999,cobot_dynamixel_driver/goal|-:J1,J2,J3,J4,J5,J6:-0.374019,-0.086076,0.035814,-0.034499,0.056217,-0.368903:vel_
1561019865.288003,cobot_dynamixel_driver/goal|-:J1,J2,J3,J4,J5,J6:-0.376686,-0.086471,0.036368,-0.035213,0.057203,-0.371556:vel_
1561019865.319941,cobot_dynamixel_driver/goal|-:J1,J2,J3,J4,J5,J6:-0.378777,-0.086944,0.035932,-0.035043,0.056398,-0.373899:vel_
1561019865.351950,cobot_dynamixel_driver/goal|-:J1,J2,J3,J4,J5,J6:-0.380454,-0.089399,0.035927,-0.033493,0.056834,-0.376640:vel_
1561019865.383924,cobot_dynamixel_driver/goal|-:J1,J2,J3,J4,J5,J6:-0.218971,-0.051877,0.020859,-0.019899,0.032606,-0.216174:vel_
1561019865.415972,cobot_dynamixel_driver/goal|-:J1,J2,J3,J4,J5,J6:-0.208196,-0.049543,0.020044,-0.019073,0.030856,-0.205317:vel_
1561019865.447953,cobot_dynamixel_driver/goal|-:J1,J2,J3,J4,J5,J6:-0.200563,-0.048885,0.020435,-0.019151,0.031130,-0.198983:vel_
1561019865.480356,cobot_dynamixel_driver/goal|-:J1,J2,J3,J4,J5,J6:-0.198765,-0.049411,0.020582,-0.019225,0.031531,-0.199295:vel_
1561019865.511933,cobot_dynamixel_driver/goal|-:J1,J2,J3,J4,J5,J6:-0.200166,-0.050017,0.020761,-0.019206,0.031767,-0.201546:vel_
1561019865.543938,cobot_dynamixel_driver/goal|-:J1,J2,J3,J4,J5,J6:-0.201962,-0.050551,0.020717,-0.019044,0.031631,-0.202408:vel_
1561019865.575882,cobot_dynamixel_driver/goal|-:J1,J2,J3,J4,J5,J6:-0.202060,-0.050603,0.020781,-0.018719,0.031536,-0.202166:vel_
1561019865.607883,cobot_dynamixel_driver/goal|-:J1,J2,J3,J4,J5,J6:-0.202308,-0.050328,0.020477,-0.018405,0.031486,-0.202254:vel_
1561019865.639879,cobot_dynamixel_driver/goal|-:J1,J2,J3,J4,J5,J6:-0.202886,-0.050261,0.020345,-0.018643,0.031306,-0.202191:vel_
1561019865.672214,cobot_dynamixel_driver/goal|-:J1,J2,J3,J4,J5,J6:-0.204727,-0.050071,0.020475,-0.019127,0.031241,-0.203347:vel_
1561019865.703918,cobot_dynamixel_driver/goal|-:J1,J2,J3,J4,J5,J6:-0.205247,-0.050330,0.020983,-0.019301,0.031584,-0.203933:vel_
1561019865.735893,cobot_dynamixel_driver/goal|-:J1,J2,J3,J4,J5,J6:-0.207636,-0.050969,0.021693,-0.019314,0.032155,-0.206223:vel_
1561019865.767920,cobot_dynamixel_driver/goal|-:J1,J2,J3,J4,J5,J6:-0.209080,-0.051006,0.022513,-0.018894,0.031741,-0.207070:vel_
1561019865.799867,cobot_dynamixel_driver/goal|-:J1,J2,J3,J4,J5,J6:-0.220029,-0.051134,0.018098,-0.006487,0.033973,-0.230037:vel_
1561019865.831933,cobot_dynamixel_driver/goal|-:J1,J2,J3,J4,J5,J6:-0.040866,0.054102,0.071583,-0.007994,-0.126180,-0.026245:vel_
1561019865.863961,cobot_dynamixel_driver/goal|-:J1,J2,J3,J4,J5,J6:-0.020595,0.066026,0.077589,-0.008276,-0.143940,-0.002608:vel_
1561019865.896438,cobot_dynamixel_driver/goal|-:J1,J2,J3,J4,J5,J6:-0.002270,0.074789,0.079997,-0.008095,-0.159085,0.016347:vel_
1561019865.927908,cobot_dynamixel_driver/goal|-:J1,J2,J3,J4,J5,J6:0.006066,0.079373,0.079298,-0.007820,-0.162345,0.024093:vel_
1561019865.959879,cobot_dynamixel_driver/goal|-:J1,J2,J3,J4,J5,J6:0.007371,0.084647,0.080695,-0.007909,-0.166176,0.024857:vel_
1561019865.991886,cobot_dynamixel_driver/goal|-:J1,J2,J3,J4,J5,J6:0.008471,0.085645,0.078612,-0.008088,-0.164212,0.024492:vel_
1561019866.023870,cobot_dynamixel_driver/goal|-:J1,J2,J3,J4,J5,J6:-0.012539,0.131683,0.129750,-0.016816,-0.261443,0.020419:vel_
1561019866.055892,cobot_dynamixel_driver/goal|-:J1,J2,J3,J4,J5,J6:-0.015110,0.139727,0.138251,-0.018025,-0.277874,0.020250:vel_
1561019866.087929,cobot_dynamixel_driver/goal|-:J1,J2,J3,J4,J5,J6:-0.016674,0.142784,0.141321,-0.018549,-0.287886,0.021119:vel_
1561019866.119861,cobot_dynamixel_driver/goal|-:J1,J2,J3,J4,J5,J6:-0.018895,0.143578,0.140990,-0.018626,-0.286544,0.021318:vel_
1561019866.151879,cobot_dynamixel_driver/goal|-:J1,J2,J3,J4,J5,J6:-0.020844,0.142919,0.140124,-0.019339,-0.287608,0.022153:vel_
1561019866.183908,cobot_dynamixel_driver/goal|-:J1,J2,J3,J4,J5,J6:-0.034514,0.195401,0.180634,-0.029123,-0.379203,0.023151:vel_
1561019866.215868,cobot_dynamixel_driver/goal|-:J1,J2,J3,J4,J5,J6:-0.038555,0.207162,0.190159,-0.031406,-0.400866,0.023084:vel_
1561019866.247904,cobot_dynamixel_driver/goal|-:J1,J2,J3,J4,J5,J6:-0.040516,0.218785,0.199050,-0.032206,-0.422615,0.023407:vel_
1561019866.280069,cobot_dynamixel_driver/goal|-:J1,J2,J3,J4,J5,J6:-0.041930,0.222616,0.202559,-0.033060,-0.429143,0.024092:vel_
1561019866.311918,cobot_dynamixel_driver/goal|-:J1,J2,J3,J4,J5,J6:-0.043122,0.245845,0.201388,-0.038742,-0.447856,0.026464:vel_
1561019866.343933,cobot_dynamixel_driver/goal|-:J1,J2,J3,J4,J5,J6:-0.043684,0.250697,0.199391,-0.040570,-0.450641,0.027979:vel_
1561019866.375812,cobot_dynamixel_driver/goal|-:J1,J2,J3,J4,J5,J6:-0.045194,0.254903,0.202898,-0.042545,-0.463387,0.027597:vel_
1561019866.407904,cobot_dynamixel_driver/goal|-:J1,J2,J3,J4,J5,J6:-0.043691,0.268306,0.191875,-0.046602,-0.461519,0.031591:vel_
1561019866.439863,cobot_dynamixel_driver/goal|-:J1,J2,J3,J4,J5,J6:-0.042685,0.273775,0.189832,-0.048654,-0.463787,0.033148:vel_
1561019866.471818,cobot_dynamixel_driver/goal|-:J1,J2,J3,J4,J5,J6:-0.044247,0.276973,0.189082,-0.049981,-0.468817,0.032149:vel_
1561019866.503805,cobot_dynamixel_driver/goal|-:J1,J2,J3,J4,J5,J6:-0.043749,0.284816,0.175942,-0.052093,-0.461810,0.037117:vel_
1561019866.535841,cobot_dynamixel_driver/goal|-:J1,J2,J3,J4,J5,J6:-0.043318,0.288488,0.171890,-0.053420,-0.460646,0.038863:vel_
1561019866.567857,cobot_dynamixel_driver/goal|-:J1,J2,J3,J4,J5,J6:-0.042629,0.295831,0.161245,-0.058393,-0.461034,0.043187:vel_
1561019866.599877,cobot_dynamixel_driver/goal|-:J1,J2,J3,J4,J5,J6:-0.042683,0.300663,0.161653,-0.058890,-0.463049,0.044340:vel_
1561019866.633500,cobot_dynamixel_driver/goal|-:J1,J2,J3,J4,J5,J6:-0.045911,0.318151,0.171127,-0.061628,-0.489872,0.046665:vel_
1561019866.663824,cobot_dynamixel_driver/goal|-:J1,J2,J3,J4,J5,J6:-0.043588,0.313730,0.150829,-0.065823,-0.464777,0.049521:vel_
1561019866.695883,cobot_dynamixel_driver/goal|-:J1,J2,J3,J4,J5,J6:-0.043004,0.313245,0.145799,-0.067775,-0.457742,0.050524:vel_
1561019866.727866,cobot_dynamixel_driver/goal|-:J1,J2,J3,J4,J5,J6:-0.043022,0.313374,0.144497,-0.068132,-0.459492,0.051605:vel_
1561019866.759841,cobot_dynamixel_driver/goal|-:J1,J2,J3,J4,J5,J6:-0.042754,0.323298,0.132682,-0.074101,-0.456864,0.058202:vel_
1561019866.791803,cobot_dynamixel_driver/goal|-:J1,J2,J3,J4,J5,J6:-0.043836,0.329630,0.130876,-0.077095,-0.463244,0.061163:vel_
1561019866.824069,cobot_dynamixel_driver/goal|-:J1,J2,J3,J4,J5,J6:-0.045668,0.339522,0.132052,-0.079452,-0.479796,0.063276:vel_
1561019866.855826,cobot_dynamixel_driver/goal|-:J1,J2,J3,J4,J5,J6:-0.036388,0.294732,0.101481,-0.073166,-0.396237,0.059287:vel_
1561019866.887869,cobot_dynamixel_driver/goal|-:J1,J2,J3,J4,J5,J6:-0.033099,0.283397,0.093823,-0.071085,-0.373318,0.058259:vel_
1561019866.919828,cobot_dynamixel_driver/goal|-:J1,J2,J3,J4,J5,J6:-0.032455,0.279246,0.091538,-0.071971,-0.365347,0.059978:vel_
1561019866.951834,cobot_dynamixel_driver/goal|-:J1,J2,J3,J4,J5,J6:-0.017260,0.143537,0.041810,-0.039972,-0.183791,0.032940:vel_
1561019866.983896,cobot_dynamixel_driver/goal|-:J1,J2,J3,J4,J5,J6:-0.015979,0.129425,0.036782,-0.036846,-0.165486,0.030166:vel_
1561019867.015819,cobot_dynamixel_driver/goal|-:J1,J2,J3,J4,J5,J6:-0.015499,0.118808,0.035386,-0.036448,-0.150572,0.030661:vel_
1561019867.047765,cobot_dynamixel_driver/goal|-:J1,J2,J3,J4,J5,J6:-0.015277,0.117647,0.036811,-0.036780,-0.146616,0.031388:vel_
1561019867.079805,cobot_dynamixel_driver/goal|-:J1,J2,J3,J4,J5,J6:-0.015598,0.120886,0.037873,-0.037571,-0.150607,0.031776:vel_
1561019867.111746,cobot_dynamixel_driver/goal|-:J1,J2,J3,J4,J5,J6:-0.015944,0.122793,0.038313,-0.037712,-0.152307,0.031711:vel_
1561019867.143835,cobot_dynamixel_driver/goal|-:J1,J2,J3,J4,J5,J6:-0.016401,0.124595,0.038094,-0.037335,-0.154657,0.031544:vel_
1561019867.175814,cobot_dynamixel_driver/goal|-:J1,J2,J3,J4,J5,J6:0.006987,-0.062785,-0.016549,0.017108,0.081102,-0.014291:vel_
1561019867.207857,cobot_dynamixel_driver/goal|-:J1,J2,J3,J4,J5,J6:0.009036,-0.079904,-0.021548,0.021868,0.102660,-0.018480:vel_
1561019867.239786,cobot_dynamixel_driver/goal|-:J1,J2,J3,J4,J5,J6:0.009914,-0.094337,-0.023699,0.023649,0.120402,-0.019628:vel_
1561019867.271783,cobot_dynamixel_driver/goal|-:J1,J2,J3,J4,J5,J6:0.010951,-0.101791,-0.025497,0.025039,0.131496,-0.020380:vel_
1561019867.303770,cobot_dynamixel_driver/goal|-:J1,J2,J3,J4,J5,J6:0.011733,-0.105604,-0.026621,0.026053,0.134059,-0.020466:vel_
1561019867.335773,cobot_dynamixel_driver/goal|-:J1,J2,J3,J4,J5,J6:0.012574,-0.107023,-0.027544,0.027009,0.133861,-0.020670:vel_
1561019867.367755,cobot_dynamixel_driver/goal|-:J1,J2,J3,J4,J5,J6:0.013576,-0.110040,-0.028268,0.027911,0.134375,-0.020841:vel_
1561019867.399724,cobot_dynamixel_driver/goal|-:J1,J2,J3,J4,J5,J6:0.023825,-0.188990,-0.058604,0.048027,0.244069,-0.037994:vel_
1561019867.431817,cobot_dynamixel_driver/goal|-:J1,J2,J3,J4,J5,J6:0.025413,-0.199478,-0.062605,0.050621,0.258857,-0.040000:vel_
1561019867.463800,cobot_dynamixel_driver/goal|-:J1,J2,J3,J4,J5,J6:0.026396,-0.206059,-0.063630,0.051392,0.267676,-0.039791:vel_
1561019867.496179,cobot_dynamixel_driver/goal|-:J1,J2,J3,J4,J5,J6:0.027023,-0.206908,-0.063370,0.052163,0.268052,-0.040704:vel_
1561019867.527825,cobot_dynamixel_driver/goal|-:J1,J2,J3,J4,J5,J6:0.027543,-0.203931,-0.062936,0.052961,0.265599,-0.041270:vel_
1561019867.559753,cobot_dynamixel_driver/goal|-:J1,J2,J3,J4,J5,J6:0.028001,-0.201878,-0.062695,0.054519,0.266241,-0.041167:vel_
1561019867.591753,cobot_dynamixel_driver/goal|-:J1,J2,J3,J4,J5,J6:0.036036,-0.271355,-0.101080,0.065890,0.374649,-0.051103:vel_
1561019867.623799,cobot_dynamixel_driver/goal|-:J1,J2,J3,J4,J5,J6:0.038388,-0.287731,-0.110705,0.068503,0.401905,-0.053367:vel_
1561019867.655787,cobot_dynamixel_driver/goal|-:J1,J2,J3,J4,J5,J6:0.039715,-0.298244,-0.114324,0.069285,0.420296,-0.053474:vel_
1561019867.687750,cobot_dynamixel_driver/goal|-:J1,J2,J3,J4,J5,J6:0.040576,-0.302456,-0.113637,0.069666,0.422632,-0.053208:vel_
1561019867.719784,cobot_dynamixel_driver/goal|-:J1,J2,J3,J4,J5,J6:0.042421,-0.307849,-0.135955,0.066373,0.447391,-0.050824:vel_
1561019867.752120,cobot_dynamixel_driver/goal|-:J1,J2,J3,J4,J5,J6:0.043730,-0.309179,-0.142338,0.066680,0.456163,-0.050388:vel_
1561019867.784029,cobot_dynamixel_driver/goal|-:J1,J2,J3,J4,J5,J6:0.043163,-0.310370,-0.145402,0.065197,0.457529,-0.049856:vel_
1561019867.815781,cobot_dynamixel_driver/goal|-:J1,J2,J3,J4,J5,J6:0.044039,-0.310956,-0.143657,0.064780,0.463610,-0.049318:vel_
1561019867.847706,cobot_dynamixel_driver/goal|-:J1,J2,J3,J4,J5,J6:0.043323,-0.297584,-0.161843,0.058848,0.461788,-0.043721:vel_
1561019867.879771,cobot_dynamixel_driver/goal|-:J1,J2,J3,J4,J5,J6:0.043641,-0.293028,-0.169444,0.056802,0.462442,-0.042962:vel_
1561019867.911753,cobot_dynamixel_driver/goal|-:J1,J2,J3,J4,J5,J6:0.043718,-0.296586,-0.178301,0.056921,0.472987,-0.044616:vel_
1561019867.943786,cobot_dynamixel_driver/goal|-:J1,J2,J3,J4,J5,J6:0.042610,-0.279924,-0.179364,0.050914,0.459290,-0.037444:vel_
1561019867.975825,cobot_dynamixel_driver/goal|-:J1,J2,J3,J4,J5,J6:0.043372,-0.278692,-0.182168,0.049590,0.460350,-0.035622:vel_
1561019868.007763,cobot_dynamixel_driver/goal|-:J1,J2,J3,J4,J5,J6:0.044345,-0.281051,-0.184032,0.048475,0.470636,-0.036315:vel_
1561019868.039797,cobot_dynamixel_driver/goal|-:J1,J2,J3,J4,J5,J6:0.043674,-0.262828,-0.191298,0.044328,0.458237,-0.030843:vel_
1561019868.071739,cobot_dynamixel_driver/goal|-:J1,J2,J3,J4,J5,J6:0.043302,-0.261383,-0.196868,0.044437,0.460963,-0.029938:vel_
1561019868.103804,cobot_dynamixel_driver/goal|-:J1,J2,J3,J4,J5,J6:0.043870,-0.263624,-0.200699,0.044208,0.466465,-0.030896:vel_
1561019868.136378,cobot_dynamixel_driver/goal|-:J1,J2,J3,J4,J5,J6:0.043434,-0.248318,-0.209443,0.038538,0.458135,-0.026067:vel_
1561019868.167924,cobot_dynamixel_driver/goal|-:J1,J2,J3,J4,J5,J6:0.044046,-0.241818,-0.210468,0.036629,0.456139,-0.025154:vel_
1561019868.199751,cobot_dynamixel_driver/goal|-:J1,J2,J3,J4,J5,J6:0.044655,-0.241701,-0.215382,0.035831,0.459701,-0.025000:vel_
1561019868.231698,cobot_dynamixel_driver/goal|-:J1,J2,J3,J4,J5,J6:0.037994,-0.203206,-0.197943,0.030515,0.403042,-0.018870:vel_
1561019868.263730,cobot_dynamixel_driver/goal|-:J1,J2,J3,J4,J5,J6:0.036442,-0.192002,-0.192042,0.029284,0.389223,-0.017822:vel_
1561019868.295745,cobot_dynamixel_driver/goal|-:J1,J2,J3,J4,J5,J6:0.036585,-0.189735,-0.193443,0.029305,0.392842,-0.017918:vel_
1561019868.327811,cobot_dynamixel_driver/goal|-:J1,J2,J3,J4,J5,J6:0.037404,-0.189716,-0.194761,0.029248,0.398560,-0.018600:vel_
1561019868.359727,cobot_dynamixel_driver/goal|-:J1,J2,J3,J4,J5,J6:0.017196,-0.083138,-0.094127,0.011554,0.177282,-0.006813:vel_
1561019868.391689,cobot_dynamixel_driver/goal|-:J1,J2,J3,J4,J5,J6:0.014916,-0.071774,-0.082979,0.009848,0.152839,-0.005652:vel_
1561019868.423698,cobot_dynamixel_driver/goal|-:J1,J2,J3,J4,J5,J6:0.014651,-0.064397,-0.076889,0.009983,0.131936,-0.006235:vel_
1561019868.503759,cobot_dynamixel_driver/goal|-:J1,J2,J3,J4,J5,J6:0.015434,-0.065851,-0.079905,0.009951,0.116958,-0.009249:vel_
1561019868.535707,cobot_dynamixel_driver/goal|-:J1,J2,J3,J4,J5,J6:0.015526,-0.066541,-0.081204,0.009777,0.114753,-0.011443:vel_
1561019878.775033,cobot_dynamixel_driver/goal|-:J1,J2,J3,J4,J5,J6:0.000000,0.000000,0.000000,0.000000,0.000000,0.000000:0.500000,0.500000,0.500000,0.500000,0.500000,0.500000:pos_vel_
