surachairobotic/cobot/cobot_dynamixel_driver/log/2019-02-05T09:09:31.804032_driver_cmd.txt
1549357778.140311,cobot_dynamixel_driver/goal|-:J1,J2,J3,J4,J5,J6:0.000000,0.000000,0.000000,0.000000,0.000000,0.000000:0.500000,0.500000,0.500000,0.500000,0.500000,0.500000:pos_vel_
1549357784.847608,cobot_dynamixel_driver/goal|-:J3:0.000000:eff_
1549357784.938559,cobot_dynamixel_driver/goal|-:J1,J2,J3,J4,J5,J6:0.000000,0.000000,0.523599,0.000000,0.000000,0.000000:0.250000,0.250000,0.250000,0.250000,0.250000,0.250000:pos_vel_
1549357788.246660,cobot_dynamixel_driver/goal|-:J3:-290.039062:eff_
1549357788.337577,cobot_dynamixel_driver/goal|-:J3:-300.039062:eff_
1549357788.962320,cobot_dynamixel_driver/goal|-:J3:-310.039062:eff_
1549357789.559049,cobot_dynamixel_driver/goal|-:J3:-320.039062:eff_
1549357790.155753,cobot_dynamixel_driver/goal|-:J3:-330.039062:eff_
1549357790.750493,cobot_dynamixel_driver/goal|-:J3:-340.039062:eff_
1549357793.154861,cobot_dynamixel_driver/goal|-:J1,J2,J3,J4,J5,J6:0.000000,0.000000,0.000000,0.000000,0.000000,0.000000:0.500000,0.500000,0.500000,0.500000,0.500000,0.500000:pos_vel_
1549357827.164218,cobot_dynamixel_driver/goal|-:J3:0.000000:eff_
1549357827.282327,cobot_dynamixel_driver/goal|-:J1,J2,J3,J4,J5,J6:0.000000,0.000000,0.523599,0.000000,0.000000,0.000000:0.250000,0.250000,0.250000,0.250000,0.250000,0.250000:pos_vel_
1549357830.672574,cobot_dynamixel_driver/goal|-:J3:-193.359375:eff_
1549357830.763487,cobot_dynamixel_driver/goal|-:J1,J2,J3,J4,J5,J6:0.000000,0.000000,0.523599,0.000000,0.000000,0.000000:0.250000,0.250000,0.250000,0.250000,0.250000,0.250000:pos_vel_
1549357831.584949,cobot_dynamixel_driver/goal|-:J3:-183.359375:eff_
1549357831.675931,cobot_dynamixel_driver/goal|-:J1,J2,J3,J4,J5,J6:0.000000,0.000000,0.523599,0.000000,0.000000,0.000000:0.250000,0.250000,0.250000,0.250000,0.250000,0.250000:pos_vel_
1549357832.173646,cobot_dynamixel_driver/goal|-:J3:-173.359375:eff_
1549357832.264715,cobot_dynamixel_driver/goal|-:J1,J2,J3,J4,J5,J6:0.000000,0.000000,0.523599,0.000000,0.000000,0.000000:0.250000,0.250000,0.250000,0.250000,0.250000,0.250000:pos_vel_
1549357832.979202,cobot_dynamixel_driver/goal|-:J3:-163.359375:eff_
1549357833.070105,cobot_dynamixel_driver/goal|-:J1,J2,J3,J4,J5,J6:0.000000,0.000000,0.523599,0.000000,0.000000,0.000000:0.250000,0.250000,0.250000,0.250000,0.250000,0.250000:pos_vel_
1549357833.567807,cobot_dynamixel_driver/goal|-:J3:-153.359375:eff_
1549357833.686133,cobot_dynamixel_driver/goal|-:J1,J2,J3,J4,J5,J6:0.000000,0.000000,0.523599,0.000000,0.000000,0.000000:0.250000,0.250000,0.250000,0.250000,0.250000,0.250000:pos_vel_
1549357834.373435,cobot_dynamixel_driver/goal|-:J3:-143.359375:eff_
1549357834.491531,cobot_dynamixel_driver/goal|-:J1,J2,J3,J4,J5,J6:0.000000,0.000000,0.523599,0.000000,0.000000,0.000000:0.250000,0.250000,0.250000,0.250000,0.250000,0.250000:pos_vel_
1549357835.070923,cobot_dynamixel_driver/goal|-:J3:-133.359375:eff_
1549357835.189194,cobot_dynamixel_driver/goal|-:J1,J2,J3,J4,J5,J6:0.000000,0.000000,0.523599,0.000000,0.000000,0.000000:0.250000,0.250000,0.250000,0.250000,0.250000,0.250000:pos_vel_
1549357835.767556,cobot_dynamixel_driver/goal|-:J3:-123.359375:eff_
1549357835.885752,cobot_dynamixel_driver/goal|-:J1,J2,J3,J4,J5,J6:0.000000,0.000000,0.523599,0.000000,0.000000,0.000000:0.250000,0.250000,0.250000,0.250000,0.250000,0.250000:pos_vel_
1549357836.492161,cobot_dynamixel_driver/goal|-:J3:-113.359375:eff_
1549357836.583138,cobot_dynamixel_driver/goal|-:J1,J2,J3,J4,J5,J6:0.000000,0.000000,0.523599,0.000000,0.000000,0.000000:0.250000,0.250000,0.250000,0.250000,0.250000,0.250000:pos_vel_
1549357837.189558,cobot_dynamixel_driver/goal|-:J3:-103.359375:eff_
1549357837.280584,cobot_dynamixel_driver/goal|-:J1,J2,J3,J4,J5,J6:0.000000,0.000000,0.523599,0.000000,0.000000,0.000000:0.250000,0.250000,0.250000,0.250000,0.250000,0.250000:pos_vel_
cobot_dynamixel_driver/goal|-:J1,J2,J3,J4,J5,J6:0.000000,0.000000,0.523599,0.000000,0.000000,0.000000:0.250000,0.250000,0.250000,0.250000,0.250000,0.250000:pos_vel_
0
-:J1,J2,J3,J4,J5,J6:0.000000,0.000000,0.523599,0.000000,0.000000,0.000000:0.250000,0.250000,0.250000,0.250000,0.250000,0.250000:pos_vel_
[TxRxResult] There is no status packet!
 /home/mtec/catkin_ws/src/cobot/cobot_dynamixel_driver/src/cJoint_pro.cpp:413
1549357837.280584,cobot_dynamixel_driver/goal|-:J1,J2,J3,J4,J5,J6:0.000000,0.000000,0.523599,0.000000,0.000000,0.000000:0.250000,0.250000,0.250000,0.250000,0.250000,0.250000:pos_vel_
cobot_dynamixel_driver/goal|-:J1,J2,J3,J4,J5,J6:0.000000,0.000000,0.523599,0.000000,0.000000,0.000000:0.250000,0.250000,0.250000,0.250000,0.250000,0.250000:pos_vel_
1
-:J1,J2,J3,J4,J5,J6:0.000000,0.000000,0.523599,0.000000,0.000000,0.000000:0.250000,0.250000,0.250000,0.250000,0.250000,0.250000:pos_vel_
[TxRxResult] There is no status packet!
 /home/mtec/catkin_ws/src/cobot/cobot_dynamixel_driver/src/cJoint_pro.cpp:413
