surachairobotic/cobot/cobot_dynamixel_driver/log/2019-06-20T05:42:55.140652_driver_cmd.txt
1561009397.463200,cobot_dynamixel_driver/goal|-:J1,J2,J3,J4,J5,J6:0.000000,0.000000,0.000000,0.000000,0.000000,0.000000:0.500000,0.500000,0.500000,0.500000,0.500000,0.500000:pos_vel_
1561009435.558203,cobot_dynamixel_driver/goal|-:J1,J2,J3,J4,J5,J6:0.032262,0.038043,0.083748,0.040844,-0.112008,0.520827:vel_
1561009435.989584,cobot_dynamixel_driver/goal|-:J1,J2,J3,J4,J5,J6:0.033198,0.032463,0.071991,0.041282,-0.115484,0.547295:vel_
1561009436.021598,cobot_dynamixel_driver/goal|-:J1,J2,J3,J4,J5,J6:0.034722,0.032343,0.070155,0.042465,-0.115761,0.602736:vel_
1561009436.053555,cobot_dynamixel_driver/goal|-:J1,J2,J3,J4,J5,J6:0.035927,0.031882,0.069166,0.043532,-0.116850,0.662227:vel_
1561009436.086214,cobot_dynamixel_driver/goal|-:J1,J2,J3,J4,J5,J6:0.036454,0.031012,0.069072,0.044722,-0.117764,0.720682:vel_
1561009436.117548,cobot_dynamixel_driver/goal|-:J1,J2,J3,J4,J5,J6:0.054479,0.059211,0.130209,0.071811,-0.195804,0.785398:vel_
1561009436.149567,cobot_dynamixel_driver/goal|-:J1,J2,J3,J4,J5,J6:0.057118,0.062834,0.137792,0.074936,-0.206136,0.785398:vel_
1561009436.181513,cobot_dynamixel_driver/goal|-:J1,J2,J3,J4,J5,J6:0.058041,0.063915,0.140513,0.075469,-0.209888,0.785398:vel_
1561009436.215597,cobot_dynamixel_driver/goal|-:J1,J2,J3,J4,J5,J6:0.060051,0.066297,0.144875,0.078466,-0.216637,0.785398:vel_
1561009436.245574,cobot_dynamixel_driver/goal|-:J1,J2,J3,J4,J5,J6:0.058217,0.062565,0.140399,0.075357,-0.210391,0.785398:vel_
1561009436.279415,cobot_dynamixel_driver/goal|-:J1,J2,J3,J4,J5,J6:0.056879,0.061772,0.140538,0.074159,-0.211347,0.785398:vel_
1561009436.315861,cobot_dynamixel_driver/goal|-:J1,J2,J3,J4,J5,J6:0.079008,0.095446,0.211970,0.108190,-0.316782,0.785398:vel_
1561009436.357543,cobot_dynamixel_driver/goal|-:J1,J2,J3,J4,J5,J6:0.081087,0.102239,0.226327,0.113521,-0.335769,0.785398:vel_
1561009436.389580,cobot_dynamixel_driver/goal|-:J1,J2,J3,J4,J5,J6:0.083886,0.108166,0.240388,0.117259,-0.357249,0.785398:vel_
1561009436.421521,cobot_dynamixel_driver/goal|-:J1,J2,J3,J4,J5,J6:0.086605,0.109255,0.242474,0.116894,-0.359530,0.785398:vel_
1561009436.453678,cobot_dynamixel_driver/goal|-:J1,J2,J3,J4,J5,J6:0.088679,0.109727,0.242469,0.121049,-0.376875,0.785398:vel_
1561009436.485596,cobot_dynamixel_driver/goal|-:J1,J2,J3,J4,J5,J6:0.088922,0.109176,0.239263,0.120878,-0.379312,0.785398:vel_
1561009436.517519,cobot_dynamixel_driver/goal|-:J1,J2,J3,J4,J5,J6:0.088144,0.107537,0.237723,0.120698,-0.382833,0.785398:vel_
1561009436.565587,cobot_dynamixel_driver/goal|-:J1,J2,J3,J4,J5,J6:0.098365,0.122933,0.270096,0.132751,-0.441355,0.785398:vel_
1561009436.597584,cobot_dynamixel_driver/goal|-:J1,J2,J3,J4,J5,J6:0.087104,0.110230,0.244107,0.116480,-0.399556,0.785398:vel_
1561009436.629528,cobot_dynamixel_driver/goal|-:J1,J2,J3,J4,J5,J6:0.090165,0.109983,0.239705,0.112133,-0.404855,0.785398:vel_
1561009436.661601,cobot_dynamixel_driver/goal|-:J1,J2,J3,J4,J5,J6:0.090748,0.109568,0.239658,0.110526,-0.406534,0.785398:vel_
1561009436.693529,cobot_dynamixel_driver/goal|-:J1,J2,J3,J4,J5,J6:0.093361,0.109918,0.243587,0.112868,-0.415533,0.785398:vel_
1561009436.725510,cobot_dynamixel_driver/goal|-:J1,J2,J3,J4,J5,J6:0.097406,0.112462,0.242485,0.107753,-0.426550,0.785398:vel_
1561009436.757514,cobot_dynamixel_driver/goal|-:J1,J2,J3,J4,J5,J6:0.099067,0.113132,0.242975,0.106693,-0.430495,0.785398:vel_
1561009436.789616,cobot_dynamixel_driver/goal|-:J1,J2,J3,J4,J5,J6:0.100484,0.115283,0.247084,0.107645,-0.441052,0.785398:vel_
1561009436.821568,cobot_dynamixel_driver/goal|-:J1,J2,J3,J4,J5,J6:0.102621,0.119318,0.255910,0.111714,-0.450862,0.785398:vel_
1561009436.853587,cobot_dynamixel_driver/goal|-:J1,J2,J3,J4,J5,J6:0.105543,0.118155,0.242384,0.098696,-0.449434,0.785398:vel_
1561009436.885555,cobot_dynamixel_driver/goal|-:J1,J2,J3,J4,J5,J6:0.107325,0.117571,0.238060,0.095802,-0.448382,0.785398:vel_
1561009436.917560,cobot_dynamixel_driver/goal|-:J1,J2,J3,J4,J5,J6:0.110685,0.120409,0.241078,0.094697,-0.461851,0.785398:vel_
1561009436.949536,cobot_dynamixel_driver/goal|-:J1,J2,J3,J4,J5,J6:0.112997,0.122601,0.236413,0.086876,-0.463354,0.785398:vel_
1561009436.981524,cobot_dynamixel_driver/goal|-:J1,J2,J3,J4,J5,J6:0.114699,0.123793,0.236389,0.084236,-0.465489,0.785398:vel_
1561009437.013534,cobot_dynamixel_driver/goal|-:J1,J2,J3,J4,J5,J6:0.117605,0.126840,0.241583,0.086437,-0.476903,0.785398:vel_
1561009437.045627,cobot_dynamixel_driver/goal|-:J1,J2,J3,J4,J5,J6:0.122598,0.129662,0.232806,0.075568,-0.476452,0.785398:vel_
1561009437.077871,cobot_dynamixel_driver/goal|-:J1,J2,J3,J4,J5,J6:0.124992,0.132950,0.234118,0.073922,-0.479773,0.785398:vel_
1561009437.109970,cobot_dynamixel_driver/goal|-:J1,J2,J3,J4,J5,J6:0.128917,0.133865,0.239648,0.073813,-0.491553,0.785398:vel_
1561009437.141943,cobot_dynamixel_driver/goal|-:J1,J2,J3,J4,J5,J6:0.133491,0.137557,0.225522,0.060999,-0.487322,0.785398:vel_
1561009437.173903,cobot_dynamixel_driver/goal|-:J1,J2,J3,J4,J5,J6:0.135880,0.140136,0.226035,0.058888,-0.490208,0.785398:vel_
1561009437.206170,cobot_dynamixel_driver/goal|-:J1,J2,J3,J4,J5,J6:0.138809,0.144021,0.228999,0.058172,-0.496830,0.785398:vel_
1561009437.237770,cobot_dynamixel_driver/goal|-:J1,J2,J3,J4,J5,J6:0.143755,0.148751,0.216740,0.044252,-0.493332,0.785398:vel_
1561009437.269792,cobot_dynamixel_driver/goal|-:J1,J2,J3,J4,J5,J6:0.146596,0.152704,0.215768,0.041209,-0.496367,0.785398:vel_
1561009437.301798,cobot_dynamixel_driver/goal|-:J1,J2,J3,J4,J5,J6:0.149686,0.155523,0.216805,0.040060,-0.502399,0.785398:vel_
1561009437.333744,cobot_dynamixel_driver/goal|-:J1,J2,J3,J4,J5,J6:0.155189,0.160829,0.205612,0.025157,-0.499571,0.785398:vel_
1561009437.365696,cobot_dynamixel_driver/goal|-:J1,J2,J3,J4,J5,J6:0.157852,0.163301,0.203676,0.021813,-0.503653,0.785398:vel_
1561009437.397676,cobot_dynamixel_driver/goal|-:J1,J2,J3,J4,J5,J6:0.160978,0.165526,0.205645,0.020660,-0.510028,0.785398:vel_
1561009437.429674,cobot_dynamixel_driver/goal|-:J1,J2,J3,J4,J5,J6:0.166627,0.173745,0.192058,0.005568,-0.501750,0.785398:vel_
1561009437.461675,cobot_dynamixel_driver/goal|-:J1,J2,J3,J4,J5,J6:0.169321,0.177301,0.190735,0.002572,-0.504005,0.785398:vel_
1561009437.493730,cobot_dynamixel_driver/goal|-:J1,J2,J3,J4,J5,J6:0.171710,0.180789,0.193488,0.003012,-0.512550,0.785398:vel_
1561009437.525749,cobot_dynamixel_driver/goal|-:J1,J2,J3,J4,J5,J6:0.176734,0.190019,0.176732,-0.016501,-0.501188,0.785398:vel_
1561009437.557919,cobot_dynamixel_driver/goal|-:J1,J2,J3,J4,J5,J6:0.180008,0.194579,0.174670,-0.021115,-0.503254,0.785398:vel_
1561009437.591458,cobot_dynamixel_driver/goal|-:J1,J2,J3,J4,J5,J6:0.187891,0.202141,0.181452,-0.027225,-0.527549,0.785398:vel_
1561009437.622028,cobot_dynamixel_driver/goal|-:J1,J2,J3,J4,J5,J6:0.186940,0.205683,0.156418,-0.047268,-0.495006,0.785398:vel_
1561009437.654008,cobot_dynamixel_driver/goal|-:J1,J2,J3,J4,J5,J6:0.187792,0.207403,0.152875,-0.054826,-0.489484,0.785398:vel_
1561009437.685695,cobot_dynamixel_driver/goal|-:J1,J2,J3,J4,J5,J6:0.188907,0.207901,0.150641,-0.058293,-0.491306,0.785398:vel_
1561009437.717536,cobot_dynamixel_driver/goal|-:J1,J2,J3,J4,J5,J6:0.192581,0.214399,0.158713,-0.062595,-0.514744,0.785398:vel_
1561009437.749448,cobot_dynamixel_driver/goal|-:J1,J2,J3,J4,J5,J6:0.198946,0.228773,0.132547,-0.081111,-0.485229,0.785398:vel_
1561009437.781517,cobot_dynamixel_driver/goal|-:J1,J2,J3,J4,J5,J6:0.203440,0.236702,0.125409,-0.090430,-0.480787,0.785398:vel_
1561009437.813485,cobot_dynamixel_driver/goal|-:J1,J2,J3,J4,J5,J6:0.207680,0.242162,0.123223,-0.098812,-0.484968,0.785398:vel_
1561009437.845459,cobot_dynamixel_driver/goal|-:J1,J2,J3,J4,J5,J6:0.205598,0.248312,0.104392,-0.112440,-0.461788,0.785398:vel_
1561009437.877501,cobot_dynamixel_driver/goal|-:J1,J2,J3,J4,J5,J6:0.207396,0.253073,0.099977,-0.118965,-0.462007,0.785398:vel_
1561009437.909489,cobot_dynamixel_driver/goal|-:J1,J2,J3,J4,J5,J6:0.210091,0.255996,0.098854,-0.121932,-0.468920,0.785398:vel_
1561009437.941472,cobot_dynamixel_driver/goal|-:J1,J2,J3,J4,J5,J6:0.185693,0.236046,0.069147,-0.125610,-0.389806,0.785398:vel_
1561009437.973484,cobot_dynamixel_driver/goal|-:J1,J2,J3,J4,J5,J6:0.179152,0.230186,0.062498,-0.125701,-0.367494,0.785398:vel_
1561009438.005468,cobot_dynamixel_driver/goal|-:J1,J2,J3,J4,J5,J6:0.176922,0.229535,0.060598,-0.125695,-0.358556,0.785398:vel_
1561009438.037495,cobot_dynamixel_driver/goal|-:J1,J2,J3,J4,J5,J6:0.089055,0.119918,0.022044,-0.072593,-0.172933,0.785398:vel_
1561009438.069453,cobot_dynamixel_driver/goal|-:J1,J2,J3,J4,J5,J6:0.080561,0.109117,0.018344,-0.067314,-0.154684,0.785398:vel_
1561009438.101464,cobot_dynamixel_driver/goal|-:J1,J2,J3,J4,J5,J6:0.076319,0.101852,0.017459,-0.066455,-0.139859,0.785398:vel_
1561009438.133551,cobot_dynamixel_driver/goal|-:J1,J2,J3,J4,J5,J6:0.076475,0.102864,0.018146,-0.067429,-0.136979,0.785398:vel_
1561009438.165462,cobot_dynamixel_driver/goal|-:J1,J2,J3,J4,J5,J6:0.077805,0.105216,0.018809,-0.067589,-0.139811,0.785398:vel_
1561009438.197441,cobot_dynamixel_driver/goal|-:J1,J2,J3,J4,J5,J6:0.078697,0.106557,0.019283,-0.067612,-0.140813,0.785398:vel_
1561009438.229578,cobot_dynamixel_driver/goal|-:J1,J2,J3,J4,J5,J6:0.079819,0.108840,0.020318,-0.068650,-0.142061,0.785398:vel_
1561009438.261665,cobot_dynamixel_driver/goal|-:J1,J2,J3,J4,J5,J6:0.080423,0.111208,0.020433,-0.068760,-0.142668,0.785398:vel_
1561009438.293711,cobot_dynamixel_driver/goal|-:J1,J2,J3,J4,J5,J6:0.021077,0.102634,0.023513,-0.009204,-0.128632,0.785398:vel_
1561009438.325678,cobot_dynamixel_driver/goal|-:J1,J2,J3,J4,J5,J6:0.015151,0.101974,0.023722,-0.003308,-0.127590,0.785398:vel_
1561009438.357613,cobot_dynamixel_driver/goal|-:J1,J2,J3,J4,J5,J6:0.013099,0.102302,0.023653,-0.002032,-0.128426,0.785398:vel_
1561009438.389624,cobot_dynamixel_driver/goal|-:J1,J2,J3,J4,J5,J6:0.013020,0.102489,0.023677,-0.002305,-0.128835,0.785398:vel_
1561009438.421705,cobot_dynamixel_driver/goal|-:J1,J2,J3,J4,J5,J6:0.013761,0.103643,0.023381,-0.002673,-0.129701,0.785398:vel_
1561009438.453581,cobot_dynamixel_driver/goal|-:J1,J2,J3,J4,J5,J6:0.014125,0.104222,0.023134,-0.003164,-0.129696,0.785398:vel_
1561009438.485509,cobot_dynamixel_driver/goal|-:J1,J2,J3,J4,J5,J6:0.012485,0.166380,0.033915,0.006533,-0.202327,0.785398:vel_
1561009438.517487,cobot_dynamixel_driver/goal|-:J1,J2,J3,J4,J5,J6:0.012465,0.175945,0.035958,0.007511,-0.213886,0.785398:vel_
1561009438.549543,cobot_dynamixel_driver/goal|-:J1,J2,J3,J4,J5,J6:0.012629,0.179424,0.036543,0.008645,-0.216941,0.785398:vel_
1561009438.581494,cobot_dynamixel_driver/goal|-:J1,J2,J3,J4,J5,J6:0.012936,0.179188,0.036146,0.010077,-0.216246,0.785398:vel_
1561009438.613473,cobot_dynamixel_driver/goal|-:J1,J2,J3,J4,J5,J6:0.013922,0.179039,0.036259,0.011731,-0.218893,0.785398:vel_
1561009438.645562,cobot_dynamixel_driver/goal|-:J1,J2,J3,J4,J5,J6:0.013808,0.178249,0.035379,0.013464,-0.220617,0.785398:vel_
1561009438.677529,cobot_dynamixel_driver/goal|-:J1,J2,J3,J4,J5,J6:0.013795,0.263280,0.042077,0.023939,-0.308834,0.785398:vel_
1561009438.709488,cobot_dynamixel_driver/goal|-:J1,J2,J3,J4,J5,J6:0.013672,0.287453,0.044321,0.027188,-0.333119,0.785398:vel_
1561009438.741511,cobot_dynamixel_driver/goal|-:J1,J2,J3,J4,J5,J6:0.013310,0.313914,0.045797,0.028713,-0.354698,0.785398:vel_
1561009438.773512,cobot_dynamixel_driver/goal|-:J1,J2,J3,J4,J5,J6:0.010971,0.330035,0.046612,0.028679,-0.360440,0.785398:vel_
1561009438.805520,cobot_dynamixel_driver/goal|-:J1,J2,J3,J4,J5,J6:0.011377,0.332170,0.034933,0.029507,-0.363303,0.785398:vel_
1561009438.837413,cobot_dynamixel_driver/goal|-:J1,J2,J3,J4,J5,J6:0.011178,0.334225,0.031724,0.029309,-0.365272,0.785398:vel_
1561009438.869440,cobot_dynamixel_driver/goal|-:J1,J2,J3,J4,J5,J6:0.011922,0.335412,0.023567,0.033549,-0.360863,0.785398:vel_
1561009438.901543,cobot_dynamixel_driver/goal|-:J1,J2,J3,J4,J5,J6:0.012978,0.335940,0.021343,0.035713,-0.360394,0.785398:vel_
1561009438.933472,cobot_dynamixel_driver/goal|-:J1,J2,J3,J4,J5,J6:0.015394,0.343598,0.021701,0.039429,-0.369732,0.785398:vel_
1561009438.969287,cobot_dynamixel_driver/goal|-:J1,J2,J3,J4,J5,J6:0.011299,0.282552,0.009188,0.032388,-0.292128,0.785398:vel_
1561009439.013415,cobot_dynamixel_driver/goal|-:J1,J2,J3,J4,J5,J6:0.011312,0.264931,0.003111,0.029833,-0.265906,0.785398:vel_
1561009439.045444,cobot_dynamixel_driver/goal|-:J1,J2,J3,J4,J5,J6:0.005193,0.139132,-0.001862,0.016522,-0.137276,0.785398:vel_
1561009439.077418,cobot_dynamixel_driver/goal|-:J1,J2,J3,J4,J5,J6:0.004721,0.126273,-0.002109,0.015210,-0.125012,0.785398:vel_
1561009439.109476,cobot_dynamixel_driver/goal|-:J1,J2,J3,J4,J5,J6:0.004783,0.118565,-0.002376,0.015479,-0.118364,0.785398:vel_
1561009439.141395,cobot_dynamixel_driver/goal|-:J1,J2,J3,J4,J5,J6:0.005023,0.119280,-0.002662,0.015970,-0.120130,0.785398:vel_
1561009439.173448,cobot_dynamixel_driver/goal|-:J1,J2,J3,J4,J5,J6:0.004947,0.122787,-0.003105,0.016740,-0.121400,0.785398:vel_
1561009439.205397,cobot_dynamixel_driver/goal|-:J1,J2,J3,J4,J5,J6:0.005144,0.125515,-0.003562,0.016537,-0.121926,0.785398:vel_
1561009439.237422,cobot_dynamixel_driver/goal|-:J1,J2,J3,J4,J5,J6:0.005431,0.127563,-0.004238,0.016502,-0.121738,0.785398:vel_
1561009439.269452,cobot_dynamixel_driver/goal|-:J1,J2,J3,J4,J5,J6:-0.001775,-0.058530,0.000497,-0.007017,0.058843,0.785398:vel_
1561009439.301392,cobot_dynamixel_driver/goal|-:J1,J2,J3,J4,J5,J6:-0.002227,-0.075041,0.000867,-0.009031,0.075144,0.785398:vel_
1561009439.333564,cobot_dynamixel_driver/goal|-:J1,J2,J3,J4,J5,J6:-0.002450,-0.088868,0.000954,-0.009936,0.087067,0.785398:vel_
1561009439.367501,cobot_dynamixel_driver/goal|-:J1,J2,J3,J4,J5,J6:-0.002756,-0.096728,0.001073,-0.011134,0.091913,0.785398:vel_
1561009439.397544,cobot_dynamixel_driver/goal|-:J1,J2,J3,J4,J5,J6:-0.003128,-0.100552,0.001218,-0.012382,0.092256,0.785398:vel_
1561009439.432317,cobot_dynamixel_driver/goal|-:J1,J2,J3,J4,J5,J6:-0.003520,-0.100790,0.001371,-0.013250,0.091674,0.785398:vel_
1561009439.461406,cobot_dynamixel_driver/goal|-:J1,J2,J3,J4,J5,J6:-0.004116,-0.103272,0.001536,-0.014228,0.092229,0.785398:vel_
1561009439.493433,cobot_dynamixel_driver/goal|-:J1,J2,J3,J4,J5,J6:-0.007376,-0.186418,-0.002473,-0.021965,0.181951,0.785398:vel_
1561009439.525418,cobot_dynamixel_driver/goal|-:J1,J2,J3,J4,J5,J6:-0.008139,-0.198942,-0.002799,-0.022984,0.193697,0.785398:vel_
1561009439.557452,cobot_dynamixel_driver/goal|-:J1,J2,J3,J4,J5,J6:-0.009075,-0.206835,-0.003343,-0.023115,0.197935,0.785398:vel_
1561009439.589425,cobot_dynamixel_driver/goal|-:J1,J2,J3,J4,J5,J6:-0.010308,-0.209191,-0.003954,-0.023228,0.196625,0.785398:vel_
1561009439.621447,cobot_dynamixel_driver/goal|-:J1,J2,J3,J4,J5,J6:-0.012125,-0.218493,-0.005032,-0.024778,0.205205,0.785398:vel_
1561009439.653440,cobot_dynamixel_driver/goal|-:J1,J2,J3,J4,J5,J6:-0.012720,-0.206928,-0.006091,-0.024536,0.193949,0.785398:vel_
1561009439.686254,cobot_dynamixel_driver/goal|-:J1,J2,J3,J4,J5,J6:-0.013983,-0.279267,-0.017864,-0.029889,0.286635,0.785398:vel_
1561009439.720301,cobot_dynamixel_driver/goal|-:J1,J2,J3,J4,J5,J6:-0.015379,-0.300547,-0.021579,-0.032370,0.314740,0.785398:vel_
1561009439.749368,cobot_dynamixel_driver/goal|-:J1,J2,J3,J4,J5,J6:-0.016223,-0.304417,-0.025385,-0.032627,0.319294,0.785398:vel_
1561009439.781481,cobot_dynamixel_driver/goal|-:J1,J2,J3,J4,J5,J6:-0.017528,-0.308078,-0.029513,-0.033081,0.318076,0.785398:vel_
1561009439.813488,cobot_dynamixel_driver/goal|-:J1,J2,J3,J4,J5,J6:-0.015409,-0.319403,-0.038341,-0.030400,0.349993,0.785398:vel_
1561009439.845371,cobot_dynamixel_driver/goal|-:J1,J2,J3,J4,J5,J6:-0.015650,-0.322329,-0.041017,-0.030255,0.360531,0.785398:vel_
1561009439.877382,cobot_dynamixel_driver/goal|-:J1,J2,J3,J4,J5,J6:-0.016909,-0.327432,-0.040896,-0.030969,0.369186,0.785398:vel_
1561009439.909437,cobot_dynamixel_driver/goal|-:J1,J2,J3,J4,J5,J6:-0.018457,-0.330845,-0.039115,-0.032017,0.374306,0.785398:vel_
1561009439.941482,cobot_dynamixel_driver/goal|-:J1,J2,J3,J4,J5,J6:-0.013173,-0.283473,-0.047562,-0.025153,0.332371,0.352846:vel_
1561009439.989422,cobot_dynamixel_driver/goal|-:J1,J2,J3,J4,J5,J6:-0.013608,-0.303339,-0.057133,-0.025949,0.361871,0.237108:vel_
1561009440.021418,cobot_dynamixel_driver/goal|-:J1,J2,J3,J4,J5,J6:-0.010630,-0.255232,-0.051862,-0.020157,0.316985,-0.119221:vel_
1561009440.053420,cobot_dynamixel_driver/goal|-:J1,J2,J3,J4,J5,J6:-0.004917,-0.119153,-0.027804,-0.008805,0.147234,-0.072736:vel_
1561009440.085600,cobot_dynamixel_driver/goal|-:J1,J2,J3,J4,J5,J6:-0.004328,-0.103259,-0.025452,-0.007863,0.129586,-0.131959:vel_
1561009440.117866,cobot_dynamixel_driver/goal|-:J1,J2,J3,J4,J5,J6:-0.004395,-0.092522,-0.025738,-0.008146,0.115597,-0.194321:vel_
1561009440.149801,cobot_dynamixel_driver/goal|-:J1,J2,J3,J4,J5,J6:-0.004175,-0.090557,-0.025893,-0.008365,0.114306,-0.260638:vel_
1561009440.181861,cobot_dynamixel_driver/goal|-:J1,J2,J3,J4,J5,J6:-0.003892,-0.093779,-0.026729,-0.008073,0.117651,-0.333473:vel_
1561009440.213848,cobot_dynamixel_driver/goal|-:J1,J2,J3,J4,J5,J6:-0.003794,-0.096947,-0.026019,-0.008103,0.119354,-0.414787:vel_
1561009440.245712,cobot_dynamixel_driver/goal|-:J1,J2,J3,J4,J5,J6:-0.165211,-0.045522,0.002802,-0.016389,0.052599,-0.207988:vel_
1561009440.277775,cobot_dynamixel_driver/goal|-:J1,J2,J3,J4,J5,J6:-0.173262,-0.043298,0.004055,-0.016808,0.049457,-0.212308:vel_
1561009440.309782,cobot_dynamixel_driver/goal|-:J1,J2,J3,J4,J5,J6:-0.179097,-0.043053,0.004309,-0.016810,0.049381,-0.212393:vel_
1561009440.341816,cobot_dynamixel_driver/goal|-:J1,J2,J3,J4,J5,J6:-0.180785,-0.043596,0.004550,-0.016861,0.049993,-0.212268:vel_
1561009440.373738,cobot_dynamixel_driver/goal|-:J1,J2,J3,J4,J5,J6:-0.180802,-0.044257,0.004818,-0.016821,0.050129,-0.212552:vel_
1561009440.405753,cobot_dynamixel_driver/goal|-:J1,J2,J3,J4,J5,J6:-0.180470,-0.044646,0.005087,-0.016776,0.049931,-0.212454:vel_
1561009440.437572,cobot_dynamixel_driver/goal|-:J1,J2,J3,J4,J5,J6:-0.180505,-0.044708,0.005393,-0.016575,0.049891,-0.212483:vel_
1561009440.469389,cobot_dynamixel_driver/goal|-:J1,J2,J3,J4,J5,J6:-0.181001,-0.044830,0.005662,-0.016521,0.050056,-0.212675:vel_
1561009440.501335,cobot_dynamixel_driver/goal|-:J1,J2,J3,J4,J5,J6:-0.181364,-0.044941,0.006073,-0.016431,0.050246,-0.213515:vel_
1561009440.533373,cobot_dynamixel_driver/goal|-:J1,J2,J3,J4,J5,J6:-0.181727,-0.044950,0.006536,-0.016347,0.050335,-0.213770:vel_
1561009440.565467,cobot_dynamixel_driver/goal|-:J1,J2,J3,J4,J5,J6:-0.182570,-0.045028,0.007068,-0.016405,0.050418,-0.214782:vel_
1561009440.597393,cobot_dynamixel_driver/goal|-:J1,J2,J3,J4,J5,J6:-0.182756,-0.045131,0.007527,-0.016421,0.050290,-0.215106:vel_
1561009440.629377,cobot_dynamixel_driver/goal|-:J1,J2,J3,J4,J5,J6:-0.182963,-0.045079,0.008129,-0.016309,0.050201,-0.215052:vel_
1561009440.661385,cobot_dynamixel_driver/goal|-:J1,J2,J3,J4,J5,J6:-0.184037,-0.045143,0.008524,-0.016476,0.050206,-0.216068:vel_
1561009440.693395,cobot_dynamixel_driver/goal|-:J1,J2,J3,J4,J5,J6:-0.184324,-0.045315,0.008774,-0.016567,0.050188,-0.216299:vel_
1561009440.725375,cobot_dynamixel_driver/goal|-:J1,J2,J3,J4,J5,J6:-0.185055,-0.045149,0.008977,-0.016748,0.049943,-0.216775:vel_
1561009440.757331,cobot_dynamixel_driver/goal|-:J1,J2,J3,J4,J5,J6:-0.186507,-0.045386,0.009306,-0.016781,0.050118,-0.220104:vel_
1561009440.789400,cobot_dynamixel_driver/goal|-:J1,J2,J3,J4,J5,J6:-0.186907,-0.045140,0.010590,-0.016333,0.050191,-0.221493:vel_
1561009440.821384,cobot_dynamixel_driver/goal|-:J1,J2,J3,J4,J5,J6:-0.189544,-0.045242,0.011941,-0.015523,0.050457,-0.223759:vel_
1561009440.853387,cobot_dynamixel_driver/goal|-:J1,J2,J3,J4,J5,J6:-0.296712,-0.052238,0.014413,-0.026459,0.058475,-0.224213:vel_
1561009440.885666,cobot_dynamixel_driver/goal|-:J1,J2,J3,J4,J5,J6:-0.306280,-0.052750,0.015112,-0.027493,0.059172,-0.224085:vel_
1561009440.917413,cobot_dynamixel_driver/goal|-:J1,J2,J3,J4,J5,J6:-0.312447,-0.052993,0.015783,-0.027663,0.059419,-0.224743:vel_
1561009440.949422,cobot_dynamixel_driver/goal|-:J1,J2,J3,J4,J5,J6:-0.313397,-0.052982,0.015815,-0.027850,0.059530,-0.225076:vel_
1561009440.981510,cobot_dynamixel_driver/goal|-:J1,J2,J3,J4,J5,J6:-0.313202,-0.053075,0.014432,-0.027916,0.059331,-0.225424:vel_
1561009441.013419,cobot_dynamixel_driver/goal|-:J1,J2,J3,J4,J5,J6:-0.313355,-0.053540,0.013829,-0.028294,0.059174,-0.226300:vel_
1561009441.045367,cobot_dynamixel_driver/goal|-:J1,J2,J3,J4,J5,J6:-0.315257,-0.053871,0.013434,-0.028930,0.059259,-0.227992:vel_
1561009441.077358,cobot_dynamixel_driver/goal|-:J1,J2,J3,J4,J5,J6:-0.314977,-0.053728,0.013360,-0.028731,0.059516,-0.228718:vel_
1561009441.109386,cobot_dynamixel_driver/goal|-:J1,J2,J3,J4,J5,J6:-0.317049,-0.053713,0.012953,-0.028168,0.059994,-0.230284:vel_
1561009441.141487,cobot_dynamixel_driver/goal|-:J1,J2,J3,J4,J5,J6:-0.319760,-0.053313,0.012349,-0.027708,0.059969,-0.231168:vel_
1561009441.173367,cobot_dynamixel_driver/goal|-:J1,J2,J3,J4,J5,J6:-0.322299,-0.052546,0.011871,-0.028243,0.059949,-0.231441:vel_
1561009441.205346,cobot_dynamixel_driver/goal|-:J1,J2,J3,J4,J5,J6:-0.328306,-0.053473,0.014166,-0.029309,0.060733,-0.234841:vel_
1561009441.237453,cobot_dynamixel_driver/goal|-:J1,J2,J3,J4,J5,J6:-0.322069,-0.054177,0.014930,-0.029365,0.060782,-0.226883:vel_
1561009441.269485,cobot_dynamixel_driver/goal|-:J1,J2,J3,J4,J5,J6:-0.323220,-0.054380,0.015004,-0.029428,0.061089,-0.227176:vel_
1561009441.301454,cobot_dynamixel_driver/goal|-:J1,J2,J3,J4,J5,J6:-0.323801,-0.054429,0.015128,-0.029103,0.061284,-0.227864:vel_
1561009441.333375,cobot_dynamixel_driver/goal|-:J1,J2,J3,J4,J5,J6:-0.324317,-0.054449,0.015106,-0.029104,0.061455,-0.228432:vel_
1561009441.365402,cobot_dynamixel_driver/goal|-:J1,J2,J3,J4,J5,J6:-0.324825,-0.054301,0.015255,-0.029017,0.061669,-0.228672:vel_
1561009441.397708,cobot_dynamixel_driver/goal|-:J1,J2,J3,J4,J5,J6:-0.328353,-0.054790,0.015650,-0.029291,0.062239,-0.232070:vel_
1561009441.429675,cobot_dynamixel_driver/goal|-:J1,J2,J3,J4,J5,J6:-0.327971,-0.054637,0.015740,-0.029064,0.062424,-0.231738:vel_
1561009441.461442,cobot_dynamixel_driver/goal|-:J1,J2,J3,J4,J5,J6:-0.329845,-0.054195,0.015983,-0.029312,0.062515,-0.231045:vel_
1561009441.493377,cobot_dynamixel_driver/goal|-:J1,J2,J3,J4,J5,J6:-0.333110,-0.054280,0.015631,-0.029532,0.063070,-0.235130:vel_
1561009441.525700,cobot_dynamixel_driver/goal|-:J1,J2,J3,J4,J5,J6:-0.340063,-0.054648,0.015051,-0.029128,0.063667,-0.240460:vel_
1561009441.557496,cobot_dynamixel_driver/goal|-:J1,J2,J3,J4,J5,J6:-0.345062,-0.053500,0.014969,-0.027818,0.063763,-0.238237:vel_
1561009441.589560,cobot_dynamixel_driver/goal|-:J1,J2,J3,J4,J5,J6:-0.325646,-0.054412,0.014837,-0.029093,0.061412,-0.229371:vel_
1561009441.621579,cobot_dynamixel_driver/goal|-:J1,J2,J3,J4,J5,J6:-0.325711,-0.054819,0.014881,-0.029421,0.061756,-0.230234:vel_
1561009441.653407,cobot_dynamixel_driver/goal|-:J1,J2,J3,J4,J5,J6:-0.326233,-0.055131,0.015234,-0.029601,0.062061,-0.230328:vel_
1561009441.685846,cobot_dynamixel_driver/goal|-:J1,J2,J3,J4,J5,J6:-0.327112,-0.055542,0.015519,-0.029795,0.062494,-0.230932:vel_
1561009441.717420,cobot_dynamixel_driver/goal|-:J1,J2,J3,J4,J5,J6:-0.327772,-0.055898,0.015848,-0.029773,0.062403,-0.231488:vel_
1561009441.749282,cobot_dynamixel_driver/goal|-:J1,J2,J3,J4,J5,J6:-0.329042,-0.056194,0.016297,-0.029484,0.062658,-0.232698:vel_
1561009441.781357,cobot_dynamixel_driver/goal|-:J1,J2,J3,J4,J5,J6:-0.329744,-0.056783,0.016367,-0.029498,0.062243,-0.235058:vel_
1561009441.813307,cobot_dynamixel_driver/goal|-:J1,J2,J3,J4,J5,J6:-0.335438,-0.058686,0.016094,-0.030101,0.062937,-0.239181:vel_
1561009441.845313,cobot_dynamixel_driver/goal|-:J1,J2,J3,J4,J5,J6:-0.334712,-0.059181,0.015259,-0.029622,0.062784,-0.238999:vel_
1561009441.877718,cobot_dynamixel_driver/goal|-:J1,J2,J3,J4,J5,J6:-0.341497,-0.061857,0.015655,-0.030973,0.064065,-0.244500:vel_
1561009441.909352,cobot_dynamixel_driver/goal|-:J1,J2,J3,J4,J5,J6:-0.353907,-0.064704,0.015982,-0.032936,0.065647,-0.251116:vel_
1561009441.944781,cobot_dynamixel_driver/goal|-:J1,J2,J3,J4,J5,J6:-0.335111,-0.056932,0.015041,-0.030426,0.063352,-0.235505:vel_
1561009441.989259,cobot_dynamixel_driver/goal|-:J1,J2,J3,J4,J5,J6:-0.327502,-0.054793,0.014456,-0.029345,0.062179,-0.229126:vel_
1561009442.021312,cobot_dynamixel_driver/goal|-:J1,J2,J3,J4,J5,J6:-0.325895,-0.054194,0.014532,-0.029458,0.061810,-0.229457:vel_
1561009442.053531,cobot_dynamixel_driver/goal|-:J1,J2,J3,J4,J5,J6:-0.327008,-0.053980,0.014898,-0.029473,0.062069,-0.230763:vel_
1561009442.085413,cobot_dynamixel_driver/goal|-:J1,J2,J3,J4,J5,J6:-0.329901,-0.053813,0.015453,-0.029825,0.063027,-0.233398:vel_
1561009442.117266,cobot_dynamixel_driver/goal|-:J1,J2,J3,J4,J5,J6:-0.331752,-0.053348,0.015760,-0.030040,0.063063,-0.233095:vel_
1561009442.149263,cobot_dynamixel_driver/goal|-:J1,J2,J3,J4,J5,J6:-0.333997,-0.053289,0.016120,-0.029850,0.062994,-0.233710:vel_
1561009442.181331,cobot_dynamixel_driver/goal|-:J1,J2,J3,J4,J5,J6:-0.336952,-0.053420,0.016431,-0.029287,0.062948,-0.234046:vel_
1561009442.213349,cobot_dynamixel_driver/goal|-:J1,J2,J3,J4,J5,J6:-0.342104,-0.053746,0.016358,-0.029697,0.063573,-0.240284:vel_
1561009442.245332,cobot_dynamixel_driver/goal|-:J1,J2,J3,J4,J5,J6:-0.347776,-0.054378,0.015066,-0.029578,0.063894,-0.246477:vel_
1561009442.277289,cobot_dynamixel_driver/goal|-:J1,J2,J3,J4,J5,J6:-0.333707,-0.055885,0.014855,-0.030117,0.062897,-0.235174:vel_
1561009442.309313,cobot_dynamixel_driver/goal|-:J1,J2,J3,J4,J5,J6:-0.332896,-0.055885,0.014913,-0.030388,0.062900,-0.234478:vel_
1561009442.341314,cobot_dynamixel_driver/goal|-:J1,J2,J3,J4,J5,J6:-0.334090,-0.056072,0.014903,-0.030561,0.063042,-0.235831:vel_
1561009442.373337,cobot_dynamixel_driver/goal|-:J1,J2,J3,J4,J5,J6:-0.334657,-0.056190,0.014945,-0.030254,0.063115,-0.236515:vel_
1561009442.405278,cobot_dynamixel_driver/goal|-:J1,J2,J3,J4,J5,J6:-0.336026,-0.056109,0.014775,-0.030350,0.063014,-0.237066:vel_
1561009442.437274,cobot_dynamixel_driver/goal|-:J1,J2,J3,J4,J5,J6:-0.337136,-0.056056,0.014739,-0.030662,0.063185,-0.237647:vel_
1561009442.469318,cobot_dynamixel_driver/goal|-:J1,J2,J3,J4,J5,J6:-0.344341,-0.057111,0.015275,-0.031603,0.064486,-0.243188:vel_
1561009442.501359,cobot_dynamixel_driver/goal|-:J1,J2,J3,J4,J5,J6:-0.342089,-0.056800,0.016257,-0.031994,0.063659,-0.240476:vel_
1561009442.533328,cobot_dynamixel_driver/goal|-:J1,J2,J3,J4,J5,J6:-0.342896,-0.056533,0.017120,-0.032304,0.063845,-0.242348:vel_
1561009442.565270,cobot_dynamixel_driver/goal|-:J1,J2,J3,J4,J5,J6:-0.349169,-0.056692,0.017394,-0.032289,0.064573,-0.247872:vel_
1561009442.597380,cobot_dynamixel_driver/goal|-:J1,J2,J3,J4,J5,J6:-0.338279,-0.056722,0.015473,-0.030481,0.063996,-0.238520:vel_
1561009442.629350,cobot_dynamixel_driver/goal|-:J1,J2,J3,J4,J5,J6:-0.337624,-0.056614,0.015399,-0.030253,0.064040,-0.238037:vel_
1561009442.661306,cobot_dynamixel_driver/goal|-:J1,J2,J3,J4,J5,J6:-0.337951,-0.056518,0.015568,-0.030368,0.064133,-0.238558:vel_
1561009442.693374,cobot_dynamixel_driver/goal|-:J1,J2,J3,J4,J5,J6:-0.340102,-0.056815,0.015736,-0.030562,0.064610,-0.239593:vel_
1561009442.725350,cobot_dynamixel_driver/goal|-:J1,J2,J3,J4,J5,J6:-0.341134,-0.057180,0.015991,-0.031005,0.064702,-0.240057:vel_
1561009442.757278,cobot_dynamixel_driver/goal|-:J1,J2,J3,J4,J5,J6:-0.341785,-0.057379,0.015709,-0.031262,0.065182,-0.240413:vel_
1561009442.789287,cobot_dynamixel_driver/goal|-:J1,J2,J3,J4,J5,J6:-0.344965,-0.057686,0.015124,-0.031286,0.065732,-0.241187:vel_
1561009442.821361,cobot_dynamixel_driver/goal|-:J1,J2,J3,J4,J5,J6:-0.346106,-0.058272,0.014723,-0.031157,0.066042,-0.242214:vel_
1561009442.853329,cobot_dynamixel_driver/goal|-:J1,J2,J3,J4,J5,J6:-0.347356,-0.058347,0.014985,-0.031945,0.065906,-0.245855:vel_
1561009442.885407,cobot_dynamixel_driver/goal|-:J1,J2,J3,J4,J5,J6:-0.353506,-0.059321,0.015637,-0.033433,0.066687,-0.247912:vel_
1561009442.917528,cobot_dynamixel_driver/goal|-:J1,J2,J3,J4,J5,J6:-0.343165,-0.057920,0.015890,-0.031386,0.064777,-0.241572:vel_
1561009442.949620,cobot_dynamixel_driver/goal|-:J1,J2,J3,J4,J5,J6:-0.342093,-0.058024,0.016094,-0.031390,0.064720,-0.241033:vel_
1561009442.981631,cobot_dynamixel_driver/goal|-:J1,J2,J3,J4,J5,J6:-0.343261,-0.058251,0.016085,-0.031530,0.065099,-0.242277:vel_
1561009443.013595,cobot_dynamixel_driver/goal|-:J1,J2,J3,J4,J5,J6:-0.343636,-0.058213,0.015874,-0.031264,0.065237,-0.242718:vel_
1561009443.045793,cobot_dynamixel_driver/goal|-:J1,J2,J3,J4,J5,J6:-0.345686,-0.058371,0.015666,-0.031192,0.065812,-0.243794:vel_
1561009443.077451,cobot_dynamixel_driver/goal|-:J1,J2,J3,J4,J5,J6:-0.348110,-0.058438,0.015463,-0.031592,0.066312,-0.244966:vel_
1561009443.109433,cobot_dynamixel_driver/goal|-:J1,J2,J3,J4,J5,J6:-0.348112,-0.058337,0.015637,-0.031986,0.065848,-0.245107:vel_
1561009443.141581,cobot_dynamixel_driver/goal|-:J1,J2,J3,J4,J5,J6:-0.350489,-0.058367,0.015976,-0.032229,0.066408,-0.246743:vel_
1561009443.173433,cobot_dynamixel_driver/goal|-:J1,J2,J3,J4,J5,J6:-0.352957,-0.058783,0.015764,-0.031988,0.066975,-0.248770:vel_
1561009443.205563,cobot_dynamixel_driver/goal|-:J1,J2,J3,J4,J5,J6:-0.357362,-0.059254,0.015064,-0.030762,0.067354,-0.252350:vel_
1561009443.237462,cobot_dynamixel_driver/goal|-:J1,J2,J3,J4,J5,J6:-0.364840,-0.060989,0.014696,-0.029699,0.068955,-0.257823:vel_
1561009443.269390,cobot_dynamixel_driver/goal|-:J1,J2,J3,J4,J5,J6:-0.348116,-0.058586,0.015700,-0.031369,0.065702,-0.244379:vel_
1561009443.301405,cobot_dynamixel_driver/goal|-:J1,J2,J3,J4,J5,J6:-0.347495,-0.058507,0.016111,-0.031624,0.065425,-0.244431:vel_
1561009443.333297,cobot_dynamixel_driver/goal|-:J1,J2,J3,J4,J5,J6:-0.347651,-0.058451,0.016423,-0.031866,0.065400,-0.245400:vel_
1561009443.365395,cobot_dynamixel_driver/goal|-:J1,J2,J3,J4,J5,J6:-0.349515,-0.058964,0.016410,-0.031964,0.065819,-0.247118:vel_
1561009443.397266,cobot_dynamixel_driver/goal|-:J1,J2,J3,J4,J5,J6:-0.350591,-0.058957,0.016493,-0.031539,0.065970,-0.247175:vel_
1561009443.429215,cobot_dynamixel_driver/goal|-:J1,J2,J3,J4,J5,J6:-0.351407,-0.059183,0.016322,-0.031153,0.065681,-0.246983:vel_
1561009443.461307,cobot_dynamixel_driver/goal|-:J1,J2,J3,J4,J5,J6:-0.353775,-0.060111,0.016011,-0.031205,0.065939,-0.248884:vel_
1561009443.493301,cobot_dynamixel_driver/goal|-:J1,J2,J3,J4,J5,J6:-0.358833,-0.061534,0.015343,-0.032075,0.066265,-0.252385:vel_
1561009443.525309,cobot_dynamixel_driver/goal|-:J1,J2,J3,J4,J5,J6:-0.361817,-0.061769,0.015135,-0.033744,0.066449,-0.253770:vel_
1561009443.557235,cobot_dynamixel_driver/goal|-:J1,J2,J3,J4,J5,J6:-0.364048,-0.062372,0.015393,-0.034882,0.066207,-0.254909:vel_
1561009443.589379,cobot_dynamixel_driver/goal|-:J1,J2,J3,J4,J5,J6:-0.351591,-0.059459,0.015922,-0.031991,0.066416,-0.247558:vel_
1561009443.621276,cobot_dynamixel_driver/goal|-:J1,J2,J3,J4,J5,J6:-0.350998,-0.059266,0.015850,-0.031498,0.066386,-0.247059:vel_
1561009443.653286,cobot_dynamixel_driver/goal|-:J1,J2,J3,J4,J5,J6:-0.352619,-0.059551,0.015771,-0.031499,0.066730,-0.248499:vel_
1561009443.685380,cobot_dynamixel_driver/goal|-:J1,J2,J3,J4,J5,J6:-0.353126,-0.059907,0.015924,-0.031338,0.066761,-0.248350:vel_
1561009443.717285,cobot_dynamixel_driver/goal|-:J1,J2,J3,J4,J5,J6:-0.354169,-0.060003,0.016411,-0.031708,0.066980,-0.250134:vel_
1561009443.749267,cobot_dynamixel_driver/goal|-:J1,J2,J3,J4,J5,J6:-0.355779,-0.059316,0.016313,-0.032076,0.066946,-0.251221:vel_
1561009443.781216,cobot_dynamixel_driver/goal|-:J1,J2,J3,J4,J5,J6:-0.359009,-0.059188,0.016247,-0.031908,0.067476,-0.253071:vel_
1561009443.813230,cobot_dynamixel_driver/goal|-:J1,J2,J3,J4,J5,J6:-0.363349,-0.060856,0.016049,-0.031028,0.068530,-0.256325:vel_
1561009443.845283,cobot_dynamixel_driver/goal|-:J1,J2,J3,J4,J5,J6:-0.366701,-0.062504,0.015962,-0.030459,0.069359,-0.258159:vel_
1561009443.877207,cobot_dynamixel_driver/goal|-:J1,J2,J3,J4,J5,J6:-0.371845,-0.064108,0.014456,-0.031257,0.070396,-0.261664:vel_
1561009443.909239,cobot_dynamixel_driver/goal|-:J1,J2,J3,J4,J5,J6:-0.355704,-0.060498,0.015758,-0.032257,0.067234,-0.250600:vel_
1561009443.941308,cobot_dynamixel_driver/goal|-:J1,J2,J3,J4,J5,J6:-0.355678,-0.060390,0.015799,-0.032833,0.067429,-0.250637:vel_
1561009443.973280,cobot_dynamixel_driver/goal|-:J1,J2,J3,J4,J5,J6:-0.356259,-0.060517,0.015751,-0.032788,0.067597,-0.251447:vel_
1561009444.005268,cobot_dynamixel_driver/goal|-:J1,J2,J3,J4,J5,J6:-0.357270,-0.060923,0.015686,-0.032567,0.067966,-0.252063:vel_
1561009444.037354,cobot_dynamixel_driver/goal|-:J1,J2,J3,J4,J5,J6:-0.359527,-0.061354,0.015548,-0.032660,0.068441,-0.253855:vel_
1561009444.069431,cobot_dynamixel_driver/goal|-:J1,J2,J3,J4,J5,J6:-0.362878,-0.062229,0.015447,-0.033039,0.069288,-0.254342:vel_
1561009444.101357,cobot_dynamixel_driver/goal|-:J1,J2,J3,J4,J5,J6:-0.365961,-0.062782,0.016614,-0.033306,0.069820,-0.255148:vel_
1561009444.133409,cobot_dynamixel_driver/goal|-:J1,J2,J3,J4,J5,J6:-0.369274,-0.062943,0.017539,-0.034275,0.070062,-0.256475:vel_
1561009444.165269,cobot_dynamixel_driver/goal|-:J1,J2,J3,J4,J5,J6:-0.373367,-0.062948,0.017950,-0.034614,0.070532,-0.258466:vel_
1561009444.197536,cobot_dynamixel_driver/goal|-:J1,J2,J3,J4,J5,J6:-0.361436,-0.060848,0.016623,-0.032781,0.068483,-0.254455:vel_
1561009444.229455,cobot_dynamixel_driver/goal|-:J1,J2,J3,J4,J5,J6:-0.362383,-0.060415,0.016452,-0.032662,0.068619,-0.254666:vel_
1561009444.261349,cobot_dynamixel_driver/goal|-:J1,J2,J3,J4,J5,J6:-0.361648,-0.059946,0.016348,-0.032644,0.068578,-0.255309:vel_
1561009444.293359,cobot_dynamixel_driver/goal|-:J1,J2,J3,J4,J5,J6:-0.363569,-0.059920,0.016429,-0.032798,0.068683,-0.256921:vel_
1561009444.325317,cobot_dynamixel_driver/goal|-:J1,J2,J3,J4,J5,J6:-0.364918,-0.059805,0.016136,-0.033134,0.069078,-0.257476:vel_
1561009444.357228,cobot_dynamixel_driver/goal|-:J1,J2,J3,J4,J5,J6:-0.365871,-0.059759,0.015552,-0.033312,0.068945,-0.258224:vel_
1561009444.389278,cobot_dynamixel_driver/goal|-:J1,J2,J3,J4,J5,J6:-0.368553,-0.059812,0.015135,-0.033220,0.069412,-0.260632:vel_
1561009444.421407,cobot_dynamixel_driver/goal|-:J1,J2,J3,J4,J5,J6:-0.369683,-0.059906,0.015700,-0.032892,0.069592,-0.261118:vel_
1561009444.453216,cobot_dynamixel_driver/goal|-:J1,J2,J3,J4,J5,J6:-0.374320,-0.058667,0.016077,-0.033363,0.070154,-0.263577:vel_
1561009444.485230,cobot_dynamixel_driver/goal|-:J1,J2,J3,J4,J5,J6:-0.382891,-0.058783,0.017691,-0.034058,0.071501,-0.268109:vel_
1561009444.517275,cobot_dynamixel_driver/goal|-:J1,J2,J3,J4,J5,J6:-0.366692,-0.061117,0.016763,-0.033329,0.069511,-0.258213:vel_
1561009444.549272,cobot_dynamixel_driver/goal|-:J1,J2,J3,J4,J5,J6:-0.365780,-0.061241,0.016733,-0.033531,0.069447,-0.257409:vel_
1561009444.581285,cobot_dynamixel_driver/goal|-:J1,J2,J3,J4,J5,J6:-0.366947,-0.061378,0.016888,-0.033445,0.069756,-0.258714:vel_
1561009444.613269,cobot_dynamixel_driver/goal|-:J1,J2,J3,J4,J5,J6:-0.367586,-0.061293,0.016672,-0.033376,0.069741,-0.259654:vel_
1561009444.645306,cobot_dynamixel_driver/goal|-:J1,J2,J3,J4,J5,J6:-0.370096,-0.061442,0.016520,-0.033779,0.069922,-0.261496:vel_
1561009444.677290,cobot_dynamixel_driver/goal|-:J1,J2,J3,J4,J5,J6:-0.371776,-0.061543,0.016369,-0.033948,0.070043,-0.262112:vel_
1561009444.709342,cobot_dynamixel_driver/goal|-:J1,J2,J3,J4,J5,J6:-0.372704,-0.061582,0.016066,-0.034593,0.070329,-0.262758:vel_
1561009444.741257,cobot_dynamixel_driver/goal|-:J1,J2,J3,J4,J5,J6:-0.376899,-0.061957,0.015310,-0.035460,0.071196,-0.266353:vel_
1561009444.773231,cobot_dynamixel_driver/goal|-:J1,J2,J3,J4,J5,J6:-0.379874,-0.062549,0.013945,-0.035075,0.071566,-0.267812:vel_
1561009444.805201,cobot_dynamixel_driver/goal|-:J1,J2,J3,J4,J5,J6:-0.390678,-0.064934,0.014451,-0.034380,0.074389,-0.273368:vel_
1561009444.837211,cobot_dynamixel_driver/goal|-:J1,J2,J3,J4,J5,J6:-0.371528,-0.063004,0.016708,-0.033474,0.070424,-0.261300:vel_
1561009444.869214,cobot_dynamixel_driver/goal|-:J1,J2,J3,J4,J5,J6:-0.370179,-0.063147,0.017362,-0.033845,0.070337,-0.260230:vel_
1561009444.901212,cobot_dynamixel_driver/goal|-:J1,J2,J3,J4,J5,J6:-0.371987,-0.063204,0.017417,-0.034472,0.070789,-0.261702:vel_
1561009444.933230,cobot_dynamixel_driver/goal|-:J1,J2,J3,J4,J5,J6:-0.372791,-0.063331,0.017522,-0.034851,0.070697,-0.262537:vel_
1561009444.965227,cobot_dynamixel_driver/goal|-:J1,J2,J3,J4,J5,J6:-0.375265,-0.063355,0.017553,-0.034624,0.071232,-0.263954:vel_
1561009444.997411,cobot_dynamixel_driver/goal|-:J1,J2,J3,J4,J5,J6:-0.383506,-0.064514,0.018055,-0.035058,0.073032,-0.269863:vel_
1561009445.029205,cobot_dynamixel_driver/goal|-:J1,J2,J3,J4,J5,J6:-0.380589,-0.063780,0.017733,-0.034654,0.072771,-0.267588:vel_
1561009445.061163,cobot_dynamixel_driver/goal|-:J1,J2,J3,J4,J5,J6:-0.380881,-0.063499,0.017946,-0.034321,0.072357,-0.267210:vel_
1561009445.093338,cobot_dynamixel_driver/goal|-:J1,J2,J3,J4,J5,J6:-0.399120,-0.067093,0.018787,-0.035941,0.075683,-0.280834:vel_
1561009445.125183,cobot_dynamixel_driver/goal|-:J1,J2,J3,J4,J5,J6:-0.376704,-0.063120,0.017114,-0.034241,0.071134,-0.264874:vel_
1561009445.158008,cobot_dynamixel_driver/goal|-:J1,J2,J3,J4,J5,J6:-0.376863,-0.063079,0.016863,-0.033993,0.071080,-0.264502:vel_
1561009445.189171,cobot_dynamixel_driver/goal|-:J1,J2,J3,J4,J5,J6:-0.375475,-0.062614,0.016592,-0.033900,0.071160,-0.264181:vel_
1561009445.221189,cobot_dynamixel_driver/goal|-:J1,J2,J3,J4,J5,J6:-0.377573,-0.062333,0.016704,-0.034487,0.071588,-0.265793:vel_
1561009445.253196,cobot_dynamixel_driver/goal|-:J1,J2,J3,J4,J5,J6:-0.380712,-0.062791,0.017229,-0.035033,0.072188,-0.267847:vel_
1561009445.285187,cobot_dynamixel_driver/goal|-:J1,J2,J3,J4,J5,J6:-0.381913,-0.063088,0.017256,-0.035411,0.072427,-0.268580:vel_
1561009445.317859,cobot_dynamixel_driver/goal|-:J1,J2,J3,J4,J5,J6:-0.383163,-0.063022,0.017573,-0.035089,0.072521,-0.268916:vel_
1561009445.349169,cobot_dynamixel_driver/goal|-:J1,J2,J3,J4,J5,J6:-0.384112,-0.063353,0.017158,-0.034242,0.072602,-0.269789:vel_
1561009445.381200,cobot_dynamixel_driver/goal|-:J1,J2,J3,J4,J5,J6:-0.391435,-0.063073,0.017225,-0.034182,0.073185,-0.275480:vel_
1561009445.413195,cobot_dynamixel_driver/goal|-:J1,J2,J3,J4,J5,J6:-0.240455,-0.040325,0.010877,-0.021713,0.045496,-0.169495:vel_
1561009445.445212,cobot_dynamixel_driver/goal|-:J1,J2,J3,J4,J5,J6:-0.231236,-0.038940,0.010456,-0.021215,0.043996,-0.162888:vel_
1561009445.477163,cobot_dynamixel_driver/goal|-:J1,J2,J3,J4,J5,J6:-0.225312,-0.038722,0.010253,-0.021439,0.044329,-0.161210:vel_
1561009445.509109,cobot_dynamixel_driver/goal|-:J1,J2,J3,J4,J5,J6:-0.224370,-0.039103,0.010190,-0.021607,0.044539,-0.162497:vel_
1561009445.541180,cobot_dynamixel_driver/goal|-:J1,J2,J3,J4,J5,J6:-0.224957,-0.039466,0.010121,-0.021412,0.044496,-0.162881:vel_
1561009445.573154,cobot_dynamixel_driver/goal|-:J1,J2,J3,J4,J5,J6:-0.226536,-0.039689,0.010166,-0.021536,0.044391,-0.163406:vel_
1561009445.605222,cobot_dynamixel_driver/goal|-:J1,J2,J3,J4,J5,J6:-0.227231,-0.039711,0.010194,-0.021630,0.044456,-0.163144:vel_
1561009445.641826,cobot_dynamixel_driver/goal|-:J1,J2,J3,J4,J5,J6:-0.227934,-0.039978,0.009928,-0.021787,0.044625,-0.164222:vel_
1561009445.685569,cobot_dynamixel_driver/goal|-:J1,J2,J3,J4,J5,J6:-0.229545,-0.040198,0.010125,-0.022296,0.044687,-0.165079:vel_
1561009445.721095,cobot_dynamixel_driver/goal|-:J1,J2,J3,J4,J5,J6:-0.234339,-0.040999,0.010501,-0.022984,0.045512,-0.168506:vel_
1561009445.765156,cobot_dynamixel_driver/goal|-:J1,J2,J3,J4,J5,J6:-0.231974,-0.040856,0.010237,-0.022728,0.044989,-0.166978:vel_
1561009445.797118,cobot_dynamixel_driver/goal|-:J1,J2,J3,J4,J5,J6:-0.236737,-0.041153,0.010421,-0.022863,0.045680,-0.169928:vel_
1561009445.829197,cobot_dynamixel_driver/goal|-:J1,J2,J3,J4,J5,J6:-0.232966,-0.040709,0.010238,-0.021949,0.045216,-0.168416:vel_
1561009445.861141,cobot_dynamixel_driver/goal|-:J1,J2,J3,J4,J5,J6:-0.232541,-0.040392,0.009795,-0.020883,0.045231,-0.168006:vel_
1561009445.893167,cobot_dynamixel_driver/goal|-:J1,J2,J3,J4,J5,J6:-0.246051,-0.054032,0.025589,-0.013022,0.026361,-0.166651:vel_
1561009445.925176,cobot_dynamixel_driver/goal|-:J1,J2,J3,J4,J5,J6:-0.034867,0.060304,0.074786,-0.008710,-0.137480,-0.009731:vel_
1561009445.957179,cobot_dynamixel_driver/goal|-:J1,J2,J3,J4,J5,J6:-0.010128,0.074434,0.080644,-0.008361,-0.156854,0.008543:vel_
1561009446.069217,cobot_dynamixel_driver/goal|-:J1,J2,J3,J4,J5,J6:0.047599,0.106716,0.085535,-0.008570,-0.195321,0.032309:vel_
1561009446.101215,cobot_dynamixel_driver/goal|-:J1,J2,J3,J4,J5,J6:0.062020,0.116534,0.087102,-0.009268,-0.204766,0.040537:vel_
1561009446.133153,cobot_dynamixel_driver/goal|-:J1,J2,J3,J4,J5,J6:0.014276,0.160247,0.139109,-0.018306,-0.298120,0.027202:vel_
1561009446.165163,cobot_dynamixel_driver/goal|-:J1,J2,J3,J4,J5,J6:0.007379,0.167335,0.148843,-0.020160,-0.315723,0.025203:vel_
1561009446.197302,cobot_dynamixel_driver/goal|-:J1,J2,J3,J4,J5,J6:0.005900,0.172777,0.153997,-0.020948,-0.326992,0.026543:vel_
1561009446.229491,cobot_dynamixel_driver/goal|-:J1,J2,J3,J4,J5,J6:0.006881,0.171433,0.151459,-0.020854,-0.327168,0.026912:vel_
1561009446.261479,cobot_dynamixel_driver/goal|-:J1,J2,J3,J4,J5,J6:-0.018109,0.214769,0.181723,-0.028323,-0.398685,0.024575:vel_
1561009446.293432,cobot_dynamixel_driver/goal|-:J1,J2,J3,J4,J5,J6:-0.024211,0.225998,0.190309,-0.029781,-0.418734,0.024304:vel_
1561009446.325500,cobot_dynamixel_driver/goal|-:J1,J2,J3,J4,J5,J6:-0.028303,0.231940,0.193859,-0.029746,-0.426374,0.025561:vel_
1561009446.357501,cobot_dynamixel_driver/goal|-:J1,J2,J3,J4,J5,J6:-0.034996,0.236132,0.196900,-0.030190,-0.431953,0.026584:vel_
1561009446.389283,cobot_dynamixel_driver/goal|-:J1,J2,J3,J4,J5,J6:-0.040870,0.256448,0.193608,-0.036537,-0.451223,0.026263:vel_
1561009446.421285,cobot_dynamixel_driver/goal|-:J1,J2,J3,J4,J5,J6:-0.044885,0.263032,0.195537,-0.038931,-0.463928,0.026336:vel_
1561009446.453232,cobot_dynamixel_driver/goal|-:J1,J2,J3,J4,J5,J6:-0.050292,0.274219,0.203129,-0.041902,-0.480517,0.026625:vel_
1561009446.485267,cobot_dynamixel_driver/goal|-:J1,J2,J3,J4,J5,J6:-0.042994,0.281636,0.186107,-0.043923,-0.468523,0.030328:vel_
1561009446.517296,cobot_dynamixel_driver/goal|-:J1,J2,J3,J4,J5,J6:-0.041038,0.289657,0.184407,-0.044494,-0.473888,0.031870:vel_
1561009446.549268,cobot_dynamixel_driver/goal|-:J1,J2,J3,J4,J5,J6:-0.040729,0.291092,0.183436,-0.044086,-0.476217,0.032528:vel_
1561009446.581415,cobot_dynamixel_driver/goal|-:J1,J2,J3,J4,J5,J6:-0.039698,0.300942,0.171902,-0.049591,-0.473105,0.035986:vel_
1561009446.613184,cobot_dynamixel_driver/goal|-:J1,J2,J3,J4,J5,J6:-0.039170,0.303627,0.166567,-0.050864,-0.473083,0.036644:vel_
1561009446.645201,cobot_dynamixel_driver/goal|-:J1,J2,J3,J4,J5,J6:-0.039300,0.310243,0.169779,-0.052335,-0.476818,0.036553:vel_
1561009446.677112,cobot_dynamixel_driver/goal|-:J1,J2,J3,J4,J5,J6:-0.038846,0.317809,0.156109,-0.057817,-0.473501,0.043569:vel_
1561009446.709173,cobot_dynamixel_driver/goal|-:J1,J2,J3,J4,J5,J6:-0.039682,0.317818,0.151485,-0.060101,-0.474590,0.046147:vel_
1561009446.741263,cobot_dynamixel_driver/goal|-:J1,J2,J3,J4,J5,J6:-0.039652,0.330289,0.141155,-0.065204,-0.472588,0.050453:vel_
1561009446.773112,cobot_dynamixel_driver/goal|-:J1,J2,J3,J4,J5,J6:-0.039837,0.336002,0.139939,-0.065484,-0.475005,0.052127:vel_
1561009446.805198,cobot_dynamixel_driver/goal|-:J1,J2,J3,J4,J5,J6:-0.039562,0.339441,0.140062,-0.066011,-0.477443,0.051702:vel_
1561009446.837113,cobot_dynamixel_driver/goal|-:J1,J2,J3,J4,J5,J6:-0.038377,0.342611,0.127122,-0.073027,-0.468753,0.058161:vel_
1561009446.869115,cobot_dynamixel_driver/goal|-:J1,J2,J3,J4,J5,J6:-0.038906,0.347715,0.126100,-0.074623,-0.473258,0.060847:vel_
1561009446.901129,cobot_dynamixel_driver/goal|-:J1,J2,J3,J4,J5,J6:-0.039809,0.350100,0.127077,-0.074949,-0.477724,0.061657:vel_
1561009446.933269,cobot_dynamixel_driver/goal|-:J1,J2,J3,J4,J5,J6:-0.033425,0.308794,0.096882,-0.072866,-0.405314,0.059391:vel_
1561009446.965271,cobot_dynamixel_driver/goal|-:J1,J2,J3,J4,J5,J6:-0.031470,0.296560,0.090079,-0.072470,-0.388951,0.059828:vel_
1561009446.997220,cobot_dynamixel_driver/goal|-:J1,J2,J3,J4,J5,J6:-0.030746,0.293041,0.086846,-0.072418,-0.384909,0.059144:vel_
1561009447.029186,cobot_dynamixel_driver/goal|-:J1,J2,J3,J4,J5,J6:-0.015559,0.152566,0.039953,-0.039793,-0.193091,0.033510:vel_
1561009447.061201,cobot_dynamixel_driver/goal|-:J1,J2,J3,J4,J5,J6:-0.014317,0.138508,0.035384,-0.036334,-0.173754,0.031119:vel_
1561009447.093163,cobot_dynamixel_driver/goal|-:J1,J2,J3,J4,J5,J6:-0.014415,0.128438,0.034555,-0.036158,-0.157768,0.031791:vel_
1561009447.125187,cobot_dynamixel_driver/goal|-:J1,J2,J3,J4,J5,J6:-0.014616,0.127099,0.035846,-0.036956,-0.153251,0.032361:vel_
1561009447.157091,cobot_dynamixel_driver/goal|-:J1,J2,J3,J4,J5,J6:-0.014806,0.129841,0.036599,-0.036982,-0.156407,0.032199:vel_
1561009447.189140,cobot_dynamixel_driver/goal|-:J1,J2,J3,J4,J5,J6:-0.014991,0.132469,0.036786,-0.037010,-0.158072,0.032096:vel_
1561009447.221165,cobot_dynamixel_driver/goal|-:J1,J2,J3,J4,J5,J6:-0.015190,0.135578,0.037154,-0.037923,-0.160177,0.032189:vel_
1561009447.253516,cobot_dynamixel_driver/goal|-:J1,J2,J3,J4,J5,J6:0.006076,-0.063077,-0.014190,0.016319,0.079717,-0.013952:vel_
1561009447.285231,cobot_dynamixel_driver/goal|-:J1,J2,J3,J4,J5,J6:0.007852,-0.080903,-0.018359,0.020969,0.101413,-0.017956:vel_
1561009447.317280,cobot_dynamixel_driver/goal|-:J1,J2,J3,J4,J5,J6:0.008680,-0.096315,-0.019884,0.022756,0.119713,-0.019430:vel_
1561009447.349113,cobot_dynamixel_driver/goal|-:J1,J2,J3,J4,J5,J6:0.009566,-0.104609,-0.021542,0.024075,0.131688,-0.020007:vel_
1561009447.381187,cobot_dynamixel_driver/goal|-:J1,J2,J3,J4,J5,J6:0.010709,-0.109185,-0.023196,0.025510,0.134722,-0.020137:vel_
1561009447.413197,cobot_dynamixel_driver/goal|-:J1,J2,J3,J4,J5,J6:0.011567,-0.111116,-0.024940,0.026448,0.134252,-0.020306:vel_
1561009447.445171,cobot_dynamixel_driver/goal|-:J1,J2,J3,J4,J5,J6:0.012589,-0.112299,-0.025623,0.026719,0.134584,-0.020434:vel_
1561009447.477144,cobot_dynamixel_driver/goal|-:J1,J2,J3,J4,J5,J6:0.022058,-0.196280,-0.054609,0.046609,0.247451,-0.037458:vel_
1561009447.509195,cobot_dynamixel_driver/goal|-:J1,J2,J3,J4,J5,J6:0.023656,-0.207044,-0.057807,0.049190,0.261505,-0.039541:vel_
1561009447.541275,cobot_dynamixel_driver/goal|-:J1,J2,J3,J4,J5,J6:0.024529,-0.214710,-0.058731,0.050270,0.270209,-0.039665:vel_
1561009447.573098,cobot_dynamixel_driver/goal|-:J1,J2,J3,J4,J5,J6:0.024662,-0.214759,-0.057682,0.050611,0.268871,-0.039965:vel_
1561009447.605128,cobot_dynamixel_driver/goal|-:J1,J2,J3,J4,J5,J6:0.024956,-0.213417,-0.057678,0.051479,0.268547,-0.040705:vel_
1561009447.637049,cobot_dynamixel_driver/goal|-:J1,J2,J3,J4,J5,J6:0.025612,-0.213312,-0.058791,0.052689,0.271243,-0.042003:vel_
1561009447.669157,cobot_dynamixel_driver/goal|-:J1,J2,J3,J4,J5,J6:0.033325,-0.283817,-0.094777,0.064669,0.379004,-0.051259:vel_
1561009447.701067,cobot_dynamixel_driver/goal|-:J1,J2,J3,J4,J5,J6:0.034915,-0.298327,-0.102389,0.066759,0.401707,-0.053220:vel_
1561009447.733210,cobot_dynamixel_driver/goal|-:J1,J2,J3,J4,J5,J6:0.035960,-0.310916,-0.107550,0.067672,0.419756,-0.053523:vel_
1561009447.765126,cobot_dynamixel_driver/goal|-:J1,J2,J3,J4,J5,J6:0.037157,-0.313998,-0.107042,0.068039,0.422372,-0.053300:vel_
1561009447.797112,cobot_dynamixel_driver/goal|-:J1,J2,J3,J4,J5,J6:0.038115,-0.320704,-0.128587,0.064448,0.449988,-0.050292:vel_
1561009447.829079,cobot_dynamixel_driver/goal|-:J1,J2,J3,J4,J5,J6:0.038269,-0.324142,-0.134260,0.064263,0.461279,-0.049854:vel_
1561009447.861080,cobot_dynamixel_driver/goal|-:J1,J2,J3,J4,J5,J6:0.038072,-0.324736,-0.136639,0.065419,0.464687,-0.049658:vel_
1561009447.895968,cobot_dynamixel_driver/goal|-:J1,J2,J3,J4,J5,J6:0.040711,-0.354626,-0.150140,0.072060,0.511733,-0.054256:vel_
1561009447.925558,cobot_dynamixel_driver/goal|-:J1,J2,J3,J4,J5,J6:0.038535,-0.316175,-0.155281,0.057812,0.473347,-0.043361:vel_
1561009447.957077,cobot_dynamixel_driver/goal|-:J1,J2,J3,J4,J5,J6:0.038236,-0.305367,-0.158153,0.054241,0.462356,-0.039902:vel_
1561009447.990569,cobot_dynamixel_driver/goal|-:J1,J2,J3,J4,J5,J6:0.036287,-0.296123,-0.159292,0.051966,0.460574,-0.041269:vel_
1561009448.021161,cobot_dynamixel_driver/goal|-:J1,J2,J3,J4,J5,J6:0.037344,-0.289373,-0.169214,0.047491,0.463687,-0.036206:vel_
1561009448.053067,cobot_dynamixel_driver/goal|-:J1,J2,J3,J4,J5,J6:0.038175,-0.291037,-0.174455,0.047086,0.471826,-0.035167:vel_
1561009448.085049,cobot_dynamixel_driver/goal|-:J1,J2,J3,J4,J5,J6:0.040142,-0.293819,-0.178048,0.048177,0.476150,-0.035687:vel_
1561009448.117060,cobot_dynamixel_driver/goal|-:J1,J2,J3,J4,J5,J6:0.040090,-0.281241,-0.187550,0.042967,0.468996,-0.029989:vel_
1561009448.149109,cobot_dynamixel_driver/goal|-:J1,J2,J3,J4,J5,J6:0.039958,-0.279885,-0.192148,0.041752,0.470372,-0.028578:vel_
1561009448.181086,cobot_dynamixel_driver/goal|-:J1,J2,J3,J4,J5,J6:0.040398,-0.280135,-0.197012,0.042111,0.475336,-0.029449:vel_
1561009448.213018,cobot_dynamixel_driver/goal|-:J1,J2,J3,J4,J5,J6:0.039763,-0.261853,-0.202136,0.037717,0.463693,-0.024583:vel_
1561009448.245036,cobot_dynamixel_driver/goal|-:J1,J2,J3,J4,J5,J6:0.040892,-0.259231,-0.205943,0.036891,0.465852,-0.023335:vel_
1561009448.277073,cobot_dynamixel_driver/goal|-:J1,J2,J3,J4,J5,J6:0.041897,-0.257529,-0.208005,0.035656,0.469293,-0.024049:vel_
1561009448.309095,cobot_dynamixel_driver/goal|-:J1,J2,J3,J4,J5,J6:0.035734,-0.216979,-0.192671,0.029206,0.412415,-0.017971:vel_
1561009448.341087,cobot_dynamixel_driver/goal|-:J1,J2,J3,J4,J5,J6:0.034056,-0.207246,-0.189026,0.027698,0.397849,-0.016678:vel_
1561009448.373817,cobot_dynamixel_driver/goal|-:J1,J2,J3,J4,J5,J6:0.033712,-0.204192,-0.190603,0.028222,0.400091,-0.017386:vel_
1561009448.405126,cobot_dynamixel_driver/goal|-:J1,J2,J3,J4,J5,J6:0.034641,-0.204694,-0.196253,0.030172,0.408701,-0.017624:vel_
1561009448.437125,cobot_dynamixel_driver/goal|-:J1,J2,J3,J4,J5,J6:0.016347,-0.089403,-0.093874,0.011587,0.184137,-0.006301:vel_
1561009448.469082,cobot_dynamixel_driver/goal|-:J1,J2,J3,J4,J5,J6:0.014233,-0.077134,-0.083285,0.009410,0.160209,-0.005264:vel_
1561009448.501028,cobot_dynamixel_driver/goal|-:J1,J2,J3,J4,J5,J6:0.013472,-0.068660,-0.077650,0.009144,0.139142,-0.005848:vel_
1561009448.533072,cobot_dynamixel_driver/goal|-:J1,J2,J3,J4,J5,J6:0.013362,-0.068423,-0.079752,0.009597,0.128478,-0.006729:vel_
1561009448.565047,cobot_dynamixel_driver/goal|-:J1,J2,J3,J4,J5,J6:0.013609,-0.071084,-0.081433,0.009811,0.129350,-0.007876:vel_
1561009448.597077,cobot_dynamixel_driver/goal|-:J1,J2,J3,J4,J5,J6:0.013741,-0.073516,-0.082664,0.009644,0.133003,-0.009514:vel_
1561009448.629109,cobot_dynamixel_driver/goal|-:J1,J2,J3,J4,J5,J6:0.013964,-0.076265,-0.084275,0.009682,0.135713,-0.009884:vel_
1561009669.276659,cobot_dynamixel_driver/goal|-:J1,J2,J3,J4,J5,J6:0.000000,0.000000,0.000000,0.000000,0.000000,0.000000:0.500000,0.500000,0.500000,0.500000,0.500000,0.500000:pos_vel_
1561009734.442316,cobot_dynamixel_driver/goal|-:J1,J2,J3,J4,J5,J6:0.040718,0.033999,0.084435,0.029219,-0.114633,0.516851:vel_
1561009734.873821,cobot_dynamixel_driver/goal|-:J1,J2,J3,J4,J5,J6:0.041895,0.024847,0.074849,0.030116,-0.118719,0.545717:vel_
1561009734.905888,cobot_dynamixel_driver/goal|-:J1,J2,J3,J4,J5,J6:0.043366,0.024889,0.073760,0.031217,-0.119219,0.602871:vel_
1561009734.937875,cobot_dynamixel_driver/goal|-:J1,J2,J3,J4,J5,J6:0.044541,0.025233,0.072734,0.032077,-0.119932,0.661503:vel_
1561009734.969902,cobot_dynamixel_driver/goal|-:J1,J2,J3,J4,J5,J6:0.045730,0.025599,0.073187,0.033302,-0.121635,0.725020:vel_
1561009735.001873,cobot_dynamixel_driver/goal|-:J1,J2,J3,J4,J5,J6:0.069523,0.053727,0.132327,0.051409,-0.199604,0.785398:vel_
1561009735.033837,cobot_dynamixel_driver/goal|-:J1,J2,J3,J4,J5,J6:0.072917,0.057641,0.140916,0.053817,-0.210408,0.785398:vel_
1561009735.065856,cobot_dynamixel_driver/goal|-:J1,J2,J3,J4,J5,J6:0.074209,0.058675,0.143926,0.054169,-0.213527,0.785398:vel_
1561009735.097878,cobot_dynamixel_driver/goal|-:J1,J2,J3,J4,J5,J6:0.074373,0.058578,0.143066,0.053794,-0.212785,0.785398:vel_
1561009735.129859,cobot_dynamixel_driver/goal|-:J1,J2,J3,J4,J5,J6:0.074031,0.056678,0.142662,0.053877,-0.212968,0.785398:vel_
1561009735.161829,cobot_dynamixel_driver/goal|-:J1,J2,J3,J4,J5,J6:0.074901,0.057368,0.145110,0.053225,-0.217269,0.785398:vel_
1561009735.193832,cobot_dynamixel_driver/goal|-:J1,J2,J3,J4,J5,J6:0.100400,0.088277,0.205385,0.072996,-0.308778,0.785398:vel_
1561009735.225907,cobot_dynamixel_driver/goal|-:J1,J2,J3,J4,J5,J6:0.108273,0.095350,0.221548,0.078822,-0.333700,0.785398:vel_
1561009735.257933,cobot_dynamixel_driver/goal|-:J1,J2,J3,J4,J5,J6:0.112374,0.099618,0.230872,0.081636,-0.348907,0.785398:vel_
1561009735.289852,cobot_dynamixel_driver/goal|-:J1,J2,J3,J4,J5,J6:0.112757,0.100337,0.234544,0.081001,-0.351430,0.785398:vel_
1561009735.321833,cobot_dynamixel_driver/goal|-:J1,J2,J3,J4,J5,J6:0.114974,0.106576,0.233958,0.082303,-0.366904,0.785398:vel_
1561009735.353833,cobot_dynamixel_driver/goal|-:J1,J2,J3,J4,J5,J6:0.115691,0.110876,0.237152,0.082487,-0.377646,0.785398:vel_
1561009735.385783,cobot_dynamixel_driver/goal|-:J1,J2,J3,J4,J5,J6:0.119862,0.114471,0.243165,0.084085,-0.389372,0.785398:vel_
1561009735.417872,cobot_dynamixel_driver/goal|-:J1,J2,J3,J4,J5,J6:0.118489,0.114156,0.234570,0.082305,-0.387380,0.785398:vel_
1561009735.449899,cobot_dynamixel_driver/goal|-:J1,J2,J3,J4,J5,J6:0.118654,0.114324,0.233268,0.081933,-0.387816,0.785398:vel_
1561009735.481874,cobot_dynamixel_driver/goal|-:J1,J2,J3,J4,J5,J6:0.120890,0.113979,0.236739,0.082686,-0.393019,0.785398:vel_
1561009735.513890,cobot_dynamixel_driver/goal|-:J1,J2,J3,J4,J5,J6:0.119650,0.117603,0.230319,0.075964,-0.398125,0.785398:vel_
1561009735.545965,cobot_dynamixel_driver/goal|-:J1,J2,J3,J4,J5,J6:0.121719,0.122443,0.235137,0.075525,-0.409934,0.785398:vel_
1561009735.577893,cobot_dynamixel_driver/goal|-:J1,J2,J3,J4,J5,J6:0.121590,0.123228,0.235111,0.075857,-0.412172,0.785398:vel_
1561009735.609746,cobot_dynamixel_driver/goal|-:J1,J2,J3,J4,J5,J6:0.123459,0.125757,0.227446,0.070584,-0.413651,0.785398:vel_
1561009735.641807,cobot_dynamixel_driver/goal|-:J1,J2,J3,J4,J5,J6:0.124824,0.126349,0.225121,0.068645,-0.410712,0.785398:vel_
1561009735.673829,cobot_dynamixel_driver/goal|-:J1,J2,J3,J4,J5,J6:0.128493,0.128079,0.225960,0.069329,-0.421298,0.785398:vel_
1561009735.705787,cobot_dynamixel_driver/goal|-:J1,J2,J3,J4,J5,J6:0.127467,0.128487,0.217418,0.062734,-0.418457,0.785398:vel_
1561009735.737819,cobot_dynamixel_driver/goal|-:J1,J2,J3,J4,J5,J6:0.129292,0.132665,0.219171,0.062577,-0.423631,0.785398:vel_
1561009735.785823,cobot_dynamixel_driver/goal|-:J1,J2,J3,J4,J5,J6:0.139942,0.145702,0.228702,0.059139,-0.457643,0.785398:vel_
1561009735.817834,cobot_dynamixel_driver/goal|-:J1,J2,J3,J4,J5,J6:0.130561,0.136264,0.210906,0.053519,-0.429054,0.785398:vel_
1561009735.849740,cobot_dynamixel_driver/goal|-:J1,J2,J3,J4,J5,J6:0.133879,0.139184,0.213781,0.054203,-0.437588,0.785398:vel_
1561009735.881773,cobot_dynamixel_driver/goal|-:J1,J2,J3,J4,J5,J6:0.137630,0.144677,0.204303,0.044371,-0.434254,0.785398:vel_
1561009735.915754,cobot_dynamixel_driver/goal|-:J1,J2,J3,J4,J5,J6:0.142121,0.149139,0.206167,0.042463,-0.444353,0.785398:vel_
1561009735.963052,cobot_dynamixel_driver/goal|-:J1,J2,J3,J4,J5,J6:0.171323,0.177349,0.246184,0.050042,-0.538589,0.785398:vel_
1561009735.993807,cobot_dynamixel_driver/goal|-:J1,J2,J3,J4,J5,J6:0.145040,0.154930,0.196399,0.031363,-0.439045,0.785398:vel_
1561009736.025845,cobot_dynamixel_driver/goal|-:J1,J2,J3,J4,J5,J6:0.136824,0.149167,0.180839,0.025103,-0.414149,0.785398:vel_
1561009736.057788,cobot_dynamixel_driver/goal|-:J1,J2,J3,J4,J5,J6:0.141344,0.155851,0.173799,0.018442,-0.418327,0.785398:vel_
1561009736.089853,cobot_dynamixel_driver/goal|-:J1,J2,J3,J4,J5,J6:0.146311,0.162212,0.179207,0.018398,-0.435909,0.785398:vel_
1561009736.121755,cobot_dynamixel_driver/goal|-:J1,J2,J3,J4,J5,J6:0.149506,0.167182,0.184074,0.020097,-0.446164,0.785398:vel_
1561009736.153809,cobot_dynamixel_driver/goal|-:J1,J2,J3,J4,J5,J6:0.155786,0.174389,0.190694,0.023590,-0.460511,0.785398:vel_
1561009736.185742,cobot_dynamixel_driver/goal|-:J1,J2,J3,J4,J5,J6:0.158680,0.179489,0.174414,0.006887,-0.449821,0.785398:vel_
1561009736.217792,cobot_dynamixel_driver/goal|-:J1,J2,J3,J4,J5,J6:0.163050,0.184217,0.172578,0.000356,-0.447622,0.785398:vel_
1561009736.249741,cobot_dynamixel_driver/goal|-:J1,J2,J3,J4,J5,J6:0.168404,0.181997,0.169762,-0.004013,-0.452165,0.785398:vel_
1561009736.281812,cobot_dynamixel_driver/goal|-:J1,J2,J3,J4,J5,J6:0.166918,0.194025,0.159836,-0.012362,-0.454329,0.785398:vel_
1561009736.313775,cobot_dynamixel_driver/goal|-:J1,J2,J3,J4,J5,J6:0.165722,0.196154,0.155329,-0.016903,-0.445922,0.785398:vel_
1561009736.345725,cobot_dynamixel_driver/goal|-:J1,J2,J3,J4,J5,J6:0.169157,0.202561,0.143203,-0.028102,-0.440944,0.785398:vel_
1561009736.377752,cobot_dynamixel_driver/goal|-:J1,J2,J3,J4,J5,J6:0.171474,0.207393,0.143235,-0.032348,-0.447156,0.785398:vel_
1561009736.409771,cobot_dynamixel_driver/goal|-:J1,J2,J3,J4,J5,J6:0.173744,0.209945,0.145286,-0.037320,-0.451325,0.785398:vel_
1561009736.441816,cobot_dynamixel_driver/goal|-:J1,J2,J3,J4,J5,J6:0.181027,0.217571,0.152799,-0.042922,-0.463311,0.785398:vel_
1561009736.473757,cobot_dynamixel_driver/goal|-:J1,J2,J3,J4,J5,J6:0.178320,0.221945,0.127574,-0.048092,-0.438480,0.785398:vel_
1561009736.505766,cobot_dynamixel_driver/goal|-:J1,J2,J3,J4,J5,J6:0.178838,0.224225,0.119030,-0.051655,-0.432206,0.785398:vel_
1561009736.537916,cobot_dynamixel_driver/goal|-:J1,J2,J3,J4,J5,J6:0.181352,0.234312,0.107009,-0.061994,-0.426400,0.785398:vel_
1561009736.569833,cobot_dynamixel_driver/goal|-:J1,J2,J3,J4,J5,J6:0.179437,0.233669,0.103531,-0.064306,-0.419249,0.785398:vel_
1561009736.601832,cobot_dynamixel_driver/goal|-:J1,J2,J3,J4,J5,J6:0.183563,0.239213,0.105456,-0.066997,-0.427811,0.785398:vel_
1561009736.633735,cobot_dynamixel_driver/goal|-:J1,J2,J3,J4,J5,J6:0.185438,0.248336,0.088935,-0.078149,-0.411945,0.785398:vel_
1561009736.665765,cobot_dynamixel_driver/goal|-:J1,J2,J3,J4,J5,J6:0.187261,0.253480,0.086007,-0.082133,-0.414303,0.785398:vel_
1561009736.697800,cobot_dynamixel_driver/goal|-:J1,J2,J3,J4,J5,J6:0.188647,0.256665,0.085756,-0.083356,-0.420097,0.785398:vel_
1561009736.729721,cobot_dynamixel_driver/goal|-:J1,J2,J3,J4,J5,J6:0.186631,0.264457,0.067113,-0.095577,-0.397316,0.785398:vel_
1561009736.761790,cobot_dynamixel_driver/goal|-:J1,J2,J3,J4,J5,J6:0.188305,0.268937,0.062374,-0.099437,-0.396301,0.785398:vel_
1561009736.793777,cobot_dynamixel_driver/goal|-:J1,J2,J3,J4,J5,J6:0.189154,0.271551,0.062174,-0.101130,-0.400188,0.785398:vel_
1561009736.825926,cobot_dynamixel_driver/goal|-:J1,J2,J3,J4,J5,J6:0.166863,0.246102,0.037963,-0.100813,-0.332484,0.785398:vel_
1561009736.858092,cobot_dynamixel_driver/goal|-:J1,J2,J3,J4,J5,J6:0.161606,0.242617,0.033352,-0.101482,-0.319866,0.785398:vel_
1561009736.890138,cobot_dynamixel_driver/goal|-:J1,J2,J3,J4,J5,J6:0.159349,0.241203,0.032585,-0.101624,-0.315847,0.785398:vel_
1561009736.922021,cobot_dynamixel_driver/goal|-:J1,J2,J3,J4,J5,J6:0.161079,0.246510,0.035247,-0.103254,-0.325386,0.785398:vel_
1561009736.953781,cobot_dynamixel_driver/goal|-:J1,J2,J3,J4,J5,J6:0.074778,0.117885,0.006391,-0.052956,-0.139711,0.785398:vel_
1561009736.985784,cobot_dynamixel_driver/goal|-:J1,J2,J3,J4,J5,J6:0.065974,0.104792,0.003004,-0.047624,-0.120357,0.785398:vel_
1561009737.017839,cobot_dynamixel_driver/goal|-:J1,J2,J3,J4,J5,J6:0.061112,0.094711,0.001918,-0.047439,-0.105274,0.785398:vel_
1561009737.049785,cobot_dynamixel_driver/goal|-:J1,J2,J3,J4,J5,J6:0.060638,0.094014,0.002205,-0.047811,-0.101427,0.785398:vel_
1561009737.081781,cobot_dynamixel_driver/goal|-:J1,J2,J3,J4,J5,J6:0.062015,0.095955,0.002591,-0.047709,-0.104490,0.785398:vel_
1561009737.113763,cobot_dynamixel_driver/goal|-:J1,J2,J3,J4,J5,J6:0.062693,0.098059,0.003143,-0.047777,-0.106317,0.785398:vel_
1561009737.145922,cobot_dynamixel_driver/goal|-:J1,J2,J3,J4,J5,J6:0.020690,0.095407,0.022108,-0.013567,-0.118444,0.785398:vel_
1561009737.177799,cobot_dynamixel_driver/goal|-:J1,J2,J3,J4,J5,J6:0.017027,0.095667,0.024039,-0.010332,-0.119683,0.785398:vel_
1561009737.209817,cobot_dynamixel_driver/goal|-:J1,J2,J3,J4,J5,J6:0.016076,0.095842,0.024433,-0.010020,-0.119388,0.785398:vel_
1561009737.241732,cobot_dynamixel_driver/goal|-:J1,J2,J3,J4,J5,J6:0.015891,0.096082,0.024859,-0.010201,-0.120122,0.785398:vel_
1561009737.273712,cobot_dynamixel_driver/goal|-:J1,J2,J3,J4,J5,J6:0.016510,0.096382,0.025416,-0.009996,-0.120337,0.785398:vel_
1561009737.305747,cobot_dynamixel_driver/goal|-:J1,J2,J3,J4,J5,J6:0.016500,0.096451,0.025783,-0.009786,-0.120481,0.785398:vel_
1561009737.337735,cobot_dynamixel_driver/goal|-:J1,J2,J3,J4,J5,J6:0.016740,0.097123,0.025379,-0.009696,-0.120892,0.785398:vel_
1561009737.369770,cobot_dynamixel_driver/goal|-:J1,J2,J3,J4,J5,J6:0.017346,0.098196,0.025452,-0.009791,-0.122501,0.785398:vel_
1561009737.401757,cobot_dynamixel_driver/goal|-:J1,J2,J3,J4,J5,J6:0.010571,0.160834,0.042494,-0.002590,-0.203442,0.785398:vel_
1561009737.433861,cobot_dynamixel_driver/goal|-:J1,J2,J3,J4,J5,J6:0.009285,0.171650,0.044707,-0.001503,-0.217604,0.785398:vel_
1561009737.465801,cobot_dynamixel_driver/goal|-:J1,J2,J3,J4,J5,J6:0.008959,0.176044,0.045228,-0.001791,-0.220784,0.785398:vel_
1561009737.497733,cobot_dynamixel_driver/goal|-:J1,J2,J3,J4,J5,J6:0.008639,0.178096,0.045585,-0.002209,-0.220372,0.785398:vel_
1561009737.529701,cobot_dynamixel_driver/goal|-:J1,J2,J3,J4,J5,J6:0.009228,0.177808,0.045747,-0.002886,-0.219457,0.785398:vel_
1561009737.561859,cobot_dynamixel_driver/goal|-:J1,J2,J3,J4,J5,J6:0.006474,0.244656,0.056389,0.002091,-0.300214,0.785398:vel_
1561009737.593849,cobot_dynamixel_driver/goal|-:J1,J2,J3,J4,J5,J6:0.006566,0.264069,0.059038,0.002740,-0.323737,0.785398:vel_
1561009737.625799,cobot_dynamixel_driver/goal|-:J1,J2,J3,J4,J5,J6:0.007609,0.273527,0.060588,0.003546,-0.332744,0.785398:vel_
1561009737.657671,cobot_dynamixel_driver/goal|-:J1,J2,J3,J4,J5,J6:0.007563,0.277141,0.062101,0.005312,-0.332028,0.785398:vel_
1561009737.689695,cobot_dynamixel_driver/goal|-:J1,J2,J3,J4,J5,J6:0.004960,0.303597,0.055197,0.008830,-0.357354,0.785398:vel_
1561009737.721678,cobot_dynamixel_driver/goal|-:J1,J2,J3,J4,J5,J6:0.003838,0.312572,0.053436,0.011868,-0.368389,0.785398:vel_
1561009737.753747,cobot_dynamixel_driver/goal|-:J1,J2,J3,J4,J5,J6:0.004089,0.327046,0.056012,0.018012,-0.382570,0.785398:vel_
1561009737.786366,cobot_dynamixel_driver/goal|-:J1,J2,J3,J4,J5,J6:0.004246,0.323966,0.042968,0.013645,-0.365657,0.785398:vel_
1561009737.817780,cobot_dynamixel_driver/goal|-:J1,J2,J3,J4,J5,J6:0.004851,0.321941,0.036844,0.014146,-0.357688,0.785398:vel_
1561009737.849750,cobot_dynamixel_driver/goal|-:J1,J2,J3,J4,J5,J6:0.003609,0.274798,0.024509,0.010421,-0.300483,0.785398:vel_
1561009737.881746,cobot_dynamixel_driver/goal|-:J1,J2,J3,J4,J5,J6:0.003094,0.263433,0.022392,0.009822,-0.287483,0.785398:vel_
1561009737.913696,cobot_dynamixel_driver/goal|-:J1,J2,J3,J4,J5,J6:0.001789,0.259699,0.021931,0.009441,-0.287778,0.785398:vel_
1561009737.945682,cobot_dynamixel_driver/goal|-:J1,J2,J3,J4,J5,J6:0.001342,0.134955,0.007339,0.004441,-0.144268,0.785398:vel_
1561009737.977681,cobot_dynamixel_driver/goal|-:J1,J2,J3,J4,J5,J6:0.001144,0.122683,0.005714,0.004290,-0.129807,0.785398:vel_
1561009738.009755,cobot_dynamixel_driver/goal|-:J1,J2,J3,J4,J5,J6:0.001237,0.113684,0.005387,0.004480,-0.119908,0.785398:vel_
1561009738.041802,cobot_dynamixel_driver/goal|-:J1,J2,J3,J4,J5,J6:0.001364,0.113787,0.005673,0.004403,-0.121302,0.785398:vel_
1561009738.073973,cobot_dynamixel_driver/goal|-:J1,J2,J3,J4,J5,J6:0.001596,0.116445,0.006506,0.004220,-0.123027,0.785398:vel_
1561009738.106356,cobot_dynamixel_driver/goal|-:J1,J2,J3,J4,J5,J6:0.001762,0.118382,0.007197,0.004443,-0.123819,0.785398:vel_
1561009738.138033,cobot_dynamixel_driver/goal|-:J1,J2,J3,J4,J5,J6:0.002009,0.120548,0.007716,0.004564,-0.123810,0.785398:vel_
1561009738.170078,cobot_dynamixel_driver/goal|-:J1,J2,J3,J4,J5,J6:-0.000444,-0.057893,-0.001550,-0.001660,0.060927,0.785398:vel_
1561009738.202039,cobot_dynamixel_driver/goal|-:J1,J2,J3,J4,J5,J6:-0.000486,-0.073854,-0.002208,-0.002073,0.077979,0.785398:vel_
1561009738.234226,cobot_dynamixel_driver/goal|-:J1,J2,J3,J4,J5,J6:-0.000535,-0.086817,-0.002471,-0.002282,0.090499,0.785398:vel_
1561009738.266163,cobot_dynamixel_driver/goal|-:J1,J2,J3,J4,J5,J6:-0.000597,-0.093394,-0.002758,-0.002502,0.095440,0.785398:vel_
1561009738.298142,cobot_dynamixel_driver/goal|-:J1,J2,J3,J4,J5,J6:-0.000676,-0.097053,-0.003123,-0.002833,0.095123,0.785398:vel_
1561009738.330588,cobot_dynamixel_driver/goal|-:J1,J2,J3,J4,J5,J6:-0.000779,-0.099948,-0.003599,-0.003265,0.096449,0.785398:vel_
1561009738.361815,cobot_dynamixel_driver/goal|-:J1,J2,J3,J4,J5,J6:-0.000908,-0.102487,-0.004195,-0.003806,0.096721,0.785398:vel_
1561009738.393730,cobot_dynamixel_driver/goal|-:J1,J2,J3,J4,J5,J6:-0.002075,-0.180299,-0.013662,-0.006091,0.185515,0.785398:vel_
1561009738.425695,cobot_dynamixel_driver/goal|-:J1,J2,J3,J4,J5,J6:-0.002354,-0.192397,-0.015391,-0.006909,0.197141,0.785398:vel_
1561009738.457720,cobot_dynamixel_driver/goal|-:J1,J2,J3,J4,J5,J6:-0.002669,-0.200139,-0.017182,-0.007586,0.202046,0.785398:vel_
1561009738.489753,cobot_dynamixel_driver/goal|-:J1,J2,J3,J4,J5,J6:-0.003159,-0.202809,-0.019168,-0.008032,0.201730,0.785398:vel_
1561009738.521795,cobot_dynamixel_driver/goal|-:J1,J2,J3,J4,J5,J6:-0.003898,-0.205088,-0.021501,-0.009015,0.201685,0.785398:vel_
1561009738.553704,cobot_dynamixel_driver/goal|-:J1,J2,J3,J4,J5,J6:-0.004924,-0.204913,-0.024209,-0.010266,0.204475,0.785398:vel_
1561009738.585675,cobot_dynamixel_driver/goal|-:J1,J2,J3,J4,J5,J6:-0.004819,-0.267119,-0.036705,-0.009855,0.293270,0.785398:vel_
1561009738.617701,cobot_dynamixel_driver/goal|-:J1,J2,J3,J4,J5,J6:-0.005871,-0.279976,-0.040830,-0.009673,0.313310,0.785398:vel_
1561009738.649722,cobot_dynamixel_driver/goal|-:J1,J2,J3,J4,J5,J6:-0.007575,-0.290965,-0.043087,-0.009580,0.327017,0.785398:vel_
1561009738.681706,cobot_dynamixel_driver/goal|-:J1,J2,J3,J4,J5,J6:-0.010111,-0.294239,-0.042423,-0.009331,0.329593,0.785398:vel_
1561009738.713665,cobot_dynamixel_driver/goal|-:J1,J2,J3,J4,J5,J6:-0.007291,-0.301311,-0.054398,-0.008456,0.353665,0.785398:vel_
1561009738.745639,cobot_dynamixel_driver/goal|-:J1,J2,J3,J4,J5,J6:-0.007189,-0.306868,-0.058731,-0.009114,0.363182,0.785398:vel_
1561009738.777689,cobot_dynamixel_driver/goal|-:J1,J2,J3,J4,J5,J6:-0.008372,-0.319568,-0.062121,-0.011412,0.378622,0.785398:vel_
1561009738.809658,cobot_dynamixel_driver/goal|-:J1,J2,J3,J4,J5,J6:-0.009531,-0.313441,-0.059011,-0.013339,0.373625,0.785398:vel_
1561009738.841619,cobot_dynamixel_driver/goal|-:J1,J2,J3,J4,J5,J6:-0.005339,-0.260872,-0.063585,-0.007553,0.325035,0.624319:vel_
1561009738.873656,cobot_dynamixel_driver/goal|-:J1,J2,J3,J4,J5,J6:-0.004933,-0.244742,-0.065784,-0.006391,0.313446,0.580077:vel_
1561009738.905658,cobot_dynamixel_driver/goal|-:J1,J2,J3,J4,J5,J6:-0.005855,-0.233233,-0.065969,-0.005906,0.312867,0.530721:vel_
1561009738.937677,cobot_dynamixel_driver/goal|-:J1,J2,J3,J4,J5,J6:-0.002159,-0.118316,-0.036765,-0.002660,0.158020,0.064996:vel_
1561009738.969679,cobot_dynamixel_driver/goal|-:J1,J2,J3,J4,J5,J6:-0.001965,-0.106705,-0.033775,-0.002606,0.141982,0.017631:vel_
1561009739.001746,cobot_dynamixel_driver/goal|-:J1,J2,J3,J4,J5,J6:-0.002060,-0.099299,-0.033314,-0.002826,0.130573,-0.033401:vel_
1561009739.033649,cobot_dynamixel_driver/goal|-:J1,J2,J3,J4,J5,J6:-0.002127,-0.099146,-0.033511,-0.003109,0.130727,-0.084048:vel_
1561009739.065648,cobot_dynamixel_driver/goal|-:J1,J2,J3,J4,J5,J6:-0.002225,-0.102517,-0.034478,-0.003243,0.133968,-0.135609:vel_
1561009739.098144,cobot_dynamixel_driver/goal|-:J1,J2,J3,J4,J5,J6:-0.002273,-0.104852,-0.035797,-0.003563,0.134393,-0.187754:vel_
1561009739.129737,cobot_dynamixel_driver/goal|-:J1,J2,J3,J4,J5,J6:-0.002647,-0.107908,-0.036804,-0.003783,0.134657,-0.243154:vel_
1561009739.161680,cobot_dynamixel_driver/goal|-:J1,J2,J3,J4,J5,J6:-0.002986,-0.110095,-0.036714,-0.003482,0.136833,-0.305950:vel_
1561009739.193630,cobot_dynamixel_driver/goal|-:J1,J2,J3,J4,J5,J6:-0.175381,-0.042023,0.005660,-0.010736,0.043906,-0.171174:vel_
1561009739.225725,cobot_dynamixel_driver/goal|-:J1,J2,J3,J4,J5,J6:-0.184948,-0.038273,0.008102,-0.010919,0.039056,-0.167099:vel_
1561009739.259584,cobot_dynamixel_driver/goal|-:J1,J2,J3,J4,J5,J6:-0.193747,-0.036945,0.008969,-0.010955,0.038112,-0.166961:vel_
1561009739.289620,cobot_dynamixel_driver/goal|-:J1,J2,J3,J4,J5,J6:-0.194704,-0.036858,0.009427,-0.010959,0.038671,-0.166469:vel_
1561009739.321665,cobot_dynamixel_driver/goal|-:J1,J2,J3,J4,J5,J6:-0.194931,-0.037484,0.009949,-0.010880,0.038917,-0.166641:vel_
1561009739.353667,cobot_dynamixel_driver/goal|-:J1,J2,J3,J4,J5,J6:-0.194824,-0.038057,0.010504,-0.010749,0.038975,-0.167120:vel_
1561009739.385648,cobot_dynamixel_driver/goal|-:J1,J2,J3,J4,J5,J6:-0.194593,-0.038248,0.011063,-0.010846,0.038962,-0.167422:vel_
1561009739.418828,cobot_dynamixel_driver/goal|-:J1,J2,J3,J4,J5,J6:-0.194928,-0.038598,0.011495,-0.010869,0.039191,-0.167795:vel_
1561009739.465662,cobot_dynamixel_driver/goal|-:J1,J2,J3,J4,J5,J6:-0.201505,-0.039508,0.012322,-0.011308,0.040434,-0.173241:vel_
1561009739.497698,cobot_dynamixel_driver/goal|-:J1,J2,J3,J4,J5,J6:-0.195447,-0.038584,0.012323,-0.011040,0.039391,-0.168290:vel_
1561009739.529695,cobot_dynamixel_driver/goal|-:J1,J2,J3,J4,J5,J6:-0.195614,-0.038474,0.012881,-0.011031,0.039251,-0.168636:vel_
1561009739.561690,cobot_dynamixel_driver/goal|-:J1,J2,J3,J4,J5,J6:-0.196211,-0.038768,0.013594,-0.010978,0.039620,-0.169068:vel_
1561009739.593735,cobot_dynamixel_driver/goal|-:J1,J2,J3,J4,J5,J6:-0.195852,-0.039344,0.014348,-0.011094,0.039518,-0.168990:vel_
1561009739.625704,cobot_dynamixel_driver/goal|-:J1,J2,J3,J4,J5,J6:-0.197428,-0.039803,0.013449,-0.011239,0.040159,-0.170231:vel_
1561009739.657671,cobot_dynamixel_driver/goal|-:J1,J2,J3,J4,J5,J6:-0.200125,-0.040726,0.012064,-0.011436,0.040629,-0.172275:vel_
1561009739.689614,cobot_dynamixel_driver/goal|-:J1,J2,J3,J4,J5,J6:-0.200906,-0.041456,0.010443,-0.011746,0.040799,-0.172932:vel_
1561009739.721607,cobot_dynamixel_driver/goal|-:J1,J2,J3,J4,J5,J6:-0.205312,-0.042043,0.009686,-0.012297,0.041620,-0.175521:vel_
1561009739.753677,cobot_dynamixel_driver/goal|-:J1,J2,J3,J4,J5,J6:-0.302670,-0.051913,0.016826,-0.018321,0.050080,-0.225528:vel_
1561009739.785622,cobot_dynamixel_driver/goal|-:J1,J2,J3,J4,J5,J6:-0.312440,-0.052707,0.017390,-0.018916,0.050786,-0.230625:vel_
1561009739.817800,cobot_dynamixel_driver/goal|-:J1,J2,J3,J4,J5,J6:-0.317545,-0.052859,0.017423,-0.018788,0.050690,-0.230881:vel_
1561009739.849605,cobot_dynamixel_driver/goal|-:J1,J2,J3,J4,J5,J6:-0.318565,-0.052677,0.017600,-0.018639,0.050592,-0.230566:vel_
1561009739.881641,cobot_dynamixel_driver/goal|-:J1,J2,J3,J4,J5,J6:-0.318706,-0.052996,0.017809,-0.018540,0.050898,-0.231460:vel_
1561009739.913632,cobot_dynamixel_driver/goal|-:J1,J2,J3,J4,J5,J6:-0.318442,-0.053093,0.018083,-0.018750,0.051239,-0.231869:vel_
1561009739.945612,cobot_dynamixel_driver/goal|-:J1,J2,J3,J4,J5,J6:-0.320377,-0.053559,0.018282,-0.019191,0.051422,-0.234037:vel_
1561009739.977679,cobot_dynamixel_driver/goal|-:J1,J2,J3,J4,J5,J6:-0.322141,-0.054104,0.018522,-0.019531,0.051481,-0.234689:vel_
1561009740.009750,cobot_dynamixel_driver/goal|-:J1,J2,J3,J4,J5,J6:-0.325508,-0.054365,0.018635,-0.019607,0.051804,-0.236505:vel_
1561009740.041649,cobot_dynamixel_driver/goal|-:J1,J2,J3,J4,J5,J6:-0.327084,-0.053765,0.019544,-0.019547,0.052271,-0.238322:vel_
1561009740.073759,cobot_dynamixel_driver/goal|-:J1,J2,J3,J4,J5,J6:-0.334940,-0.053887,0.019956,-0.019959,0.053789,-0.243844:vel_
1561009740.105788,cobot_dynamixel_driver/goal|-:J1,J2,J3,J4,J5,J6:-0.322595,-0.053771,0.018072,-0.019315,0.052016,-0.236924:vel_
1561009740.137781,cobot_dynamixel_driver/goal|-:J1,J2,J3,J4,J5,J6:-0.322580,-0.053506,0.017785,-0.019073,0.051877,-0.237162:vel_
1561009740.169762,cobot_dynamixel_driver/goal|-:J1,J2,J3,J4,J5,J6:-0.322952,-0.053354,0.017882,-0.018682,0.052151,-0.237622:vel_
1561009740.201726,cobot_dynamixel_driver/goal|-:J1,J2,J3,J4,J5,J6:-0.323682,-0.053459,0.018516,-0.018483,0.052350,-0.238331:vel_
1561009740.233711,cobot_dynamixel_driver/goal|-:J1,J2,J3,J4,J5,J6:-0.324755,-0.053317,0.018738,-0.018964,0.052332,-0.239008:vel_
1561009740.265707,cobot_dynamixel_driver/goal|-:J1,J2,J3,J4,J5,J6:-0.326108,-0.053538,0.019105,-0.019305,0.052750,-0.239980:vel_
1561009740.297759,cobot_dynamixel_driver/goal|-:J1,J2,J3,J4,J5,J6:-0.327339,-0.053594,0.019451,-0.019688,0.053530,-0.240695:vel_
1561009740.329742,cobot_dynamixel_driver/goal|-:J1,J2,J3,J4,J5,J6:-0.328188,-0.053197,0.019467,-0.019404,0.053516,-0.240882:vel_
1561009740.361609,cobot_dynamixel_driver/goal|-:J1,J2,J3,J4,J5,J6:-0.330295,-0.053455,0.018842,-0.019784,0.053395,-0.242514:vel_
1561009740.393927,cobot_dynamixel_driver/goal|-:J1,J2,J3,J4,J5,J6:-0.334549,-0.053947,0.018415,-0.020403,0.052767,-0.245315:vel_
1561009740.425610,cobot_dynamixel_driver/goal|-:J1,J2,J3,J4,J5,J6:-0.325977,-0.054550,0.018241,-0.019594,0.052589,-0.239281:vel_
1561009740.457560,cobot_dynamixel_driver/goal|-:J1,J2,J3,J4,J5,J6:-0.325431,-0.054571,0.018314,-0.019500,0.052664,-0.238929:vel_
1561009740.489696,cobot_dynamixel_driver/goal|-:J1,J2,J3,J4,J5,J6:-0.326762,-0.054700,0.018464,-0.019332,0.053134,-0.240048:vel_
1561009740.521571,cobot_dynamixel_driver/goal|-:J1,J2,J3,J4,J5,J6:-0.328025,-0.054758,0.018584,-0.019147,0.053304,-0.240514:vel_
1561009740.553618,cobot_dynamixel_driver/goal|-:J1,J2,J3,J4,J5,J6:-0.328384,-0.054812,0.019133,-0.019009,0.052915,-0.240514:vel_
1561009740.585603,cobot_dynamixel_driver/goal|-:J1,J2,J3,J4,J5,J6:-0.330429,-0.055117,0.019694,-0.018912,0.053021,-0.242216:vel_
1561009740.617630,cobot_dynamixel_driver/goal|-:J1,J2,J3,J4,J5,J6:-0.331968,-0.054893,0.019733,-0.018748,0.053105,-0.242881:vel_
1561009740.649648,cobot_dynamixel_driver/goal|-:J1,J2,J3,J4,J5,J6:-0.335025,-0.055212,0.019596,-0.018731,0.053603,-0.245278:vel_
1561009740.681540,cobot_dynamixel_driver/goal|-:J1,J2,J3,J4,J5,J6:-0.335800,-0.055246,0.019434,-0.019491,0.053751,-0.246413:vel_
1561009740.713592,cobot_dynamixel_driver/goal|-:J1,J2,J3,J4,J5,J6:-0.340992,-0.055672,0.019094,-0.021046,0.053933,-0.249886:vel_
1561009740.745635,cobot_dynamixel_driver/goal|-:J1,J2,J3,J4,J5,J6:-0.344804,-0.055912,0.017521,-0.021260,0.053601,-0.252294:vel_
1561009740.777687,cobot_dynamixel_driver/goal|-:J1,J2,J3,J4,J5,J6:-0.330191,-0.055382,0.018129,-0.019884,0.053096,-0.242197:vel_
1561009740.809659,cobot_dynamixel_driver/goal|-:J1,J2,J3,J4,J5,J6:-0.329085,-0.055227,0.018242,-0.019579,0.053113,-0.241784:vel_
1561009740.841540,cobot_dynamixel_driver/goal|-:J1,J2,J3,J4,J5,J6:-0.328887,-0.055280,0.018329,-0.019331,0.053114,-0.242569:vel_
1561009740.873619,cobot_dynamixel_driver/goal|-:J1,J2,J3,J4,J5,J6:-0.330670,-0.055876,0.018664,-0.019349,0.053257,-0.244330:vel_
1561009740.905733,cobot_dynamixel_driver/goal|-:J1,J2,J3,J4,J5,J6:-0.332110,-0.056377,0.019063,-0.019393,0.053186,-0.244486:vel_
1561009740.937706,cobot_dynamixel_driver/goal|-:J1,J2,J3,J4,J5,J6:-0.334893,-0.057575,0.019466,-0.019386,0.053459,-0.246949:vel_
1561009740.969660,cobot_dynamixel_driver/goal|-:J1,J2,J3,J4,J5,J6:-0.335639,-0.057775,0.019481,-0.019066,0.053560,-0.248360:vel_
1561009741.001630,cobot_dynamixel_driver/goal|-:J1,J2,J3,J4,J5,J6:-0.337786,-0.057862,0.018797,-0.019280,0.053201,-0.248770:vel_
1561009741.033672,cobot_dynamixel_driver/goal|-:J1,J2,J3,J4,J5,J6:-0.339269,-0.058573,0.017792,-0.019515,0.053289,-0.248466:vel_
1561009741.065666,cobot_dynamixel_driver/goal|-:J1,J2,J3,J4,J5,J6:-0.346854,-0.062657,0.018081,-0.019698,0.053320,-0.252940:vel_
1561009741.097657,cobot_dynamixel_driver/goal|-:J1,J2,J3,J4,J5,J6:-0.333349,-0.056834,0.018653,-0.019799,0.053849,-0.244874:vel_
1561009741.129619,cobot_dynamixel_driver/goal|-:J1,J2,J3,J4,J5,J6:-0.332973,-0.056460,0.018788,-0.019655,0.053838,-0.244532:vel_
1561009741.161535,cobot_dynamixel_driver/goal|-:J1,J2,J3,J4,J5,J6:-0.334340,-0.056463,0.019047,-0.019488,0.053973,-0.246082:vel_
1561009741.193620,cobot_dynamixel_driver/goal|-:J1,J2,J3,J4,J5,J6:-0.334520,-0.056330,0.019097,-0.019445,0.053918,-0.246597:vel_
1561009741.225907,cobot_dynamixel_driver/goal|-:J1,J2,J3,J4,J5,J6:-0.336811,-0.056467,0.019471,-0.019363,0.054181,-0.247710:vel_
1561009741.257634,cobot_dynamixel_driver/goal|-:J1,J2,J3,J4,J5,J6:-0.336199,-0.056256,0.019399,-0.019141,0.053999,-0.246994:vel_
1561009741.289554,cobot_dynamixel_driver/goal|-:J1,J2,J3,J4,J5,J6:-0.339532,-0.056436,0.019482,-0.019252,0.054344,-0.249213:vel_
1561009741.321914,cobot_dynamixel_driver/goal|-:J1,J2,J3,J4,J5,J6:-0.346282,-0.056970,0.019507,-0.019315,0.055533,-0.254077:vel_
1561009741.353703,cobot_dynamixel_driver/goal|-:J1,J2,J3,J4,J5,J6:-0.342493,-0.055239,0.018656,-0.018930,0.054865,-0.250781:vel_
1561009741.385665,cobot_dynamixel_driver/goal|-:J1,J2,J3,J4,J5,J6:-0.350493,-0.054376,0.018159,-0.018772,0.056363,-0.255873:vel_
1561009741.417620,cobot_dynamixel_driver/goal|-:J1,J2,J3,J4,J5,J6:-0.338162,-0.056379,0.019065,-0.019905,0.054722,-0.248603:vel_
1561009741.449651,cobot_dynamixel_driver/goal|-:J1,J2,J3,J4,J5,J6:-0.338956,-0.056759,0.019313,-0.020081,0.054804,-0.249286:vel_
1561009741.481615,cobot_dynamixel_driver/goal|-:J1,J2,J3,J4,J5,J6:-0.338175,-0.056569,0.019013,-0.019820,0.054808,-0.248823:vel_
1561009741.513651,cobot_dynamixel_driver/goal|-:J1,J2,J3,J4,J5,J6:-0.340343,-0.056700,0.018696,-0.020055,0.055100,-0.250466:vel_
1561009741.545599,cobot_dynamixel_driver/goal|-:J1,J2,J3,J4,J5,J6:-0.341328,-0.056358,0.019008,-0.020052,0.055259,-0.251495:vel_
1561009741.577576,cobot_dynamixel_driver/goal|-:J1,J2,J3,J4,J5,J6:-0.341842,-0.055901,0.019668,-0.019890,0.055404,-0.252241:vel_
1561009741.609576,cobot_dynamixel_driver/goal|-:J1,J2,J3,J4,J5,J6:-0.344750,-0.056027,0.019926,-0.020114,0.056110,-0.254300:vel_
1561009741.641552,cobot_dynamixel_driver/goal|-:J1,J2,J3,J4,J5,J6:-0.346408,-0.055941,0.019744,-0.020484,0.056533,-0.255413:vel_
1561009741.673552,cobot_dynamixel_driver/goal|-:J1,J2,J3,J4,J5,J6:-0.347759,-0.056273,0.019464,-0.020998,0.057094,-0.256947:vel_
1561009741.705473,cobot_dynamixel_driver/goal|-:J1,J2,J3,J4,J5,J6:-0.351996,-0.056880,0.018800,-0.021351,0.056540,-0.258905:vel_
1561009741.737508,cobot_dynamixel_driver/goal|-:J1,J2,J3,J4,J5,J6:-0.341583,-0.057375,0.018965,-0.020522,0.055145,-0.250625:vel_
1561009741.769569,cobot_dynamixel_driver/goal|-:J1,J2,J3,J4,J5,J6:-0.341517,-0.057484,0.018715,-0.020435,0.055073,-0.250589:vel_
1561009741.801848,cobot_dynamixel_driver/goal|-:J1,J2,J3,J4,J5,J6:-0.342167,-0.057508,0.018672,-0.020365,0.055410,-0.251867:vel_
1561009741.833525,cobot_dynamixel_driver/goal|-:J1,J2,J3,J4,J5,J6:-0.343122,-0.057518,0.018915,-0.020422,0.055900,-0.252887:vel_
1561009741.865521,cobot_dynamixel_driver/goal|-:J1,J2,J3,J4,J5,J6:-0.344498,-0.057368,0.019392,-0.020714,0.056298,-0.253526:vel_
1561009741.905462,cobot_dynamixel_driver/goal|-:J1,J2,J3,J4,J5,J6:-0.346821,-0.057723,0.019856,-0.020792,0.056458,-0.254730:vel_
1561009741.945785,cobot_dynamixel_driver/goal|-:J1,J2,J3,J4,J5,J6:-0.344557,-0.057831,0.019802,-0.021262,0.055298,-0.254158:vel_
1561009741.977568,cobot_dynamixel_driver/goal|-:J1,J2,J3,J4,J5,J6:-0.370680,-0.062811,0.020844,-0.023629,0.059166,-0.273147:vel_
1561009742.011372,cobot_dynamixel_driver/goal|-:J1,J2,J3,J4,J5,J6:-0.358661,-0.061142,0.019006,-0.023743,0.057032,-0.264115:vel_
1561009742.041519,cobot_dynamixel_driver/goal|-:J1,J2,J3,J4,J5,J6:-0.344475,-0.058203,0.019341,-0.020956,0.055659,-0.252768:vel_
1561009742.073506,cobot_dynamixel_driver/goal|-:J1,J2,J3,J4,J5,J6:-0.344436,-0.057965,0.019296,-0.020517,0.055730,-0.252856:vel_
1561009742.105553,cobot_dynamixel_driver/goal|-:J1,J2,J3,J4,J5,J6:-0.345822,-0.058010,0.018881,-0.020594,0.056290,-0.254048:vel_
1561009742.137522,cobot_dynamixel_driver/goal|-:J1,J2,J3,J4,J5,J6:-0.346949,-0.058228,0.018583,-0.020660,0.056500,-0.254840:vel_
1561009742.169508,cobot_dynamixel_driver/goal|-:J1,J2,J3,J4,J5,J6:-0.349490,-0.058750,0.018728,-0.020773,0.056532,-0.256721:vel_
1561009742.201545,cobot_dynamixel_driver/goal|-:J1,J2,J3,J4,J5,J6:-0.353019,-0.059483,0.019828,-0.020825,0.056889,-0.259458:vel_
1561009742.233620,cobot_dynamixel_driver/goal|-:J1,J2,J3,J4,J5,J6:-0.352492,-0.059067,0.020250,-0.021202,0.056732,-0.258963:vel_
1561009742.265544,cobot_dynamixel_driver/goal|-:J1,J2,J3,J4,J5,J6:-0.357474,-0.059846,0.020558,-0.021864,0.057219,-0.262216:vel_
1561009742.297560,cobot_dynamixel_driver/goal|-:J1,J2,J3,J4,J5,J6:-0.356642,-0.059120,0.020249,-0.022262,0.056867,-0.261649:vel_
1561009742.329524,cobot_dynamixel_driver/goal|-:J1,J2,J3,J4,J5,J6:-0.358959,-0.058340,0.020342,-0.023618,0.056336,-0.263132:vel_
1561009742.361555,cobot_dynamixel_driver/goal|-:J1,J2,J3,J4,J5,J6:-0.350704,-0.058630,0.019795,-0.020999,0.056554,-0.257494:vel_
1561009742.393539,cobot_dynamixel_driver/goal|-:J1,J2,J3,J4,J5,J6:-0.350318,-0.058687,0.019620,-0.020535,0.056488,-0.256998:vel_
1561009742.425532,cobot_dynamixel_driver/goal|-:J1,J2,J3,J4,J5,J6:-0.350840,-0.058894,0.019434,-0.020550,0.056570,-0.257315:vel_
1561009742.457538,cobot_dynamixel_driver/goal|-:J1,J2,J3,J4,J5,J6:-0.353282,-0.059315,0.018986,-0.020833,0.056912,-0.259014:vel_
1561009742.489509,cobot_dynamixel_driver/goal|-:J1,J2,J3,J4,J5,J6:-0.354115,-0.059389,0.018669,-0.020979,0.056877,-0.259747:vel_
1561009742.521560,cobot_dynamixel_driver/goal|-:J1,J2,J3,J4,J5,J6:-0.356595,-0.060039,0.019490,-0.021224,0.057029,-0.261733:vel_
1561009742.553777,cobot_dynamixel_driver/goal|-:J1,J2,J3,J4,J5,J6:-0.360561,-0.060766,0.020201,-0.021806,0.057230,-0.264626:vel_
1561009742.585715,cobot_dynamixel_driver/goal|-:J1,J2,J3,J4,J5,J6:-0.362303,-0.060244,0.020012,-0.022524,0.056723,-0.264815:vel_
1561009742.617724,cobot_dynamixel_driver/goal|-:J1,J2,J3,J4,J5,J6:-0.368469,-0.060223,0.019495,-0.023372,0.057469,-0.268169:vel_
1561009742.649705,cobot_dynamixel_driver/goal|-:J1,J2,J3,J4,J5,J6:-0.355718,-0.059553,0.019903,-0.021321,0.057304,-0.261009:vel_
1561009742.681830,cobot_dynamixel_driver/goal|-:J1,J2,J3,J4,J5,J6:-0.355476,-0.059698,0.019904,-0.021069,0.057298,-0.261070:vel_
1561009742.713689,cobot_dynamixel_driver/goal|-:J1,J2,J3,J4,J5,J6:-0.356933,-0.059912,0.019784,-0.021259,0.057542,-0.262100:vel_
1561009742.745742,cobot_dynamixel_driver/goal|-:J1,J2,J3,J4,J5,J6:-0.357066,-0.060069,0.019599,-0.021354,0.057436,-0.262093:vel_
1561009742.777715,cobot_dynamixel_driver/goal|-:J1,J2,J3,J4,J5,J6:-0.359987,-0.059974,0.019579,-0.021770,0.058060,-0.263987:vel_
1561009742.809714,cobot_dynamixel_driver/goal|-:J1,J2,J3,J4,J5,J6:-0.360162,-0.059700,0.019287,-0.021972,0.058414,-0.264161:vel_
1561009742.841725,cobot_dynamixel_driver/goal|-:J1,J2,J3,J4,J5,J6:-0.362225,-0.059375,0.019721,-0.022557,0.059019,-0.265561:vel_
1561009742.873737,cobot_dynamixel_driver/goal|-:J1,J2,J3,J4,J5,J6:-0.364126,-0.059333,0.019890,-0.023260,0.059817,-0.267893:vel_
1561009742.905757,cobot_dynamixel_driver/goal|-:J1,J2,J3,J4,J5,J6:-0.367456,-0.059961,0.020274,-0.023591,0.059931,-0.270878:vel_
1561009742.937808,cobot_dynamixel_driver/goal|-:J1,J2,J3,J4,J5,J6:-0.374709,-0.060278,0.019838,-0.023258,0.060226,-0.275598:vel_
1561009742.969703,cobot_dynamixel_driver/goal|-:J1,J2,J3,J4,J5,J6:-0.360365,-0.060299,0.020234,-0.021450,0.058320,-0.264634:vel_
1561009743.001752,cobot_dynamixel_driver/goal|-:J1,J2,J3,J4,J5,J6:-0.359922,-0.060131,0.020363,-0.021201,0.058302,-0.264619:vel_
1561009743.033575,cobot_dynamixel_driver/goal|-:J1,J2,J3,J4,J5,J6:-0.360405,-0.060667,0.020262,-0.021441,0.058768,-0.265255:vel_
1561009743.065546,cobot_dynamixel_driver/goal|-:J1,J2,J3,J4,J5,J6:-0.361390,-0.060995,0.019942,-0.021717,0.058922,-0.265338:vel_
1561009743.097521,cobot_dynamixel_driver/goal|-:J1,J2,J3,J4,J5,J6:-0.362160,-0.061245,0.019900,-0.021958,0.059131,-0.265476:vel_
1561009743.129546,cobot_dynamixel_driver/goal|-:J1,J2,J3,J4,J5,J6:-0.365412,-0.062112,0.020214,-0.022527,0.060226,-0.268223:vel_
1561009743.161481,cobot_dynamixel_driver/goal|-:J1,J2,J3,J4,J5,J6:-0.367715,-0.062423,0.020761,-0.022965,0.060493,-0.269540:vel_
1561009743.193559,cobot_dynamixel_driver/goal|-:J1,J2,J3,J4,J5,J6:-0.373885,-0.064103,0.021265,-0.022945,0.060979,-0.273410:vel_
1561009743.225490,cobot_dynamixel_driver/goal|-:J1,J2,J3,J4,J5,J6:-0.376831,-0.066882,0.021908,-0.022561,0.060988,-0.275798:vel_
1561009743.257564,cobot_dynamixel_driver/goal|-:J1,J2,J3,J4,J5,J6:-0.364364,-0.062045,0.020916,-0.021553,0.059108,-0.267567:vel_
1561009743.289563,cobot_dynamixel_driver/goal|-:J1,J2,J3,J4,J5,J6:-0.365050,-0.061969,0.020735,-0.021400,0.059212,-0.268205:vel_
1561009743.321462,cobot_dynamixel_driver/goal|-:J1,J2,J3,J4,J5,J6:-0.365325,-0.061985,0.020750,-0.021586,0.059320,-0.268703:vel_
1561009743.353553,cobot_dynamixel_driver/goal|-:J1,J2,J3,J4,J5,J6:-0.365498,-0.061886,0.020658,-0.021818,0.059444,-0.269194:vel_
1561009743.385502,cobot_dynamixel_driver/goal|-:J1,J2,J3,J4,J5,J6:-0.368237,-0.062365,0.020393,-0.021982,0.059594,-0.271048:vel_
1561009743.417551,cobot_dynamixel_driver/goal|-:J1,J2,J3,J4,J5,J6:-0.370139,-0.062199,0.020000,-0.022533,0.059258,-0.271744:vel_
1561009743.449571,cobot_dynamixel_driver/goal|-:J1,J2,J3,J4,J5,J6:-0.374395,-0.062386,0.020755,-0.023257,0.059411,-0.274733:vel_
1561009743.481464,cobot_dynamixel_driver/goal|-:J1,J2,J3,J4,J5,J6:-0.377279,-0.062611,0.021670,-0.023170,0.060101,-0.277530:vel_
1561009743.513459,cobot_dynamixel_driver/goal|-:J1,J2,J3,J4,J5,J6:-0.379120,-0.062048,0.022295,-0.022936,0.059659,-0.277330:vel_
1561009743.545484,cobot_dynamixel_driver/goal|-:J1,J2,J3,J4,J5,J6:-0.370263,-0.062141,0.021261,-0.022017,0.059659,-0.271819:vel_
1561009743.577545,cobot_dynamixel_driver/goal|-:J1,J2,J3,J4,J5,J6:-0.370942,-0.062481,0.021198,-0.021788,0.059811,-0.272801:vel_
1561009743.609574,cobot_dynamixel_driver/goal|-:J1,J2,J3,J4,J5,J6:-0.371708,-0.062647,0.021282,-0.021941,0.059725,-0.273570:vel_
1561009743.641505,cobot_dynamixel_driver/goal|-:J1,J2,J3,J4,J5,J6:-0.372369,-0.062744,0.021262,-0.022429,0.059557,-0.274365:vel_
1561009743.673486,cobot_dynamixel_driver/goal|-:J1,J2,J3,J4,J5,J6:-0.373104,-0.062658,0.021064,-0.022288,0.059767,-0.274630:vel_
1561009743.705500,cobot_dynamixel_driver/goal|-:J1,J2,J3,J4,J5,J6:-0.376015,-0.062896,0.021057,-0.022223,0.060037,-0.276434:vel_
1561009743.737445,cobot_dynamixel_driver/goal|-:J1,J2,J3,J4,J5,J6:-0.377608,-0.062670,0.020973,-0.022397,0.059676,-0.276925:vel_
1561009743.771618,cobot_dynamixel_driver/goal|-:J1,J2,J3,J4,J5,J6:-0.389341,-0.063573,0.022693,-0.022832,0.060744,-0.285756:vel_
1561009743.801504,cobot_dynamixel_driver/goal|-:J1,J2,J3,J4,J5,J6:-0.384628,-0.061467,0.023568,-0.020884,0.059854,-0.281670:vel_
1561009743.833426,cobot_dynamixel_driver/goal|-:J1,J2,J3,J4,J5,J6:-0.374483,-0.062393,0.021588,-0.021869,0.060358,-0.274691:vel_
1561009743.865452,cobot_dynamixel_driver/goal|-:J1,J2,J3,J4,J5,J6:-0.375305,-0.062577,0.021429,-0.022075,0.060570,-0.275289:vel_
1561009743.897482,cobot_dynamixel_driver/goal|-:J1,J2,J3,J4,J5,J6:-0.375907,-0.063077,0.021493,-0.022214,0.060722,-0.276103:vel_
1561009743.929686,cobot_dynamixel_driver/goal|-:J1,J2,J3,J4,J5,J6:-0.378385,-0.063540,0.021978,-0.022481,0.061158,-0.278152:vel_
1561009743.961502,cobot_dynamixel_driver/goal|-:J1,J2,J3,J4,J5,J6:-0.380171,-0.063513,0.021847,-0.022613,0.061473,-0.279268:vel_
1561009743.993461,cobot_dynamixel_driver/goal|-:J1,J2,J3,J4,J5,J6:-0.381494,-0.063531,0.021492,-0.022835,0.061696,-0.280038:vel_
1561009744.025563,cobot_dynamixel_driver/goal|-:J1,J2,J3,J4,J5,J6:-0.385025,-0.064032,0.021853,-0.023241,0.062930,-0.282813:vel_
1561009744.057590,cobot_dynamixel_driver/goal|-:J1,J2,J3,J4,J5,J6:-0.387835,-0.064595,0.023042,-0.023676,0.063940,-0.284081:vel_
1561009744.089726,cobot_dynamixel_driver/goal|-:J1,J2,J3,J4,J5,J6:-0.392925,-0.065258,0.025090,-0.023331,0.063724,-0.289791:vel_
1561009744.121762,cobot_dynamixel_driver/goal|-:J1,J2,J3,J4,J5,J6:-0.380850,-0.064062,0.022139,-0.022590,0.061596,-0.279270:vel_
1561009744.154084,cobot_dynamixel_driver/goal|-:J1,J2,J3,J4,J5,J6:-0.381160,-0.064343,0.021977,-0.022564,0.061550,-0.279325:vel_
1561009744.185894,cobot_dynamixel_driver/goal|-:J1,J2,J3,J4,J5,J6:-0.381863,-0.064207,0.021565,-0.022557,0.061936,-0.279804:vel_
1561009744.217541,cobot_dynamixel_driver/goal|-:J1,J2,J3,J4,J5,J6:-0.385340,-0.064493,0.021592,-0.022341,0.062338,-0.282217:vel_
1561009744.249584,cobot_dynamixel_driver/goal|-:J1,J2,J3,J4,J5,J6:-0.386892,-0.065197,0.021778,-0.022268,0.063175,-0.283219:vel_
1561009744.281636,cobot_dynamixel_driver/goal|-:J1,J2,J3,J4,J5,J6:-0.388035,-0.065095,0.021702,-0.022589,0.062995,-0.284577:vel_
1561009744.313540,cobot_dynamixel_driver/goal|-:J1,J2,J3,J4,J5,J6:-0.390105,-0.065307,0.022086,-0.022434,0.063117,-0.285848:vel_
1561009744.345514,cobot_dynamixel_driver/goal|-:J1,J2,J3,J4,J5,J6:-0.395939,-0.065816,0.023388,-0.022241,0.063423,-0.289242:vel_
1561009744.377563,cobot_dynamixel_driver/goal|-:J1,J2,J3,J4,J5,J6:-0.400636,-0.066640,0.024863,-0.020853,0.064952,-0.291924:vel_
1561009744.409457,cobot_dynamixel_driver/goal|-:J1,J2,J3,J4,J5,J6:-0.236795,-0.039808,0.013677,-0.013822,0.038408,-0.173604:vel_
1561009744.441471,cobot_dynamixel_driver/goal|-:J1,J2,J3,J4,J5,J6:-0.226936,-0.038114,0.013097,-0.013485,0.036932,-0.166562:vel_
1561009744.473561,cobot_dynamixel_driver/goal|-:J1,J2,J3,J4,J5,J6:-0.219278,-0.037890,0.013216,-0.013494,0.037246,-0.163780:vel_
1561009744.505436,cobot_dynamixel_driver/goal|-:J1,J2,J3,J4,J5,J6:-0.217658,-0.037976,0.013110,-0.013557,0.037445,-0.165199:vel_
1561009744.537510,cobot_dynamixel_driver/goal|-:J1,J2,J3,J4,J5,J6:-0.219071,-0.038215,0.013055,-0.013508,0.037568,-0.166197:vel_
1561009744.569417,cobot_dynamixel_driver/goal|-:J1,J2,J3,J4,J5,J6:-0.219293,-0.038218,0.012778,-0.013482,0.037624,-0.165941:vel_
1561009744.601485,cobot_dynamixel_driver/goal|-:J1,J2,J3,J4,J5,J6:-0.220633,-0.038189,0.012553,-0.013599,0.037698,-0.166699:vel_
1561009744.633489,cobot_dynamixel_driver/goal|-:J1,J2,J3,J4,J5,J6:-0.220969,-0.038248,0.012410,-0.013570,0.037738,-0.167096:vel_
1561009744.665433,cobot_dynamixel_driver/goal|-:J1,J2,J3,J4,J5,J6:-0.222161,-0.038134,0.012330,-0.013683,0.037538,-0.167930:vel_
1561009744.697473,cobot_dynamixel_driver/goal|-:J1,J2,J3,J4,J5,J6:-0.222673,-0.038144,0.012555,-0.013656,0.037474,-0.168413:vel_
1561009744.729504,cobot_dynamixel_driver/goal|-:J1,J2,J3,J4,J5,J6:-0.224596,-0.038498,0.012668,-0.013632,0.037703,-0.169357:vel_
1561009744.761409,cobot_dynamixel_driver/goal|-:J1,J2,J3,J4,J5,J6:-0.225809,-0.038268,0.013380,-0.012994,0.037842,-0.169981:vel_
1561009744.793463,cobot_dynamixel_driver/goal|-:J1,J2,J3,J4,J5,J6:-0.226497,-0.038392,0.013920,-0.012679,0.037467,-0.170274:vel_
1561009744.825436,cobot_dynamixel_driver/goal|-:J1,J2,J3,J4,J5,J6:-0.229394,-0.038748,0.013944,-0.012040,0.037666,-0.172556:vel_
1561009744.857448,cobot_dynamixel_driver/goal|-:J1,J2,J3,J4,J5,J6:-0.233928,-0.030572,0.005352,-0.004010,0.050740,-0.191642:vel_
1561009744.889881,cobot_dynamixel_driver/goal|-:J1,J2,J3,J4,J5,J6:-0.038360,0.058295,0.070198,-0.006667,-0.124872,-0.020610:vel_
1561009744.921458,cobot_dynamixel_driver/goal|-:J1,J2,J3,J4,J5,J6:-0.016087,0.068492,0.077550,-0.006704,-0.145256,-0.000771:vel_
1561009744.953786,cobot_dynamixel_driver/goal|-:J1,J2,J3,J4,J5,J6:0.004149,0.075904,0.080352,-0.006623,-0.162801,0.013424:vel_
1561009744.985480,cobot_dynamixel_driver/goal|-:J1,J2,J3,J4,J5,J6:0.014796,0.080526,0.078985,-0.006423,-0.168944,0.016245:vel_
1561009745.017453,cobot_dynamixel_driver/goal|-:J1,J2,J3,J4,J5,J6:0.019408,0.083475,0.078550,-0.006506,-0.168522,0.016215:vel_
1561009745.049463,cobot_dynamixel_driver/goal|-:J1,J2,J3,J4,J5,J6:0.021526,0.086420,0.078221,-0.006239,-0.170115,0.016718:vel_
1561009745.083545,cobot_dynamixel_driver/goal|-:J1,J2,J3,J4,J5,J6:-0.002119,0.135550,0.131056,-0.013561,-0.268779,0.014702:vel_
1561009745.113443,cobot_dynamixel_driver/goal|-:J1,J2,J3,J4,J5,J6:-0.004803,0.144795,0.141371,-0.014996,-0.287482,0.014856:vel_
1561009745.145577,cobot_dynamixel_driver/goal|-:J1,J2,J3,J4,J5,J6:-0.005625,0.147259,0.143194,-0.015135,-0.293190,0.014914:vel_
1561009745.177407,cobot_dynamixel_driver/goal|-:J1,J2,J3,J4,J5,J6:-0.006863,0.145971,0.140648,-0.015425,-0.288765,0.015564:vel_
1561009745.211733,cobot_dynamixel_driver/goal|-:J1,J2,J3,J4,J5,J6:-0.008306,0.148681,0.144070,-0.016276,-0.296347,0.016639:vel_
1561009745.241393,cobot_dynamixel_driver/goal|-:J1,J2,J3,J4,J5,J6:-0.024384,0.199441,0.182609,-0.024233,-0.385092,0.017842:vel_
1561009745.273482,cobot_dynamixel_driver/goal|-:J1,J2,J3,J4,J5,J6:-0.029964,0.212421,0.192870,-0.025917,-0.408621,0.017915:vel_
1561009745.305433,cobot_dynamixel_driver/goal|-:J1,J2,J3,J4,J5,J6:-0.033155,0.218830,0.196208,-0.025977,-0.421162,0.018131:vel_
1561009745.337457,cobot_dynamixel_driver/goal|-:J1,J2,J3,J4,J5,J6:-0.037759,0.226038,0.200412,-0.024301,-0.429041,0.020130:vel_
1561009745.369504,cobot_dynamixel_driver/goal|-:J1,J2,J3,J4,J5,J6:-0.037211,0.249237,0.199928,-0.030644,-0.450138,0.022159:vel_
1561009745.401379,cobot_dynamixel_driver/goal|-:J1,J2,J3,J4,J5,J6:-0.037320,0.257312,0.201536,-0.033260,-0.460605,0.022674:vel_
1561009745.433400,cobot_dynamixel_driver/goal|-:J1,J2,J3,J4,J5,J6:-0.037152,0.253861,0.198113,-0.033721,-0.449656,0.022544:vel_
1561009745.465633,cobot_dynamixel_driver/goal|-:J1,J2,J3,J4,J5,J6:-0.036245,0.270022,0.189889,-0.037620,-0.459910,0.025700:vel_
1561009745.497405,cobot_dynamixel_driver/goal|-:J1,J2,J3,J4,J5,J6:-0.037214,0.279179,0.189271,-0.039910,-0.472905,0.027090:vel_
1561009745.529398,cobot_dynamixel_driver/goal|-:J1,J2,J3,J4,J5,J6:-0.039065,0.286150,0.191471,-0.040960,-0.483908,0.027320:vel_
1561009745.561455,cobot_dynamixel_driver/goal|-:J1,J2,J3,J4,J5,J6:-0.035231,0.287431,0.175486,-0.042015,-0.464096,0.030798:vel_
1561009745.593524,cobot_dynamixel_driver/goal|-:J1,J2,J3,J4,J5,J6:-0.033689,0.291424,0.172250,-0.042875,-0.463892,0.033363:vel_
1561009745.625445,cobot_dynamixel_driver/goal|-:J1,J2,J3,J4,J5,J6:-0.033422,0.300031,0.161258,-0.046988,-0.462620,0.035542:vel_
1561009745.657419,cobot_dynamixel_driver/goal|-:J1,J2,J3,J4,J5,J6:-0.034165,0.303946,0.160028,-0.048888,-0.465867,0.036101:vel_
1561009745.689367,cobot_dynamixel_driver/goal|-:J1,J2,J3,J4,J5,J6:-0.035247,0.306209,0.161391,-0.048778,-0.469446,0.035851:vel_
1561009745.721370,cobot_dynamixel_driver/goal|-:J1,J2,J3,J4,J5,J6:-0.034882,0.317077,0.149510,-0.053039,-0.466366,0.040789:vel_
1561009745.753383,cobot_dynamixel_driver/goal|-:J1,J2,J3,J4,J5,J6:-0.034253,0.321164,0.146888,-0.054670,-0.466846,0.041690:vel_
1561009745.801356,cobot_dynamixel_driver/goal|-:J1,J2,J3,J4,J5,J6:-0.040988,0.408277,0.187156,-0.071462,-0.593041,0.051570:vel_
1561009745.833347,cobot_dynamixel_driver/goal|-:J1,J2,J3,J4,J5,J6:-0.033603,0.334803,0.133279,-0.061739,-0.467268,0.047844:vel_
1561009745.865385,cobot_dynamixel_driver/goal|-:J1,J2,J3,J4,J5,J6:-0.031342,0.319245,0.115257,-0.058371,-0.441961,0.045502:vel_
1561009745.897996,cobot_dynamixel_driver/goal|-:J1,J2,J3,J4,J5,J6:-0.028331,0.286155,0.093194,-0.058175,-0.384390,0.047068:vel_
1561009745.929406,cobot_dynamixel_driver/goal|-:J1,J2,J3,J4,J5,J6:-0.027080,0.278754,0.090009,-0.058350,-0.375619,0.047538:vel_
1561009745.961438,cobot_dynamixel_driver/goal|-:J1,J2,J3,J4,J5,J6:-0.026742,0.276599,0.091290,-0.059089,-0.377335,0.047040:vel_
1561009745.993404,cobot_dynamixel_driver/goal|-:J1,J2,J3,J4,J5,J6:-0.026652,0.283027,0.096697,-0.061684,-0.389142,0.047055:vel_
1561009746.025422,cobot_dynamixel_driver/goal|-:J1,J2,J3,J4,J5,J6:-0.013010,0.138033,0.039286,-0.031135,-0.178199,0.025381:vel_
1561009746.057620,cobot_dynamixel_driver/goal|-:J1,J2,J3,J4,J5,J6:-0.011605,0.122510,0.033269,-0.027731,-0.154407,0.023148:vel_
1561009746.089556,cobot_dynamixel_driver/goal|-:J1,J2,J3,J4,J5,J6:-0.011590,0.109208,0.031252,-0.027680,-0.134326,0.023579:vel_
1561009746.121529,cobot_dynamixel_driver/goal|-:J1,J2,J3,J4,J5,J6:-0.011393,0.107412,0.032825,-0.028437,-0.124524,0.023959:vel_
1561009746.153590,cobot_dynamixel_driver/goal|-:J1,J2,J3,J4,J5,J6:-0.011908,0.110388,0.034410,-0.029054,-0.126817,0.024071:vel_
1561009746.185626,cobot_dynamixel_driver/goal|-:J1,J2,J3,J4,J5,J6:-0.011945,0.112904,0.035211,-0.028528,-0.129945,0.024547:vel_
1561009746.217762,cobot_dynamixel_driver/goal|-:J1,J2,J3,J4,J5,J6:0.005236,-0.060442,-0.014956,0.013281,0.080409,-0.010625:vel_
1561009746.249667,cobot_dynamixel_driver/goal|-:J1,J2,J3,J4,J5,J6:0.006462,-0.075574,-0.019478,0.016887,0.098689,-0.013401:vel_
1561009746.281553,cobot_dynamixel_driver/goal|-:J1,J2,J3,J4,J5,J6:0.007101,-0.088162,-0.021481,0.018249,0.113151,-0.014282:vel_
1561009746.313401,cobot_dynamixel_driver/goal|-:J1,J2,J3,J4,J5,J6:0.007823,-0.093949,-0.022857,0.019405,0.120407,-0.015397:vel_
1561009746.345417,cobot_dynamixel_driver/goal|-:J1,J2,J3,J4,J5,J6:0.008701,-0.097503,-0.024122,0.020527,0.120993,-0.015652:vel_
1561009746.377716,cobot_dynamixel_driver/goal|-:J1,J2,J3,J4,J5,J6:0.009813,-0.099232,-0.025433,0.021225,0.121196,-0.015955:vel_
1561009746.409375,cobot_dynamixel_driver/goal|-:J1,J2,J3,J4,J5,J6:0.010670,-0.100701,-0.026232,0.021800,0.121872,-0.015866:vel_
1561009746.489372,cobot_dynamixel_driver/goal|-:J1,J2,J3,J4,J5,J6:0.021509,-0.202335,-0.062139,0.041943,0.261504,-0.033124:vel_
1561009746.521350,cobot_dynamixel_driver/goal|-:J1,J2,J3,J4,J5,J6:0.022676,-0.212757,-0.066675,0.044288,0.276935,-0.034562:vel_
1561009746.553309,cobot_dynamixel_driver/goal|-:J1,J2,J3,J4,J5,J6:0.023239,-0.223687,-0.068552,0.044998,0.292588,-0.034347:vel_
1561009746.585303,cobot_dynamixel_driver/goal|-:J1,J2,J3,J4,J5,J6:0.023383,-0.225039,-0.068091,0.045488,0.293254,-0.034260:vel_
1561009746.617410,cobot_dynamixel_driver/goal|-:J1,J2,J3,J4,J5,J6:0.024203,-0.224804,-0.067928,0.047674,0.294400,-0.035244:vel_
1561009746.649449,cobot_dynamixel_driver/goal|-:J1,J2,J3,J4,J5,J6:0.030183,-0.282889,-0.103855,0.055375,0.388365,-0.042793:vel_
1561009746.681355,cobot_dynamixel_driver/goal|-:J1,J2,J3,J4,J5,J6:0.031828,-0.296433,-0.112098,0.056767,0.410341,-0.044224:vel_
1561009746.713466,cobot_dynamixel_driver/goal|-:J1,J2,J3,J4,J5,J6:0.033205,-0.307481,-0.115938,0.057936,0.426969,-0.044398:vel_
1561009746.745402,cobot_dynamixel_driver/goal|-:J1,J2,J3,J4,J5,J6:0.034459,-0.310320,-0.115768,0.058791,0.428504,-0.043843:vel_
1561009746.777396,cobot_dynamixel_driver/goal|-:J1,J2,J3,J4,J5,J6:0.034436,-0.310516,-0.136394,0.054349,0.448133,-0.041142:vel_
1561009746.809326,cobot_dynamixel_driver/goal|-:J1,J2,J3,J4,J5,J6:0.033813,-0.310160,-0.142191,0.053342,0.454230,-0.040263:vel_
1561009746.841410,cobot_dynamixel_driver/goal|-:J1,J2,J3,J4,J5,J6:0.033809,-0.312418,-0.146252,0.054063,0.462002,-0.040859:vel_
1561009746.873357,cobot_dynamixel_driver/goal|-:J1,J2,J3,J4,J5,J6:0.034953,-0.312383,-0.147395,0.055289,0.471122,-0.042338:vel_
1561009746.905366,cobot_dynamixel_driver/goal|-:J1,J2,J3,J4,J5,J6:0.034842,-0.301279,-0.161583,0.047182,0.467333,-0.035450:vel_
1561009746.937463,cobot_dynamixel_driver/goal|-:J1,J2,J3,J4,J5,J6:0.035408,-0.298179,-0.167017,0.045184,0.468003,-0.033824:vel_
1561009746.969343,cobot_dynamixel_driver/goal|-:J1,J2,J3,J4,J5,J6:0.034821,-0.298728,-0.172800,0.045724,0.474836,-0.033925:vel_
1561009747.001328,cobot_dynamixel_driver/goal|-:J1,J2,J3,J4,J5,J6:0.033405,-0.284301,-0.179598,0.041449,0.465435,-0.030165:vel_
1561009747.033403,cobot_dynamixel_driver/goal|-:J1,J2,J3,J4,J5,J6:0.032514,-0.280911,-0.182411,0.039369,0.464232,-0.029526:vel_
1561009747.065373,cobot_dynamixel_driver/goal|-:J1,J2,J3,J4,J5,J6:0.031876,-0.279483,-0.183652,0.037736,0.468514,-0.030588:vel_
1561009747.097347,cobot_dynamixel_driver/goal|-:J1,J2,J3,J4,J5,J6:0.033942,-0.266698,-0.192931,0.035431,0.462369,-0.025130:vel_
1561009747.129384,cobot_dynamixel_driver/goal|-:J1,J2,J3,J4,J5,J6:0.034684,-0.264316,-0.196189,0.035615,0.462148,-0.024124:vel_
1561009747.161365,cobot_dynamixel_driver/goal|-:J1,J2,J3,J4,J5,J6:0.034797,-0.263408,-0.198426,0.034419,0.466108,-0.024729:vel_
1561009747.193319,cobot_dynamixel_driver/goal|-:J1,J2,J3,J4,J5,J6:0.033703,-0.248812,-0.207372,0.030664,0.458658,-0.021182:vel_
1561009747.225482,cobot_dynamixel_driver/goal|-:J1,J2,J3,J4,J5,J6:0.033714,-0.246305,-0.211314,0.030300,0.458753,-0.021077:vel_
1561009747.257554,cobot_dynamixel_driver/goal|-:J1,J2,J3,J4,J5,J6:0.034320,-0.250616,-0.219494,0.031146,0.473383,-0.021893:vel_
1561009747.289361,cobot_dynamixel_driver/goal|-:J1,J2,J3,J4,J5,J6:0.030870,-0.205238,-0.197422,0.024918,0.404465,-0.015640:vel_
