surachairobotic/cobot/cobot_dynamixel_driver/log/2019-02-07T08:40:09.781983_driver_cmd.txt
1549528816.916888,cobot_dynamixel_driver/goal|-:J1,J2,J3,J4,J5,J6:0.000000,0.000000,0.000000,0.000000,0.000000,0.000000:0.500000,0.500000,0.500000,0.500000,0.500000,0.500000:pos_vel_
1549528831.635906,cobot_dynamixel_driver/goal|-:J3:-500.000000:eff_
1549529002.462767,cobot_dynamixel_driver/goal|-:J3:-500.000000:eff_
1549529027.998311,cobot_dynamixel_driver/goal|-:J3:-400.000000:eff_
1549529042.304662,cobot_dynamixel_driver/goal|-:J3:-200.000000:eff_
1549529128.908513,cobot_dynamixel_driver/goal|-:J1,J2,J3,J4,J5,J6:0.000000,0.000000,0.000000,0.000000,0.000000,0.000000:0.500000,0.500000,0.500000,0.500000,0.500000,0.500000:pos_vel_
1549529197.310084,cobot_dynamixel_driver/goal|-:J3:0.000000:eff_
1549529197.400909,cobot_dynamixel_driver/goal|-:J1,J2,J3,J4,J5,J6:0.000000,0.000000,0.523599,0.000000,0.000000,0.000000:0.250000,0.250000,0.250000,0.250000,0.250000,0.250000:pos_vel_
1549529210.315590,cobot_dynamixel_driver/goal|-:J3:-274.193444:eff_
1549529210.919315,cobot_dynamixel_driver/goal|-:J3:-274.193444:eff_
1549529216.021996,cobot_dynamixel_driver/goal|-:J3:-284.193444:eff_
1549529217.129606,cobot_dynamixel_driver/goal|-:J3:-284.193444:eff_
1549529222.233523,cobot_dynamixel_driver/goal|-:J3:-294.193444:eff_
1549529223.315212,cobot_dynamixel_driver/goal|-:J3:-294.193444:eff_
1549529228.423854,cobot_dynamixel_driver/goal|-:J3:-304.193444:eff_
1549529229.534475,cobot_dynamixel_driver/goal|-:J3:-304.193444:eff_
1549529234.640123,cobot_dynamixel_driver/goal|-:J3:-314.193444:eff_
1549529235.720827,cobot_dynamixel_driver/goal|-:J3:-314.193444:eff_
1549529240.823621,cobot_dynamixel_driver/goal|-:J3:-324.193444:eff_
1549529241.931487,cobot_dynamixel_driver/goal|-:J3:-324.193444:eff_
1549529247.034851,cobot_dynamixel_driver/goal|-:J3:-334.193444:eff_
1549529248.143587,cobot_dynamixel_driver/goal|-:J3:-334.193444:eff_
1549529253.222107,cobot_dynamixel_driver/goal|-:J3:-344.193444:eff_
1549529254.330019,cobot_dynamixel_driver/goal|-:J3:-344.193444:eff_
1549529259.433584,cobot_dynamixel_driver/goal|-:J3:-354.193444:eff_
1549529260.541293,cobot_dynamixel_driver/goal|-:J3:-354.193444:eff_
1549529265.647798,cobot_dynamixel_driver/goal|-:J3:-364.193444:eff_
1549529266.727470,cobot_dynamixel_driver/goal|-:J3:-364.193444:eff_
1549529271.832958,cobot_dynamixel_driver/goal|-:J3:-374.193444:eff_
1549529272.940838,cobot_dynamixel_driver/goal|-:J3:-374.193444:eff_
1549529278.043543,cobot_dynamixel_driver/goal|-:J3:-384.193444:eff_
1549529279.151012,cobot_dynamixel_driver/goal|-:J3:-384.193444:eff_
1549529284.253645,cobot_dynamixel_driver/goal|-:J3:-394.193444:eff_
1549529285.333395,cobot_dynamixel_driver/goal|-:J3:-394.193444:eff_
1549529290.435042,cobot_dynamixel_driver/goal|-:J3:-404.193444:eff_
1549529291.542912,cobot_dynamixel_driver/goal|-:J3:-404.193444:eff_
1549529296.649192,cobot_dynamixel_driver/goal|-:J3:-414.193444:eff_
1549529297.755770,cobot_dynamixel_driver/goal|-:J3:-414.193444:eff_
1549529302.858487,cobot_dynamixel_driver/goal|-:J3:-424.193444:eff_
1549529303.939320,cobot_dynamixel_driver/goal|-:J3:-424.193444:eff_
1549529309.044719,cobot_dynamixel_driver/goal|-:J3:-434.193444:eff_
1549529310.153275,cobot_dynamixel_driver/goal|-:J3:-434.193444:eff_
1549529315.258927,cobot_dynamixel_driver/goal|-:J3:-444.193444:eff_
1549529316.339560,cobot_dynamixel_driver/goal|-:J3:-444.193444:eff_
1549529321.441112,cobot_dynamixel_driver/goal|-:J3:-454.193444:eff_
1549529322.547691,cobot_dynamixel_driver/goal|-:J3:-454.193444:eff_
1549529327.651468,cobot_dynamixel_driver/goal|-:J3:-464.193444:eff_
1549529328.758202,cobot_dynamixel_driver/goal|-:J3:-464.193444:eff_
1549529333.861683,cobot_dynamixel_driver/goal|-:J3:-474.193444:eff_
1549529334.970299,cobot_dynamixel_driver/goal|-:J3:-474.193444:eff_
1549529340.046824,cobot_dynamixel_driver/goal|-:J3:-484.193444:eff_
1549529341.153751,cobot_dynamixel_driver/goal|-:J3:-484.193444:eff_
1549529346.124439,cobot_dynamixel_driver/goal|-:J1,J2,J3,J4,J5,J6:0.000000,0.000000,0.000000,0.000000,0.000000,0.000000:0.500000,0.500000,0.500000,0.500000,0.500000,0.500000:pos_vel_
1549529476.718290,cobot_dynamixel_driver/goal|-:J1,J2,J3,J4,J5,J6:0.000000,0.000000,0.000000,0.000000,0.000000,0.000000:0.500000,0.500000,0.500000,0.500000,0.500000,0.500000:pos_vel_
1549529478.096874,cobot_dynamixel_driver/goal|-:J1,J2,J3,J4,J5,J6:0.000000,0.000000,0.000000,0.000000,0.000000,0.000000:0.500000,0.500000,0.500000,0.500000,0.500000,0.500000:pos_vel_
1549529478.313739,cobot_dynamixel_driver/goal|-:J1,J2,J3,J4,J5,J6:0.000000,0.000000,0.000000,0.000000,0.000000,0.000000:0.500000,0.500000,0.500000,0.500000,0.500000,0.500000:pos_vel_
1549529478.530684,cobot_dynamixel_driver/goal|-:J1,J2,J3,J4,J5,J6:0.000000,0.000000,0.000000,0.000000,0.000000,0.000000:0.500000,0.500000,0.500000,0.500000,0.500000,0.500000:pos_vel_
