surachairobotic/cobot/cobot_dynamixel_driver/log/2019-02-07T09:55:28.038048_driver_cmd.txt
1549533341.811252,cobot_dynamixel_driver/goal|-:J1,J2,J3,J4,J5,J6:0.000000,0.000000,0.000000,0.000000,0.000000,0.000000:0.500000,0.500000,0.500000,0.500000,0.500000,0.500000:pos_vel_
1549533357.663156,cobot_dynamixel_driver/goal|-:J3:0.000000:eff_
1549533357.754114,cobot_dynamixel_driver/goal|-:J1,J2,J3,J4,J5,J6:0.000000,0.000000,0.523599,0.000000,0.000000,0.000000:0.250000,0.250000,0.250000,0.250000,0.250000,0.250000:pos_vel_
1549533363.273771,cobot_dynamixel_driver/goal|-:J1,J2,J3,J4,J5,J6:0.000000,0.000000,0.000000,0.000000,0.000000,0.000000:0.500000,0.500000,0.500000,0.500000,0.500000,0.500000:pos_vel_
1549533373.316108,cobot_dynamixel_driver/goal|-:J3:0.000000:eff_
1549533373.407122,cobot_dynamixel_driver/goal|-:J1,J2,J3,J4,J5,J6:0.000000,0.000000,0.523599,0.000000,0.000000,0.000000:0.250000,0.250000,0.250000,0.250000,0.250000,0.250000:pos_vel_
1549533386.319540,cobot_dynamixel_driver/goal|-:J3:-225.639648:eff_
1549533389.433733,cobot_dynamixel_driver/goal|-:J3:-235.639648:eff_
1549533392.537846,cobot_dynamixel_driver/goal|-:J3:-245.639648:eff_
1549533395.642120,cobot_dynamixel_driver/goal|-:J3:-255.639648:eff_
1549533398.746310,cobot_dynamixel_driver/goal|-:J3:-265.639648:eff_
1549533401.850360,cobot_dynamixel_driver/goal|-:J3:-275.639648:eff_
1549533404.927625,cobot_dynamixel_driver/goal|-:J3:-285.639648:eff_
1549533408.031769,cobot_dynamixel_driver/goal|-:J3:-295.639648:eff_
1549533411.135842,cobot_dynamixel_driver/goal|-:J3:-305.639648:eff_
1549533414.240019,cobot_dynamixel_driver/goal|-:J3:-315.639648:eff_
1549533417.344282,cobot_dynamixel_driver/goal|-:J3:-325.639648:eff_
1549533420.448467,cobot_dynamixel_driver/goal|-:J3:-335.639648:eff_
1549533423.552660,cobot_dynamixel_driver/goal|-:J3:-345.639648:eff_
1549533426.656769,cobot_dynamixel_driver/goal|-:J3:-355.639648:eff_
1549533429.735147,cobot_dynamixel_driver/goal|-:J3:-365.639648:eff_
1549533432.839056,cobot_dynamixel_driver/goal|-:J3:-375.639648:eff_
1549533435.943280,cobot_dynamixel_driver/goal|-:J3:-385.639648:eff_
1549533439.047385,cobot_dynamixel_driver/goal|-:J3:-395.639648:eff_
1549533442.151624,cobot_dynamixel_driver/goal|-:J3:-405.639648:eff_
1549533445.255848,cobot_dynamixel_driver/goal|-:J3:-415.639648:eff_
1549533448.359858,cobot_dynamixel_driver/goal|-:J3:-425.639648:eff_
1549533451.464034,cobot_dynamixel_driver/goal|-:J3:-435.639648:eff_
1549533454.541211,cobot_dynamixel_driver/goal|-:J3:-445.639648:eff_
1549533457.645401,cobot_dynamixel_driver/goal|-:J3:-455.639648:eff_
1549533460.750676,cobot_dynamixel_driver/goal|-:J3:-465.639648:eff_
1549533463.854818,cobot_dynamixel_driver/goal|-:J3:-475.639648:eff_
1549533466.959001,cobot_dynamixel_driver/goal|-:J3:-485.639648:eff_
1549533470.063251,cobot_dynamixel_driver/goal|-:J3:-495.639648:eff_
1549533473.167504,cobot_dynamixel_driver/goal|-:J3:-505.639648:eff_
1549533476.271687,cobot_dynamixel_driver/goal|-:J3:-515.639648:eff_
1549533479.348669,cobot_dynamixel_driver/goal|-:J3:-525.639648:eff_
1549533482.452881,cobot_dynamixel_driver/goal|-:J3:-535.639648:eff_
1549533485.556976,cobot_dynamixel_driver/goal|-:J3:-545.639648:eff_
1549533488.661141,cobot_dynamixel_driver/goal|-:J3:-555.639648:eff_
1549533491.765316,cobot_dynamixel_driver/goal|-:J3:-565.639648:eff_
1549533494.869447,cobot_dynamixel_driver/goal|-:J3:-575.639648:eff_
1549533497.973801,cobot_dynamixel_driver/goal|-:J3:-585.639648:eff_
1549533501.077865,cobot_dynamixel_driver/goal|-:J3:-595.639648:eff_
1549533504.182038,cobot_dynamixel_driver/goal|-:J3:-605.639648:eff_
1549533507.260325,cobot_dynamixel_driver/goal|-:J3:-615.639648:eff_
1549533510.364438,cobot_dynamixel_driver/goal|-:J3:-625.639648:eff_
1549533513.468572,cobot_dynamixel_driver/goal|-:J3:-635.639648:eff_
1549533516.572741,cobot_dynamixel_driver/goal|-:J3:-645.639648:eff_
1549533519.676933,cobot_dynamixel_driver/goal|-:J3:-655.639648:eff_
1549533522.781102,cobot_dynamixel_driver/goal|-:J3:-665.639648:eff_
1549533525.885274,cobot_dynamixel_driver/goal|-:J3:-675.639648:eff_
1549533528.989527,cobot_dynamixel_driver/goal|-:J3:-685.639648:eff_
1549533532.066642,cobot_dynamixel_driver/goal|-:J3:-695.639648:eff_
1549533535.170811,cobot_dynamixel_driver/goal|-:J3:-705.639648:eff_
1549533538.275003,cobot_dynamixel_driver/goal|-:J3:-715.639648:eff_
1549533541.379219,cobot_dynamixel_driver/goal|-:J3:-725.639648:eff_
1549533544.483368,cobot_dynamixel_driver/goal|-:J3:-735.639648:eff_
1549533547.587524,cobot_dynamixel_driver/goal|-:J3:-745.639648:eff_
1549533550.691704,cobot_dynamixel_driver/goal|-:J3:-755.639648:eff_
1549533553.795941,cobot_dynamixel_driver/goal|-:J3:-765.639648:eff_
1549533556.873013,cobot_dynamixel_driver/goal|-:J3:-775.639648:eff_
1549533559.977123,cobot_dynamixel_driver/goal|-:J3:-785.639648:eff_
1549533563.081321,cobot_dynamixel_driver/goal|-:J3:-795.639648:eff_
1549533566.185679,cobot_dynamixel_driver/goal|-:J3:-805.639648:eff_
1549533569.289700,cobot_dynamixel_driver/goal|-:J3:-815.639648:eff_
1549533572.393874,cobot_dynamixel_driver/goal|-:J3:-825.639648:eff_
1549533575.497984,cobot_dynamixel_driver/goal|-:J3:-835.639648:eff_
1549533578.602185,cobot_dynamixel_driver/goal|-:J3:-845.639648:eff_
1549533581.706352,cobot_dynamixel_driver/goal|-:J3:-855.639648:eff_
1549533582.408240,cobot_dynamixel_driver/goal|-:J3:0.000000:eff_
1549533582.489184,cobot_dynamixel_driver/goal|-:J1,J2,J3,J4,J5,J6:0.000000,0.000000,0.523599,0.000000,0.000000,0.000000:0.250000,0.250000,0.250000,0.250000,0.250000,0.250000:pos_vel_
1549533586.682938,cobot_dynamixel_driver/goal|-:J1,J2,J3,J4,J5,J6:0.000000,0.000000,0.000000,0.000000,0.000000,0.000000:0.500000,0.500000,0.500000,0.500000,0.500000,0.500000:pos_vel_
