surachairobotic/cobot/cobot_dynamixel_driver/log/2019-02-05T09:21:47.391724_driver_cmd.txt
1549358537.149091,cobot_dynamixel_driver/goal|-:J1,J2,J3,J4,J5,J6:0.000000,0.000000,0.000000,0.000000,0.000000,0.000000:0.500000,0.500000,0.500000,0.500000,0.500000,0.500000:pos_vel_
1549358625.264910,cobot_dynamixel_driver/goal|-:J3:0.000000:eff_
1549358625.355736,cobot_dynamixel_driver/goal|-:J1,J2,J3,J4,J5,J6:0.000000,0.000000,0.523599,0.000000,0.000000,0.000000:0.250000,0.250000,0.250000,0.250000,0.250000,0.250000:pos_vel_
1549358628.770002,cobot_dynamixel_driver/goal|-:J3:-193.359375:eff_
1549358629.457809,cobot_dynamixel_driver/goal|-:J3:-203.359375:eff_
1549358630.053112,cobot_dynamixel_driver/goal|-:J3:-213.359375:eff_
1549358630.648289,cobot_dynamixel_driver/goal|-:J3:-223.359375:eff_
1549358631.273018,cobot_dynamixel_driver/goal|-:J3:-233.359375:eff_
1549358631.869614,cobot_dynamixel_driver/goal|-:J3:-243.359375:eff_
1549358632.468258,cobot_dynamixel_driver/goal|-:J3:-253.359375:eff_
1549358633.063945,cobot_dynamixel_driver/goal|-:J3:-263.359375:eff_
1549358633.659578,cobot_dynamixel_driver/goal|-:J3:-273.359375:eff_
1549358634.254853,cobot_dynamixel_driver/goal|-:J3:-283.359375:eff_
1549358634.877670,cobot_dynamixel_driver/goal|-:J3:-293.359375:eff_
1549358635.474180,cobot_dynamixel_driver/goal|-:J3:-303.359375:eff_
1549358636.069820,cobot_dynamixel_driver/goal|-:J3:-313.359375:eff_
1549358636.665463,cobot_dynamixel_driver/goal|-:J3:-323.359375:eff_
1549358637.262154,cobot_dynamixel_driver/goal|-:J3:-333.359375:eff_
1549358637.859832,cobot_dynamixel_driver/goal|-:J3:-343.359375:eff_
1549358638.482540,cobot_dynamixel_driver/goal|-:J3:-353.359375:eff_
1549358639.079193,cobot_dynamixel_driver/goal|-:J3:-363.359375:eff_
1549358639.674827,cobot_dynamixel_driver/goal|-:J3:-373.359375:eff_
1549358640.271606,cobot_dynamixel_driver/goal|-:J3:-383.359375:eff_
1549358640.868331,cobot_dynamixel_driver/goal|-:J3:-393.359375:eff_
1549358641.490888,cobot_dynamixel_driver/goal|-:J3:-403.359375:eff_
1549358642.088655,cobot_dynamixel_driver/goal|-:J3:-413.359375:eff_
1549358642.688296,cobot_dynamixel_driver/goal|-:J3:-423.359375:eff_
1549358643.284062,cobot_dynamixel_driver/goal|-:J3:-433.359375:eff_
1549358643.878713,cobot_dynamixel_driver/goal|-:J3:-443.359375:eff_
1549358644.476363,cobot_dynamixel_driver/goal|-:J3:-453.359375:eff_
1549358645.073074,cobot_dynamixel_driver/goal|-:J3:-463.359375:eff_
1549358645.696630,cobot_dynamixel_driver/goal|-:J3:-473.359375:eff_
1549358646.292315,cobot_dynamixel_driver/goal|-:J3:-483.359375:eff_
1549358646.887996,cobot_dynamixel_driver/goal|-:J3:-493.359375:eff_
1549358647.482655,cobot_dynamixel_driver/goal|-:J3:-503.359375:eff_
1549358648.080274,cobot_dynamixel_driver/goal|-:J3:-513.359375:eff_
1549358648.702743,cobot_dynamixel_driver/goal|-:J3:-523.359375:eff_
1549358649.299442,cobot_dynamixel_driver/goal|-:J3:-533.359375:eff_
1549358649.897116,cobot_dynamixel_driver/goal|-:J3:-543.359375:eff_
1549358650.492721,cobot_dynamixel_driver/goal|-:J3:-553.359375:eff_
1549358651.090413,cobot_dynamixel_driver/goal|-:J3:-563.359375:eff_
1549358651.686129,cobot_dynamixel_driver/goal|-:J3:-573.359375:eff_
1549358652.309973,cobot_dynamixel_driver/goal|-:J3:-583.359375:eff_
1549358652.907530,cobot_dynamixel_driver/goal|-:J3:-593.359375:eff_
1549358653.503221,cobot_dynamixel_driver/goal|-:J3:-603.359375:eff_
1549358654.099905,cobot_dynamixel_driver/goal|-:J3:-613.359375:eff_
1549358654.696709,cobot_dynamixel_driver/goal|-:J3:-623.359375:eff_
1549358655.292208,cobot_dynamixel_driver/goal|-:J3:-633.359375:eff_
1549358655.914972,cobot_dynamixel_driver/goal|-:J3:-643.359375:eff_
1549358656.510644,cobot_dynamixel_driver/goal|-:J3:-653.359375:eff_
1549358657.107364,cobot_dynamixel_driver/goal|-:J3:-663.359375:eff_
1549358657.703991,cobot_dynamixel_driver/goal|-:J3:-673.359375:eff_
1549358658.301783,cobot_dynamixel_driver/goal|-:J3:-683.359375:eff_
1549358658.898309,cobot_dynamixel_driver/goal|-:J3:-693.359375:eff_
1549358660.087142,cobot_dynamixel_driver/goal|-:J1,J2,J3,J4,J5,J6:0.000000,0.000000,0.000000,0.000000,0.000000,0.000000:0.500000,0.500000,0.500000,0.500000,0.500000,0.500000:pos_vel_
1549358676.834887,cobot_dynamixel_driver/goal|-:J3:0.000000:eff_
1549358676.925837,cobot_dynamixel_driver/goal|-:J1,J2,J3,J4,J5,J6:0.000000,0.000000,0.523599,0.000000,0.000000,0.000000:0.250000,0.250000,0.250000,0.250000,0.250000,0.250000:pos_vel_
1549358680.233328,cobot_dynamixel_driver/goal|-:J3:-145.019531:eff_
1549358680.921072,cobot_dynamixel_driver/goal|-:J1,J2,J3,J4,J5,J6:0.000000,0.000000,0.523599,0.000000,0.000000,0.000000:0.250000,0.250000,0.250000,0.250000,0.250000,0.250000:pos_vel_
1549358681.744433,cobot_dynamixel_driver/goal|-:J3:-155.019531:eff_
1549358682.321341,cobot_dynamixel_driver/goal|-:J1,J2,J3,J4,J5,J6:0.000000,0.000000,0.523599,0.000000,0.000000,0.000000:0.250000,0.250000,0.250000,0.250000,0.250000,0.250000:pos_vel_
1549358683.142960,cobot_dynamixel_driver/goal|-:J3:-165.019531:eff_
1549358683.747545,cobot_dynamixel_driver/goal|-:J1,J2,J3,J4,J5,J6:0.000000,0.000000,0.523599,0.000000,0.000000,0.000000:0.250000,0.250000,0.250000,0.250000,0.250000,0.250000:pos_vel_
1549358684.540133,cobot_dynamixel_driver/goal|-:J3:-175.019531:eff_
1549358685.145709,cobot_dynamixel_driver/goal|-:J1,J2,J3,J4,J5,J6:0.000000,0.000000,0.523599,0.000000,0.000000,0.000000:0.250000,0.250000,0.250000,0.250000,0.250000,0.250000:pos_vel_
1549358685.940361,cobot_dynamixel_driver/goal|-:J3:-185.019531:eff_
1549358686.546937,cobot_dynamixel_driver/goal|-:J1,J2,J3,J4,J5,J6:0.000000,0.000000,0.523599,0.000000,0.000000,0.000000:0.250000,0.250000,0.250000,0.250000,0.250000,0.250000:pos_vel_
1549358687.344467,cobot_dynamixel_driver/goal|-:J3:-195.019531:eff_
1549358687.948957,cobot_dynamixel_driver/goal|-:J3:-205.019531:eff_
1549358688.543778,cobot_dynamixel_driver/goal|-:J3:-215.019531:eff_
1549358689.140425,cobot_dynamixel_driver/goal|-:J3:-225.019531:eff_
1549358689.737985,cobot_dynamixel_driver/goal|-:J3:-235.019531:eff_
1549358690.334597,cobot_dynamixel_driver/goal|-:J3:-245.019531:eff_
1549358690.957384,cobot_dynamixel_driver/goal|-:J3:-255.019531:eff_
1549358726.417542,cobot_dynamixel_driver/goal|-:J1,J2,J3,J4,J5,J6:0.000000,0.000000,0.000000,0.000000,0.000000,0.000000:0.500000,0.500000,0.500000,0.500000,0.500000,0.500000:pos_vel_
1549358792.172508,cobot_dynamixel_driver/goal|-:J1,J2,J3,J4,J5,J6:0.000000,0.000000,0.000000,0.000000,0.000000,0.000000:0.500000,0.500000,0.500000,0.500000,0.500000,0.500000:pos_vel_
1549358792.524625,cobot_dynamixel_driver/goal|-:J1,J2,J3,J4,J5,J6:0.000000,0.000000,0.000000,0.000000,0.000000,0.000000:0.500000,0.500000,0.500000,0.500000,0.500000,0.500000:pos_vel_
1549358796.121635,cobot_dynamixel_driver/goal|-:J3:0.000000:eff_
1549358796.212629,cobot_dynamixel_driver/goal|-:J1,J2,J3,J4,J5,J6:0.000000,0.000000,0.523599,0.000000,0.000000,0.000000:0.250000,0.250000,0.250000,0.250000,0.250000,0.250000:pos_vel_
1549358799.627858,cobot_dynamixel_driver/goal|-:J3:-290.039062:eff_
1549358800.314456,cobot_dynamixel_driver/goal|-:J3:-300.039062:eff_
1549358800.938416,cobot_dynamixel_driver/goal|-:J3:-310.039062:eff_
1549358801.535955,cobot_dynamixel_driver/goal|-:J3:-320.039062:eff_
1549358802.132597,cobot_dynamixel_driver/goal|-:J3:-330.039062:eff_
1549358802.729174,cobot_dynamixel_driver/goal|-:J3:-340.039062:eff_
1549358803.325846,cobot_dynamixel_driver/goal|-:J3:-350.039062:eff_
1549358803.925376,cobot_dynamixel_driver/goal|-:J3:-360.039062:eff_
1549358804.521021,cobot_dynamixel_driver/goal|-:J3:-370.039062:eff_
1549358805.145432,cobot_dynamixel_driver/goal|-:J3:-380.039062:eff_
1549358805.740164,cobot_dynamixel_driver/goal|-:J3:-390.039062:eff_
1549358806.335855,cobot_dynamixel_driver/goal|-:J3:-400.039062:eff_
1549358806.935585,cobot_dynamixel_driver/goal|-:J3:-410.039062:eff_
1549358807.531101,cobot_dynamixel_driver/goal|-:J3:-420.039062:eff_
1549358808.152723,cobot_dynamixel_driver/goal|-:J3:-430.039062:eff_
1549358808.749510,cobot_dynamixel_driver/goal|-:J3:-440.039062:eff_
1549358809.345195,cobot_dynamixel_driver/goal|-:J3:-450.039062:eff_
1549358809.941850,cobot_dynamixel_driver/goal|-:J3:-460.039062:eff_
1549358810.537502,cobot_dynamixel_driver/goal|-:J3:-470.039062:eff_
1549358811.135281,cobot_dynamixel_driver/goal|-:J3:-480.039062:eff_
1549358811.757971,cobot_dynamixel_driver/goal|-:J3:-490.039062:eff_
1549358812.355698,cobot_dynamixel_driver/goal|-:J3:-500.039062:eff_
1549358812.952429,cobot_dynamixel_driver/goal|-:J3:-510.039062:eff_
1549358813.549125,cobot_dynamixel_driver/goal|-:J3:-520.039062:eff_
1549358814.144859,cobot_dynamixel_driver/goal|-:J3:-530.039062:eff_
1549358814.740379,cobot_dynamixel_driver/goal|-:J3:-540.039062:eff_
1549358815.361829,cobot_dynamixel_driver/goal|-:J3:-550.039062:eff_
1549358815.957656,cobot_dynamixel_driver/goal|-:J3:-560.039062:eff_
1549358816.553427,cobot_dynamixel_driver/goal|-:J3:-570.039062:eff_
1549358817.148889,cobot_dynamixel_driver/goal|-:J3:-580.039062:eff_
1549358817.744607,cobot_dynamixel_driver/goal|-:J3:-590.039062:eff_
1549358818.368172,cobot_dynamixel_driver/goal|-:J3:-600.039062:eff_
1549358818.964793,cobot_dynamixel_driver/goal|-:J3:-610.039062:eff_
1549358819.560094,cobot_dynamixel_driver/goal|-:J3:-620.039062:eff_
1549358820.154052,cobot_dynamixel_driver/goal|-:J3:-630.039062:eff_
1549358820.750755,cobot_dynamixel_driver/goal|-:J3:-640.039062:eff_
1549358821.374220,cobot_dynamixel_driver/goal|-:J3:-650.039062:eff_
1549358821.971038,cobot_dynamixel_driver/goal|-:J3:-660.039062:eff_
1549358823.565815,cobot_dynamixel_driver/goal|-:J3:0.000000:eff_
1549358823.675013,cobot_dynamixel_driver/goal|-:J1,J2,J3,J4,J5,J6:0.000000,0.000000,0.523599,0.000000,0.000000,0.000000:0.250000,0.250000,0.250000,0.250000,0.250000,0.250000:pos_vel_
1549358824.364849,cobot_dynamixel_driver/goal|-:J3:-670.039062:eff_
1549358824.968467,cobot_dynamixel_driver/goal|-:J3:-680.039062:eff_
1549358825.563907,cobot_dynamixel_driver/goal|-:J3:-690.039062:eff_
1549358826.161610,cobot_dynamixel_driver/goal|-:J3:-700.039062:eff_
1549358826.755671,cobot_dynamixel_driver/goal|-:J3:-710.039062:eff_
1549358827.380291,cobot_dynamixel_driver/goal|-:J3:-720.039062:eff_
1549358827.977005,cobot_dynamixel_driver/goal|-:J3:-730.039062:eff_
1549358828.572606,cobot_dynamixel_driver/goal|-:J3:-740.039062:eff_
1549358829.169249,cobot_dynamixel_driver/goal|-:J3:-750.039062:eff_
1549358829.766815,cobot_dynamixel_driver/goal|-:J3:-760.039062:eff_
1549358830.389366,cobot_dynamixel_driver/goal|-:J3:0.000000:eff_
1549358830.471332,cobot_dynamixel_driver/goal|-:J1,J2,J3,J4,J5,J6:0.000000,0.000000,0.523599,0.000000,0.000000,0.000000:0.250000,0.250000,0.250000,0.250000,0.250000,0.250000:pos_vel_
1549358832.399966,cobot_dynamixel_driver/goal|-:J3:0.000000:eff_
1549358832.518185,cobot_dynamixel_driver/goal|-:J1,J2,J3,J4,J5,J6:0.000000,0.000000,0.523599,0.000000,0.000000,0.000000:0.250000,0.250000,0.250000,0.250000,0.250000,0.250000:pos_vel_
1549358833.720159,cobot_dynamixel_driver/goal|-:J3:-435.058594:eff_
1549358834.405874,cobot_dynamixel_driver/goal|-:J3:-425.058594:eff_
1549358835.003492,cobot_dynamixel_driver/goal|-:J3:-415.058594:eff_
1549358835.627107,cobot_dynamixel_driver/goal|-:J3:-405.058594:eff_
1549358836.223725,cobot_dynamixel_driver/goal|-:J3:-395.058594:eff_
1549358836.819455,cobot_dynamixel_driver/goal|-:J3:-385.058594:eff_
1549358837.415184,cobot_dynamixel_driver/goal|-:J3:-375.058594:eff_
1549358838.011926,cobot_dynamixel_driver/goal|-:J3:-365.058594:eff_
1549358838.607626,cobot_dynamixel_driver/goal|-:J3:-355.058594:eff_
1549358839.231341,cobot_dynamixel_driver/goal|-:J3:-345.058594:eff_
1549358839.827129,cobot_dynamixel_driver/goal|-:J3:-335.058594:eff_
1549358840.424759,cobot_dynamixel_driver/goal|-:J3:-325.058594:eff_
1549358841.021693,cobot_dynamixel_driver/goal|-:J3:-315.058594:eff_
1549358841.620200,cobot_dynamixel_driver/goal|-:J3:-305.058594:eff_
1549358842.217821,cobot_dynamixel_driver/goal|-:J3:-295.058594:eff_
1549358842.814353,cobot_dynamixel_driver/goal|-:J3:-285.058594:eff_
1549358843.437882,cobot_dynamixel_driver/goal|-:J3:-275.058594:eff_
1549358844.034504,cobot_dynamixel_driver/goal|-:J3:-265.058594:eff_
1549358844.631124,cobot_dynamixel_driver/goal|-:J3:-255.058594:eff_
1549358845.228678,cobot_dynamixel_driver/goal|-:J3:-245.058594:eff_
1549358845.824516,cobot_dynamixel_driver/goal|-:J3:-235.058594:eff_
1549358846.420103,cobot_dynamixel_driver/goal|-:J3:-225.058594:eff_
1549358847.043636,cobot_dynamixel_driver/goal|-:J3:-215.058594:eff_
1549358847.641337,cobot_dynamixel_driver/goal|-:J3:-205.058594:eff_
1549358848.238088,cobot_dynamixel_driver/goal|-:J3:-195.058594:eff_
1549358848.833791,cobot_dynamixel_driver/goal|-:J3:-185.058594:eff_
1549358850.428535,cobot_dynamixel_driver/goal|-:J3:0.000000:eff_
1549358850.536819,cobot_dynamixel_driver/goal|-:J1,J2,J3,J4,J5,J6:0.000000,0.000000,0.523599,0.000000,0.000000,0.000000:0.250000,0.250000,0.250000,0.250000,0.250000,0.250000:pos_vel_
1549358851.141476,cobot_dynamixel_driver/goal|-:J3:-175.058594:eff_
1549358851.746258,cobot_dynamixel_driver/goal|-:J3:0.000000:eff_
1549358851.829235,cobot_dynamixel_driver/goal|-:J1,J2,J3,J4,J5,J6:0.000000,0.000000,0.523599,0.000000,0.000000,0.000000:0.250000,0.250000,0.250000,0.250000,0.250000,0.250000:pos_vel_
1549358853.949230,cobot_dynamixel_driver/goal|-:J3:0.000000:eff_
1549358854.067394,cobot_dynamixel_driver/goal|-:J1,J2,J3,J4,J5,J6:0.000000,0.000000,0.261799,0.000000,0.000000,0.000000:0.250000,0.250000,0.250000,0.250000,0.250000,0.250000:pos_vel_
1549358856.458854,cobot_dynamixel_driver/goal|-:J3:-789.550781:eff_
1549358858.169399,cobot_dynamixel_driver/goal|-:J3:0.000000:eff_
1549358858.250559,cobot_dynamixel_driver/goal|-:J1,J2,J3,J4,J5,J6:0.000000,0.000000,0.261799,0.000000,0.000000,0.000000:0.250000,0.250000,0.250000,0.250000,0.250000,0.250000:pos_vel_
1549358858.856309,cobot_dynamixel_driver/goal|-:J3:-799.550781:eff_
1549358860.459999,cobot_dynamixel_driver/goal|-:J3:0.000000:eff_
1549358860.568176,cobot_dynamixel_driver/goal|-:J1,J2,J3,J4,J5,J6:0.000000,0.000000,0.261799,0.000000,0.000000,0.000000:0.250000,0.250000,0.250000,0.250000,0.250000,0.250000:pos_vel_
1549358861.172828,cobot_dynamixel_driver/goal|-:J3:-809.550781:eff_
1549358862.775685,cobot_dynamixel_driver/goal|-:J3:0.000000:eff_
1549358862.856944,cobot_dynamixel_driver/goal|-:J1,J2,J3,J4,J5,J6:0.000000,0.000000,0.261799,0.000000,0.000000,0.000000:0.250000,0.250000,0.250000,0.250000,0.250000,0.250000:pos_vel_
1549358863.464492,cobot_dynamixel_driver/goal|-:J3:-819.550781:eff_
1549358864.069464,cobot_dynamixel_driver/goal|-:J3:-829.550781:eff_
1549358864.668208,cobot_dynamixel_driver/goal|-:J3:-839.550781:eff_
1549358865.263843,cobot_dynamixel_driver/goal|-:J3:-849.550781:eff_
1549358865.860580,cobot_dynamixel_driver/goal|-:J3:-859.550781:eff_
1549358866.459247,cobot_dynamixel_driver/goal|-:J3:-869.550781:eff_
1549358867.082875,cobot_dynamixel_driver/goal|-:J3:-879.550781:eff_
1549358867.680532,cobot_dynamixel_driver/goal|-:J3:-889.550781:eff_
1549358868.277175,cobot_dynamixel_driver/goal|-:J3:-899.550781:eff_
1549358868.874787,cobot_dynamixel_driver/goal|-:J3:-909.550781:eff_
1549358869.470584,cobot_dynamixel_driver/goal|-:J3:-919.550781:eff_
1549358870.282670,cobot_dynamixel_driver/goal|-:J3:0.000000:eff_
1549358870.363895,cobot_dynamixel_driver/goal|-:J1,J2,J3,J4,J5,J6:0.000000,0.000000,0.261799,0.000000,0.000000,0.000000:0.250000,0.250000,0.250000,0.250000,0.250000,0.250000:pos_vel_
1549358872.291725,cobot_dynamixel_driver/goal|-:J3:0.000000:eff_
1549358872.409797,cobot_dynamixel_driver/goal|-:J1,J2,J3,J4,J5,J6:0.000000,0.000000,0.261799,0.000000,0.000000,0.000000:0.250000,0.250000,0.250000,0.250000,0.250000,0.250000:pos_vel_
1549358873.505043,cobot_dynamixel_driver/goal|-:J3:-708.984375:eff_
1549358874.190744,cobot_dynamixel_driver/goal|-:J3:-698.984375:eff_
1549358874.788419,cobot_dynamixel_driver/goal|-:J3:-688.984375:eff_
1549358875.411062,cobot_dynamixel_driver/goal|-:J3:-678.984375:eff_
1549358876.007789,cobot_dynamixel_driver/goal|-:J3:-668.984375:eff_
1549358876.604412,cobot_dynamixel_driver/goal|-:J3:-658.984375:eff_
1549358877.199288,cobot_dynamixel_driver/goal|-:J3:-648.984375:eff_
1549358877.793854,cobot_dynamixel_driver/goal|-:J3:-638.984375:eff_
1549358878.418713,cobot_dynamixel_driver/goal|-:J3:-628.984375:eff_
1549358879.015324,cobot_dynamixel_driver/goal|-:J3:-618.984375:eff_
1549358879.611969,cobot_dynamixel_driver/goal|-:J3:-608.984375:eff_
1549358880.207663,cobot_dynamixel_driver/goal|-:J3:-598.984375:eff_
1549358880.806396,cobot_dynamixel_driver/goal|-:J3:-588.984375:eff_
1549358881.402988,cobot_dynamixel_driver/goal|-:J3:-578.984375:eff_
1549358882.025561,cobot_dynamixel_driver/goal|-:J3:-568.984375:eff_
1549358882.622296,cobot_dynamixel_driver/goal|-:J3:-558.984375:eff_
1549358883.217812,cobot_dynamixel_driver/goal|-:J3:-548.984375:eff_
1549358883.816440,cobot_dynamixel_driver/goal|-:J3:-538.984375:eff_
1549358884.412096,cobot_dynamixel_driver/goal|-:J3:-528.984375:eff_
1549358885.008916,cobot_dynamixel_driver/goal|-:J3:-518.984375:eff_
1549358885.632342,cobot_dynamixel_driver/goal|-:J3:-508.984375:eff_
1549358886.229074,cobot_dynamixel_driver/goal|-:J3:-498.984375:eff_
1549358886.828629,cobot_dynamixel_driver/goal|-:J3:-488.984375:eff_
1549358887.424366,cobot_dynamixel_driver/goal|-:J3:-478.984375:eff_
1549358888.021129,cobot_dynamixel_driver/goal|-:J3:-468.984375:eff_
1549358888.618724,cobot_dynamixel_driver/goal|-:J3:-458.984375:eff_
1549358889.214298,cobot_dynamixel_driver/goal|-:J3:-448.984375:eff_
1549358889.837034,cobot_dynamixel_driver/goal|-:J3:-438.984375:eff_
1549358890.434692,cobot_dynamixel_driver/goal|-:J3:-428.984375:eff_
1549358891.030340,cobot_dynamixel_driver/goal|-:J3:-418.984375:eff_
1549358891.627183,cobot_dynamixel_driver/goal|-:J3:-408.984375:eff_
1549358892.222915,cobot_dynamixel_driver/goal|-:J3:-398.984375:eff_
1549358892.821636,cobot_dynamixel_driver/goal|-:J3:-388.984375:eff_
1549358893.444291,cobot_dynamixel_driver/goal|-:J3:-378.984375:eff_
1549358894.040986,cobot_dynamixel_driver/goal|-:J3:-368.984375:eff_
1549358894.636652,cobot_dynamixel_driver/goal|-:J3:-358.984375:eff_
1549358895.232251,cobot_dynamixel_driver/goal|-:J3:-348.984375:eff_
1549358895.829780,cobot_dynamixel_driver/goal|-:J3:-338.984375:eff_
1549358896.425450,cobot_dynamixel_driver/goal|-:J3:-328.984375:eff_
1549358897.046982,cobot_dynamixel_driver/goal|-:J3:-318.984375:eff_
1549358897.642585,cobot_dynamixel_driver/goal|-:J3:-308.984375:eff_
1549358898.240291,cobot_dynamixel_driver/goal|-:J3:-298.984375:eff_
1549358898.836919,cobot_dynamixel_driver/goal|-:J3:-288.984375:eff_
1549358899.433544,cobot_dynamixel_driver/goal|-:J3:-278.984375:eff_
1549358900.055212,cobot_dynamixel_driver/goal|-:J3:-268.984375:eff_
1549358900.649917,cobot_dynamixel_driver/goal|-:J3:-258.984375:eff_
1549358901.246482,cobot_dynamixel_driver/goal|-:J3:-248.984375:eff_
1549358901.842247,cobot_dynamixel_driver/goal|-:J3:-238.984375:eff_
1549358902.438947,cobot_dynamixel_driver/goal|-:J3:-228.984375:eff_
1549358903.062661,cobot_dynamixel_driver/goal|-:J3:-218.984375:eff_
1549358903.658381,cobot_dynamixel_driver/goal|-:J3:-208.984375:eff_
1549358904.362680,cobot_dynamixel_driver/goal|-:J3:0.000000:eff_
1549358904.445062,cobot_dynamixel_driver/goal|-:J1,J2,J3,J4,J5,J6:0.000000,0.000000,0.261799,0.000000,0.000000,0.000000:0.250000,0.250000,0.250000,0.250000,0.250000,0.250000:pos_vel_
1549358906.481062,cobot_dynamixel_driver/goal|-:J3:0.000000:eff_
1549358906.572898,cobot_dynamixel_driver/goal|-:J1,J2,J3,J4,J5,J6:0.000000,0.000000,0.000000,0.000000,0.000000,0.000000:0.250000,0.250000,0.250000,0.250000,0.250000,0.250000:pos_vel_
1549358908.964508,cobot_dynamixel_driver/goal|-:J3:-773.437500:eff_
1549358909.678907,cobot_dynamixel_driver/goal|-:J3:-783.437500:eff_
1549358910.276594,cobot_dynamixel_driver/goal|-:J3:-793.437500:eff_
1549358910.872142,cobot_dynamixel_driver/goal|-:J3:-803.437500:eff_
1549358911.469918,cobot_dynamixel_driver/goal|-:J3:-813.437500:eff_
1549358912.065389,cobot_dynamixel_driver/goal|-:J3:-823.437500:eff_
1549358912.663137,cobot_dynamixel_driver/goal|-:J3:-833.437500:eff_
1549358913.287796,cobot_dynamixel_driver/goal|-:J3:-843.437500:eff_
1549358913.883385,cobot_dynamixel_driver/goal|-:J3:-853.437500:eff_
1549358914.479015,cobot_dynamixel_driver/goal|-:J3:-863.437500:eff_
1549358915.074844,cobot_dynamixel_driver/goal|-:J3:-873.437500:eff_
1549358915.671376,cobot_dynamixel_driver/goal|-:J3:-883.437500:eff_
1549358916.294077,cobot_dynamixel_driver/goal|-:J3:-893.437500:eff_
1549358916.889843,cobot_dynamixel_driver/goal|-:J3:-903.437500:eff_
1549358917.485552,cobot_dynamixel_driver/goal|-:J3:-913.437500:eff_
1549358918.082182,cobot_dynamixel_driver/goal|-:J3:-923.437500:eff_
1549358918.681854,cobot_dynamixel_driver/goal|-:J3:-933.437500:eff_
1549358919.277753,cobot_dynamixel_driver/goal|-:J3:-943.437500:eff_
1549358919.900271,cobot_dynamixel_driver/goal|-:J3:-953.437500:eff_
1549358920.846362,cobot_dynamixel_driver/goal|-:J3:0.000000:eff_
1549358920.927660,cobot_dynamixel_driver/goal|-:J1,J2,J3,J4,J5,J6:0.000000,0.000000,0.000000,0.000000,0.000000,0.000000:0.250000,0.250000,0.250000,0.250000,0.250000,0.250000:pos_vel_
1549358922.747389,cobot_dynamixel_driver/goal|-:J3:0.000000:eff_
1549358922.865515,cobot_dynamixel_driver/goal|-:J1,J2,J3,J4,J5,J6:0.000000,0.000000,0.000000,0.000000,0.000000,0.000000:0.250000,0.250000,0.250000,0.250000,0.250000,0.250000:pos_vel_
1549358924.149436,cobot_dynamixel_driver/goal|-:J3:-789.550781:eff_
1549358924.863195,cobot_dynamixel_driver/goal|-:J3:-779.550781:eff_
1549358925.459738,cobot_dynamixel_driver/goal|-:J3:-769.550781:eff_
1549358926.056401,cobot_dynamixel_driver/goal|-:J3:-759.550781:eff_
1549358926.653169,cobot_dynamixel_driver/goal|-:J3:-749.550781:eff_
1549358927.250611,cobot_dynamixel_driver/goal|-:J3:-739.550781:eff_
1549358927.873333,cobot_dynamixel_driver/goal|-:J3:-729.550781:eff_
1549358928.469081,cobot_dynamixel_driver/goal|-:J3:-719.550781:eff_
1549358929.064808,cobot_dynamixel_driver/goal|-:J3:-709.550781:eff_
1549358929.660445,cobot_dynamixel_driver/goal|-:J3:-699.550781:eff_
1549358930.258239,cobot_dynamixel_driver/goal|-:J3:-689.550781:eff_
1549358930.853939,cobot_dynamixel_driver/goal|-:J3:-679.550781:eff_
1549358931.477627,cobot_dynamixel_driver/goal|-:J3:-669.550781:eff_
1549358932.073366,cobot_dynamixel_driver/goal|-:J3:-659.550781:eff_
1549358932.671963,cobot_dynamixel_driver/goal|-:J3:-649.550781:eff_
1549358933.269724,cobot_dynamixel_driver/goal|-:J3:-639.550781:eff_
1549358933.865345,cobot_dynamixel_driver/goal|-:J3:-629.550781:eff_
1549358934.460997,cobot_dynamixel_driver/goal|-:J3:-619.550781:eff_
1549358935.082543,cobot_dynamixel_driver/goal|-:J3:-609.550781:eff_
1549358935.678135,cobot_dynamixel_driver/goal|-:J3:-599.550781:eff_
1549358936.274747,cobot_dynamixel_driver/goal|-:J3:-589.550781:eff_
1549358936.870313,cobot_dynamixel_driver/goal|-:J3:-579.550781:eff_
1549358937.467996,cobot_dynamixel_driver/goal|-:J3:-569.550781:eff_
1549358938.090536,cobot_dynamixel_driver/goal|-:J3:-559.550781:eff_
1549358938.686076,cobot_dynamixel_driver/goal|-:J3:-549.550781:eff_
1549358939.281841,cobot_dynamixel_driver/goal|-:J3:-539.550781:eff_
1549358939.878512,cobot_dynamixel_driver/goal|-:J3:-529.550781:eff_
1549358940.476193,cobot_dynamixel_driver/goal|-:J3:-519.550781:eff_
1549358941.097702,cobot_dynamixel_driver/goal|-:J3:-509.550781:eff_
1549358941.693436,cobot_dynamixel_driver/goal|-:J3:-499.550781:eff_
1549358942.289192,cobot_dynamixel_driver/goal|-:J3:-489.550781:eff_
1549358942.886844,cobot_dynamixel_driver/goal|-:J3:-479.550781:eff_
1549358943.481563,cobot_dynamixel_driver/goal|-:J3:-469.550781:eff_
1549358944.079198,cobot_dynamixel_driver/goal|-:J3:-459.550781:eff_
1549358944.701912,cobot_dynamixel_driver/goal|-:J3:-449.550781:eff_
1549358945.298793,cobot_dynamixel_driver/goal|-:J3:-439.550781:eff_
1549358945.895386,cobot_dynamixel_driver/goal|-:J3:-429.550781:eff_
1549358946.490934,cobot_dynamixel_driver/goal|-:J3:-419.550781:eff_
1549358947.086603,cobot_dynamixel_driver/goal|-:J3:-409.550781:eff_
1549358947.685150,cobot_dynamixel_driver/goal|-:J3:-399.550781:eff_
1549358948.283816,cobot_dynamixel_driver/goal|-:J3:-389.550781:eff_
1549358948.907365,cobot_dynamixel_driver/goal|-:J3:-379.550781:eff_
1549358949.505015,cobot_dynamixel_driver/goal|-:J3:-369.550781:eff_
1549358950.101650,cobot_dynamixel_driver/goal|-:J3:-359.550781:eff_
1549358950.698152,cobot_dynamixel_driver/goal|-:J3:-349.550781:eff_
1549358951.294815,cobot_dynamixel_driver/goal|-:J3:-339.550781:eff_
1549358951.893508,cobot_dynamixel_driver/goal|-:J3:-329.550781:eff_
1549358952.494284,cobot_dynamixel_driver/goal|-:J3:-319.550781:eff_
1549358953.091863,cobot_dynamixel_driver/goal|-:J3:-309.550781:eff_
1549358953.715663,cobot_dynamixel_driver/goal|-:J3:-299.550781:eff_
1549358954.313421,cobot_dynamixel_driver/goal|-:J3:-289.550781:eff_
1549358954.910904,cobot_dynamixel_driver/goal|-:J3:-279.550781:eff_
1549358955.507729,cobot_dynamixel_driver/goal|-:J3:-269.550781:eff_
1549358956.103503,cobot_dynamixel_driver/goal|-:J3:-259.550781:eff_
1549358956.701109,cobot_dynamixel_driver/goal|-:J3:-249.550781:eff_
1549358957.323808,cobot_dynamixel_driver/goal|-:J3:-239.550781:eff_
1549358958.920521,cobot_dynamixel_driver/goal|-:J3:0.000000:eff_
1549358959.001830,cobot_dynamixel_driver/goal|-:J1,J2,J3,J4,J5,J6:0.000000,0.000000,0.000000,0.000000,0.000000,0.000000:0.250000,0.250000,0.250000,0.250000,0.250000,0.250000:pos_vel_
1549358959.419456,cobot_dynamixel_driver/goal|-:J3:-229.550781:eff_
1549358960.024250,cobot_dynamixel_driver/goal|-:J3:0.000000:eff_
1549358960.107244,cobot_dynamixel_driver/goal|-:J1,J2,J3,J4,J5,J6:0.000000,0.000000,0.000000,0.000000,0.000000,0.000000:0.250000,0.250000,0.250000,0.250000,0.250000,0.250000:pos_vel_
1549358962.142946,cobot_dynamixel_driver/goal|-:J3:0.000000:eff_
1549358962.233889,cobot_dynamixel_driver/goal|-:J1,J2,J3,J4,J5,J6:0.000000,0.000000,-0.261799,0.000000,0.000000,0.000000:0.250000,0.250000,0.250000,0.250000,0.250000,0.250000:pos_vel_
1549358964.538401,cobot_dynamixel_driver/goal|-:J3:-886.230469:eff_
1549358965.385527,cobot_dynamixel_driver/goal|-:J3:0.000000:eff_
1549358965.466844,cobot_dynamixel_driver/goal|-:J1,J2,J3,J4,J5,J6:0.000000,0.000000,-0.261799,0.000000,0.000000,0.000000:0.250000,0.250000,0.250000,0.250000,0.250000,0.250000:pos_vel_
1549358966.881127,cobot_dynamixel_driver/goal|-:J3:0.000000:eff_
1549358966.999215,cobot_dynamixel_driver/goal|-:J1,J2,J3,J4,J5,J6:0.000000,0.000000,-0.261799,0.000000,0.000000,0.000000:0.250000,0.250000,0.250000,0.250000,0.250000,0.250000:pos_vel_
1549358968.282319,cobot_dynamixel_driver/goal|-:J3:-773.437500:eff_
1549358968.994117,cobot_dynamixel_driver/goal|-:J3:-763.437500:eff_
1549358969.590830,cobot_dynamixel_driver/goal|-:J3:-753.437500:eff_
1549358970.187541,cobot_dynamixel_driver/goal|-:J3:-743.437500:eff_
1549358970.784179,cobot_dynamixel_driver/goal|-:J3:-733.437500:eff_
1549358971.406992,cobot_dynamixel_driver/goal|-:J3:-723.437500:eff_
1549358972.003630,cobot_dynamixel_driver/goal|-:J3:-713.437500:eff_
1549358972.600242,cobot_dynamixel_driver/goal|-:J3:-703.437500:eff_
1549358973.196060,cobot_dynamixel_driver/goal|-:J3:-693.437500:eff_
1549358973.792657,cobot_dynamixel_driver/goal|-:J3:-683.437500:eff_
1549358974.415231,cobot_dynamixel_driver/goal|-:J3:-673.437500:eff_
1549358975.012866,cobot_dynamixel_driver/goal|-:J3:-663.437500:eff_
1549358975.609420,cobot_dynamixel_driver/goal|-:J3:-653.437500:eff_
1549358976.206052,cobot_dynamixel_driver/goal|-:J3:-643.437500:eff_
1549358976.801666,cobot_dynamixel_driver/goal|-:J3:-633.437500:eff_
1549358977.399297,cobot_dynamixel_driver/goal|-:J3:-623.437500:eff_
1549358978.022872,cobot_dynamixel_driver/goal|-:J3:-613.437500:eff_
1549358978.618693,cobot_dynamixel_driver/goal|-:J3:-603.437500:eff_
1549358979.214189,cobot_dynamixel_driver/goal|-:J3:-593.437500:eff_
1549358979.810939,cobot_dynamixel_driver/goal|-:J3:-583.437500:eff_
1549358980.405522,cobot_dynamixel_driver/goal|-:J3:-573.437500:eff_
1549358981.029367,cobot_dynamixel_driver/goal|-:J3:-563.437500:eff_
1549358981.626910,cobot_dynamixel_driver/goal|-:J3:-553.437500:eff_
1549358982.224559,cobot_dynamixel_driver/goal|-:J3:-543.437500:eff_
1549358982.821349,cobot_dynamixel_driver/goal|-:J3:-533.437500:eff_
1549358983.417100,cobot_dynamixel_driver/goal|-:J3:-523.437500:eff_
1549358984.012830,cobot_dynamixel_driver/goal|-:J3:-513.437500:eff_
1549358984.635434,cobot_dynamixel_driver/goal|-:J3:-503.437500:eff_
1549358985.231211,cobot_dynamixel_driver/goal|-:J3:-493.437500:eff_
1549358985.827793,cobot_dynamixel_driver/goal|-:J3:-483.437500:eff_
1549358986.424694,cobot_dynamixel_driver/goal|-:J3:-473.437500:eff_
1549358987.020187,cobot_dynamixel_driver/goal|-:J3:-463.437500:eff_
1549358987.616965,cobot_dynamixel_driver/goal|-:J3:-453.437500:eff_
1549358988.239420,cobot_dynamixel_driver/goal|-:J3:-443.437500:eff_
1549358988.835114,cobot_dynamixel_driver/goal|-:J3:-433.437500:eff_
1549358989.432637,cobot_dynamixel_driver/goal|-:J3:-423.437500:eff_
1549358990.029191,cobot_dynamixel_driver/goal|-:J3:-413.437500:eff_
1549358990.626908,cobot_dynamixel_driver/goal|-:J3:-403.437500:eff_
1549358991.248544,cobot_dynamixel_driver/goal|-:J3:-393.437500:eff_
1549358991.844171,cobot_dynamixel_driver/goal|-:J3:-383.437500:eff_
1549358992.440803,cobot_dynamixel_driver/goal|-:J3:-373.437500:eff_
1549358993.036459,cobot_dynamixel_driver/goal|-:J3:-363.437500:eff_
1549358993.632184,cobot_dynamixel_driver/goal|-:J3:-353.437500:eff_
1549358994.231783,cobot_dynamixel_driver/goal|-:J3:-343.437500:eff_
1549358994.828524,cobot_dynamixel_driver/goal|-:J3:-333.437500:eff_
1549358995.452183,cobot_dynamixel_driver/goal|-:J3:-323.437500:eff_
1549358996.048804,cobot_dynamixel_driver/goal|-:J3:-313.437500:eff_
1549358996.644548,cobot_dynamixel_driver/goal|-:J3:-303.437500:eff_
1549358997.242181,cobot_dynamixel_driver/goal|-:J3:-293.437500:eff_
1549358997.840996,cobot_dynamixel_driver/goal|-:J3:-283.437500:eff_
1549358998.436722,cobot_dynamixel_driver/goal|-:J3:-273.437500:eff_
1549358999.059310,cobot_dynamixel_driver/goal|-:J3:-263.437500:eff_
1549358999.658072,cobot_dynamixel_driver/goal|-:J3:-253.437500:eff_
1549359000.253625,cobot_dynamixel_driver/goal|-:J3:-243.437500:eff_
1549359000.851296,cobot_dynamixel_driver/goal|-:J3:-233.437500:eff_
1549359002.229959,cobot_dynamixel_driver/goal|-:J3:0.000000:eff_
1549359002.311000,cobot_dynamixel_driver/goal|-:J1,J2,J3,J4,J5,J6:0.000000,0.000000,-0.261799,0.000000,0.000000,0.000000:0.250000,0.250000,0.250000,0.250000,0.250000,0.250000:pos_vel_
1549359004.238921,cobot_dynamixel_driver/goal|-:J3:0.000000:eff_
1549359004.357197,cobot_dynamixel_driver/goal|-:J1,J2,J3,J4,J5,J6:0.000000,0.000000,-0.523599,0.000000,0.000000,0.000000:0.250000,0.250000,0.250000,0.250000,0.250000,0.250000:pos_vel_
1549359006.638720,cobot_dynamixel_driver/goal|-:J3:-676.757812:eff_
1549359007.350381,cobot_dynamixel_driver/goal|-:J3:-686.757812:eff_
1549359007.949194,cobot_dynamixel_driver/goal|-:J3:-696.757812:eff_
1549359008.546857,cobot_dynamixel_driver/goal|-:J3:-706.757812:eff_
1549359009.143532,cobot_dynamixel_driver/goal|-:J3:-716.757812:eff_
1549359009.740303,cobot_dynamixel_driver/goal|-:J3:-726.757812:eff_
1549359010.364014,cobot_dynamixel_driver/goal|-:J3:-736.757812:eff_
1549359010.960655,cobot_dynamixel_driver/goal|-:J3:-746.757812:eff_
1549359011.557410,cobot_dynamixel_driver/goal|-:J3:-756.757812:eff_
1549359012.156011,cobot_dynamixel_driver/goal|-:J3:-766.757812:eff_
1549359012.752725,cobot_dynamixel_driver/goal|-:J3:-776.757812:eff_
1549359013.350219,cobot_dynamixel_driver/goal|-:J3:-786.757812:eff_
1549359013.946735,cobot_dynamixel_driver/goal|-:J3:-796.757812:eff_
1549359014.570422,cobot_dynamixel_driver/goal|-:J3:-806.757812:eff_
1549359015.166062,cobot_dynamixel_driver/goal|-:J3:-816.757812:eff_
1549359015.763697,cobot_dynamixel_driver/goal|-:J3:-826.757812:eff_
1549359016.359287,cobot_dynamixel_driver/goal|-:J3:-836.757812:eff_
1549359016.953950,cobot_dynamixel_driver/goal|-:J3:-846.757812:eff_
1549359017.954131,cobot_dynamixel_driver/goal|-:J3:0.000000:eff_
1549359018.035114,cobot_dynamixel_driver/goal|-:J1,J2,J3,J4,J5,J6:0.000000,0.000000,-0.523599,0.000000,0.000000,0.000000:0.250000,0.250000,0.250000,0.250000,0.250000,0.250000:pos_vel_
1549359019.775388,cobot_dynamixel_driver/goal|-:J3:0.000000:eff_
1549359019.866313,cobot_dynamixel_driver/goal|-:J1,J2,J3,J4,J5,J6:0.000000,0.000000,-0.523599,0.000000,0.000000,0.000000:0.250000,0.250000,0.250000,0.250000,0.250000,0.250000:pos_vel_
1549359020.957824,cobot_dynamixel_driver/goal|-:J3:-644.531250:eff_
1549359021.670414,cobot_dynamixel_driver/goal|-:J3:-634.531250:eff_
1549359022.266217,cobot_dynamixel_driver/goal|-:J3:-624.531250:eff_
1549359022.861886,cobot_dynamixel_driver/goal|-:J3:-614.531250:eff_
1549359023.458569,cobot_dynamixel_driver/goal|-:J3:-604.531250:eff_
1549359024.055404,cobot_dynamixel_driver/goal|-:J3:-594.531250:eff_
1549359024.677975,cobot_dynamixel_driver/goal|-:J3:-584.531250:eff_
1549359025.273639,cobot_dynamixel_driver/goal|-:J3:-574.531250:eff_
1549359025.869305,cobot_dynamixel_driver/goal|-:J3:-564.531250:eff_
1549359026.464870,cobot_dynamixel_driver/goal|-:J3:-554.531250:eff_
1549359027.060498,cobot_dynamixel_driver/goal|-:J3:-544.531250:eff_
1549359027.683142,cobot_dynamixel_driver/goal|-:J3:-534.531250:eff_
1549359028.279783,cobot_dynamixel_driver/goal|-:J3:-524.531250:eff_
1549359028.876458,cobot_dynamixel_driver/goal|-:J3:-514.531250:eff_
1549359029.474989,cobot_dynamixel_driver/goal|-:J3:-504.531250:eff_
1549359030.070726,cobot_dynamixel_driver/goal|-:J3:-494.531250:eff_
1549359030.693302,cobot_dynamixel_driver/goal|-:J3:-484.531250:eff_
1549359031.289042,cobot_dynamixel_driver/goal|-:J3:-474.531250:eff_
1549359031.886626,cobot_dynamixel_driver/goal|-:J3:-464.531250:eff_
1549359032.482231,cobot_dynamixel_driver/goal|-:J3:-454.531250:eff_
1549359033.078861,cobot_dynamixel_driver/goal|-:J3:-444.531250:eff_
1549359033.676629,cobot_dynamixel_driver/goal|-:J3:-434.531250:eff_
1549359034.274358,cobot_dynamixel_driver/goal|-:J3:-424.531250:eff_
1549359034.897024,cobot_dynamixel_driver/goal|-:J3:-414.531250:eff_
1549359035.493865,cobot_dynamixel_driver/goal|-:J3:-404.531250:eff_
1549359036.091404,cobot_dynamixel_driver/goal|-:J3:-394.531250:eff_
1549359036.686264,cobot_dynamixel_driver/goal|-:J3:-384.531250:eff_
1549359037.282825,cobot_dynamixel_driver/goal|-:J3:-374.531250:eff_
1549359037.881822,cobot_dynamixel_driver/goal|-:J3:-364.531250:eff_
1549359038.506215,cobot_dynamixel_driver/goal|-:J3:-354.531250:eff_
1549359039.102901,cobot_dynamixel_driver/goal|-:J3:-344.531250:eff_
1549359039.698491,cobot_dynamixel_driver/goal|-:J3:-334.531250:eff_
1549359040.294229,cobot_dynamixel_driver/goal|-:J3:-324.531250:eff_
1549359040.890679,cobot_dynamixel_driver/goal|-:J3:-314.531250:eff_
1549359041.488349,cobot_dynamixel_driver/goal|-:J3:-304.531250:eff_
1549359042.112034,cobot_dynamixel_driver/goal|-:J3:-294.531250:eff_
1549359042.710595,cobot_dynamixel_driver/goal|-:J3:-284.531250:eff_
1549359043.307260,cobot_dynamixel_driver/goal|-:J3:-274.531250:eff_
1549359043.902884,cobot_dynamixel_driver/goal|-:J3:-264.531250:eff_
1549359044.497468,cobot_dynamixel_driver/goal|-:J3:-254.531250:eff_
1549359045.118166,cobot_dynamixel_driver/goal|-:J3:-244.531250:eff_
1549359045.712942,cobot_dynamixel_driver/goal|-:J3:-234.531250:eff_
1549359046.311557,cobot_dynamixel_driver/goal|-:J3:-224.531250:eff_
1549359047.906529,cobot_dynamixel_driver/goal|-:J3:0.000000:eff_
1549359048.014834,cobot_dynamixel_driver/goal|-:J1,J2,J3,J4,J5,J6:0.000000,0.000000,-0.523599,0.000000,0.000000,0.000000:0.250000,0.250000,0.250000,0.250000,0.250000,0.250000:pos_vel_
1549359048.621534,cobot_dynamixel_driver/goal|-:J3:-214.531250:eff_
1549359049.198250,cobot_dynamixel_driver/goal|-:J3:0.000000:eff_
1549359049.308239,cobot_dynamixel_driver/goal|-:J1,J2,J3,J4,J5,J6:0.000000,0.000000,-0.523599,0.000000,0.000000,0.000000:0.250000,0.250000,0.250000,0.250000,0.250000,0.250000:pos_vel_
1549359630.631922,cobot_dynamixel_driver/goal|-:J1,J2,J3,J4,J5,J6:0.000000,0.000000,0.000000,0.000000,0.000000,0.000000:0.500000,0.500000,0.500000,0.500000,0.500000,0.500000:pos_vel_
1549359631.850620,cobot_dynamixel_driver/goal|-:J1,J2,J3,J4,J5,J6:0.000000,0.000000,0.000000,0.000000,0.000000,0.000000:0.500000,0.500000,0.500000,0.500000,0.500000,0.500000:pos_vel_
