surachairobotic/cobot/cobot_dynamixel_driver/log/2019-02-07T10:03:58.339957_driver_cmd.txt
1549533841.627039,cobot_dynamixel_driver/goal|-:J1,J2,J3,J4,J5,J6:0.000000,0.000000,0.000000,0.000000,0.000000,0.000000:0.500000,0.500000,0.500000,0.500000,0.500000,0.500000:pos_vel_
1549534831.932722,cobot_dynamixel_driver/goal|-:J3:0.000000:eff_
1549534832.050823,cobot_dynamixel_driver/goal|-:J1,J2,J3,J4,J5,J6:0.000000,0.000000,0.523599,0.000000,0.000000,0.000000:0.250000,0.250000,0.250000,0.250000,0.250000,0.250000:pos_vel_
1549534844.855197,cobot_dynamixel_driver/goal|-:J3:-220.982143:eff_
1549534847.969544,cobot_dynamixel_driver/goal|-:J3:-230.982143:eff_
1549534851.073646,cobot_dynamixel_driver/goal|-:J3:-240.982143:eff_
1549534853.665902,cobot_dynamixel_driver/goal|-:J1,J2,J3,J4,J5,J6:0.000000,0.000000,0.000000,0.000000,0.000000,0.000000:0.500000,0.500000,0.500000,0.500000,0.500000,0.500000:pos_vel_
1549534870.686808,cobot_dynamixel_driver/goal|-:J3:0.000000:eff_
1549534870.777719,cobot_dynamixel_driver/goal|-:J1,J2,J3,J4,J5,J6:0.000000,0.000000,0.523599,0.000000,0.000000,0.000000:0.250000,0.250000,0.250000,0.250000,0.250000,0.250000:pos_vel_
1549534883.611245,cobot_dynamixel_driver/goal|-:J3:-215.575361:eff_
1549534886.725537,cobot_dynamixel_driver/goal|-:J3:-225.575361:eff_
1549534889.829739,cobot_dynamixel_driver/goal|-:J3:-235.575361:eff_
1549534892.933917,cobot_dynamixel_driver/goal|-:J3:-245.575361:eff_
1549534896.011154,cobot_dynamixel_driver/goal|-:J3:-255.575361:eff_
1549534899.115331,cobot_dynamixel_driver/goal|-:J3:-265.575361:eff_
1549534902.219680,cobot_dynamixel_driver/goal|-:J3:-275.575361:eff_
1549534905.324887,cobot_dynamixel_driver/goal|-:J3:-285.575361:eff_
1549534908.429085,cobot_dynamixel_driver/goal|-:J3:-295.575361:eff_
1549534911.533308,cobot_dynamixel_driver/goal|-:J3:-305.575361:eff_
1549534914.637452,cobot_dynamixel_driver/goal|-:J3:-315.575361:eff_
1549534917.741726,cobot_dynamixel_driver/goal|-:J3:-325.575361:eff_
1549534920.819984,cobot_dynamixel_driver/goal|-:J3:-335.575361:eff_
1549534923.924213,cobot_dynamixel_driver/goal|-:J3:-345.575361:eff_
1549534927.028382,cobot_dynamixel_driver/goal|-:J3:-355.575361:eff_
1549534930.132561,cobot_dynamixel_driver/goal|-:J3:-365.575361:eff_
1549534933.237799,cobot_dynamixel_driver/goal|-:J3:-375.575361:eff_
1549534936.341967,cobot_dynamixel_driver/goal|-:J3:-385.575361:eff_
1549534939.446256,cobot_dynamixel_driver/goal|-:J3:-395.575361:eff_
1549534942.550401,cobot_dynamixel_driver/goal|-:J3:-405.575361:eff_
1549534945.627654,cobot_dynamixel_driver/goal|-:J3:-415.575361:eff_
1549534948.732859,cobot_dynamixel_driver/goal|-:J3:-425.575361:eff_
1549534951.838156,cobot_dynamixel_driver/goal|-:J3:-435.575361:eff_
1549534954.942390,cobot_dynamixel_driver/goal|-:J3:-445.575361:eff_
1549534958.046474,cobot_dynamixel_driver/goal|-:J3:-455.575361:eff_
1549534961.150670,cobot_dynamixel_driver/goal|-:J3:-465.575361:eff_
1549534964.254887,cobot_dynamixel_driver/goal|-:J3:-475.575361:eff_
1549534967.359181,cobot_dynamixel_driver/goal|-:J3:-485.575361:eff_
1549534970.436423,cobot_dynamixel_driver/goal|-:J3:-495.575361:eff_
1549534973.540712,cobot_dynamixel_driver/goal|-:J3:-505.575361:eff_
1549534976.644839,cobot_dynamixel_driver/goal|-:J3:-515.575361:eff_
1549534979.749943,cobot_dynamixel_driver/goal|-:J3:-525.575361:eff_
1549534982.854154,cobot_dynamixel_driver/goal|-:J3:-535.575361:eff_
1549534985.959254,cobot_dynamixel_driver/goal|-:J3:-545.575361:eff_
1549534989.064476,cobot_dynamixel_driver/goal|-:J3:-555.575361:eff_
1549534992.141785,cobot_dynamixel_driver/goal|-:J3:-565.575361:eff_
1549534995.245919,cobot_dynamixel_driver/goal|-:J3:-575.575361:eff_
1549534998.350116,cobot_dynamixel_driver/goal|-:J3:-585.575361:eff_
1549535001.454427,cobot_dynamixel_driver/goal|-:J3:-595.575361:eff_
1549535004.558707,cobot_dynamixel_driver/goal|-:J3:-605.575361:eff_
1549535007.662765,cobot_dynamixel_driver/goal|-:J3:-615.575361:eff_
1549535010.766972,cobot_dynamixel_driver/goal|-:J3:-625.575361:eff_
1549535013.871186,cobot_dynamixel_driver/goal|-:J3:-635.575361:eff_
1549535016.975446,cobot_dynamixel_driver/goal|-:J3:-645.575361:eff_
1549535020.970431,cobot_dynamixel_driver/goal|-:J3:0.000000:eff_
1549535021.078453,cobot_dynamixel_driver/goal|-:J1,J2,J3,J4,J5,J6:0.000000,0.000000,0.523599,0.000000,0.000000,0.000000:0.250000,0.250000,0.250000,0.250000,0.250000,0.250000:pos_vel_
1549535022.653900,cobot_dynamixel_driver/goal|-:J3:0.000000:eff_
1549535022.771857,cobot_dynamixel_driver/goal|-:J1,J2,J3,J4,J5,J6:0.000000,0.000000,0.523599,0.000000,0.000000,0.000000:0.250000,0.250000,0.250000,0.250000,0.250000,0.250000:pos_vel_
1549535024.455531,cobot_dynamixel_driver/goal|-:J3:0.000000:eff_
1549535024.573538,cobot_dynamixel_driver/goal|-:J1,J2,J3,J4,J5,J6:0.000000,0.000000,0.523599,0.000000,0.000000,0.000000:0.250000,0.250000,0.250000,0.250000,0.250000,0.250000:pos_vel_
1549535026.256947,cobot_dynamixel_driver/goal|-:J3:0.000000:eff_
1549535026.375405,cobot_dynamixel_driver/goal|-:J1,J2,J3,J4,J5,J6:0.000000,0.000000,0.523599,0.000000,0.000000,0.000000:0.250000,0.250000,0.250000,0.250000,0.250000,0.250000:pos_vel_
1549535027.977582,cobot_dynamixel_driver/goal|-:J3:0.000000:eff_
1549535028.068576,cobot_dynamixel_driver/goal|-:J1,J2,J3,J4,J5,J6:0.000000,0.000000,0.523599,0.000000,0.000000,0.000000:0.250000,0.250000,0.250000,0.250000,0.250000,0.250000:pos_vel_
1549535029.779201,cobot_dynamixel_driver/goal|-:J3:0.000000:eff_
1549535029.870160,cobot_dynamixel_driver/goal|-:J1,J2,J3,J4,J5,J6:0.000000,0.000000,0.523599,0.000000,0.000000,0.000000:0.250000,0.250000,0.250000,0.250000,0.250000,0.250000:pos_vel_
1549535031.580674,cobot_dynamixel_driver/goal|-:J3:0.000000:eff_
1549535031.671631,cobot_dynamixel_driver/goal|-:J1,J2,J3,J4,J5,J6:0.000000,0.000000,0.523599,0.000000,0.000000,0.000000:0.250000,0.250000,0.250000,0.250000,0.250000,0.250000:pos_vel_
1549535033.382132,cobot_dynamixel_driver/goal|-:J3:0.000000:eff_
1549535033.473265,cobot_dynamixel_driver/goal|-:J1,J2,J3,J4,J5,J6:0.000000,0.000000,0.523599,0.000000,0.000000,0.000000:0.250000,0.250000,0.250000,0.250000,0.250000,0.250000:pos_vel_
1549535034.967711,cobot_dynamixel_driver/goal|-:J3:0.000000:eff_
1549535035.058853,cobot_dynamixel_driver/goal|-:J1,J2,J3,J4,J5,J6:0.000000,0.000000,0.523599,0.000000,0.000000,0.000000:0.250000,0.250000,0.250000,0.250000,0.250000,0.250000:pos_vel_
1549535036.661339,cobot_dynamixel_driver/goal|-:J3:0.000000:eff_
1549535036.779323,cobot_dynamixel_driver/goal|-:J1,J2,J3,J4,J5,J6:0.000000,0.000000,0.523599,0.000000,0.000000,0.000000:0.250000,0.250000,0.250000,0.250000,0.250000,0.250000:pos_vel_
1549535038.462924,cobot_dynamixel_driver/goal|-:J3:0.000000:eff_
1549535038.580927,cobot_dynamixel_driver/goal|-:J1,J2,J3,J4,J5,J6:0.000000,0.000000,0.523599,0.000000,0.000000,0.000000:0.250000,0.250000,0.250000,0.250000,0.250000,0.250000:pos_vel_
1549535040.264426,cobot_dynamixel_driver/goal|-:J3:0.000000:eff_
1549535040.382364,cobot_dynamixel_driver/goal|-:J1,J2,J3,J4,J5,J6:0.000000,0.000000,0.523599,0.000000,0.000000,0.000000:0.250000,0.250000,0.250000,0.250000,0.250000,0.250000:pos_vel_
1549535042.066005,cobot_dynamixel_driver/goal|-:J3:0.000000:eff_
1549535042.184056,cobot_dynamixel_driver/goal|-:J1,J2,J3,J4,J5,J6:0.000000,0.000000,0.523599,0.000000,0.000000,0.000000:0.250000,0.250000,0.250000,0.250000,0.250000,0.250000:pos_vel_
1549535043.871498,cobot_dynamixel_driver/goal|-:J3:0.000000:eff_
1549535043.962636,cobot_dynamixel_driver/goal|-:J1,J2,J3,J4,J5,J6:0.000000,0.000000,0.523599,0.000000,0.000000,0.000000:0.250000,0.250000,0.250000,0.250000,0.250000,0.250000:pos_vel_
1549535045.484078,cobot_dynamixel_driver/goal|-:J3:0.000000:eff_
1549535045.575057,cobot_dynamixel_driver/goal|-:J1,J2,J3,J4,J5,J6:0.000000,0.000000,0.523599,0.000000,0.000000,0.000000:0.250000,0.250000,0.250000,0.250000,0.250000,0.250000:pos_vel_
1549535047.177657,cobot_dynamixel_driver/goal|-:J3:0.000000:eff_
1549535047.268639,cobot_dynamixel_driver/goal|-:J1,J2,J3,J4,J5,J6:0.000000,0.000000,0.523599,0.000000,0.000000,0.000000:0.250000,0.250000,0.250000,0.250000,0.250000,0.250000:pos_vel_
1549535048.763223,cobot_dynamixel_driver/goal|-:J3:0.000000:eff_
1549535048.881150,cobot_dynamixel_driver/goal|-:J1,J2,J3,J4,J5,J6:0.000000,0.000000,0.523599,0.000000,0.000000,0.000000:0.250000,0.250000,0.250000,0.250000,0.250000,0.250000:pos_vel_
1549535050.483819,cobot_dynamixel_driver/goal|-:J3:0.000000:eff_
1549535050.574982,cobot_dynamixel_driver/goal|-:J1,J2,J3,J4,J5,J6:0.000000,0.000000,0.523599,0.000000,0.000000,0.000000:0.250000,0.250000,0.250000,0.250000,0.250000,0.250000:pos_vel_
1549535052.069352,cobot_dynamixel_driver/goal|-:J3:0.000000:eff_
1549535052.187427,cobot_dynamixel_driver/goal|-:J1,J2,J3,J4,J5,J6:0.000000,0.000000,0.523599,0.000000,0.000000,0.000000:0.250000,0.250000,0.250000,0.250000,0.250000,0.250000:pos_vel_
1549535053.871106,cobot_dynamixel_driver/goal|-:J3:0.000000:eff_
1549535053.989016,cobot_dynamixel_driver/goal|-:J1,J2,J3,J4,J5,J6:0.000000,0.000000,0.523599,0.000000,0.000000,0.000000:0.250000,0.250000,0.250000,0.250000,0.250000,0.250000:pos_vel_
1549535055.780519,cobot_dynamixel_driver/goal|-:J3:0.000000:eff_
1549535055.871729,cobot_dynamixel_driver/goal|-:J1,J2,J3,J4,J5,J6:0.000000,0.000000,0.523599,0.000000,0.000000,0.000000:0.250000,0.250000,0.250000,0.250000,0.250000,0.250000:pos_vel_
1549535057.474155,cobot_dynamixel_driver/goal|-:J3:0.000000:eff_
1549535057.592084,cobot_dynamixel_driver/goal|-:J1,J2,J3,J4,J5,J6:0.000000,0.000000,0.523599,0.000000,0.000000,0.000000:0.250000,0.250000,0.250000,0.250000,0.250000,0.250000:pos_vel_
1549535059.275788,cobot_dynamixel_driver/goal|-:J3:0.000000:eff_
1549535059.393798,cobot_dynamixel_driver/goal|-:J1,J2,J3,J4,J5,J6:0.000000,0.000000,0.523599,0.000000,0.000000,0.000000:0.250000,0.250000,0.250000,0.250000,0.250000,0.250000:pos_vel_
1549535060.969407,cobot_dynamixel_driver/goal|-:J3:0.000000:eff_
1549535061.087280,cobot_dynamixel_driver/goal|-:J1,J2,J3,J4,J5,J6:0.000000,0.000000,0.523599,0.000000,0.000000,0.000000:0.250000,0.250000,0.250000,0.250000,0.250000,0.250000:pos_vel_
1549535062.770826,cobot_dynamixel_driver/goal|-:J3:0.000000:eff_
1549535062.888848,cobot_dynamixel_driver/goal|-:J1,J2,J3,J4,J5,J6:0.000000,0.000000,0.523599,0.000000,0.000000,0.000000:0.250000,0.250000,0.250000,0.250000,0.250000,0.250000:pos_vel_
1549535064.572349,cobot_dynamixel_driver/goal|-:J3:0.000000:eff_
1549535064.690309,cobot_dynamixel_driver/goal|-:J1,J2,J3,J4,J5,J6:0.000000,0.000000,0.523599,0.000000,0.000000,0.000000:0.250000,0.250000,0.250000,0.250000,0.250000,0.250000:pos_vel_
1549535066.373884,cobot_dynamixel_driver/goal|-:J3:0.000000:eff_
1549535066.492015,cobot_dynamixel_driver/goal|-:J1,J2,J3,J4,J5,J6:0.000000,0.000000,0.523599,0.000000,0.000000,0.000000:0.250000,0.250000,0.250000,0.250000,0.250000,0.250000:pos_vel_
1549535068.176493,cobot_dynamixel_driver/goal|-:J3:0.000000:eff_
1549535068.294539,cobot_dynamixel_driver/goal|-:J1,J2,J3,J4,J5,J6:0.000000,0.000000,0.523599,0.000000,0.000000,0.000000:0.250000,0.250000,0.250000,0.250000,0.250000,0.250000:pos_vel_
1549535069.897012,cobot_dynamixel_driver/goal|-:J3:0.000000:eff_
1549535069.988217,cobot_dynamixel_driver/goal|-:J1,J2,J3,J4,J5,J6:0.000000,0.000000,0.523599,0.000000,0.000000,0.000000:0.250000,0.250000,0.250000,0.250000,0.250000,0.250000:pos_vel_
1549535071.590542,cobot_dynamixel_driver/goal|-:J3:0.000000:eff_
1549535071.681566,cobot_dynamixel_driver/goal|-:J1,J2,J3,J4,J5,J6:0.000000,0.000000,0.523599,0.000000,0.000000,0.000000:0.250000,0.250000,0.250000,0.250000,0.250000,0.250000:pos_vel_
1549535073.284068,cobot_dynamixel_driver/goal|-:J3:0.000000:eff_
1549535073.375288,cobot_dynamixel_driver/goal|-:J1,J2,J3,J4,J5,J6:0.000000,0.000000,0.523599,0.000000,0.000000,0.000000:0.250000,0.250000,0.250000,0.250000,0.250000,0.250000:pos_vel_
1549535074.977807,cobot_dynamixel_driver/goal|-:J3:0.000000:eff_
1549535075.095734,cobot_dynamixel_driver/goal|-:J1,J2,J3,J4,J5,J6:0.000000,0.000000,0.523599,0.000000,0.000000,0.000000:0.250000,0.250000,0.250000,0.250000,0.250000,0.250000:pos_vel_
1549535076.781279,cobot_dynamixel_driver/goal|-:J3:0.000000:eff_
1549535076.899285,cobot_dynamixel_driver/goal|-:J1,J2,J3,J4,J5,J6:0.000000,0.000000,0.523599,0.000000,0.000000,0.000000:0.250000,0.250000,0.250000,0.250000,0.250000,0.250000:pos_vel_
1549535078.501755,cobot_dynamixel_driver/goal|-:J3:0.000000:eff_
1549535078.592665,cobot_dynamixel_driver/goal|-:J1,J2,J3,J4,J5,J6:0.000000,0.000000,0.523599,0.000000,0.000000,0.000000:0.250000,0.250000,0.250000,0.250000,0.250000,0.250000:pos_vel_
1549535080.195332,cobot_dynamixel_driver/goal|-:J3:0.000000:eff_
1549535080.286464,cobot_dynamixel_driver/goal|-:J1,J2,J3,J4,J5,J6:0.000000,0.000000,0.523599,0.000000,0.000000,0.000000:0.250000,0.250000,0.250000,0.250000,0.250000,0.250000:pos_vel_
1549535081.997832,cobot_dynamixel_driver/goal|-:J3:0.000000:eff_
1549535082.088842,cobot_dynamixel_driver/goal|-:J1,J2,J3,J4,J5,J6:0.000000,0.000000,0.523599,0.000000,0.000000,0.000000:0.250000,0.250000,0.250000,0.250000,0.250000,0.250000:pos_vel_
1549535083.881344,cobot_dynamixel_driver/goal|-:J3:0.000000:eff_
1549535083.999363,cobot_dynamixel_driver/goal|-:J1,J2,J3,J4,J5,J6:0.000000,0.000000,0.523599,0.000000,0.000000,0.000000:0.250000,0.250000,0.250000,0.250000,0.250000,0.250000:pos_vel_
1549535085.683923,cobot_dynamixel_driver/goal|-:J3:0.000000:eff_
1549535085.801892,cobot_dynamixel_driver/goal|-:J1,J2,J3,J4,J5,J6:0.000000,0.000000,0.523599,0.000000,0.000000,0.000000:0.250000,0.250000,0.250000,0.250000,0.250000,0.250000:pos_vel_
1549535087.404555,cobot_dynamixel_driver/goal|-:J3:0.000000:eff_
1549535087.495392,cobot_dynamixel_driver/goal|-:J1,J2,J3,J4,J5,J6:0.000000,0.000000,0.523599,0.000000,0.000000,0.000000:0.250000,0.250000,0.250000,0.250000,0.250000,0.250000:pos_vel_
1549535089.097979,cobot_dynamixel_driver/goal|-:J3:0.000000:eff_
1549535089.189143,cobot_dynamixel_driver/goal|-:J1,J2,J3,J4,J5,J6:0.000000,0.000000,0.523599,0.000000,0.000000,0.000000:0.250000,0.250000,0.250000,0.250000,0.250000,0.250000:pos_vel_
1549535090.899545,cobot_dynamixel_driver/goal|-:J3:0.000000:eff_
1549535090.990709,cobot_dynamixel_driver/goal|-:J1,J2,J3,J4,J5,J6:0.000000,0.000000,0.523599,0.000000,0.000000,0.000000:0.250000,0.250000,0.250000,0.250000,0.250000,0.250000:pos_vel_
1549535092.593118,cobot_dynamixel_driver/goal|-:J3:0.000000:eff_
1549535092.684140,cobot_dynamixel_driver/goal|-:J1,J2,J3,J4,J5,J6:0.000000,0.000000,0.523599,0.000000,0.000000,0.000000:0.250000,0.250000,0.250000,0.250000,0.250000,0.250000:pos_vel_
1549535094.206734,cobot_dynamixel_driver/goal|-:J3:0.000000:eff_
1549535094.297665,cobot_dynamixel_driver/goal|-:J1,J2,J3,J4,J5,J6:0.000000,0.000000,0.523599,0.000000,0.000000,0.000000:0.250000,0.250000,0.250000,0.250000,0.250000,0.250000:pos_vel_
1549535095.792449,cobot_dynamixel_driver/goal|-:J3:0.000000:eff_
1549535095.910272,cobot_dynamixel_driver/goal|-:J1,J2,J3,J4,J5,J6:0.000000,0.000000,0.523599,0.000000,0.000000,0.000000:0.250000,0.250000,0.250000,0.250000,0.250000,0.250000:pos_vel_
1549535097.512828,cobot_dynamixel_driver/goal|-:J3:0.000000:eff_
1549535097.603781,cobot_dynamixel_driver/goal|-:J1,J2,J3,J4,J5,J6:0.000000,0.000000,0.523599,0.000000,0.000000,0.000000:0.250000,0.250000,0.250000,0.250000,0.250000,0.250000:pos_vel_
1549535099.207593,cobot_dynamixel_driver/goal|-:J3:0.000000:eff_
1549535099.298460,cobot_dynamixel_driver/goal|-:J1,J2,J3,J4,J5,J6:0.000000,0.000000,0.523599,0.000000,0.000000,0.000000:0.250000,0.250000,0.250000,0.250000,0.250000,0.250000:pos_vel_
1549535101.008986,cobot_dynamixel_driver/goal|-:J3:0.000000:eff_
1549535101.100036,cobot_dynamixel_driver/goal|-:J1,J2,J3,J4,J5,J6:0.000000,0.000000,0.523599,0.000000,0.000000,0.000000:0.250000,0.250000,0.250000,0.250000,0.250000,0.250000:pos_vel_
1549535102.891497,cobot_dynamixel_driver/goal|-:J3:0.000000:eff_
1549535103.009602,cobot_dynamixel_driver/goal|-:J1,J2,J3,J4,J5,J6:0.000000,0.000000,0.523599,0.000000,0.000000,0.000000:0.250000,0.250000,0.250000,0.250000,0.250000,0.250000:pos_vel_
1549535104.693071,cobot_dynamixel_driver/goal|-:J3:0.000000:eff_
1549535104.811075,cobot_dynamixel_driver/goal|-:J1,J2,J3,J4,J5,J6:0.000000,0.000000,0.523599,0.000000,0.000000,0.000000:0.250000,0.250000,0.250000,0.250000,0.250000,0.250000:pos_vel_
1549535106.494635,cobot_dynamixel_driver/goal|-:J3:0.000000:eff_
1549535106.612547,cobot_dynamixel_driver/goal|-:J1,J2,J3,J4,J5,J6:0.000000,0.000000,0.523599,0.000000,0.000000,0.000000:0.250000,0.250000,0.250000,0.250000,0.250000,0.250000:pos_vel_
1549535108.215075,cobot_dynamixel_driver/goal|-:J3:0.000000:eff_
1549535108.306300,cobot_dynamixel_driver/goal|-:J1,J2,J3,J4,J5,J6:0.000000,0.000000,0.523599,0.000000,0.000000,0.000000:0.250000,0.250000,0.250000,0.250000,0.250000,0.250000:pos_vel_
1549535110.016639,cobot_dynamixel_driver/goal|-:J3:0.000000:eff_
1549535110.107824,cobot_dynamixel_driver/goal|-:J1,J2,J3,J4,J5,J6:0.000000,0.000000,0.523599,0.000000,0.000000,0.000000:0.250000,0.250000,0.250000,0.250000,0.250000,0.250000:pos_vel_
1549535111.818111,cobot_dynamixel_driver/goal|-:J3:0.000000:eff_
1549535111.909157,cobot_dynamixel_driver/goal|-:J1,J2,J3,J4,J5,J6:0.000000,0.000000,0.523599,0.000000,0.000000,0.000000:0.250000,0.250000,0.250000,0.250000,0.250000,0.250000:pos_vel_
1549535113.403767,cobot_dynamixel_driver/goal|-:J3:0.000000:eff_
1549535113.494756,cobot_dynamixel_driver/goal|-:J1,J2,J3,J4,J5,J6:0.000000,0.000000,0.523599,0.000000,0.000000,0.000000:0.250000,0.250000,0.250000,0.250000,0.250000,0.250000:pos_vel_
1549535115.097296,cobot_dynamixel_driver/goal|-:J3:0.000000:eff_
1549535115.215223,cobot_dynamixel_driver/goal|-:J1,J2,J3,J4,J5,J6:0.000000,0.000000,0.523599,0.000000,0.000000,0.000000:0.250000,0.250000,0.250000,0.250000,0.250000,0.250000:pos_vel_
1549535116.817831,cobot_dynamixel_driver/goal|-:J3:0.000000:eff_
1549535116.908840,cobot_dynamixel_driver/goal|-:J1,J2,J3,J4,J5,J6:0.000000,0.000000,0.523599,0.000000,0.000000,0.000000:0.250000,0.250000,0.250000,0.250000,0.250000,0.250000:pos_vel_
1549535118.594437,cobot_dynamixel_driver/goal|-:J3:0.000000:eff_
1549535118.712363,cobot_dynamixel_driver/goal|-:J1,J2,J3,J4,J5,J6:0.000000,0.000000,0.523599,0.000000,0.000000,0.000000:0.250000,0.250000,0.250000,0.250000,0.250000,0.250000:pos_vel_
1549535120.396024,cobot_dynamixel_driver/goal|-:J3:0.000000:eff_
1549535120.513907,cobot_dynamixel_driver/goal|-:J1,J2,J3,J4,J5,J6:0.000000,0.000000,0.523599,0.000000,0.000000,0.000000:0.250000,0.250000,0.250000,0.250000,0.250000,0.250000:pos_vel_
1549535122.116531,cobot_dynamixel_driver/goal|-:J3:0.000000:eff_
1549535122.207834,cobot_dynamixel_driver/goal|-:J1,J2,J3,J4,J5,J6:0.000000,0.000000,0.523599,0.000000,0.000000,0.000000:0.250000,0.250000,0.250000,0.250000,0.250000,0.250000:pos_vel_
1549535123.810296,cobot_dynamixel_driver/goal|-:J3:0.000000:eff_
1549535123.901182,cobot_dynamixel_driver/goal|-:J1,J2,J3,J4,J5,J6:0.000000,0.000000,0.523599,0.000000,0.000000,0.000000:0.250000,0.250000,0.250000,0.250000,0.250000,0.250000:pos_vel_
1549535125.399760,cobot_dynamixel_driver/goal|-:J3:0.000000:eff_
1549535125.517678,cobot_dynamixel_driver/goal|-:J1,J2,J3,J4,J5,J6:0.000000,0.000000,0.523599,0.000000,0.000000,0.000000:0.250000,0.250000,0.250000,0.250000,0.250000,0.250000:pos_vel_
1549535127.201206,cobot_dynamixel_driver/goal|-:J3:0.000000:eff_
1549535127.319288,cobot_dynamixel_driver/goal|-:J1,J2,J3,J4,J5,J6:0.000000,0.000000,0.523599,0.000000,0.000000,0.000000:0.250000,0.250000,0.250000,0.250000,0.250000,0.250000:pos_vel_
1549535129.007788,cobot_dynamixel_driver/goal|-:J3:0.000000:eff_
1549535129.125818,cobot_dynamixel_driver/goal|-:J1,J2,J3,J4,J5,J6:0.000000,0.000000,0.523599,0.000000,0.000000,0.000000:0.250000,0.250000,0.250000,0.250000,0.250000,0.250000:pos_vel_
1549535130.809362,cobot_dynamixel_driver/goal|-:J3:0.000000:eff_
1549535130.927344,cobot_dynamixel_driver/goal|-:J1,J2,J3,J4,J5,J6:0.000000,0.000000,0.523599,0.000000,0.000000,0.000000:0.250000,0.250000,0.250000,0.250000,0.250000,0.250000:pos_vel_
1549535132.610898,cobot_dynamixel_driver/goal|-:J3:0.000000:eff_
1549535132.701937,cobot_dynamixel_driver/goal|-:J1,J2,J3,J4,J5,J6:0.000000,0.000000,0.523599,0.000000,0.000000,0.000000:0.250000,0.250000,0.250000,0.250000,0.250000,0.250000:pos_vel_
1549535134.224455,cobot_dynamixel_driver/goal|-:J3:0.000000:eff_
1549535134.315422,cobot_dynamixel_driver/goal|-:J1,J2,J3,J4,J5,J6:0.000000,0.000000,0.523599,0.000000,0.000000,0.000000:0.250000,0.250000,0.250000,0.250000,0.250000,0.250000:pos_vel_
1549535135.810198,cobot_dynamixel_driver/goal|-:J3:0.000000:eff_
1549535135.928207,cobot_dynamixel_driver/goal|-:J1,J2,J3,J4,J5,J6:0.000000,0.000000,0.523599,0.000000,0.000000,0.000000:0.250000,0.250000,0.250000,0.250000,0.250000,0.250000:pos_vel_
1549535137.611736,cobot_dynamixel_driver/goal|-:J3:0.000000:eff_
1549535137.729743,cobot_dynamixel_driver/goal|-:J1,J2,J3,J4,J5,J6:0.000000,0.000000,0.523599,0.000000,0.000000,0.000000:0.250000,0.250000,0.250000,0.250000,0.250000,0.250000:pos_vel_
1549535139.413280,cobot_dynamixel_driver/goal|-:J3:0.000000:eff_
1549535139.531244,cobot_dynamixel_driver/goal|-:J1,J2,J3,J4,J5,J6:0.000000,0.000000,0.523599,0.000000,0.000000,0.000000:0.250000,0.250000,0.250000,0.250000,0.250000,0.250000:pos_vel_
1549535141.106876,cobot_dynamixel_driver/goal|-:J3:0.000000:eff_
1549535141.224954,cobot_dynamixel_driver/goal|-:J1,J2,J3,J4,J5,J6:0.000000,0.000000,0.523599,0.000000,0.000000,0.000000:0.250000,0.250000,0.250000,0.250000,0.250000,0.250000:pos_vel_
1549535142.827465,cobot_dynamixel_driver/goal|-:J3:0.000000:eff_
1549535142.918360,cobot_dynamixel_driver/goal|-:J1,J2,J3,J4,J5,J6:0.000000,0.000000,0.523599,0.000000,0.000000,0.000000:0.250000,0.250000,0.250000,0.250000,0.250000,0.250000:pos_vel_
1549535144.413090,cobot_dynamixel_driver/goal|-:J3:0.000000:eff_
1549535144.530867,cobot_dynamixel_driver/goal|-:J1,J2,J3,J4,J5,J6:0.000000,0.000000,0.523599,0.000000,0.000000,0.000000:0.250000,0.250000,0.250000,0.250000,0.250000,0.250000:pos_vel_
1549535146.111547,cobot_dynamixel_driver/goal|-:J3:0.000000:eff_
1549535146.229516,cobot_dynamixel_driver/goal|-:J1,J2,J3,J4,J5,J6:0.000000,0.000000,0.523599,0.000000,0.000000,0.000000:0.250000,0.250000,0.250000,0.250000,0.250000,0.250000:pos_vel_
1549535147.832077,cobot_dynamixel_driver/goal|-:J3:0.000000:eff_
1549535147.923100,cobot_dynamixel_driver/goal|-:J1,J2,J3,J4,J5,J6:0.000000,0.000000,0.523599,0.000000,0.000000,0.000000:0.250000,0.250000,0.250000,0.250000,0.250000,0.250000:pos_vel_
1549535149.527618,cobot_dynamixel_driver/goal|-:J3:0.000000:eff_
1549535149.618536,cobot_dynamixel_driver/goal|-:J1,J2,J3,J4,J5,J6:0.000000,0.000000,0.523599,0.000000,0.000000,0.000000:0.250000,0.250000,0.250000,0.250000,0.250000,0.250000:pos_vel_
1549535151.114206,cobot_dynamixel_driver/goal|-:J3:0.000000:eff_
1549535151.232166,cobot_dynamixel_driver/goal|-:J1,J2,J3,J4,J5,J6:0.000000,0.000000,0.523599,0.000000,0.000000,0.000000:0.250000,0.250000,0.250000,0.250000,0.250000,0.250000:pos_vel_
1549535152.834681,cobot_dynamixel_driver/goal|-:J3:0.000000:eff_
1549535152.925969,cobot_dynamixel_driver/goal|-:J1,J2,J3,J4,J5,J6:0.000000,0.000000,0.523599,0.000000,0.000000,0.000000:0.250000,0.250000,0.250000,0.250000,0.250000,0.250000:pos_vel_
1549535154.528377,cobot_dynamixel_driver/goal|-:J3:0.000000:eff_
1549535154.619298,cobot_dynamixel_driver/goal|-:J1,J2,J3,J4,J5,J6:0.000000,0.000000,0.523599,0.000000,0.000000,0.000000:0.250000,0.250000,0.250000,0.250000,0.250000,0.250000:pos_vel_
1549535156.221882,cobot_dynamixel_driver/goal|-:J3:0.000000:eff_
1549535156.312887,cobot_dynamixel_driver/goal|-:J1,J2,J3,J4,J5,J6:0.000000,0.000000,0.523599,0.000000,0.000000,0.000000:0.250000,0.250000,0.250000,0.250000,0.250000,0.250000:pos_vel_
1549535157.915458,cobot_dynamixel_driver/goal|-:J3:0.000000:eff_
1549535158.033505,cobot_dynamixel_driver/goal|-:J1,J2,J3,J4,J5,J6:0.000000,0.000000,0.523599,0.000000,0.000000,0.000000:0.250000,0.250000,0.250000,0.250000,0.250000,0.250000:pos_vel_
1549535159.528233,cobot_dynamixel_driver/goal|-:J3:0.000000:eff_
1549535159.619047,cobot_dynamixel_driver/goal|-:J1,J2,J3,J4,J5,J6:0.000000,0.000000,0.523599,0.000000,0.000000,0.000000:0.250000,0.250000,0.250000,0.250000,0.250000,0.250000:pos_vel_
1549535161.329633,cobot_dynamixel_driver/goal|-:J3:0.000000:eff_
1549535161.420478,cobot_dynamixel_driver/goal|-:J1,J2,J3,J4,J5,J6:0.000000,0.000000,0.523599,0.000000,0.000000,0.000000:0.250000,0.250000,0.250000,0.250000,0.250000,0.250000:pos_vel_
1549535163.131111,cobot_dynamixel_driver/goal|-:J3:0.000000:eff_
1549535163.222167,cobot_dynamixel_driver/goal|-:J1,J2,J3,J4,J5,J6:0.000000,0.000000,0.523599,0.000000,0.000000,0.000000:0.250000,0.250000,0.250000,0.250000,0.250000,0.250000:pos_vel_
1549535164.716676,cobot_dynamixel_driver/goal|-:J3:0.000000:eff_
1549535164.834586,cobot_dynamixel_driver/goal|-:J1,J2,J3,J4,J5,J6:0.000000,0.000000,0.523599,0.000000,0.000000,0.000000:0.250000,0.250000,0.250000,0.250000,0.250000,0.250000:pos_vel_
1549535166.437125,cobot_dynamixel_driver/goal|-:J3:0.000000:eff_
1549535166.528250,cobot_dynamixel_driver/goal|-:J1,J2,J3,J4,J5,J6:0.000000,0.000000,0.523599,0.000000,0.000000,0.000000:0.250000,0.250000,0.250000,0.250000,0.250000,0.250000:pos_vel_
1549535168.130791,cobot_dynamixel_driver/goal|-:J3:0.000000:eff_
1549535168.221682,cobot_dynamixel_driver/goal|-:J1,J2,J3,J4,J5,J6:0.000000,0.000000,0.523599,0.000000,0.000000,0.000000:0.250000,0.250000,0.250000,0.250000,0.250000,0.250000:pos_vel_
1549535169.717335,cobot_dynamixel_driver/goal|-:J3:0.000000:eff_
1549535169.835318,cobot_dynamixel_driver/goal|-:J1,J2,J3,J4,J5,J6:0.000000,0.000000,0.523599,0.000000,0.000000,0.000000:0.250000,0.250000,0.250000,0.250000,0.250000,0.250000:pos_vel_
1549535171.518834,cobot_dynamixel_driver/goal|-:J3:0.000000:eff_
1549535171.636923,cobot_dynamixel_driver/goal|-:J1,J2,J3,J4,J5,J6:0.000000,0.000000,0.523599,0.000000,0.000000,0.000000:0.250000,0.250000,0.250000,0.250000,0.250000,0.250000:pos_vel_
1549535173.320425,cobot_dynamixel_driver/goal|-:J3:0.000000:eff_
1549535173.438415,cobot_dynamixel_driver/goal|-:J1,J2,J3,J4,J5,J6:0.000000,0.000000,0.523599,0.000000,0.000000,0.000000:0.250000,0.250000,0.250000,0.250000,0.250000,0.250000:pos_vel_
1549535175.042020,cobot_dynamixel_driver/goal|-:J3:0.000000:eff_
1549535175.132920,cobot_dynamixel_driver/goal|-:J1,J2,J3,J4,J5,J6:0.000000,0.000000,0.523599,0.000000,0.000000,0.000000:0.250000,0.250000,0.250000,0.250000,0.250000,0.250000:pos_vel_
1549535176.735511,cobot_dynamixel_driver/goal|-:J3:0.000000:eff_
1549535176.826544,cobot_dynamixel_driver/goal|-:J1,J2,J3,J4,J5,J6:0.000000,0.000000,0.523599,0.000000,0.000000,0.000000:0.250000,0.250000,0.250000,0.250000,0.250000,0.250000:pos_vel_
1549535178.429075,cobot_dynamixel_driver/goal|-:J3:0.000000:eff_
1549535178.547037,cobot_dynamixel_driver/goal|-:J1,J2,J3,J4,J5,J6:0.000000,0.000000,0.523599,0.000000,0.000000,0.000000:0.250000,0.250000,0.250000,0.250000,0.250000,0.250000:pos_vel_
1549535180.122758,cobot_dynamixel_driver/goal|-:J3:0.000000:eff_
1549535180.240699,cobot_dynamixel_driver/goal|-:J1,J2,J3,J4,J5,J6:0.000000,0.000000,0.523599,0.000000,0.000000,0.000000:0.250000,0.250000,0.250000,0.250000,0.250000,0.250000:pos_vel_
1549535181.924233,cobot_dynamixel_driver/goal|-:J3:0.000000:eff_
1549535182.042274,cobot_dynamixel_driver/goal|-:J1,J2,J3,J4,J5,J6:0.000000,0.000000,0.523599,0.000000,0.000000,0.000000:0.250000,0.250000,0.250000,0.250000,0.250000,0.250000:pos_vel_
1549535183.644957,cobot_dynamixel_driver/goal|-:J3:0.000000:eff_
1549535183.735684,cobot_dynamixel_driver/goal|-:J1,J2,J3,J4,J5,J6:0.000000,0.000000,0.523599,0.000000,0.000000,0.000000:0.250000,0.250000,0.250000,0.250000,0.250000,0.250000:pos_vel_
1549535185.230310,cobot_dynamixel_driver/goal|-:J3:0.000000:eff_
1549535185.348325,cobot_dynamixel_driver/goal|-:J1,J2,J3,J4,J5,J6:0.000000,0.000000,0.523599,0.000000,0.000000,0.000000:0.250000,0.250000,0.250000,0.250000,0.250000,0.250000:pos_vel_
1549535186.950874,cobot_dynamixel_driver/goal|-:J3:0.000000:eff_
1549535187.042001,cobot_dynamixel_driver/goal|-:J1,J2,J3,J4,J5,J6:0.000000,0.000000,0.523599,0.000000,0.000000,0.000000:0.250000,0.250000,0.250000,0.250000,0.250000,0.250000:pos_vel_
1549535188.644361,cobot_dynamixel_driver/goal|-:J3:0.000000:eff_
1549535188.735420,cobot_dynamixel_driver/goal|-:J1,J2,J3,J4,J5,J6:0.000000,0.000000,0.523599,0.000000,0.000000,0.000000:0.250000,0.250000,0.250000,0.250000,0.250000,0.250000:pos_vel_
1549535190.337938,cobot_dynamixel_driver/goal|-:J3:0.000000:eff_
1549535190.429099,cobot_dynamixel_driver/goal|-:J1,J2,J3,J4,J5,J6:0.000000,0.000000,0.523599,0.000000,0.000000,0.000000:0.250000,0.250000,0.250000,0.250000,0.250000,0.250000:pos_vel_
1549535192.031494,cobot_dynamixel_driver/goal|-:J3:0.000000:eff_
1549535192.149518,cobot_dynamixel_driver/goal|-:J1,J2,J3,J4,J5,J6:0.000000,0.000000,0.523599,0.000000,0.000000,0.000000:0.250000,0.250000,0.250000,0.250000,0.250000,0.250000:pos_vel_
1549535193.752079,cobot_dynamixel_driver/goal|-:J3:0.000000:eff_
1549535193.843379,cobot_dynamixel_driver/goal|-:J1,J2,J3,J4,J5,J6:0.000000,0.000000,0.523599,0.000000,0.000000,0.000000:0.250000,0.250000,0.250000,0.250000,0.250000,0.250000:pos_vel_
1549535195.634557,cobot_dynamixel_driver/goal|-:J3:0.000000:eff_
1549535195.752516,cobot_dynamixel_driver/goal|-:J1,J2,J3,J4,J5,J6:0.000000,0.000000,0.523599,0.000000,0.000000,0.000000:0.250000,0.250000,0.250000,0.250000,0.250000,0.250000:pos_vel_
1549535197.436123,cobot_dynamixel_driver/goal|-:J3:0.000000:eff_
1549535197.554163,cobot_dynamixel_driver/goal|-:J1,J2,J3,J4,J5,J6:0.000000,0.000000,0.523599,0.000000,0.000000,0.000000:0.250000,0.250000,0.250000,0.250000,0.250000,0.250000:pos_vel_
1549535199.237595,cobot_dynamixel_driver/goal|-:J3:0.000000:eff_
1549535199.355655,cobot_dynamixel_driver/goal|-:J1,J2,J3,J4,J5,J6:0.000000,0.000000,0.523599,0.000000,0.000000,0.000000:0.250000,0.250000,0.250000,0.250000,0.250000,0.250000:pos_vel_
1549535200.934257,cobot_dynamixel_driver/goal|-:J3:0.000000:eff_
1549535201.052256,cobot_dynamixel_driver/goal|-:J1,J2,J3,J4,J5,J6:0.000000,0.000000,0.523599,0.000000,0.000000,0.000000:0.250000,0.250000,0.250000,0.250000,0.250000,0.250000:pos_vel_
1549535202.654772,cobot_dynamixel_driver/goal|-:J3:0.000000:eff_
1549535202.745743,cobot_dynamixel_driver/goal|-:J1,J2,J3,J4,J5,J6:0.000000,0.000000,0.523599,0.000000,0.000000,0.000000:0.250000,0.250000,0.250000,0.250000,0.250000,0.250000:pos_vel_
1549535204.350308,cobot_dynamixel_driver/goal|-:J3:0.000000:eff_
1549535204.441311,cobot_dynamixel_driver/goal|-:J1,J2,J3,J4,J5,J6:0.000000,0.000000,0.523599,0.000000,0.000000,0.000000:0.250000,0.250000,0.250000,0.250000,0.250000,0.250000:pos_vel_
1549535206.043917,cobot_dynamixel_driver/goal|-:J3:0.000000:eff_
1549535206.134914,cobot_dynamixel_driver/goal|-:J1,J2,J3,J4,J5,J6:0.000000,0.000000,0.523599,0.000000,0.000000,0.000000:0.250000,0.250000,0.250000,0.250000,0.250000,0.250000:pos_vel_
1549535207.737477,cobot_dynamixel_driver/goal|-:J3:0.000000:eff_
1549535207.855442,cobot_dynamixel_driver/goal|-:J1,J2,J3,J4,J5,J6:0.000000,0.000000,0.523599,0.000000,0.000000,0.000000:0.250000,0.250000,0.250000,0.250000,0.250000,0.250000:pos_vel_
1549535209.458052,cobot_dynamixel_driver/goal|-:J3:0.000000:eff_
1549535209.549073,cobot_dynamixel_driver/goal|-:J1,J2,J3,J4,J5,J6:0.000000,0.000000,0.523599,0.000000,0.000000,0.000000:0.250000,0.250000,0.250000,0.250000,0.250000,0.250000:pos_vel_
1549535211.341773,cobot_dynamixel_driver/goal|-:J3:0.000000:eff_
1549535211.459708,cobot_dynamixel_driver/goal|-:J1,J2,J3,J4,J5,J6:0.000000,0.000000,0.523599,0.000000,0.000000,0.000000:0.250000,0.250000,0.250000,0.250000,0.250000,0.250000:pos_vel_
1549535213.143307,cobot_dynamixel_driver/goal|-:J3:0.000000:eff_
1549535213.261302,cobot_dynamixel_driver/goal|-:J1,J2,J3,J4,J5,J6:0.000000,0.000000,0.523599,0.000000,0.000000,0.000000:0.250000,0.250000,0.250000,0.250000,0.250000,0.250000:pos_vel_
1549535214.945783,cobot_dynamixel_driver/goal|-:J3:0.000000:eff_
1549535215.063764,cobot_dynamixel_driver/goal|-:J1,J2,J3,J4,J5,J6:0.000000,0.000000,0.523599,0.000000,0.000000,0.000000:0.250000,0.250000,0.250000,0.250000,0.250000,0.250000:pos_vel_
1549535216.641398,cobot_dynamixel_driver/goal|-:J3:0.000000:eff_
1549535216.759406,cobot_dynamixel_driver/goal|-:J1,J2,J3,J4,J5,J6:0.000000,0.000000,0.523599,0.000000,0.000000,0.000000:0.250000,0.250000,0.250000,0.250000,0.250000,0.250000:pos_vel_
1549535218.361894,cobot_dynamixel_driver/goal|-:J3:0.000000:eff_
1549535218.452899,cobot_dynamixel_driver/goal|-:J1,J2,J3,J4,J5,J6:0.000000,0.000000,0.523599,0.000000,0.000000,0.000000:0.250000,0.250000,0.250000,0.250000,0.250000,0.250000:pos_vel_
1549535220.056527,cobot_dynamixel_driver/goal|-:J3:0.000000:eff_
1549535220.147500,cobot_dynamixel_driver/goal|-:J1,J2,J3,J4,J5,J6:0.000000,0.000000,0.523599,0.000000,0.000000,0.000000:0.250000,0.250000,0.250000,0.250000,0.250000,0.250000:pos_vel_
1549535221.749982,cobot_dynamixel_driver/goal|-:J3:0.000000:eff_
1549535221.841042,cobot_dynamixel_driver/goal|-:J1,J2,J3,J4,J5,J6:0.000000,0.000000,0.523599,0.000000,0.000000,0.000000:0.250000,0.250000,0.250000,0.250000,0.250000,0.250000:pos_vel_
1549535223.443790,cobot_dynamixel_driver/goal|-:J3:0.000000:eff_
1549535223.561489,cobot_dynamixel_driver/goal|-:J1,J2,J3,J4,J5,J6:0.000000,0.000000,0.523599,0.000000,0.000000,0.000000:0.250000,0.250000,0.250000,0.250000,0.250000,0.250000:pos_vel_
1549535225.164103,cobot_dynamixel_driver/goal|-:J3:0.000000:eff_
1549535225.255049,cobot_dynamixel_driver/goal|-:J1,J2,J3,J4,J5,J6:0.000000,0.000000,0.523599,0.000000,0.000000,0.000000:0.250000,0.250000,0.250000,0.250000,0.250000,0.250000:pos_vel_
1549535226.857698,cobot_dynamixel_driver/goal|-:J3:0.000000:eff_
1549535226.948682,cobot_dynamixel_driver/goal|-:J1,J2,J3,J4,J5,J6:0.000000,0.000000,0.523599,0.000000,0.000000,0.000000:0.250000,0.250000,0.250000,0.250000,0.250000,0.250000:pos_vel_
1549535228.443412,cobot_dynamixel_driver/goal|-:J3:0.000000:eff_
1549535228.561306,cobot_dynamixel_driver/goal|-:J1,J2,J3,J4,J5,J6:0.000000,0.000000,0.523599,0.000000,0.000000,0.000000:0.250000,0.250000,0.250000,0.250000,0.250000,0.250000:pos_vel_
1549535230.164941,cobot_dynamixel_driver/goal|-:J3:0.000000:eff_
1549535230.255830,cobot_dynamixel_driver/goal|-:J1,J2,J3,J4,J5,J6:0.000000,0.000000,0.523599,0.000000,0.000000,0.000000:0.250000,0.250000,0.250000,0.250000,0.250000,0.250000:pos_vel_
1549535231.858645,cobot_dynamixel_driver/goal|-:J3:0.000000:eff_
1549535231.949374,cobot_dynamixel_driver/goal|-:J1,J2,J3,J4,J5,J6:0.000000,0.000000,0.523599,0.000000,0.000000,0.000000:0.250000,0.250000,0.250000,0.250000,0.250000,0.250000:pos_vel_
1549535233.471080,cobot_dynamixel_driver/goal|-:J3:0.000000:eff_
1549535233.562020,cobot_dynamixel_driver/goal|-:J1,J2,J3,J4,J5,J6:0.000000,0.000000,0.523599,0.000000,0.000000,0.000000:0.250000,0.250000,0.250000,0.250000,0.250000,0.250000:pos_vel_
1549535235.164598,cobot_dynamixel_driver/goal|-:J3:0.000000:eff_
1549535235.255554,cobot_dynamixel_driver/goal|-:J1,J2,J3,J4,J5,J6:0.000000,0.000000,0.523599,0.000000,0.000000,0.000000:0.250000,0.250000,0.250000,0.250000,0.250000,0.250000:pos_vel_
1549535236.858320,cobot_dynamixel_driver/goal|-:J3:0.000000:eff_
1549535236.949122,cobot_dynamixel_driver/goal|-:J1,J2,J3,J4,J5,J6:0.000000,0.000000,0.523599,0.000000,0.000000,0.000000:0.250000,0.250000,0.250000,0.250000,0.250000,0.250000:pos_vel_
1549535238.551718,cobot_dynamixel_driver/goal|-:J3:0.000000:eff_
1549535238.669672,cobot_dynamixel_driver/goal|-:J1,J2,J3,J4,J5,J6:0.000000,0.000000,0.523599,0.000000,0.000000,0.000000:0.250000,0.250000,0.250000,0.250000,0.250000,0.250000:pos_vel_
1549535240.272275,cobot_dynamixel_driver/goal|-:J3:0.000000:eff_
1549535240.363266,cobot_dynamixel_driver/goal|-:J1,J2,J3,J4,J5,J6:0.000000,0.000000,0.523599,0.000000,0.000000,0.000000:0.250000,0.250000,0.250000,0.250000,0.250000,0.250000:pos_vel_
1549535241.966843,cobot_dynamixel_driver/goal|-:J3:0.000000:eff_
1549535242.057952,cobot_dynamixel_driver/goal|-:J1,J2,J3,J4,J5,J6:0.000000,0.000000,0.523599,0.000000,0.000000,0.000000:0.250000,0.250000,0.250000,0.250000,0.250000,0.250000:pos_vel_
1549535243.660361,cobot_dynamixel_driver/goal|-:J3:0.000000:eff_
1549535243.751283,cobot_dynamixel_driver/goal|-:J1,J2,J3,J4,J5,J6:0.000000,0.000000,0.523599,0.000000,0.000000,0.000000:0.250000,0.250000,0.250000,0.250000,0.250000,0.250000:pos_vel_
1549535245.353947,cobot_dynamixel_driver/goal|-:J3:0.000000:eff_
1549535245.471936,cobot_dynamixel_driver/goal|-:J1,J2,J3,J4,J5,J6:0.000000,0.000000,0.523599,0.000000,0.000000,0.000000:0.250000,0.250000,0.250000,0.250000,0.250000,0.250000:pos_vel_
1549535246.969485,cobot_dynamixel_driver/goal|-:J3:0.000000:eff_
1549535247.060847,cobot_dynamixel_driver/goal|-:J1,J2,J3,J4,J5,J6:0.000000,0.000000,0.523599,0.000000,0.000000,0.000000:0.250000,0.250000,0.250000,0.250000,0.250000,0.250000:pos_vel_
1549535248.879019,cobot_dynamixel_driver/goal|-:J3:0.000000:eff_
1549535248.969995,cobot_dynamixel_driver/goal|-:J1,J2,J3,J4,J5,J6:0.000000,0.000000,0.523599,0.000000,0.000000,0.000000:0.250000,0.250000,0.250000,0.250000,0.250000,0.250000:pos_vel_
1549535250.572546,cobot_dynamixel_driver/goal|-:J3:0.000000:eff_
1549535250.663512,cobot_dynamixel_driver/goal|-:J1,J2,J3,J4,J5,J6:0.000000,0.000000,0.523599,0.000000,0.000000,0.000000:0.250000,0.250000,0.250000,0.250000,0.250000,0.250000:pos_vel_
1549535252.158371,cobot_dynamixel_driver/goal|-:J3:0.000000:eff_
1549535252.276271,cobot_dynamixel_driver/goal|-:J1,J2,J3,J4,J5,J6:0.000000,0.000000,0.523599,0.000000,0.000000,0.000000:0.250000,0.250000,0.250000,0.250000,0.250000,0.250000:pos_vel_
1549535253.878762,cobot_dynamixel_driver/goal|-:J3:0.000000:eff_
1549535253.969697,cobot_dynamixel_driver/goal|-:J1,J2,J3,J4,J5,J6:0.000000,0.000000,0.523599,0.000000,0.000000,0.000000:0.250000,0.250000,0.250000,0.250000,0.250000,0.250000:pos_vel_
1549535255.572313,cobot_dynamixel_driver/goal|-:J3:0.000000:eff_
1549535255.663382,cobot_dynamixel_driver/goal|-:J1,J2,J3,J4,J5,J6:0.000000,0.000000,0.523599,0.000000,0.000000,0.000000:0.250000,0.250000,0.250000,0.250000,0.250000,0.250000:pos_vel_
1549535257.266015,cobot_dynamixel_driver/goal|-:J3:0.000000:eff_
1549535257.356875,cobot_dynamixel_driver/goal|-:J1,J2,J3,J4,J5,J6:0.000000,0.000000,0.523599,0.000000,0.000000,0.000000:0.250000,0.250000,0.250000,0.250000,0.250000,0.250000:pos_vel_
1549535258.959565,cobot_dynamixel_driver/goal|-:J3:0.000000:eff_
1549535259.077564,cobot_dynamixel_driver/goal|-:J1,J2,J3,J4,J5,J6:0.000000,0.000000,0.523599,0.000000,0.000000,0.000000:0.250000,0.250000,0.250000,0.250000,0.250000,0.250000:pos_vel_
1549535260.572146,cobot_dynamixel_driver/goal|-:J3:0.000000:eff_
1549535260.663136,cobot_dynamixel_driver/goal|-:J1,J2,J3,J4,J5,J6:0.000000,0.000000,0.523599,0.000000,0.000000,0.000000:0.250000,0.250000,0.250000,0.250000,0.250000,0.250000:pos_vel_
1549535262.373771,cobot_dynamixel_driver/goal|-:J3:0.000000:eff_
1549535262.464669,cobot_dynamixel_driver/goal|-:J1,J2,J3,J4,J5,J6:0.000000,0.000000,0.523599,0.000000,0.000000,0.000000:0.250000,0.250000,0.250000,0.250000,0.250000,0.250000:pos_vel_
1549535264.175375,cobot_dynamixel_driver/goal|-:J3:0.000000:eff_
1549535264.266170,cobot_dynamixel_driver/goal|-:J1,J2,J3,J4,J5,J6:0.000000,0.000000,0.523599,0.000000,0.000000,0.000000:0.250000,0.250000,0.250000,0.250000,0.250000,0.250000:pos_vel_
1549535265.761987,cobot_dynamixel_driver/goal|-:J3:0.000000:eff_
1549535265.879910,cobot_dynamixel_driver/goal|-:J1,J2,J3,J4,J5,J6:0.000000,0.000000,0.523599,0.000000,0.000000,0.000000:0.250000,0.250000,0.250000,0.250000,0.250000,0.250000:pos_vel_
1549535267.563378,cobot_dynamixel_driver/goal|-:J3:0.000000:eff_
1549535267.681421,cobot_dynamixel_driver/goal|-:J1,J2,J3,J4,J5,J6:0.000000,0.000000,0.523599,0.000000,0.000000,0.000000:0.250000,0.250000,0.250000,0.250000,0.250000,0.250000:pos_vel_
1549535269.283985,cobot_dynamixel_driver/goal|-:J3:0.000000:eff_
1549535269.375143,cobot_dynamixel_driver/goal|-:J1,J2,J3,J4,J5,J6:0.000000,0.000000,0.523599,0.000000,0.000000,0.000000:0.250000,0.250000,0.250000,0.250000,0.250000,0.250000:pos_vel_
1549535270.977608,cobot_dynamixel_driver/goal|-:J3:0.000000:eff_
1549535271.068566,cobot_dynamixel_driver/goal|-:J1,J2,J3,J4,J5,J6:0.000000,0.000000,0.523599,0.000000,0.000000,0.000000:0.250000,0.250000,0.250000,0.250000,0.250000,0.250000:pos_vel_
1549535272.671149,cobot_dynamixel_driver/goal|-:J3:0.000000:eff_
1549535272.789322,cobot_dynamixel_driver/goal|-:J1,J2,J3,J4,J5,J6:0.000000,0.000000,0.523599,0.000000,0.000000,0.000000:0.250000,0.250000,0.250000,0.250000,0.250000,0.250000:pos_vel_
1549535274.364730,cobot_dynamixel_driver/goal|-:J3:0.000000:eff_
1549535274.482740,cobot_dynamixel_driver/goal|-:J1,J2,J3,J4,J5,J6:0.000000,0.000000,0.523599,0.000000,0.000000,0.000000:0.250000,0.250000,0.250000,0.250000,0.250000,0.250000:pos_vel_
1549535276.166273,cobot_dynamixel_driver/goal|-:J3:0.000000:eff_
1549535276.284231,cobot_dynamixel_driver/goal|-:J1,J2,J3,J4,J5,J6:0.000000,0.000000,0.523599,0.000000,0.000000,0.000000:0.250000,0.250000,0.250000,0.250000,0.250000,0.250000:pos_vel_
1549535277.967764,cobot_dynamixel_driver/goal|-:J3:0.000000:eff_
1549535278.085773,cobot_dynamixel_driver/goal|-:J1,J2,J3,J4,J5,J6:0.000000,0.000000,0.523599,0.000000,0.000000,0.000000:0.250000,0.250000,0.250000,0.250000,0.250000,0.250000:pos_vel_
1549535279.688307,cobot_dynamixel_driver/goal|-:J3:0.000000:eff_
1549535279.779483,cobot_dynamixel_driver/goal|-:J1,J2,J3,J4,J5,J6:0.000000,0.000000,0.523599,0.000000,0.000000,0.000000:0.250000,0.250000,0.250000,0.250000,0.250000,0.250000:pos_vel_
1549535281.274104,cobot_dynamixel_driver/goal|-:J3:0.000000:eff_
1549535281.392012,cobot_dynamixel_driver/goal|-:J1,J2,J3,J4,J5,J6:0.000000,0.000000,0.523599,0.000000,0.000000,0.000000:0.250000,0.250000,0.250000,0.250000,0.250000,0.250000:pos_vel_
1549535282.968509,cobot_dynamixel_driver/goal|-:J3:0.000000:eff_
1549535283.086442,cobot_dynamixel_driver/goal|-:J1,J2,J3,J4,J5,J6:0.000000,0.000000,0.523599,0.000000,0.000000,0.000000:0.250000,0.250000,0.250000,0.250000,0.250000,0.250000:pos_vel_
1549535284.771056,cobot_dynamixel_driver/goal|-:J3:0.000000:eff_
1549535284.889044,cobot_dynamixel_driver/goal|-:J1,J2,J3,J4,J5,J6:0.000000,0.000000,0.523599,0.000000,0.000000,0.000000:0.250000,0.250000,0.250000,0.250000,0.250000,0.250000:pos_vel_
1549535286.491880,cobot_dynamixel_driver/goal|-:J3:0.000000:eff_
1549535286.582622,cobot_dynamixel_driver/goal|-:J1,J2,J3,J4,J5,J6:0.000000,0.000000,0.523599,0.000000,0.000000,0.000000:0.250000,0.250000,0.250000,0.250000,0.250000,0.250000:pos_vel_
1549535288.078308,cobot_dynamixel_driver/goal|-:J3:0.000000:eff_
1549535288.196278,cobot_dynamixel_driver/goal|-:J1,J2,J3,J4,J5,J6:0.000000,0.000000,0.523599,0.000000,0.000000,0.000000:0.250000,0.250000,0.250000,0.250000,0.250000,0.250000:pos_vel_
1549535289.771786,cobot_dynamixel_driver/goal|-:J3:0.000000:eff_
1549535289.889790,cobot_dynamixel_driver/goal|-:J1,J2,J3,J4,J5,J6:0.000000,0.000000,0.523599,0.000000,0.000000,0.000000:0.250000,0.250000,0.250000,0.250000,0.250000,0.250000:pos_vel_
1549535291.573281,cobot_dynamixel_driver/goal|-:J3:0.000000:eff_
1549535291.691523,cobot_dynamixel_driver/goal|-:J1,J2,J3,J4,J5,J6:0.000000,0.000000,0.523599,0.000000,0.000000,0.000000:0.250000,0.250000,0.250000,0.250000,0.250000,0.250000:pos_vel_
1549535293.294067,cobot_dynamixel_driver/goal|-:J3:0.000000:eff_
1549535293.384827,cobot_dynamixel_driver/goal|-:J1,J2,J3,J4,J5,J6:0.000000,0.000000,0.523599,0.000000,0.000000,0.000000:0.250000,0.250000,0.250000,0.250000,0.250000,0.250000:pos_vel_
1549535294.987529,cobot_dynamixel_driver/goal|-:J3:0.000000:eff_
1549535295.078487,cobot_dynamixel_driver/goal|-:J1,J2,J3,J4,J5,J6:0.000000,0.000000,0.523599,0.000000,0.000000,0.000000:0.250000,0.250000,0.250000,0.250000,0.250000,0.250000:pos_vel_
1549535296.685035,cobot_dynamixel_driver/goal|-:J3:0.000000:eff_
1549535296.776221,cobot_dynamixel_driver/goal|-:J1,J2,J3,J4,J5,J6:0.000000,0.000000,0.523599,0.000000,0.000000,0.000000:0.250000,0.250000,0.250000,0.250000,0.250000,0.250000:pos_vel_
1549535298.378572,cobot_dynamixel_driver/goal|-:J3:0.000000:eff_
1549535298.496627,cobot_dynamixel_driver/goal|-:J1,J2,J3,J4,J5,J6:0.000000,0.000000,0.523599,0.000000,0.000000,0.000000:0.250000,0.250000,0.250000,0.250000,0.250000,0.250000:pos_vel_
1549535300.099159,cobot_dynamixel_driver/goal|-:J3:0.000000:eff_
1549535300.190079,cobot_dynamixel_driver/goal|-:J1,J2,J3,J4,J5,J6:0.000000,0.000000,0.523599,0.000000,0.000000,0.000000:0.250000,0.250000,0.250000,0.250000,0.250000,0.250000:pos_vel_
1549535301.684774,cobot_dynamixel_driver/goal|-:J3:0.000000:eff_
1549535301.776529,cobot_dynamixel_driver/goal|-:J1,J2,J3,J4,J5,J6:0.000000,0.000000,0.523599,0.000000,0.000000,0.000000:0.250000,0.250000,0.250000,0.250000,0.250000,0.250000:pos_vel_
1549535303.379381,cobot_dynamixel_driver/goal|-:J3:0.000000:eff_
1549535303.497248,cobot_dynamixel_driver/goal|-:J1,J2,J3,J4,J5,J6:0.000000,0.000000,0.523599,0.000000,0.000000,0.000000:0.250000,0.250000,0.250000,0.250000,0.250000,0.250000:pos_vel_
1549535305.099909,cobot_dynamixel_driver/goal|-:J3:0.000000:eff_
1549535305.190982,cobot_dynamixel_driver/goal|-:J1,J2,J3,J4,J5,J6:0.000000,0.000000,0.523599,0.000000,0.000000,0.000000:0.250000,0.250000,0.250000,0.250000,0.250000,0.250000:pos_vel_
1549535306.686511,cobot_dynamixel_driver/goal|-:J3:0.000000:eff_
1549535306.777733,cobot_dynamixel_driver/goal|-:J1,J2,J3,J4,J5,J6:0.000000,0.000000,0.523599,0.000000,0.000000,0.000000:0.250000,0.250000,0.250000,0.250000,0.250000,0.250000:pos_vel_
1549535308.488000,cobot_dynamixel_driver/goal|-:J3:0.000000:eff_
1549535308.578958,cobot_dynamixel_driver/goal|-:J1,J2,J3,J4,J5,J6:0.000000,0.000000,0.523599,0.000000,0.000000,0.000000:0.250000,0.250000,0.250000,0.250000,0.250000,0.250000:pos_vel_
1549535310.181572,cobot_dynamixel_driver/goal|-:J3:0.000000:eff_
1549535310.299603,cobot_dynamixel_driver/goal|-:J1,J2,J3,J4,J5,J6:0.000000,0.000000,0.523599,0.000000,0.000000,0.000000:0.250000,0.250000,0.250000,0.250000,0.250000,0.250000:pos_vel_
1549535311.983142,cobot_dynamixel_driver/goal|-:J3:0.000000:eff_
1549535312.101171,cobot_dynamixel_driver/goal|-:J1,J2,J3,J4,J5,J6:0.000000,0.000000,0.523599,0.000000,0.000000,0.000000:0.250000,0.250000,0.250000,0.250000,0.250000,0.250000:pos_vel_
1549535313.680786,cobot_dynamixel_driver/goal|-:J3:0.000000:eff_
1549535313.798685,cobot_dynamixel_driver/goal|-:J1,J2,J3,J4,J5,J6:0.000000,0.000000,0.523599,0.000000,0.000000,0.000000:0.250000,0.250000,0.250000,0.250000,0.250000,0.250000:pos_vel_
1549535315.401219,cobot_dynamixel_driver/goal|-:J3:0.000000:eff_
1549535315.492610,cobot_dynamixel_driver/goal|-:J1,J2,J3,J4,J5,J6:0.000000,0.000000,0.523599,0.000000,0.000000,0.000000:0.250000,0.250000,0.250000,0.250000,0.250000,0.250000:pos_vel_
1549535317.094864,cobot_dynamixel_driver/goal|-:J3:0.000000:eff_
1549535317.185854,cobot_dynamixel_driver/goal|-:J1,J2,J3,J4,J5,J6:0.000000,0.000000,0.523599,0.000000,0.000000,0.000000:0.250000,0.250000,0.250000,0.250000,0.250000,0.250000:pos_vel_
1549535318.789381,cobot_dynamixel_driver/goal|-:J3:0.000000:eff_
1549535318.907398,cobot_dynamixel_driver/goal|-:J1,J2,J3,J4,J5,J6:0.000000,0.000000,0.523599,0.000000,0.000000,0.000000:0.250000,0.250000,0.250000,0.250000,0.250000,0.250000:pos_vel_
1549535320.591076,cobot_dynamixel_driver/goal|-:J3:0.000000:eff_
1549535320.709008,cobot_dynamixel_driver/goal|-:J1,J2,J3,J4,J5,J6:0.000000,0.000000,0.523599,0.000000,0.000000,0.000000:0.250000,0.250000,0.250000,0.250000,0.250000,0.250000:pos_vel_
1549535322.284523,cobot_dynamixel_driver/goal|-:J3:0.000000:eff_
1549535322.402584,cobot_dynamixel_driver/goal|-:J1,J2,J3,J4,J5,J6:0.000000,0.000000,0.523599,0.000000,0.000000,0.000000:0.250000,0.250000,0.250000,0.250000,0.250000,0.250000:pos_vel_
1549535324.085997,cobot_dynamixel_driver/goal|-:J3:0.000000:eff_
1549535324.204034,cobot_dynamixel_driver/goal|-:J1,J2,J3,J4,J5,J6:0.000000,0.000000,0.523599,0.000000,0.000000,0.000000:0.250000,0.250000,0.250000,0.250000,0.250000,0.250000:pos_vel_
1549535325.806557,cobot_dynamixel_driver/goal|-:J3:0.000000:eff_
1549535325.897536,cobot_dynamixel_driver/goal|-:J1,J2,J3,J4,J5,J6:0.000000,0.000000,0.523599,0.000000,0.000000,0.000000:0.250000,0.250000,0.250000,0.250000,0.250000,0.250000:pos_vel_
1549535327.501203,cobot_dynamixel_driver/goal|-:J3:0.000000:eff_
1549535327.592321,cobot_dynamixel_driver/goal|-:J1,J2,J3,J4,J5,J6:0.000000,0.000000,0.523599,0.000000,0.000000,0.000000:0.250000,0.250000,0.250000,0.250000,0.250000,0.250000:pos_vel_
1549535329.195759,cobot_dynamixel_driver/goal|-:J3:0.000000:eff_
1549535329.313704,cobot_dynamixel_driver/goal|-:J1,J2,J3,J4,J5,J6:0.000000,0.000000,0.523599,0.000000,0.000000,0.000000:0.250000,0.250000,0.250000,0.250000,0.250000,0.250000:pos_vel_
1549535330.889247,cobot_dynamixel_driver/goal|-:J3:0.000000:eff_
1549535331.007953,cobot_dynamixel_driver/goal|-:J1,J2,J3,J4,J5,J6:0.000000,0.000000,0.523599,0.000000,0.000000,0.000000:0.250000,0.250000,0.250000,0.250000,0.250000,0.250000:pos_vel_
1549535332.691837,cobot_dynamixel_driver/goal|-:J3:0.000000:eff_
1549535332.809769,cobot_dynamixel_driver/goal|-:J1,J2,J3,J4,J5,J6:0.000000,0.000000,0.523599,0.000000,0.000000,0.000000:0.250000,0.250000,0.250000,0.250000,0.250000,0.250000:pos_vel_
1549535334.493384,cobot_dynamixel_driver/goal|-:J3:0.000000:eff_
1549535334.611538,cobot_dynamixel_driver/goal|-:J1,J2,J3,J4,J5,J6:0.000000,0.000000,0.523599,0.000000,0.000000,0.000000:0.250000,0.250000,0.250000,0.250000,0.250000,0.250000:pos_vel_
1549535336.402987,cobot_dynamixel_driver/goal|-:J3:0.000000:eff_
1549535336.494173,cobot_dynamixel_driver/goal|-:J1,J2,J3,J4,J5,J6:0.000000,0.000000,0.523599,0.000000,0.000000,0.000000:0.250000,0.250000,0.250000,0.250000,0.250000,0.250000:pos_vel_
1549535338.097723,cobot_dynamixel_driver/goal|-:J3:0.000000:eff_
1549535338.215589,cobot_dynamixel_driver/goal|-:J1,J2,J3,J4,J5,J6:0.000000,0.000000,0.523599,0.000000,0.000000,0.000000:0.250000,0.250000,0.250000,0.250000,0.250000,0.250000:pos_vel_
1549535339.899164,cobot_dynamixel_driver/goal|-:J3:0.000000:eff_
1549535340.017175,cobot_dynamixel_driver/goal|-:J1,J2,J3,J4,J5,J6:0.000000,0.000000,0.523599,0.000000,0.000000,0.000000:0.250000,0.250000,0.250000,0.250000,0.250000,0.250000:pos_vel_
1549535341.592822,cobot_dynamixel_driver/goal|-:J3:0.000000:eff_
1549535341.710894,cobot_dynamixel_driver/goal|-:J1,J2,J3,J4,J5,J6:0.000000,0.000000,0.523599,0.000000,0.000000,0.000000:0.250000,0.250000,0.250000,0.250000,0.250000,0.250000:pos_vel_
1549535343.313414,cobot_dynamixel_driver/goal|-:J3:0.000000:eff_
1549535343.404353,cobot_dynamixel_driver/goal|-:J1,J2,J3,J4,J5,J6:0.000000,0.000000,0.523599,0.000000,0.000000,0.000000:0.250000,0.250000,0.250000,0.250000,0.250000,0.250000:pos_vel_
1549535345.006913,cobot_dynamixel_driver/goal|-:J3:0.000000:eff_
1549535345.097926,cobot_dynamixel_driver/goal|-:J1,J2,J3,J4,J5,J6:0.000000,0.000000,0.523599,0.000000,0.000000,0.000000:0.250000,0.250000,0.250000,0.250000,0.250000,0.250000:pos_vel_
1549535346.700457,cobot_dynamixel_driver/goal|-:J3:0.000000:eff_
1549535346.818464,cobot_dynamixel_driver/goal|-:J1,J2,J3,J4,J5,J6:0.000000,0.000000,0.523599,0.000000,0.000000,0.000000:0.250000,0.250000,0.250000,0.250000,0.250000,0.250000:pos_vel_
1549535348.395064,cobot_dynamixel_driver/goal|-:J3:0.000000:eff_
1549535348.513057,cobot_dynamixel_driver/goal|-:J1,J2,J3,J4,J5,J6:0.000000,0.000000,0.523599,0.000000,0.000000,0.000000:0.250000,0.250000,0.250000,0.250000,0.250000,0.250000:pos_vel_
1549535350.196537,cobot_dynamixel_driver/goal|-:J3:0.000000:eff_
1549535350.314497,cobot_dynamixel_driver/goal|-:J1,J2,J3,J4,J5,J6:0.000000,0.000000,0.523599,0.000000,0.000000,0.000000:0.250000,0.250000,0.250000,0.250000,0.250000,0.250000:pos_vel_
1549535352.003980,cobot_dynamixel_driver/goal|-:J3:0.000000:eff_
1549535352.122040,cobot_dynamixel_driver/goal|-:J1,J2,J3,J4,J5,J6:0.000000,0.000000,0.523599,0.000000,0.000000,0.000000:0.250000,0.250000,0.250000,0.250000,0.250000,0.250000:pos_vel_
1549535353.697607,cobot_dynamixel_driver/goal|-:J3:0.000000:eff_
1549535353.815544,cobot_dynamixel_driver/goal|-:J1,J2,J3,J4,J5,J6:0.000000,0.000000,0.523599,0.000000,0.000000,0.000000:0.250000,0.250000,0.250000,0.250000,0.250000,0.250000:pos_vel_
1549535355.499081,cobot_dynamixel_driver/goal|-:J3:0.000000:eff_
1549535355.617086,cobot_dynamixel_driver/goal|-:J1,J2,J3,J4,J5,J6:0.000000,0.000000,0.523599,0.000000,0.000000,0.000000:0.250000,0.250000,0.250000,0.250000,0.250000,0.250000:pos_vel_
1549535357.219728,cobot_dynamixel_driver/goal|-:J3:0.000000:eff_
1549535357.310804,cobot_dynamixel_driver/goal|-:J1,J2,J3,J4,J5,J6:0.000000,0.000000,0.523599,0.000000,0.000000,0.000000:0.250000,0.250000,0.250000,0.250000,0.250000,0.250000:pos_vel_
1549535358.913185,cobot_dynamixel_driver/goal|-:J3:0.000000:eff_
1549535359.004154,cobot_dynamixel_driver/goal|-:J1,J2,J3,J4,J5,J6:0.000000,0.000000,0.523599,0.000000,0.000000,0.000000:0.250000,0.250000,0.250000,0.250000,0.250000,0.250000:pos_vel_
1549535360.606767,cobot_dynamixel_driver/goal|-:J3:0.000000:eff_
1549535360.724751,cobot_dynamixel_driver/goal|-:J1,J2,J3,J4,J5,J6:0.000000,0.000000,0.523599,0.000000,0.000000,0.000000:0.250000,0.250000,0.250000,0.250000,0.250000,0.250000:pos_vel_
1549535362.409463,cobot_dynamixel_driver/goal|-:J3:0.000000:eff_
1549535362.527396,cobot_dynamixel_driver/goal|-:J1,J2,J3,J4,J5,J6:0.000000,0.000000,0.523599,0.000000,0.000000,0.000000:0.250000,0.250000,0.250000,0.250000,0.250000,0.250000:pos_vel_
1549535364.102926,cobot_dynamixel_driver/goal|-:J3:0.000000:eff_
1549535364.220899,cobot_dynamixel_driver/goal|-:J1,J2,J3,J4,J5,J6:0.000000,0.000000,0.523599,0.000000,0.000000,0.000000:0.250000,0.250000,0.250000,0.250000,0.250000,0.250000:pos_vel_
1549535366.012529,cobot_dynamixel_driver/goal|-:J3:0.000000:eff_
1549535366.103373,cobot_dynamixel_driver/goal|-:J1,J2,J3,J4,J5,J6:0.000000,0.000000,0.523599,0.000000,0.000000,0.000000:0.250000,0.250000,0.250000,0.250000,0.250000,0.250000:pos_vel_
1549535367.625080,cobot_dynamixel_driver/goal|-:J3:0.000000:eff_
1549535367.715997,cobot_dynamixel_driver/goal|-:J1,J2,J3,J4,J5,J6:0.000000,0.000000,0.523599,0.000000,0.000000,0.000000:0.250000,0.250000,0.250000,0.250000,0.250000,0.250000:pos_vel_
1549535369.319678,cobot_dynamixel_driver/goal|-:J3:0.000000:eff_
1549535369.410866,cobot_dynamixel_driver/goal|-:J1,J2,J3,J4,J5,J6:0.000000,0.000000,0.523599,0.000000,0.000000,0.000000:0.250000,0.250000,0.250000,0.250000,0.250000,0.250000:pos_vel_
1549535371.121172,cobot_dynamixel_driver/goal|-:J3:0.000000:eff_
1549535371.212361,cobot_dynamixel_driver/goal|-:J1,J2,J3,J4,J5,J6:0.000000,0.000000,0.523599,0.000000,0.000000,0.000000:0.250000,0.250000,0.250000,0.250000,0.250000,0.250000:pos_vel_
1549535372.707773,cobot_dynamixel_driver/goal|-:J3:0.000000:eff_
1549535372.825824,cobot_dynamixel_driver/goal|-:J1,J2,J3,J4,J5,J6:0.000000,0.000000,0.523599,0.000000,0.000000,0.000000:0.250000,0.250000,0.250000,0.250000,0.250000,0.250000:pos_vel_
1549535374.428232,cobot_dynamixel_driver/goal|-:J3:0.000000:eff_
1549535374.519201,cobot_dynamixel_driver/goal|-:J1,J2,J3,J4,J5,J6:0.000000,0.000000,0.523599,0.000000,0.000000,0.000000:0.250000,0.250000,0.250000,0.250000,0.250000,0.250000:pos_vel_
1549535376.121766,cobot_dynamixel_driver/goal|-:J3:0.000000:eff_
1549535376.212713,cobot_dynamixel_driver/goal|-:J1,J2,J3,J4,J5,J6:0.000000,0.000000,0.523599,0.000000,0.000000,0.000000:0.250000,0.250000,0.250000,0.250000,0.250000,0.250000:pos_vel_
1549535377.924412,cobot_dynamixel_driver/goal|-:J3:0.000000:eff_
1549535378.015324,cobot_dynamixel_driver/goal|-:J1,J2,J3,J4,J5,J6:0.000000,0.000000,0.523599,0.000000,0.000000,0.000000:0.250000,0.250000,0.250000,0.250000,0.250000,0.250000:pos_vel_
1549535379.510029,cobot_dynamixel_driver/goal|-:J3:0.000000:eff_
1549535379.627994,cobot_dynamixel_driver/goal|-:J1,J2,J3,J4,J5,J6:0.000000,0.000000,0.523599,0.000000,0.000000,0.000000:0.250000,0.250000,0.250000,0.250000,0.250000,0.250000:pos_vel_
1549535381.231546,cobot_dynamixel_driver/goal|-:J3:0.000000:eff_
1549535381.322559,cobot_dynamixel_driver/goal|-:J1,J2,J3,J4,J5,J6:0.000000,0.000000,0.523599,0.000000,0.000000,0.000000:0.250000,0.250000,0.250000,0.250000,0.250000,0.250000:pos_vel_
1549535382.925245,cobot_dynamixel_driver/goal|-:J3:0.000000:eff_
1549535383.016024,cobot_dynamixel_driver/goal|-:J1,J2,J3,J4,J5,J6:0.000000,0.000000,0.523599,0.000000,0.000000,0.000000:0.250000,0.250000,0.250000,0.250000,0.250000,0.250000:pos_vel_
1549535384.618628,cobot_dynamixel_driver/goal|-:J3:0.000000:eff_
1549535384.736545,cobot_dynamixel_driver/goal|-:J1,J2,J3,J4,J5,J6:0.000000,0.000000,0.523599,0.000000,0.000000,0.000000:0.250000,0.250000,0.250000,0.250000,0.250000,0.250000:pos_vel_
1549535386.420169,cobot_dynamixel_driver/goal|-:J3:0.000000:eff_
1549535386.538115,cobot_dynamixel_driver/goal|-:J1,J2,J3,J4,J5,J6:0.000000,0.000000,0.523599,0.000000,0.000000,0.000000:0.250000,0.250000,0.250000,0.250000,0.250000,0.250000:pos_vel_
1549535388.118981,cobot_dynamixel_driver/goal|-:J3:0.000000:eff_
1549535388.236892,cobot_dynamixel_driver/goal|-:J1,J2,J3,J4,J5,J6:0.000000,0.000000,0.523599,0.000000,0.000000,0.000000:0.250000,0.250000,0.250000,0.250000,0.250000,0.250000:pos_vel_
1549535389.839267,cobot_dynamixel_driver/goal|-:J3:0.000000:eff_
1549535389.930328,cobot_dynamixel_driver/goal|-:J1,J2,J3,J4,J5,J6:0.000000,0.000000,0.523599,0.000000,0.000000,0.000000:0.250000,0.250000,0.250000,0.250000,0.250000,0.250000:pos_vel_
1549535391.533207,cobot_dynamixel_driver/goal|-:J3:0.000000:eff_
1549535391.623892,cobot_dynamixel_driver/goal|-:J1,J2,J3,J4,J5,J6:0.000000,0.000000,0.523599,0.000000,0.000000,0.000000:0.250000,0.250000,0.250000,0.250000,0.250000,0.250000:pos_vel_
1549535393.226398,cobot_dynamixel_driver/goal|-:J3:0.000000:eff_
1549535393.317450,cobot_dynamixel_driver/goal|-:J1,J2,J3,J4,J5,J6:0.000000,0.000000,0.523599,0.000000,0.000000,0.000000:0.250000,0.250000,0.250000,0.250000,0.250000,0.250000:pos_vel_
1549535394.920053,cobot_dynamixel_driver/goal|-:J3:0.000000:eff_
1549535395.037956,cobot_dynamixel_driver/goal|-:J1,J2,J3,J4,J5,J6:0.000000,0.000000,0.523599,0.000000,0.000000,0.000000:0.250000,0.250000,0.250000,0.250000,0.250000,0.250000:pos_vel_
1549535396.641557,cobot_dynamixel_driver/goal|-:J3:0.000000:eff_
1549535396.732461,cobot_dynamixel_driver/goal|-:J1,J2,J3,J4,J5,J6:0.000000,0.000000,0.523599,0.000000,0.000000,0.000000:0.250000,0.250000,0.250000,0.250000,0.250000,0.250000:pos_vel_
1549535398.524062,cobot_dynamixel_driver/goal|-:J3:0.000000:eff_
1549535398.642032,cobot_dynamixel_driver/goal|-:J1,J2,J3,J4,J5,J6:0.000000,0.000000,0.523599,0.000000,0.000000,0.000000:0.250000,0.250000,0.250000,0.250000,0.250000,0.250000:pos_vel_
1549535400.325586,cobot_dynamixel_driver/goal|-:J3:0.000000:eff_
1549535400.443682,cobot_dynamixel_driver/goal|-:J1,J2,J3,J4,J5,J6:0.000000,0.000000,0.523599,0.000000,0.000000,0.000000:0.250000,0.250000,0.250000,0.250000,0.250000,0.250000:pos_vel_
1549535402.127156,cobot_dynamixel_driver/goal|-:J3:0.000000:eff_
1549535402.245215,cobot_dynamixel_driver/goal|-:J1,J2,J3,J4,J5,J6:0.000000,0.000000,0.523599,0.000000,0.000000,0.000000:0.250000,0.250000,0.250000,0.250000,0.250000,0.250000:pos_vel_
1549535403.820820,cobot_dynamixel_driver/goal|-:J3:0.000000:eff_
1549535403.938696,cobot_dynamixel_driver/goal|-:J1,J2,J3,J4,J5,J6:0.000000,0.000000,0.523599,0.000000,0.000000,0.000000:0.250000,0.250000,0.250000,0.250000,0.250000,0.250000:pos_vel_
1549535405.622293,cobot_dynamixel_driver/goal|-:J3:0.000000:eff_
1549535405.740272,cobot_dynamixel_driver/goal|-:J1,J2,J3,J4,J5,J6:0.000000,0.000000,0.523599,0.000000,0.000000,0.000000:0.250000,0.250000,0.250000,0.250000,0.250000,0.250000:pos_vel_
1549535407.343911,cobot_dynamixel_driver/goal|-:J3:0.000000:eff_
1549535407.434805,cobot_dynamixel_driver/goal|-:J1,J2,J3,J4,J5,J6:0.000000,0.000000,0.523599,0.000000,0.000000,0.000000:0.250000,0.250000,0.250000,0.250000,0.250000,0.250000:pos_vel_
1549535408.929401,cobot_dynamixel_driver/goal|-:J3:0.000000:eff_
1549535409.047412,cobot_dynamixel_driver/goal|-:J1,J2,J3,J4,J5,J6:0.000000,0.000000,0.523599,0.000000,0.000000,0.000000:0.250000,0.250000,0.250000,0.250000,0.250000,0.250000:pos_vel_
1549535410.650127,cobot_dynamixel_driver/goal|-:J3:0.000000:eff_
1549535410.741001,cobot_dynamixel_driver/goal|-:J1,J2,J3,J4,J5,J6:0.000000,0.000000,0.523599,0.000000,0.000000,0.000000:0.250000,0.250000,0.250000,0.250000,0.250000,0.250000:pos_vel_
1549535412.343614,cobot_dynamixel_driver/goal|-:J3:0.000000:eff_
1549535412.434592,cobot_dynamixel_driver/goal|-:J1,J2,J3,J4,J5,J6:0.000000,0.000000,0.523599,0.000000,0.000000,0.000000:0.250000,0.250000,0.250000,0.250000,0.250000,0.250000:pos_vel_
1549535414.037173,cobot_dynamixel_driver/goal|-:J3:0.000000:eff_
1549535414.128291,cobot_dynamixel_driver/goal|-:J1,J2,J3,J4,J5,J6:0.000000,0.000000,0.523599,0.000000,0.000000,0.000000:0.250000,0.250000,0.250000,0.250000,0.250000,0.250000:pos_vel_
1549535415.730777,cobot_dynamixel_driver/goal|-:J3:0.000000:eff_
1549535415.848739,cobot_dynamixel_driver/goal|-:J1,J2,J3,J4,J5,J6:0.000000,0.000000,0.523599,0.000000,0.000000,0.000000:0.250000,0.250000,0.250000,0.250000,0.250000,0.250000:pos_vel_
1549535417.532233,cobot_dynamixel_driver/goal|-:J3:0.000000:eff_
1549535417.650294,cobot_dynamixel_driver/goal|-:J1,J2,J3,J4,J5,J6:0.000000,0.000000,0.523599,0.000000,0.000000,0.000000:0.250000,0.250000,0.250000,0.250000,0.250000,0.250000:pos_vel_
1549535419.253829,cobot_dynamixel_driver/goal|-:J3:0.000000:eff_
1549535419.344968,cobot_dynamixel_driver/goal|-:J1,J2,J3,J4,J5,J6:0.000000,0.000000,0.523599,0.000000,0.000000,0.000000:0.250000,0.250000,0.250000,0.250000,0.250000,0.250000:pos_vel_
1549535420.947527,cobot_dynamixel_driver/goal|-:J3:0.000000:eff_
1549535421.038437,cobot_dynamixel_driver/goal|-:J1,J2,J3,J4,J5,J6:0.000000,0.000000,0.523599,0.000000,0.000000,0.000000:0.250000,0.250000,0.250000,0.250000,0.250000,0.250000:pos_vel_
1549535422.641085,cobot_dynamixel_driver/goal|-:J3:0.000000:eff_
1549535422.731982,cobot_dynamixel_driver/goal|-:J1,J2,J3,J4,J5,J6:0.000000,0.000000,0.523599,0.000000,0.000000,0.000000:0.250000,0.250000,0.250000,0.250000,0.250000,0.250000:pos_vel_
1549535424.335297,cobot_dynamixel_driver/goal|-:J3:0.000000:eff_
1549535424.453592,cobot_dynamixel_driver/goal|-:J1,J2,J3,J4,J5,J6:0.000000,0.000000,0.523599,0.000000,0.000000,0.000000:0.250000,0.250000,0.250000,0.250000,0.250000,0.250000:pos_vel_
1549535426.056222,cobot_dynamixel_driver/goal|-:J3:0.000000:eff_
1549535426.147300,cobot_dynamixel_driver/goal|-:J1,J2,J3,J4,J5,J6:0.000000,0.000000,0.523599,0.000000,0.000000,0.000000:0.250000,0.250000,0.250000,0.250000,0.250000,0.250000:pos_vel_
1549535427.642408,cobot_dynamixel_driver/goal|-:J3:0.000000:eff_
1549535427.733811,cobot_dynamixel_driver/goal|-:J1,J2,J3,J4,J5,J6:0.000000,0.000000,0.523599,0.000000,0.000000,0.000000:0.250000,0.250000,0.250000,0.250000,0.250000,0.250000:pos_vel_
1549535429.336433,cobot_dynamixel_driver/goal|-:J3:0.000000:eff_
1549535429.454436,cobot_dynamixel_driver/goal|-:J1,J2,J3,J4,J5,J6:0.000000,0.000000,0.523599,0.000000,0.000000,0.000000:0.250000,0.250000,0.250000,0.250000,0.250000,0.250000:pos_vel_
1549535431.056872,cobot_dynamixel_driver/goal|-:J3:0.000000:eff_
1549535431.147967,cobot_dynamixel_driver/goal|-:J1,J2,J3,J4,J5,J6:0.000000,0.000000,0.523599,0.000000,0.000000,0.000000:0.250000,0.250000,0.250000,0.250000,0.250000,0.250000:pos_vel_
1549535432.750536,cobot_dynamixel_driver/goal|-:J3:0.000000:eff_
1549535432.841551,cobot_dynamixel_driver/goal|-:J1,J2,J3,J4,J5,J6:0.000000,0.000000,0.523599,0.000000,0.000000,0.000000:0.250000,0.250000,0.250000,0.250000,0.250000,0.250000:pos_vel_
1549535434.447093,cobot_dynamixel_driver/goal|-:J3:0.000000:eff_
1549535434.538131,cobot_dynamixel_driver/goal|-:J1,J2,J3,J4,J5,J6:0.000000,0.000000,0.523599,0.000000,0.000000,0.000000:0.250000,0.250000,0.250000,0.250000,0.250000,0.250000:pos_vel_
1549535436.059779,cobot_dynamixel_driver/goal|-:J3:0.000000:eff_
1549535436.150758,cobot_dynamixel_driver/goal|-:J1,J2,J3,J4,J5,J6:0.000000,0.000000,0.523599,0.000000,0.000000,0.000000:0.250000,0.250000,0.250000,0.250000,0.250000,0.250000:pos_vel_
1549535437.753357,cobot_dynamixel_driver/goal|-:J3:0.000000:eff_
1549535437.844404,cobot_dynamixel_driver/goal|-:J1,J2,J3,J4,J5,J6:0.000000,0.000000,0.523599,0.000000,0.000000,0.000000:0.250000,0.250000,0.250000,0.250000,0.250000,0.250000:pos_vel_
1549535439.448810,cobot_dynamixel_driver/goal|-:J3:0.000000:eff_
1549535439.539766,cobot_dynamixel_driver/goal|-:J1,J2,J3,J4,J5,J6:0.000000,0.000000,0.523599,0.000000,0.000000,0.000000:0.250000,0.250000,0.250000,0.250000,0.250000,0.250000:pos_vel_
1549535441.143438,cobot_dynamixel_driver/goal|-:J3:0.000000:eff_
1549535441.261347,cobot_dynamixel_driver/goal|-:J1,J2,J3,J4,J5,J6:0.000000,0.000000,0.523599,0.000000,0.000000,0.000000:0.250000,0.250000,0.250000,0.250000,0.250000,0.250000:pos_vel_
1549535442.863917,cobot_dynamixel_driver/goal|-:J3:0.000000:eff_
1549535442.954891,cobot_dynamixel_driver/goal|-:J1,J2,J3,J4,J5,J6:0.000000,0.000000,0.523599,0.000000,0.000000,0.000000:0.250000,0.250000,0.250000,0.250000,0.250000,0.250000:pos_vel_
1549535444.450514,cobot_dynamixel_driver/goal|-:J3:0.000000:eff_
1549535444.541453,cobot_dynamixel_driver/goal|-:J1,J2,J3,J4,J5,J6:0.000000,0.000000,0.523599,0.000000,0.000000,0.000000:0.250000,0.250000,0.250000,0.250000,0.250000,0.250000:pos_vel_
1549535446.144254,cobot_dynamixel_driver/goal|-:J3:0.000000:eff_
1549535446.262226,cobot_dynamixel_driver/goal|-:J1,J2,J3,J4,J5,J6:0.000000,0.000000,0.523599,0.000000,0.000000,0.000000:0.250000,0.250000,0.250000,0.250000,0.250000,0.250000:pos_vel_
1549535447.946677,cobot_dynamixel_driver/goal|-:J3:0.000000:eff_
1549535448.064674,cobot_dynamixel_driver/goal|-:J1,J2,J3,J4,J5,J6:0.000000,0.000000,0.523599,0.000000,0.000000,0.000000:0.250000,0.250000,0.250000,0.250000,0.250000,0.250000:pos_vel_
1549535449.667182,cobot_dynamixel_driver/goal|-:J3:0.000000:eff_
1549535449.758208,cobot_dynamixel_driver/goal|-:J1,J2,J3,J4,J5,J6:0.000000,0.000000,0.523599,0.000000,0.000000,0.000000:0.250000,0.250000,0.250000,0.250000,0.250000,0.250000:pos_vel_
1549535451.360766,cobot_dynamixel_driver/goal|-:J3:0.000000:eff_
1549535451.451735,cobot_dynamixel_driver/goal|-:J1,J2,J3,J4,J5,J6:0.000000,0.000000,0.523599,0.000000,0.000000,0.000000:0.250000,0.250000,0.250000,0.250000,0.250000,0.250000:pos_vel_
1549535453.054372,cobot_dynamixel_driver/goal|-:J3:0.000000:eff_
1549535453.145536,cobot_dynamixel_driver/goal|-:J1,J2,J3,J4,J5,J6:0.000000,0.000000,0.523599,0.000000,0.000000,0.000000:0.250000,0.250000,0.250000,0.250000,0.250000,0.250000:pos_vel_
1549535454.747934,cobot_dynamixel_driver/goal|-:J3:0.000000:eff_
1549535454.865962,cobot_dynamixel_driver/goal|-:J1,J2,J3,J4,J5,J6:0.000000,0.000000,0.523599,0.000000,0.000000,0.000000:0.250000,0.250000,0.250000,0.250000,0.250000,0.250000:pos_vel_
1549535456.468486,cobot_dynamixel_driver/goal|-:J3:0.000000:eff_
1549535456.559834,cobot_dynamixel_driver/goal|-:J1,J2,J3,J4,J5,J6:0.000000,0.000000,0.523599,0.000000,0.000000,0.000000:0.250000,0.250000,0.250000,0.250000,0.250000,0.250000:pos_vel_
1549535458.054189,cobot_dynamixel_driver/goal|-:J3:0.000000:eff_
1549535458.145280,cobot_dynamixel_driver/goal|-:J1,J2,J3,J4,J5,J6:0.000000,0.000000,0.523599,0.000000,0.000000,0.000000:0.250000,0.250000,0.250000,0.250000,0.250000,0.250000:pos_vel_
1549535459.667007,cobot_dynamixel_driver/goal|-:J3:0.000000:eff_
1549535459.757936,cobot_dynamixel_driver/goal|-:J1,J2,J3,J4,J5,J6:0.000000,0.000000,0.523599,0.000000,0.000000,0.000000:0.250000,0.250000,0.250000,0.250000,0.250000,0.250000:pos_vel_
1549535461.253272,cobot_dynamixel_driver/goal|-:J3:0.000000:eff_
1549535461.371291,cobot_dynamixel_driver/goal|-:J1,J2,J3,J4,J5,J6:0.000000,0.000000,0.523599,0.000000,0.000000,0.000000:0.250000,0.250000,0.250000,0.250000,0.250000,0.250000:pos_vel_
1549535463.054859,cobot_dynamixel_driver/goal|-:J3:0.000000:eff_
1549535463.172912,cobot_dynamixel_driver/goal|-:J1,J2,J3,J4,J5,J6:0.000000,0.000000,0.523599,0.000000,0.000000,0.000000:0.250000,0.250000,0.250000,0.250000,0.250000,0.250000:pos_vel_
1549535464.856365,cobot_dynamixel_driver/goal|-:J3:0.000000:eff_
1549535464.974559,cobot_dynamixel_driver/goal|-:J1,J2,J3,J4,J5,J6:0.000000,0.000000,0.523599,0.000000,0.000000,0.000000:0.250000,0.250000,0.250000,0.250000,0.250000,0.250000:pos_vel_
1549535466.550061,cobot_dynamixel_driver/goal|-:J3:0.000000:eff_
1549535466.668050,cobot_dynamixel_driver/goal|-:J1,J2,J3,J4,J5,J6:0.000000,0.000000,0.523599,0.000000,0.000000,0.000000:0.250000,0.250000,0.250000,0.250000,0.250000,0.250000:pos_vel_
1549535468.351602,cobot_dynamixel_driver/goal|-:J3:0.000000:eff_
1549535468.469594,cobot_dynamixel_driver/goal|-:J1,J2,J3,J4,J5,J6:0.000000,0.000000,0.523599,0.000000,0.000000,0.000000:0.250000,0.250000,0.250000,0.250000,0.250000,0.250000:pos_vel_
1549535470.072159,cobot_dynamixel_driver/goal|-:J3:0.000000:eff_
1549535470.163228,cobot_dynamixel_driver/goal|-:J1,J2,J3,J4,J5,J6:0.000000,0.000000,0.523599,0.000000,0.000000,0.000000:0.250000,0.250000,0.250000,0.250000,0.250000,0.250000:pos_vel_
1549535471.657776,cobot_dynamixel_driver/goal|-:J3:0.000000:eff_
1549535471.775682,cobot_dynamixel_driver/goal|-:J1,J2,J3,J4,J5,J6:0.000000,0.000000,0.523599,0.000000,0.000000,0.000000:0.250000,0.250000,0.250000,0.250000,0.250000,0.250000:pos_vel_
1549535473.459290,cobot_dynamixel_driver/goal|-:J3:0.000000:eff_
1549535473.577243,cobot_dynamixel_driver/goal|-:J1,J2,J3,J4,J5,J6:0.000000,0.000000,0.523599,0.000000,0.000000,0.000000:0.250000,0.250000,0.250000,0.250000,0.250000,0.250000:pos_vel_
1549535475.260851,cobot_dynamixel_driver/goal|-:J3:0.000000:eff_
1549535475.378909,cobot_dynamixel_driver/goal|-:J1,J2,J3,J4,J5,J6:0.000000,0.000000,0.523599,0.000000,0.000000,0.000000:0.250000,0.250000,0.250000,0.250000,0.250000,0.250000:pos_vel_
1549535476.954351,cobot_dynamixel_driver/goal|-:J3:0.000000:eff_
1549535477.072343,cobot_dynamixel_driver/goal|-:J1,J2,J3,J4,J5,J6:0.000000,0.000000,0.523599,0.000000,0.000000,0.000000:0.250000,0.250000,0.250000,0.250000,0.250000,0.250000:pos_vel_
1549535478.755901,cobot_dynamixel_driver/goal|-:J3:0.000000:eff_
1549535478.873906,cobot_dynamixel_driver/goal|-:J1,J2,J3,J4,J5,J6:0.000000,0.000000,0.523599,0.000000,0.000000,0.000000:0.250000,0.250000,0.250000,0.250000,0.250000,0.250000:pos_vel_
1549535480.476501,cobot_dynamixel_driver/goal|-:J3:0.000000:eff_
1549535480.567545,cobot_dynamixel_driver/goal|-:J1,J2,J3,J4,J5,J6:0.000000,0.000000,0.523599,0.000000,0.000000,0.000000:0.250000,0.250000,0.250000,0.250000,0.250000,0.250000:pos_vel_
1549535482.171141,cobot_dynamixel_driver/goal|-:J3:0.000000:eff_
1549535482.262287,cobot_dynamixel_driver/goal|-:J1,J2,J3,J4,J5,J6:0.000000,0.000000,0.523599,0.000000,0.000000,0.000000:0.250000,0.250000,0.250000,0.250000,0.250000,0.250000:pos_vel_
1549535483.864591,cobot_dynamixel_driver/goal|-:J3:0.000000:eff_
1549535483.982658,cobot_dynamixel_driver/goal|-:J1,J2,J3,J4,J5,J6:0.000000,0.000000,0.523599,0.000000,0.000000,0.000000:0.250000,0.250000,0.250000,0.250000,0.250000,0.250000:pos_vel_
1549535485.666170,cobot_dynamixel_driver/goal|-:J3:0.000000:eff_
1549535485.784237,cobot_dynamixel_driver/goal|-:J1,J2,J3,J4,J5,J6:0.000000,0.000000,0.523599,0.000000,0.000000,0.000000:0.250000,0.250000,0.250000,0.250000,0.250000,0.250000:pos_vel_
1549535487.467772,cobot_dynamixel_driver/goal|-:J3:0.000000:eff_
1549535487.558696,cobot_dynamixel_driver/goal|-:J1,J2,J3,J4,J5,J6:0.000000,0.000000,0.523599,0.000000,0.000000,0.000000:0.250000,0.250000,0.250000,0.250000,0.250000,0.250000:pos_vel_
1549535489.161308,cobot_dynamixel_driver/goal|-:J3:0.000000:eff_
1549535489.279421,cobot_dynamixel_driver/goal|-:J1,J2,J3,J4,J5,J6:0.000000,0.000000,0.523599,0.000000,0.000000,0.000000:0.250000,0.250000,0.250000,0.250000,0.250000,0.250000:pos_vel_
1549535490.962820,cobot_dynamixel_driver/goal|-:J3:0.000000:eff_
1549535491.080832,cobot_dynamixel_driver/goal|-:J1,J2,J3,J4,J5,J6:0.000000,0.000000,0.523599,0.000000,0.000000,0.000000:0.250000,0.250000,0.250000,0.250000,0.250000,0.250000:pos_vel_
1549535492.683365,cobot_dynamixel_driver/goal|-:J3:0.000000:eff_
1549535492.774442,cobot_dynamixel_driver/goal|-:J1,J2,J3,J4,J5,J6:0.000000,0.000000,0.523599,0.000000,0.000000,0.000000:0.250000,0.250000,0.250000,0.250000,0.250000,0.250000:pos_vel_
1549535494.376967,cobot_dynamixel_driver/goal|-:J3:0.000000:eff_
1549535494.467931,cobot_dynamixel_driver/goal|-:J1,J2,J3,J4,J5,J6:0.000000,0.000000,0.523599,0.000000,0.000000,0.000000:0.250000,0.250000,0.250000,0.250000,0.250000,0.250000:pos_vel_
1549535496.070587,cobot_dynamixel_driver/goal|-:J3:0.000000:eff_
1549535496.161654,cobot_dynamixel_driver/goal|-:J1,J2,J3,J4,J5,J6:0.000000,0.000000,0.523599,0.000000,0.000000,0.000000:0.250000,0.250000,0.250000,0.250000,0.250000,0.250000:pos_vel_
1549535497.764241,cobot_dynamixel_driver/goal|-:J3:0.000000:eff_
1549535497.882174,cobot_dynamixel_driver/goal|-:J1,J2,J3,J4,J5,J6:0.000000,0.000000,0.523599,0.000000,0.000000,0.000000:0.250000,0.250000,0.250000,0.250000,0.250000,0.250000:pos_vel_
1549535499.565784,cobot_dynamixel_driver/goal|-:J3:0.000000:eff_
1549535499.683789,cobot_dynamixel_driver/goal|-:J1,J2,J3,J4,J5,J6:0.000000,0.000000,0.523599,0.000000,0.000000,0.000000:0.250000,0.250000,0.250000,0.250000,0.250000,0.250000:pos_vel_
1549535501.367369,cobot_dynamixel_driver/goal|-:J3:0.000000:eff_
1549535501.485355,cobot_dynamixel_driver/goal|-:J1,J2,J3,J4,J5,J6:0.000000,0.000000,0.523599,0.000000,0.000000,0.000000:0.250000,0.250000,0.250000,0.250000,0.250000,0.250000:pos_vel_
1549535503.168816,cobot_dynamixel_driver/goal|-:J3:0.000000:eff_
1549535503.286844,cobot_dynamixel_driver/goal|-:J1,J2,J3,J4,J5,J6:0.000000,0.000000,0.523599,0.000000,0.000000,0.000000:0.250000,0.250000,0.250000,0.250000,0.250000,0.250000:pos_vel_
1549535504.889409,cobot_dynamixel_driver/goal|-:J3:0.000000:eff_
1549535504.980507,cobot_dynamixel_driver/goal|-:J1,J2,J3,J4,J5,J6:0.000000,0.000000,0.523599,0.000000,0.000000,0.000000:0.250000,0.250000,0.250000,0.250000,0.250000,0.250000:pos_vel_
1549535506.583009,cobot_dynamixel_driver/goal|-:J3:0.000000:eff_
1549535506.673921,cobot_dynamixel_driver/goal|-:J1,J2,J3,J4,J5,J6:0.000000,0.000000,0.523599,0.000000,0.000000,0.000000:0.250000,0.250000,0.250000,0.250000,0.250000,0.250000:pos_vel_
1549535508.276458,cobot_dynamixel_driver/goal|-:J3:0.000000:eff_
1549535508.367536,cobot_dynamixel_driver/goal|-:J1,J2,J3,J4,J5,J6:0.000000,0.000000,0.523599,0.000000,0.000000,0.000000:0.250000,0.250000,0.250000,0.250000,0.250000,0.250000:pos_vel_
1549535509.970020,cobot_dynamixel_driver/goal|-:J3:0.000000:eff_
1549535510.087998,cobot_dynamixel_driver/goal|-:J1,J2,J3,J4,J5,J6:0.000000,0.000000,0.523599,0.000000,0.000000,0.000000:0.250000,0.250000,0.250000,0.250000,0.250000,0.250000:pos_vel_
1549535511.582719,cobot_dynamixel_driver/goal|-:J3:0.000000:eff_
1549535511.673530,cobot_dynamixel_driver/goal|-:J1,J2,J3,J4,J5,J6:0.000000,0.000000,0.523599,0.000000,0.000000,0.000000:0.250000,0.250000,0.250000,0.250000,0.250000,0.250000:pos_vel_
1549535513.385152,cobot_dynamixel_driver/goal|-:J3:0.000000:eff_
1549535513.476084,cobot_dynamixel_driver/goal|-:J1,J2,J3,J4,J5,J6:0.000000,0.000000,0.523599,0.000000,0.000000,0.000000:0.250000,0.250000,0.250000,0.250000,0.250000,0.250000:pos_vel_
1549535515.078828,cobot_dynamixel_driver/goal|-:J3:0.000000:eff_
1549535515.196748,cobot_dynamixel_driver/goal|-:J1,J2,J3,J4,J5,J6:0.000000,0.000000,0.523599,0.000000,0.000000,0.000000:0.250000,0.250000,0.250000,0.250000,0.250000,0.250000:pos_vel_
1549535516.772369,cobot_dynamixel_driver/goal|-:J3:0.000000:eff_
1549535516.890307,cobot_dynamixel_driver/goal|-:J1,J2,J3,J4,J5,J6:0.000000,0.000000,0.523599,0.000000,0.000000,0.000000:0.250000,0.250000,0.250000,0.250000,0.250000,0.250000:pos_vel_
1549535518.574926,cobot_dynamixel_driver/goal|-:J3:0.000000:eff_
1549535518.692851,cobot_dynamixel_driver/goal|-:J1,J2,J3,J4,J5,J6:0.000000,0.000000,0.523599,0.000000,0.000000,0.000000:0.250000,0.250000,0.250000,0.250000,0.250000,0.250000:pos_vel_
1549535520.376370,cobot_dynamixel_driver/goal|-:J3:0.000000:eff_
1549535520.494353,cobot_dynamixel_driver/goal|-:J1,J2,J3,J4,J5,J6:0.000000,0.000000,0.523599,0.000000,0.000000,0.000000:0.250000,0.250000,0.250000,0.250000,0.250000,0.250000:pos_vel_
1549535522.177871,cobot_dynamixel_driver/goal|-:J3:0.000000:eff_
1549535522.296052,cobot_dynamixel_driver/goal|-:J1,J2,J3,J4,J5,J6:0.000000,0.000000,0.523599,0.000000,0.000000,0.000000:0.250000,0.250000,0.250000,0.250000,0.250000,0.250000:pos_vel_
1549535523.979546,cobot_dynamixel_driver/goal|-:J3:0.000000:eff_
1549535524.097531,cobot_dynamixel_driver/goal|-:J1,J2,J3,J4,J5,J6:0.000000,0.000000,0.523599,0.000000,0.000000,0.000000:0.250000,0.250000,0.250000,0.250000,0.250000,0.250000:pos_vel_
1549535525.781031,cobot_dynamixel_driver/goal|-:J3:0.000000:eff_
1549535525.898985,cobot_dynamixel_driver/goal|-:J1,J2,J3,J4,J5,J6:0.000000,0.000000,0.523599,0.000000,0.000000,0.000000:0.250000,0.250000,0.250000,0.250000,0.250000,0.250000:pos_vel_
1549535527.501570,cobot_dynamixel_driver/goal|-:J3:0.000000:eff_
1549535527.592508,cobot_dynamixel_driver/goal|-:J1,J2,J3,J4,J5,J6:0.000000,0.000000,0.523599,0.000000,0.000000,0.000000:0.250000,0.250000,0.250000,0.250000,0.250000,0.250000:pos_vel_
1549535529.276142,cobot_dynamixel_driver/goal|-:J3:0.000000:eff_
1549535529.394079,cobot_dynamixel_driver/goal|-:J1,J2,J3,J4,J5,J6:0.000000,0.000000,0.523599,0.000000,0.000000,0.000000:0.250000,0.250000,0.250000,0.250000,0.250000,0.250000:pos_vel_
1549535531.077589,cobot_dynamixel_driver/goal|-:J3:0.000000:eff_
1549535531.195744,cobot_dynamixel_driver/goal|-:J1,J2,J3,J4,J5,J6:0.000000,0.000000,0.523599,0.000000,0.000000,0.000000:0.250000,0.250000,0.250000,0.250000,0.250000,0.250000:pos_vel_
1549535532.798211,cobot_dynamixel_driver/goal|-:J3:0.000000:eff_
1549535532.889139,cobot_dynamixel_driver/goal|-:J1,J2,J3,J4,J5,J6:0.000000,0.000000,0.523599,0.000000,0.000000,0.000000:0.250000,0.250000,0.250000,0.250000,0.250000,0.250000:pos_vel_
1549535534.491729,cobot_dynamixel_driver/goal|-:J3:0.000000:eff_
1549535534.582709,cobot_dynamixel_driver/goal|-:J1,J2,J3,J4,J5,J6:0.000000,0.000000,0.523599,0.000000,0.000000,0.000000:0.250000,0.250000,0.250000,0.250000,0.250000,0.250000:pos_vel_
1549535536.185251,cobot_dynamixel_driver/goal|-:J3:0.000000:eff_
1549535536.303243,cobot_dynamixel_driver/goal|-:J1,J2,J3,J4,J5,J6:0.000000,0.000000,0.523599,0.000000,0.000000,0.000000:0.250000,0.250000,0.250000,0.250000,0.250000,0.250000:pos_vel_
1549535537.986878,cobot_dynamixel_driver/goal|-:J3:0.000000:eff_
1549535538.104849,cobot_dynamixel_driver/goal|-:J1,J2,J3,J4,J5,J6:0.000000,0.000000,0.523599,0.000000,0.000000,0.000000:0.250000,0.250000,0.250000,0.250000,0.250000,0.250000:pos_vel_
1549535539.788388,cobot_dynamixel_driver/goal|-:J3:0.000000:eff_
1549535539.906412,cobot_dynamixel_driver/goal|-:J1,J2,J3,J4,J5,J6:0.000000,0.000000,0.523599,0.000000,0.000000,0.000000:0.250000,0.250000,0.250000,0.250000,0.250000,0.250000:pos_vel_
1549535541.589937,cobot_dynamixel_driver/goal|-:J3:0.000000:eff_
1549535541.680839,cobot_dynamixel_driver/goal|-:J1,J2,J3,J4,J5,J6:0.000000,0.000000,0.523599,0.000000,0.000000,0.000000:0.250000,0.250000,0.250000,0.250000,0.250000,0.250000:pos_vel_
1549535543.499433,cobot_dynamixel_driver/goal|-:J3:0.000000:eff_
1549535543.590448,cobot_dynamixel_driver/goal|-:J1,J2,J3,J4,J5,J6:0.000000,0.000000,0.523599,0.000000,0.000000,0.000000:0.250000,0.250000,0.250000,0.250000,0.250000,0.250000:pos_vel_
1549535545.300995,cobot_dynamixel_driver/goal|-:J3:0.000000:eff_
1549535545.391941,cobot_dynamixel_driver/goal|-:J1,J2,J3,J4,J5,J6:0.000000,0.000000,0.523599,0.000000,0.000000,0.000000:0.250000,0.250000,0.250000,0.250000,0.250000,0.250000:pos_vel_
1549535546.994490,cobot_dynamixel_driver/goal|-:J3:0.000000:eff_
1549535547.085467,cobot_dynamixel_driver/goal|-:J1,J2,J3,J4,J5,J6:0.000000,0.000000,0.523599,0.000000,0.000000,0.000000:0.250000,0.250000,0.250000,0.250000,0.250000,0.250000:pos_vel_
1549535548.688066,cobot_dynamixel_driver/goal|-:J3:0.000000:eff_
1549535548.806107,cobot_dynamixel_driver/goal|-:J1,J2,J3,J4,J5,J6:0.000000,0.000000,0.523599,0.000000,0.000000,0.000000:0.250000,0.250000,0.250000,0.250000,0.250000,0.250000:pos_vel_
1549535550.409620,cobot_dynamixel_driver/goal|-:J3:0.000000:eff_
1549535550.500681,cobot_dynamixel_driver/goal|-:J1,J2,J3,J4,J5,J6:0.000000,0.000000,0.523599,0.000000,0.000000,0.000000:0.250000,0.250000,0.250000,0.250000,0.250000,0.250000:pos_vel_
1549535552.103275,cobot_dynamixel_driver/goal|-:J3:0.000000:eff_
1549535552.194188,cobot_dynamixel_driver/goal|-:J1,J2,J3,J4,J5,J6:0.000000,0.000000,0.523599,0.000000,0.000000,0.000000:0.250000,0.250000,0.250000,0.250000,0.250000,0.250000:pos_vel_
1549535553.796803,cobot_dynamixel_driver/goal|-:J3:0.000000:eff_
1549535553.887810,cobot_dynamixel_driver/goal|-:J1,J2,J3,J4,J5,J6:0.000000,0.000000,0.523599,0.000000,0.000000,0.000000:0.250000,0.250000,0.250000,0.250000,0.250000,0.250000:pos_vel_
1549535555.490420,cobot_dynamixel_driver/goal|-:J3:0.000000:eff_
1549535555.608361,cobot_dynamixel_driver/goal|-:J1,J2,J3,J4,J5,J6:0.000000,0.000000,0.523599,0.000000,0.000000,0.000000:0.250000,0.250000,0.250000,0.250000,0.250000,0.250000:pos_vel_
1549535557.294985,cobot_dynamixel_driver/goal|-:J3:0.000000:eff_
1549535557.412973,cobot_dynamixel_driver/goal|-:J1,J2,J3,J4,J5,J6:0.000000,0.000000,0.523599,0.000000,0.000000,0.000000:0.250000,0.250000,0.250000,0.250000,0.250000,0.250000:pos_vel_
1549535558.988581,cobot_dynamixel_driver/goal|-:J3:0.000000:eff_
1549535559.106588,cobot_dynamixel_driver/goal|-:J1,J2,J3,J4,J5,J6:0.000000,0.000000,0.523599,0.000000,0.000000,0.000000:0.250000,0.250000,0.250000,0.250000,0.250000,0.250000:pos_vel_
1549535560.790122,cobot_dynamixel_driver/goal|-:J3:0.000000:eff_
1549535560.908172,cobot_dynamixel_driver/goal|-:J1,J2,J3,J4,J5,J6:0.000000,0.000000,0.523599,0.000000,0.000000,0.000000:0.250000,0.250000,0.250000,0.250000,0.250000,0.250000:pos_vel_
1549535562.591664,cobot_dynamixel_driver/goal|-:J3:0.000000:eff_
1549535562.709797,cobot_dynamixel_driver/goal|-:J1,J2,J3,J4,J5,J6:0.000000,0.000000,0.523599,0.000000,0.000000,0.000000:0.250000,0.250000,0.250000,0.250000,0.250000,0.250000:pos_vel_
1549535564.312227,cobot_dynamixel_driver/goal|-:J3:0.000000:eff_
1549535564.403241,cobot_dynamixel_driver/goal|-:J1,J2,J3,J4,J5,J6:0.000000,0.000000,0.523599,0.000000,0.000000,0.000000:0.250000,0.250000,0.250000,0.250000,0.250000,0.250000:pos_vel_
1549535566.005765,cobot_dynamixel_driver/goal|-:J3:0.000000:eff_
1549535566.097015,cobot_dynamixel_driver/goal|-:J1,J2,J3,J4,J5,J6:0.000000,0.000000,0.523599,0.000000,0.000000,0.000000:0.250000,0.250000,0.250000,0.250000,0.250000,0.250000:pos_vel_
1549535567.699441,cobot_dynamixel_driver/goal|-:J3:0.000000:eff_
1549535567.817365,cobot_dynamixel_driver/goal|-:J1,J2,J3,J4,J5,J6:0.000000,0.000000,0.523599,0.000000,0.000000,0.000000:0.250000,0.250000,0.250000,0.250000,0.250000,0.250000:pos_vel_
1549535569.500945,cobot_dynamixel_driver/goal|-:J3:0.000000:eff_
1549535569.618990,cobot_dynamixel_driver/goal|-:J1,J2,J3,J4,J5,J6:0.000000,0.000000,0.523599,0.000000,0.000000,0.000000:0.250000,0.250000,0.250000,0.250000,0.250000,0.250000:pos_vel_
1549535571.302493,cobot_dynamixel_driver/goal|-:J3:0.000000:eff_
1549535571.420516,cobot_dynamixel_driver/goal|-:J1,J2,J3,J4,J5,J6:0.000000,0.000000,0.523599,0.000000,0.000000,0.000000:0.250000,0.250000,0.250000,0.250000,0.250000,0.250000:pos_vel_
1549535573.104045,cobot_dynamixel_driver/goal|-:J3:0.000000:eff_
1549535573.195097,cobot_dynamixel_driver/goal|-:J1,J2,J3,J4,J5,J6:0.000000,0.000000,0.523599,0.000000,0.000000,0.000000:0.250000,0.250000,0.250000,0.250000,0.250000,0.250000:pos_vel_
1549535574.905506,cobot_dynamixel_driver/goal|-:J3:0.000000:eff_
1549535574.996661,cobot_dynamixel_driver/goal|-:J1,J2,J3,J4,J5,J6:0.000000,0.000000,0.523599,0.000000,0.000000,0.000000:0.250000,0.250000,0.250000,0.250000,0.250000,0.250000:pos_vel_
1549535576.709113,cobot_dynamixel_driver/goal|-:J3:0.000000:eff_
1549535576.799997,cobot_dynamixel_driver/goal|-:J1,J2,J3,J4,J5,J6:0.000000,0.000000,0.523599,0.000000,0.000000,0.000000:0.250000,0.250000,0.250000,0.250000,0.250000,0.250000:pos_vel_
1549535578.321718,cobot_dynamixel_driver/goal|-:J3:0.000000:eff_
1549535578.412794,cobot_dynamixel_driver/goal|-:J1,J2,J3,J4,J5,J6:0.000000,0.000000,0.523599,0.000000,0.000000,0.000000:0.250000,0.250000,0.250000,0.250000,0.250000,0.250000:pos_vel_
1549535580.015337,cobot_dynamixel_driver/goal|-:J3:0.000000:eff_
1549535580.106191,cobot_dynamixel_driver/goal|-:J1,J2,J3,J4,J5,J6:0.000000,0.000000,0.523599,0.000000,0.000000,0.000000:0.250000,0.250000,0.250000,0.250000,0.250000,0.250000:pos_vel_
1549535581.709173,cobot_dynamixel_driver/goal|-:J3:0.000000:eff_
1549535581.799774,cobot_dynamixel_driver/goal|-:J1,J2,J3,J4,J5,J6:0.000000,0.000000,0.523599,0.000000,0.000000,0.000000:0.250000,0.250000,0.250000,0.250000,0.250000,0.250000:pos_vel_
1549535583.321440,cobot_dynamixel_driver/goal|-:J3:0.000000:eff_
1549535583.412475,cobot_dynamixel_driver/goal|-:J1,J2,J3,J4,J5,J6:0.000000,0.000000,0.523599,0.000000,0.000000,0.000000:0.250000,0.250000,0.250000,0.250000,0.250000,0.250000:pos_vel_
1549535585.014934,cobot_dynamixel_driver/goal|-:J3:0.000000:eff_
1549535585.105887,cobot_dynamixel_driver/goal|-:J1,J2,J3,J4,J5,J6:0.000000,0.000000,0.523599,0.000000,0.000000,0.000000:0.250000,0.250000,0.250000,0.250000,0.250000,0.250000:pos_vel_
1549535586.925418,cobot_dynamixel_driver/goal|-:J3:0.000000:eff_
1549535587.016370,cobot_dynamixel_driver/goal|-:J1,J2,J3,J4,J5,J6:0.000000,0.000000,0.523599,0.000000,0.000000,0.000000:0.250000,0.250000,0.250000,0.250000,0.250000,0.250000:pos_vel_
1549535588.618918,cobot_dynamixel_driver/goal|-:J3:0.000000:eff_
1549535588.709880,cobot_dynamixel_driver/goal|-:J1,J2,J3,J4,J5,J6:0.000000,0.000000,0.523599,0.000000,0.000000,0.000000:0.250000,0.250000,0.250000,0.250000,0.250000,0.250000:pos_vel_
1549535590.204550,cobot_dynamixel_driver/goal|-:J3:0.000000:eff_
1549535590.322540,cobot_dynamixel_driver/goal|-:J1,J2,J3,J4,J5,J6:0.000000,0.000000,0.523599,0.000000,0.000000,0.000000:0.250000,0.250000,0.250000,0.250000,0.250000,0.250000:pos_vel_
1549535592.006057,cobot_dynamixel_driver/goal|-:J3:0.000000:eff_
1549535592.124077,cobot_dynamixel_driver/goal|-:J1,J2,J3,J4,J5,J6:0.000000,0.000000,0.523599,0.000000,0.000000,0.000000:0.250000,0.250000,0.250000,0.250000,0.250000,0.250000:pos_vel_
1549535593.726619,cobot_dynamixel_driver/goal|-:J3:0.000000:eff_
1549535593.817602,cobot_dynamixel_driver/goal|-:J1,J2,J3,J4,J5,J6:0.000000,0.000000,0.523599,0.000000,0.000000,0.000000:0.250000,0.250000,0.250000,0.250000,0.250000,0.250000:pos_vel_
1549535595.420229,cobot_dynamixel_driver/goal|-:J3:0.000000:eff_
1549535595.511126,cobot_dynamixel_driver/goal|-:J1,J2,J3,J4,J5,J6:0.000000,0.000000,0.523599,0.000000,0.000000,0.000000:0.250000,0.250000,0.250000,0.250000,0.250000,0.250000:pos_vel_
1549535597.410609,cobot_dynamixel_driver/goal|-:J3:0.000000:eff_
1549535597.528643,cobot_dynamixel_driver/goal|-:J1,J2,J3,J4,J5,J6:0.000000,0.000000,0.523599,0.000000,0.000000,0.000000:0.250000,0.250000,0.250000,0.250000,0.250000,0.250000:pos_vel_
1549535599.213267,cobot_dynamixel_driver/goal|-:J3:0.000000:eff_
1549535599.331338,cobot_dynamixel_driver/goal|-:J1,J2,J3,J4,J5,J6:0.000000,0.000000,0.523599,0.000000,0.000000,0.000000:0.250000,0.250000,0.250000,0.250000,0.250000,0.250000:pos_vel_
1549535601.014899,cobot_dynamixel_driver/goal|-:J3:0.000000:eff_
1549535601.105778,cobot_dynamixel_driver/goal|-:J1,J2,J3,J4,J5,J6:0.000000,0.000000,0.523599,0.000000,0.000000,0.000000:0.250000,0.250000,0.250000,0.250000,0.250000,0.250000:pos_vel_
1549535602.708318,cobot_dynamixel_driver/goal|-:J3:0.000000:eff_
1549535602.826255,cobot_dynamixel_driver/goal|-:J1,J2,J3,J4,J5,J6:0.000000,0.000000,0.523599,0.000000,0.000000,0.000000:0.250000,0.250000,0.250000,0.250000,0.250000,0.250000:pos_vel_
1549535604.509913,cobot_dynamixel_driver/goal|-:J3:0.000000:eff_
1549535604.627897,cobot_dynamixel_driver/goal|-:J1,J2,J3,J4,J5,J6:0.000000,0.000000,0.523599,0.000000,0.000000,0.000000:0.250000,0.250000,0.250000,0.250000,0.250000,0.250000:pos_vel_
1549535606.230472,cobot_dynamixel_driver/goal|-:J3:0.000000:eff_
1549535606.321407,cobot_dynamixel_driver/goal|-:J1,J2,J3,J4,J5,J6:0.000000,0.000000,0.523599,0.000000,0.000000,0.000000:0.250000,0.250000,0.250000,0.250000,0.250000,0.250000:pos_vel_
1549535607.923986,cobot_dynamixel_driver/goal|-:J3:0.000000:eff_
1549535608.015151,cobot_dynamixel_driver/goal|-:J1,J2,J3,J4,J5,J6:0.000000,0.000000,0.523599,0.000000,0.000000,0.000000:0.250000,0.250000,0.250000,0.250000,0.250000,0.250000:pos_vel_
1549535609.617478,cobot_dynamixel_driver/goal|-:J3:0.000000:eff_
1549535609.735547,cobot_dynamixel_driver/goal|-:J1,J2,J3,J4,J5,J6:0.000000,0.000000,0.523599,0.000000,0.000000,0.000000:0.250000,0.250000,0.250000,0.250000,0.250000,0.250000:pos_vel_
1549535611.419161,cobot_dynamixel_driver/goal|-:J3:0.000000:eff_
1549535611.510098,cobot_dynamixel_driver/goal|-:J1,J2,J3,J4,J5,J6:0.000000,0.000000,0.523599,0.000000,0.000000,0.000000:0.250000,0.250000,0.250000,0.250000,0.250000,0.250000:pos_vel_
1549535613.220601,cobot_dynamixel_driver/goal|-:J3:0.000000:eff_
1549535613.311661,cobot_dynamixel_driver/goal|-:J1,J2,J3,J4,J5,J6:0.000000,0.000000,0.523599,0.000000,0.000000,0.000000:0.250000,0.250000,0.250000,0.250000,0.250000,0.250000:pos_vel_
1549535615.025180,cobot_dynamixel_driver/goal|-:J3:0.000000:eff_
1549535615.116510,cobot_dynamixel_driver/goal|-:J1,J2,J3,J4,J5,J6:0.000000,0.000000,0.523599,0.000000,0.000000,0.000000:0.250000,0.250000,0.250000,0.250000,0.250000,0.250000:pos_vel_
1549535616.718799,cobot_dynamixel_driver/goal|-:J3:0.000000:eff_
1549535616.836731,cobot_dynamixel_driver/goal|-:J1,J2,J3,J4,J5,J6:0.000000,0.000000,0.523599,0.000000,0.000000,0.000000:0.250000,0.250000,0.250000,0.250000,0.250000,0.250000:pos_vel_
1549535618.520249,cobot_dynamixel_driver/goal|-:J3:0.000000:eff_
1549535618.638278,cobot_dynamixel_driver/goal|-:J1,J2,J3,J4,J5,J6:0.000000,0.000000,0.523599,0.000000,0.000000,0.000000:0.250000,0.250000,0.250000,0.250000,0.250000,0.250000:pos_vel_
1549535620.321851,cobot_dynamixel_driver/goal|-:J3:0.000000:eff_
1549535620.439878,cobot_dynamixel_driver/goal|-:J1,J2,J3,J4,J5,J6:0.000000,0.000000,0.523599,0.000000,0.000000,0.000000:0.250000,0.250000,0.250000,0.250000,0.250000,0.250000:pos_vel_
1549535622.016522,cobot_dynamixel_driver/goal|-:J3:0.000000:eff_
1549535622.134513,cobot_dynamixel_driver/goal|-:J1,J2,J3,J4,J5,J6:0.000000,0.000000,0.523599,0.000000,0.000000,0.000000:0.250000,0.250000,0.250000,0.250000,0.250000,0.250000:pos_vel_
1549535623.818077,cobot_dynamixel_driver/goal|-:J3:0.000000:eff_
1549535623.936071,cobot_dynamixel_driver/goal|-:J1,J2,J3,J4,J5,J6:0.000000,0.000000,0.523599,0.000000,0.000000,0.000000:0.250000,0.250000,0.250000,0.250000,0.250000,0.250000:pos_vel_
1549535625.619565,cobot_dynamixel_driver/goal|-:J3:0.000000:eff_
1549535625.737565,cobot_dynamixel_driver/goal|-:J1,J2,J3,J4,J5,J6:0.000000,0.000000,0.523599,0.000000,0.000000,0.000000:0.250000,0.250000,0.250000,0.250000,0.250000,0.250000:pos_vel_
1549535627.340123,cobot_dynamixel_driver/goal|-:J3:0.000000:eff_
1549535627.431161,cobot_dynamixel_driver/goal|-:J1,J2,J3,J4,J5,J6:0.000000,0.000000,0.523599,0.000000,0.000000,0.000000:0.250000,0.250000,0.250000,0.250000,0.250000,0.250000:pos_vel_
1549535629.033589,cobot_dynamixel_driver/goal|-:J3:0.000000:eff_
1549535629.124627,cobot_dynamixel_driver/goal|-:J1,J2,J3,J4,J5,J6:0.000000,0.000000,0.523599,0.000000,0.000000,0.000000:0.250000,0.250000,0.250000,0.250000,0.250000,0.250000:pos_vel_
1549535630.727199,cobot_dynamixel_driver/goal|-:J3:0.000000:eff_
1549535630.818159,cobot_dynamixel_driver/goal|-:J1,J2,J3,J4,J5,J6:0.000000,0.000000,0.523599,0.000000,0.000000,0.000000:0.250000,0.250000,0.250000,0.250000,0.250000,0.250000:pos_vel_
1549535632.420671,cobot_dynamixel_driver/goal|-:J3:0.000000:eff_
1549535632.538693,cobot_dynamixel_driver/goal|-:J1,J2,J3,J4,J5,J6:0.000000,0.000000,0.523599,0.000000,0.000000,0.000000:0.250000,0.250000,0.250000,0.250000,0.250000,0.250000:pos_vel_
1549535634.223327,cobot_dynamixel_driver/goal|-:J3:0.000000:eff_
1549535634.341341,cobot_dynamixel_driver/goal|-:J1,J2,J3,J4,J5,J6:0.000000,0.000000,0.523599,0.000000,0.000000,0.000000:0.250000,0.250000,0.250000,0.250000,0.250000,0.250000:pos_vel_
1549535635.943881,cobot_dynamixel_driver/goal|-:J3:0.000000:eff_
1549535636.034829,cobot_dynamixel_driver/goal|-:J1,J2,J3,J4,J5,J6:0.000000,0.000000,0.523599,0.000000,0.000000,0.000000:0.250000,0.250000,0.250000,0.250000,0.250000,0.250000:pos_vel_
1549535637.637441,cobot_dynamixel_driver/goal|-:J3:0.000000:eff_
1549535637.728343,cobot_dynamixel_driver/goal|-:J1,J2,J3,J4,J5,J6:0.000000,0.000000,0.523599,0.000000,0.000000,0.000000:0.250000,0.250000,0.250000,0.250000,0.250000,0.250000:pos_vel_
1549535639.330990,cobot_dynamixel_driver/goal|-:J3:0.000000:eff_
1549535639.421944,cobot_dynamixel_driver/goal|-:J1,J2,J3,J4,J5,J6:0.000000,0.000000,0.523599,0.000000,0.000000,0.000000:0.250000,0.250000,0.250000,0.250000,0.250000,0.250000:pos_vel_
1549535641.025002,cobot_dynamixel_driver/goal|-:J3:0.000000:eff_
1549535641.142579,cobot_dynamixel_driver/goal|-:J1,J2,J3,J4,J5,J6:0.000000,0.000000,0.523599,0.000000,0.000000,0.000000:0.250000,0.250000,0.250000,0.250000,0.250000,0.250000:pos_vel_
1549535642.745191,cobot_dynamixel_driver/goal|-:J3:0.000000:eff_
1549535642.836452,cobot_dynamixel_driver/goal|-:J1,J2,J3,J4,J5,J6:0.000000,0.000000,0.523599,0.000000,0.000000,0.000000:0.250000,0.250000,0.250000,0.250000,0.250000,0.250000:pos_vel_
1549535644.438700,cobot_dynamixel_driver/goal|-:J3:0.000000:eff_
1549535644.529646,cobot_dynamixel_driver/goal|-:J1,J2,J3,J4,J5,J6:0.000000,0.000000,0.523599,0.000000,0.000000,0.000000:0.250000,0.250000,0.250000,0.250000,0.250000,0.250000:pos_vel_
1549535646.132219,cobot_dynamixel_driver/goal|-:J3:0.000000:eff_
1549535646.250292,cobot_dynamixel_driver/goal|-:J1,J2,J3,J4,J5,J6:0.000000,0.000000,0.523599,0.000000,0.000000,0.000000:0.250000,0.250000,0.250000,0.250000,0.250000,0.250000:pos_vel_
1549535647.825880,cobot_dynamixel_driver/goal|-:J3:0.000000:eff_
1549535647.943833,cobot_dynamixel_driver/goal|-:J1,J2,J3,J4,J5,J6:0.000000,0.000000,0.523599,0.000000,0.000000,0.000000:0.250000,0.250000,0.250000,0.250000,0.250000,0.250000:pos_vel_
1549535649.627348,cobot_dynamixel_driver/goal|-:J3:0.000000:eff_
1549535649.745392,cobot_dynamixel_driver/goal|-:J1,J2,J3,J4,J5,J6:0.000000,0.000000,0.523599,0.000000,0.000000,0.000000:0.250000,0.250000,0.250000,0.250000,0.250000,0.250000:pos_vel_
1549535651.347854,cobot_dynamixel_driver/goal|-:J3:0.000000:eff_
1549535651.438802,cobot_dynamixel_driver/goal|-:J1,J2,J3,J4,J5,J6:0.000000,0.000000,0.523599,0.000000,0.000000,0.000000:0.250000,0.250000,0.250000,0.250000,0.250000,0.250000:pos_vel_
1549535653.041463,cobot_dynamixel_driver/goal|-:J3:0.000000:eff_
1549535653.132797,cobot_dynamixel_driver/goal|-:J1,J2,J3,J4,J5,J6:0.000000,0.000000,0.523599,0.000000,0.000000,0.000000:0.250000,0.250000,0.250000,0.250000,0.250000,0.250000:pos_vel_
1549535654.734984,cobot_dynamixel_driver/goal|-:J3:0.000000:eff_
1549535654.852956,cobot_dynamixel_driver/goal|-:J1,J2,J3,J4,J5,J6:0.000000,0.000000,0.523599,0.000000,0.000000,0.000000:0.250000,0.250000,0.250000,0.250000,0.250000,0.250000:pos_vel_
1549535656.536629,cobot_dynamixel_driver/goal|-:J3:0.000000:eff_
1549535656.654511,cobot_dynamixel_driver/goal|-:J1,J2,J3,J4,J5,J6:0.000000,0.000000,0.523599,0.000000,0.000000,0.000000:0.250000,0.250000,0.250000,0.250000,0.250000,0.250000:pos_vel_
1549535658.230114,cobot_dynamixel_driver/goal|-:J3:0.000000:eff_
1549535658.348147,cobot_dynamixel_driver/goal|-:J1,J2,J3,J4,J5,J6:0.000000,0.000000,0.523599,0.000000,0.000000,0.000000:0.250000,0.250000,0.250000,0.250000,0.250000,0.250000:pos_vel_
1549535660.031584,cobot_dynamixel_driver/goal|-:J3:0.000000:eff_
1549535660.149626,cobot_dynamixel_driver/goal|-:J1,J2,J3,J4,J5,J6:0.000000,0.000000,0.523599,0.000000,0.000000,0.000000:0.250000,0.250000,0.250000,0.250000,0.250000,0.250000:pos_vel_
1549535661.752060,cobot_dynamixel_driver/goal|-:J3:0.000000:eff_
1549535661.843097,cobot_dynamixel_driver/goal|-:J1,J2,J3,J4,J5,J6:0.000000,0.000000,0.523599,0.000000,0.000000,0.000000:0.250000,0.250000,0.250000,0.250000,0.250000,0.250000:pos_vel_
1549535663.445627,cobot_dynamixel_driver/goal|-:J3:0.000000:eff_
1549535663.536615,cobot_dynamixel_driver/goal|-:J1,J2,J3,J4,J5,J6:0.000000,0.000000,0.523599,0.000000,0.000000,0.000000:0.250000,0.250000,0.250000,0.250000,0.250000,0.250000:pos_vel_
1549535665.140301,cobot_dynamixel_driver/goal|-:J3:0.000000:eff_
1549535665.258257,cobot_dynamixel_driver/goal|-:J1,J2,J3,J4,J5,J6:0.000000,0.000000,0.523599,0.000000,0.000000,0.000000:0.250000,0.250000,0.250000,0.250000,0.250000,0.250000:pos_vel_
1549535666.941811,cobot_dynamixel_driver/goal|-:J3:0.000000:eff_
1549535667.059803,cobot_dynamixel_driver/goal|-:J1,J2,J3,J4,J5,J6:0.000000,0.000000,0.523599,0.000000,0.000000,0.000000:0.250000,0.250000,0.250000,0.250000,0.250000,0.250000:pos_vel_
1549535668.635296,cobot_dynamixel_driver/goal|-:J3:0.000000:eff_
1549535668.753307,cobot_dynamixel_driver/goal|-:J1,J2,J3,J4,J5,J6:0.000000,0.000000,0.523599,0.000000,0.000000,0.000000:0.250000,0.250000,0.250000,0.250000,0.250000,0.250000:pos_vel_
1549535670.436894,cobot_dynamixel_driver/goal|-:J3:0.000000:eff_
1549535670.554854,cobot_dynamixel_driver/goal|-:J1,J2,J3,J4,J5,J6:0.000000,0.000000,0.523599,0.000000,0.000000,0.000000:0.250000,0.250000,0.250000,0.250000,0.250000,0.250000:pos_vel_
1549535672.157446,cobot_dynamixel_driver/goal|-:J3:0.000000:eff_
1549535672.248453,cobot_dynamixel_driver/goal|-:J1,J2,J3,J4,J5,J6:0.000000,0.000000,0.523599,0.000000,0.000000,0.000000:0.250000,0.250000,0.250000,0.250000,0.250000,0.250000:pos_vel_
1549535673.851066,cobot_dynamixel_driver/goal|-:J3:0.000000:eff_
1549535673.941967,cobot_dynamixel_driver/goal|-:J1,J2,J3,J4,J5,J6:0.000000,0.000000,0.523599,0.000000,0.000000,0.000000:0.250000,0.250000,0.250000,0.250000,0.250000,0.250000:pos_vel_
1549535675.544580,cobot_dynamixel_driver/goal|-:J3:0.000000:eff_
1549535675.662561,cobot_dynamixel_driver/goal|-:J1,J2,J3,J4,J5,J6:0.000000,0.000000,0.523599,0.000000,0.000000,0.000000:0.250000,0.250000,0.250000,0.250000,0.250000,0.250000:pos_vel_
1549535677.346083,cobot_dynamixel_driver/goal|-:J3:0.000000:eff_
1549535677.464189,cobot_dynamixel_driver/goal|-:J1,J2,J3,J4,J5,J6:0.000000,0.000000,0.523599,0.000000,0.000000,0.000000:0.250000,0.250000,0.250000,0.250000,0.250000,0.250000:pos_vel_
1549535679.147739,cobot_dynamixel_driver/goal|-:J3:0.000000:eff_
1549535679.265775,cobot_dynamixel_driver/goal|-:J1,J2,J3,J4,J5,J6:0.000000,0.000000,0.523599,0.000000,0.000000,0.000000:0.250000,0.250000,0.250000,0.250000,0.250000,0.250000:pos_vel_
1549535680.949276,cobot_dynamixel_driver/goal|-:J3:0.000000:eff_
1549535681.040455,cobot_dynamixel_driver/goal|-:J1,J2,J3,J4,J5,J6:0.000000,0.000000,0.523599,0.000000,0.000000,0.000000:0.250000,0.250000,0.250000,0.250000,0.250000,0.250000:pos_vel_
1549535682.750848,cobot_dynamixel_driver/goal|-:J3:0.000000:eff_
1549535682.841941,cobot_dynamixel_driver/goal|-:J1,J2,J3,J4,J5,J6:0.000000,0.000000,0.523599,0.000000,0.000000,0.000000:0.250000,0.250000,0.250000,0.250000,0.250000,0.250000:pos_vel_
1549535684.444441,cobot_dynamixel_driver/goal|-:J3:0.000000:eff_
1549535684.562456,cobot_dynamixel_driver/goal|-:J1,J2,J3,J4,J5,J6:0.000000,0.000000,0.523599,0.000000,0.000000,0.000000:0.250000,0.250000,0.250000,0.250000,0.250000,0.250000:pos_vel_
1549535686.165077,cobot_dynamixel_driver/goal|-:J3:0.000000:eff_
1549535686.256017,cobot_dynamixel_driver/goal|-:J1,J2,J3,J4,J5,J6:0.000000,0.000000,0.523599,0.000000,0.000000,0.000000:0.250000,0.250000,0.250000,0.250000,0.250000,0.250000:pos_vel_
1549535687.858863,cobot_dynamixel_driver/goal|-:J3:0.000000:eff_
