surachairobotic/cobot/cobot_dynamixel_driver/log/2019-03-26T10:46:02.082468_driver_cmd.txt
1553597213.399870,cobot_dynamixel_driver/goal|-:J1,J2,J3,J4,J5,J6:0.000000,0.000000,0.000000,0.000000,0.000000,0.000000:0.500000,0.500000,0.500000,0.500000,0.500000,0.500000:pos_vel_
1553597431.415658,cobot_dynamixel_driver/goal|-:J1,J2,J3,J4,J5,J6:0.000000,0.000000,-0.000000,-0.000000,0.000000,0.000000:0.000000,0.000000,0.000000,0.000000,0.000000,0.000000:vel_eff
1553597431.415658,cobot_dynamixel_driver/goal|-:J1,J2,J3,J4,J5,J6:0.000000,0.000000,0.000000,0.000000,0.000000,0.000000:vel_
1553597432.329696,cobot_dynamixel_driver/goal|-:J1,J2,J3,J4,J5,J6:-0.211280,-0.175246,0.169580,-0.000045,0.005659,-0.522621:-0.753729,-0.625181,0.604967,-0.000160,0.020187,-1.864422:vel_eff
1553597432.414621,cobot_dynamixel_driver/goal|-:J1,J2,J3,J4,J5,J6:-0.314008,-0.241464,0.228194,-0.000063,0.013255,-0.755257:-1.005971,-0.783886,0.748995,-0.000213,0.029582,-2.355874:vel_eff
1553597432.524630,cobot_dynamixel_driver/goal|-:J1,J2,J3,J4,J5,J6:-0.314008,-0.241464,0.228194,-0.000063,0.013255,-0.755257:-1.330606,-1.022397,0.972991,-0.000322,0.013056,-2.899056:vel_eff
1553597432.636379,cobot_dynamixel_driver/goal|-:J1,J2,J3,J4,J5,J6:-0.314008,-0.241464,0.228194,-0.000063,-0.013255,-0.755257:-1.335087,-0.919466,0.967787,-0.000654,-0.016201,-2.387686:vel_eff
1553597432.721316,cobot_dynamixel_driver/goal|-:J1,J2,J3,J4,J5,J6:-0.334401,-0.235330,0.216536,-0.000063,-0.018775,-0.779826:-0.766188,-0.478735,0.421442,-0.000668,0.030736,-1.068396:vel_eff
1553597432.833248,cobot_dynamixel_driver/goal|-:J1,J2,J3,J4,J5,J6:-0.352898,-0.226140,0.202582,-0.000063,0.023534,-0.798406:-0.086053,0.191013,0.076108,-0.000673,0.430870,-0.241744:vel_eff
1553597432.916201,cobot_dynamixel_driver/goal|-:J1,J2,J3,J4,J5,J6:-0.372103,-0.216142,0.188589,-0.000061,0.027525,-0.817687:-0.083930,0.193805,-0.276922,-0.000678,0.376450,-0.225342:vel_eff
1553597433.025963,cobot_dynamixel_driver/goal|-:J1,J2,J3,J4,J5,J6:-0.372103,-0.216142,0.188589,-0.000061,0.027525,-0.817687:0.287828,0.125975,-0.992456,-0.003069,0.411076,-6.121385:vel_eff
1553597433.136022,cobot_dynamixel_driver/goal|-:J1,J2,J3,J4,J5,J6:-0.391891,-0.205251,0.174530,-0.000060,0.030688,-0.837539:-2.433383,1.066966,-0.641750,-0.002982,0.017708,-4.511517:vel_eff
1553597433.218825,cobot_dynamixel_driver/goal|-:J1,J2,J3,J4,J5,J6:-0.412029,-0.193469,0.160469,-0.000057,0.032961,-0.857767:-1.531136,0.633698,-0.510174,-0.002868,0.200312,-2.472306:vel_eff
1553597433.328647,cobot_dynamixel_driver/goal|-:J1,J2,J3,J4,J5,J6:-0.432264,-0.180785,0.146433,-0.000055,0.034309,-0.878139:-0.393855,1.090568,-0.669539,-0.002727,-0.283824,-2.991078:vel_eff
1553597433.438523,cobot_dynamixel_driver/goal|-:J1,J2,J3,J4,J5,J6:-0.452538,-0.166860,0.132111,-0.000051,0.034701,-0.898448:-1.783109,1.004380,-0.697082,-0.002552,-0.022935,1.525893:vel_eff
1553597433.521534,cobot_dynamixel_driver/goal|-:J1,J2,J3,J4,J5,J6:-0.472362,-0.151870,0.117712,-0.000047,0.034105,-0.918309:-2.127499,1.180097,0.210403,-0.002344,-0.069935,-2.793528:vel_eff
1553597433.632339,cobot_dynamixel_driver/goal|-:J1,J2,J3,J4,J5,J6:-0.491356,-0.135815,0.103232,-0.000042,0.032526,-0.937342:-0.343923,1.002194,-0.941329,-0.002103,-0.441875,3.131596:vel_eff
1553597433.717340,cobot_dynamixel_driver/goal|-:J1,J2,J3,J4,J5,J6:-0.509100,-0.118724,0.088671,-0.000037,0.029992,-0.955124:-2.462123,1.084754,-0.605258,-0.001828,0.206983,-5.909679:vel_eff
1553597433.827011,cobot_dynamixel_driver/goal|-:J1,J2,J3,J4,J5,J6:-0.525148,-0.100657,0.074034,-0.000030,0.026558,-0.971210:-0.781661,1.101380,-0.648573,-0.001522,-0.188761,1.489869:vel_eff
1553597433.936067,cobot_dynamixel_driver/goal|-:J1,J2,J3,J4,J5,J6:-0.539054,-0.081706,0.059328,-0.000024,0.022311,-0.985150:-0.308518,1.047415,-0.194599,-0.001188,-0.297707,0.844587:vel_eff
1553597434.019020,cobot_dynamixel_driver/goal|-:J1,J2,J3,J4,J5,J6:-0.550392,-0.061998,0.044562,-0.000017,0.017367,-0.996517:-0.885833,0.926970,-0.484283,-0.000831,-0.182970,-2.894984:vel_eff
1553597434.128968,cobot_dynamixel_driver/goal|-:J1,J2,J3,J4,J5,J6:-0.558789,-0.041691,-0.029750,-0.000009,0.011872,-1.004936:0.530394,1.149468,-0.922358,-0.000457,-0.216467,-0.523884:vel_eff
1553597434.238839,cobot_dynamixel_driver/goal|-:J1,J2,J3,J4,J5,J6:-0.563954,0.020968,-0.014906,-0.000001,0.005993,-1.010115:0.605953,1.027629,0.860034,-0.000074,-0.286326,2.560744:vel_eff
1553597434.321727,cobot_dynamixel_driver/goal|-:J1,J2,J3,J4,J5,J6:-0.565702,0.000032,-0.000044,-0.000006,0.000081,-1.011867:0.320349,0.749536,0.263021,0.000309,-0.176380,-5.903060:vel_eff
1553597434.431515,cobot_dynamixel_driver/goal|-:J1,J2,J3,J4,J5,J6:-0.563968,0.020905,-0.014817,-0.000014,0.006154,-1.010128:-0.114568,0.826173,-0.114924,0.000684,-0.652395,0.061044:vel_eff
1553597434.516436,cobot_dynamixel_driver/goal|-:J1,J2,J3,J4,J5,J6:-0.558816,0.041630,-0.029663,-0.000021,0.012030,-1.004961:0.435149,1.278202,-1.055404,-0.001041,-0.118940,-3.110365:vel_eff
1553597434.626324,cobot_dynamixel_driver/goal|-:J1,J2,J3,J4,J5,J6:-0.550431,0.061940,-0.044476,-0.000027,-0.017523,-0.996553:0.697916,0.937500,-0.502464,0.001374,-1.393210,-0.156417:vel_eff
1553597434.738057,cobot_dynamixel_driver/goal|-:J1,J2,J3,J4,J5,J6:-0.539104,0.081651,-0.059243,-0.000034,-0.022463,-0.985196:-1.218637,-0.184254,-0.479256,-0.001676,-1.398919,2.617494:vel_eff
1553597434.821127,cobot_dynamixel_driver/goal|-:J1,J2,J3,J4,J5,J6:-0.525208,0.100607,-0.073951,-0.000039,-0.026705,-0.971265:1.343577,1.076492,-0.546997,0.001942,-0.507989,1.969726:vel_eff
1553597434.930993,cobot_dynamixel_driver/goal|-:J1,J2,J3,J4,J5,J6:-0.509166,0.118680,-0.088591,-0.000043,-0.030133,-0.955186:0.455614,0.916039,-0.684320,0.002170,-0.214044,-2.775982:vel_eff
1553597435.014970,cobot_dynamixel_driver/goal|-:J1,J2,J3,J4,J5,J6:-0.491428,0.135777,-0.103154,-0.000047,-0.032661,-0.937408:3.491598,1.291000,-1.308160,-0.002358,0.142143,3.559137:vel_eff
1553597435.126798,cobot_dynamixel_driver/goal|-:J1,J2,J3,J4,J5,J6:-0.472437,0.151838,-0.117637,-0.000050,-0.034233,-0.918379:0.873267,-0.514036,-0.029310,-0.002507,-0.367319,1.373821:vel_eff
1553597435.236675,cobot_dynamixel_driver/goal|-:J1,J2,J3,J4,J5,J6:-0.452615,0.166834,-0.132039,-0.000052,-0.034821,-0.898520:0.643797,0.653071,-0.999812,0.002619,-0.086474,2.073790:vel_eff
1553597435.320456,cobot_dynamixel_driver/goal|-:J1,J2,J3,J4,J5,J6:-0.432341,0.180765,-0.146365,-0.000054,-0.034421,-0.878212:1.417538,0.483744,-0.391163,0.002695,0.329931,-2.115754:vel_eff
1553597435.429516,cobot_dynamixel_driver/goal|-:J1,J2,J3,J4,J5,J6:-0.412136,0.193416,-0.160363,-0.000055,-0.033068,-0.857850:0.862959,0.208670,-0.381659,0.002737,0.121816,0.091539:vel_eff
1553597435.539323,cobot_dynamixel_driver/goal|-:J1,J2,J3,J4,J5,J6:-0.391965,0.205244,-0.174470,-0.000055,-0.030783,-0.837610:-0.319275,1.279949,-1.087012,0.002752,0.132649,1.138006:vel_eff
1553597435.624115,cobot_dynamixel_driver/goal|-:J1,J2,J3,J4,J5,J6:-0.372236,0.216069,-0.188446,-0.000055,-0.027627,-0.817779:1.637340,0.245935,-0.377456,0.002742,0.135342,2.215730:vel_eff
1553597435.734122,cobot_dynamixel_driver/goal|-:J1,J2,J3,J4,J5,J6:-0.352996,0.226110,-0.202486,-0.000054,-0.023622,-0.798484:1.264037,1.791205,-0.328344,0.002710,0.370046,2.422156:vel_eff
1553597435.817971,cobot_dynamixel_driver/goal|-:J1,J2,J3,J4,J5,J6:-0.334528,0.235273,-0.216398,-0.000053,-0.018869,-0.779913:0.966834,0.663643,-1.159536,0.002659,0.314709,4.712244:vel_eff
1553597435.927989,cobot_dynamixel_driver/goal|-:J1,J2,J3,J4,J5,J6:-0.314224,0.241302,-0.227899,-0.000051,-0.013392,-0.755359:1.429133,0.140937,-0.326230,0.002569,0.054247,2.837665:vel_eff
1553597436.038749,cobot_dynamixel_driver/goal|-:J1,J2,J3,J4,J5,J6:-0.211094,0.175448,-0.169864,-0.000035,-0.005574,-0.522561:4.885168,-4.977433,2.606823,0.001763,0.376239,11.926797:vel_eff
1553597436.120677,cobot_dynamixel_driver/goal|-:J1,J2,J3,J4,J5,J6:-0.000000,0.000000,-0.000000,0.000000,-0.000000,-0.000000:1.543308,-1.257511,1.195716,0.000000,0.148028,4.267298:vel_eff
1553597440.319673,cobot_dynamixel_driver/goal|-:J1,J2,J3,J4,J5,J6:0.217129,-0.171581,0.162646,0.000302,0.008246,0.000000:0.780084,-0.614081,0.582103,0.001082,0.029513,-0.011103:vel_eff
1553597440.431622,cobot_dynamixel_driver/goal|-:J1,J2,J3,J4,J5,J6:0.318366,-0.240346,0.224745,0.000396,0.014620,0.762150:0.956732,-0.749727,0.722326,0.001341,0.016827,2.227594:vel_eff
1553597440.514395,cobot_dynamixel_driver/goal|-:J1,J2,J3,J4,J5,J6:0.318366,-0.240346,0.224745,0.000396,0.014620,0.762150:1.310456,-1.004224,1.089846,0.002025,-0.009850,3.076887:vel_eff
1553597440.626348,cobot_dynamixel_driver/goal|-:J1,J2,J3,J4,J5,J6:0.318366,-0.240346,0.224745,0.000396,-0.014620,0.762150:1.060983,-0.798548,0.823111,0.004151,-0.005736,2.350010:vel_eff
1553597440.736239,cobot_dynamixel_driver/goal|-:J1,J2,J3,J4,J5,J6:0.340516,-0.234555,0.213403,0.000329,-0.020162,0.789772:0.792707,-0.620637,0.622028,0.003536,0.079507,2.190653:vel_eff
1553597440.821173,cobot_dynamixel_driver/goal|-:J1,J2,J3,J4,J5,J6:0.359526,-0.225077,0.199320,0.000256,0.024778,0.808806:0.108651,0.267998,-0.262109,0.002830,0.117612,0.138656:vel_eff
1553597440.931118,cobot_dynamixel_driver/goal|-:J1,J2,J3,J4,J5,J6:0.379207,-0.214778,0.185228,0.000181,0.028590,0.828513:0.352940,0.143135,-0.262694,0.002052,0.148027,0.489917:vel_eff
1553597441.015980,cobot_dynamixel_driver/goal|-:J1,J2,J3,J4,J5,J6:0.399418,-0.203582,0.171102,0.000105,0.031548,0.848752:0.850000,0.269095,-0.260972,0.001232,0.090795,0.823600:vel_eff
1553597441.125896,cobot_dynamixel_driver/goal|-:J1,J2,J3,J4,J5,J6:0.419972,-0.191419,0.156923,0.000029,0.033600,0.869336:0.375146,0.234266,-0.305195,0.000350,0.001964,-0.086815:vel_eff
1553597441.235875,cobot_dynamixel_driver/goal|-:J1,J2,J3,J4,J5,J6:0.440629,-0.178233,0.142678,0.000046,0.034705,0.890025:0.517648,0.280554,-0.229544,-0.000579,0.045942,0.219474:vel_eff
1553597441.318797,cobot_dynamixel_driver/goal|-:J1,J2,J3,J4,J5,J6:0.461092,-0.163984,0.128357,0.000120,0.034835,0.910522:0.484598,0.219794,-0.229855,-0.001544,-0.030716,0.019889:vel_eff
1553597441.429508,cobot_dynamixel_driver/goal|-:J1,J2,J3,J4,J5,J6:0.481013,-0.148655,0.113953,0.000191,0.033977,0.930479:0.122416,0.343369,-0.311162,-0.002525,0.011706,0.384432:vel_eff
1553597441.539471,cobot_dynamixel_driver/goal|-:J1,J2,J3,J4,J5,J6:0.499994,-0.132253,0.099466,0.000257,0.032140,0.949495:0.434918,0.377562,-0.358111,-0.003498,-0.017612,1.000517:vel_eff
1553597441.622407,cobot_dynamixel_driver/goal|-:J1,J2,J3,J4,J5,J6:0.499994,-0.132253,0.099466,0.000257,0.032140,0.949495:0.316780,1.284635,-0.952272,0.012867,-0.633544,5.524799:vel_eff
1553597441.734234,cobot_dynamixel_driver/goal|-:J1,J2,J3,J4,J5,J6:0.533368,-0.096406,0.070250,0.000370,0.025696,0.982938:0.216438,0.181915,-0.210319,-0.005380,-0.012299,0.273630:vel_eff
1553597441.817245,cobot_dynamixel_driver/goal|-:J1,J2,J3,J4,J5,J6:0.546851,-0.077134,0.055536,0.000413,0.021246,0.996451:0.542711,0.440311,-0.438794,-0.006210,-0.074466,0.558778:vel_eff
1553597441.929091,cobot_dynamixel_driver/goal|-:J1,J2,J3,J4,J5,J6:0.557624,-0.057134,0.040764,0.000445,0.016132,1.007249:0.250868,0.734402,-0.201894,-0.006987,-0.130977,0.384862:vel_eff
1553597442.039010,cobot_dynamixel_driver/goal|-:J1,J2,J3,J4,J5,J6:0.565325,-0.036573,0.025948,-0.000465,0.010506,1.014969:0.446213,0.637046,-0.273648,-0.007562,-0.075809,0.389680:vel_eff
1553597442.121766,cobot_dynamixel_driver/goal|-:J1,J2,J3,J4,J5,J6:0.565325,-0.036573,0.025948,-0.000465,0.010506,1.014969:1.225627,1.238478,-0.914231,-0.023246,-0.233039,-1.025421:vel_eff
1553597442.232634,cobot_dynamixel_driver/goal|-:J1,J2,J3,J4,J5,J6:0.570536,-0.005450,0.003753,-0.000465,0.001569,1.020195:-0.705327,0.828332,-0.476171,-0.008171,-0.245417,-0.244118:vel_eff
1553597442.317783,cobot_dynamixel_driver/goal|-:J1,J2,J3,J4,J5,J6:0.567855,0.026485,0.018605,-0.000446,0.007630,1.017509:-0.266522,0.575911,-0.430849,-0.008205,-0.140469,-0.032547:vel_eff
1553597442.428637,cobot_dynamixel_driver/goal|-:J1,J2,J3,J4,J5,J6:0.561739,0.047250,0.033436,-0.000413,-0.013447,1.011379:-0.634402,0.824909,-1.040020,-0.008070,-0.356831,0.364083:vel_eff
1553597442.538553,cobot_dynamixel_driver/goal|-:J1,J2,J3,J4,J5,J6:0.552407,0.067543,-0.048230,-0.000369,-0.018836,1.002026:-0.282475,0.368760,-1.727116,-0.007525,-0.130972,-0.316452:vel_eff
1553597442.622312,cobot_dynamixel_driver/goal|-:J1,J2,J3,J4,J5,J6:0.540181,0.087185,-0.062973,-0.000315,-0.023632,0.989773:-0.826498,0.691748,-1.182928,-0.006744,-0.085305,0.954997:vel_eff
1553597442.731333,cobot_dynamixel_driver/goal|-:J1,J2,J3,J4,J5,J6:0.525458,0.106024,-0.077652,-0.000252,-0.027700,0.975019:-0.507893,0.271979,-0.454498,-0.005654,-0.126405,0.661487:vel_eff
1553597442.814360,cobot_dynamixel_driver/goal|-:J1,J2,J3,J4,J5,J6:0.508681,0.123940,-0.092258,-0.000183,-0.030928,0.958208:-0.379163,0.783079,-0.256934,-0.004309,-0.136069,-2.360656:vel_eff
1553597442.924182,cobot_dynamixel_driver/goal|-:J1,J2,J3,J4,J5,J6:0.508681,0.123940,-0.092258,-0.000183,-0.030928,0.958208:1.126737,0.052351,0.258981,-0.009129,0.021972,1.531078:vel_eff
1553597443.034080,cobot_dynamixel_driver/goal|-:J1,J2,J3,J4,J5,J6:0.490309,0.140848,-0.106784,-0.000108,-0.033240,0.939800:-0.929002,1.054252,-0.456872,-0.005396,0.009773,-1.130054:vel_eff
1553597443.117012,cobot_dynamixel_driver/goal|-:J1,J2,J3,J4,J5,J6:0.470790,0.156697,-0.121226,-0.000030,-0.034588,0.920245:-1.498100,0.866035,-0.886866,-0.001493,0.080288,0.236146:vel_eff
1553597443.226669,cobot_dynamixel_driver/goal|-:J1,J2,J3,J4,J5,J6:0.450542,0.171464,-0.135584,-0.000050,-0.034949,0.899962:-0.935205,0.748962,-0.436356,0.002506,-0.127363,-5.035048:vel_eff
1553597443.336685,cobot_dynamixel_driver/goal|-:J1,J2,J3,J4,J5,J6:0.429940,0.185157,-0.149862,-0.000131,-0.034327,0.879326:-1.214195,0.974599,-1.285884,0.006536,0.093338,-1.654712:vel_eff
1553597443.419553,cobot_dynamixel_driver/goal|-:J1,J2,J3,J4,J5,J6:0.409497,0.197570,-0.163811,-0.000210,-0.032764,0.858726:-1.380880,0.468517,-0.001169,0.010481,-0.311084,-1.581674:vel_eff
1553597443.529562,cobot_dynamixel_driver/goal|-:J1,J2,J3,J4,J5,J6:0.389227,0.209085,-0.177781,-0.000288,-0.030291,0.838345:-0.255773,0.460061,-0.532755,0.014382,0.226201,0.087925:vel_eff
1553597443.639537,cobot_dynamixel_driver/goal|-:J1,J2,J3,J4,J5,J6:0.369303,0.219789,-0.191836,-0.000364,-0.026930,0.818378:-0.125248,0.577987,-1.256360,0.018217,0.256332,-1.444671:vel_eff
1553597443.721367,cobot_dynamixel_driver/goal|-:J1,J2,J3,J4,J5,J6:0.350050,0.229572,-0.205781,-0.000438,-0.022766,0.799049:0.925509,0.315985,-0.555674,0.021908,0.050917,-2.135393:vel_eff
1553597443.831228,cobot_dynamixel_driver/goal|-:J1,J2,J3,J4,J5,J6:-0.331588,0.238518,-0.219631,-0.000509,-0.017866,0.780479:-0.133191,-0.175620,-0.194530,0.025438,0.364834,-1.288666:vel_eff
1553597443.914229,cobot_dynamixel_driver/goal|-:J1,J2,J3,J4,J5,J6:0.310331,0.243588,-0.230373,-0.000568,-0.012218,0.753558:31.300645,-1.466082,-1.941779,0.028401,0.078500,-1.462728:vel_eff
1553597444.025120,cobot_dynamixel_driver/goal|-:J1,J2,J3,J4,J5,J6:0.208441,0.176913,-0.171526,-0.000442,0.004693,0.521381:5.351912,-3.485364,2.158594,0.022106,0.730484,-7.952784:vel_eff
1553597444.136938,cobot_dynamixel_driver/goal|-:J1,J2,J3,J4,J5,J6:0.000000,0.000000,-0.000000,0.000000,0.000000,0.000000:-1.814688,-1.554392,1.487934,0.000000,-0.009150,-4.672364:vel_eff
1553597444.639420,cobot_dynamixel_driver/goal|-:J1,J2,J3,J4,J5,J6:-0.221257,-0.167697,0.157641,-0.002950,0.008551,-0.549090:-0.793523,-0.599187,0.565370,-0.010581,0.030667,-1.969273:vel_eff
1553597444.724207,cobot_dynamixel_driver/goal|-:J1,J2,J3,J4,J5,J6:-0.221257,-0.167697,0.157641,-0.002950,0.008551,-0.549090:-1.209640,-0.878845,0.875123,-0.016487,-0.004225,-2.665902:vel_eff
1553597444.834198,cobot_dynamixel_driver/goal|-:J1,J2,J3,J4,J5,J6:-0.221257,-0.167697,0.157641,-0.002950,0.008551,-0.549090:-2.202428,-1.597596,1.699780,-0.037232,0.038309,-4.693527:vel_eff
1553597444.919137,cobot_dynamixel_driver/goal|-:J1,J2,J3,J4,J5,J6:-0.221257,-0.167697,0.157641,-0.002950,-0.008551,-0.549090:-2.842169,-0.362368,0.913274,-0.064056,-0.858414,-3.411698:vel_eff
1553597445.031034,cobot_dynamixel_driver/goal|-:J1,J2,J3,J4,J5,J6:-0.328343,-0.230494,0.211699,-0.004100,0.016432,-0.793068:-0.872995,-1.061077,0.037859,-0.038093,0.114942,-0.840237:vel_eff
1553597445.113961,cobot_dynamixel_driver/goal|-:J1,J2,J3,J4,J5,J6:-0.350947,-0.224949,0.201214,-0.004044,0.021067,-0.822587:-0.834748,0.478481,-1.164466,0.089898,0.260517,-0.989061:vel_eff
1553597445.224838,cobot_dynamixel_driver/goal|-:J1,J2,J3,J4,J5,J6:-0.369636,-0.215135,0.187409,-0.003900,0.024785,-0.841385:-1.644010,-0.084488,0.419491,-0.048925,0.153463,-1.394683:vel_eff
1553597445.334492,cobot_dynamixel_driver/goal|-:J1,J2,J3,J4,J5,J6:-0.388863,-0.204469,0.173545,-0.003726,0.027713,-0.860720:-0.424992,0.323628,-0.419724,-0.071521,0.282604,-0.086442:vel_eff
1553597445.418514,cobot_dynamixel_driver/goal|-:J1,J2,J3,J4,J5,J6:-0.408480,-0.192861,0.159584,-0.003519,0.029804,-0.880431:-2.219562,1.383904,0.050632,0.011808,0.180320,-2.950609:vel_eff
1553597445.528375,cobot_dynamixel_driver/goal|-:J1,J2,J3,J4,J5,J6:-0.428155,-0.180412,0.145677,-0.003283,0.031012,-0.900267:-0.730890,0.410211,-0.801215,-0.018074,0.430324,-1.891419:vel_eff
1553597445.612460,cobot_dynamixel_driver/goal|-:J1,J2,J3,J4,J5,J6:-0.447787,-0.166883,0.131602,-0.003010,0.031324,-0.920014:-0.251957,1.024074,-1.452818,-0.035730,1.049155,-0.586518:vel_eff
1553597445.642594,cobot_dynamixel_driver/goal|-:J1,J2,J3,J4,J5,J6:-0.447787,-0.166883,0.131602,-0.003010,0.031324,-0.920014:-1.848104,1.316179,-1.515412,0.026864,1.049155,-2.241076:vel_eff
1553597445.727202,cobot_dynamixel_driver/goal|-:J1,J2,J3,J4,J5,J6:-0.467090,-0.152195,0.117313,-0.002699,0.030711,-0.939365:-0.434677,0.798731,-0.664976,0.052824,0.242939,-2.260713:vel_eff
1553597445.837034,cobot_dynamixel_driver/goal|-:J1,J2,J3,J4,J5,J6:-0.485618,-0.136468,0.102934,-0.002354,0.029180,-0.957935:-0.432584,1.115624,-0.778858,-0.044663,0.045747,-6.722377:vel_eff
1553597445.919965,cobot_dynamixel_driver/goal|-:J1,J2,J3,J4,J5,J6:-0.502977,-0.119728,0.088465,-0.001976,0.026763,-0.975328:-0.705910,1.055442,-1.064168,0.015980,0.148921,-3.524589:vel_eff
1553597446.028675,cobot_dynamixel_driver/goal|-:J1,J2,J3,J4,J5,J6:-0.518751,-0.102029,0.073909,-0.001568,0.023516,-0.991127:-2.423094,0.782368,-0.696550,0.005065,-0.461529,7.887870:vel_eff
1553597446.137574,cobot_dynamixel_driver/goal|-:J1,J2,J3,J4,J5,J6:-0.532519,-0.083459,0.059275,-0.001136,0.019525,-1.004906:-1.953459,2.649814,-1.689085,0.037084,-0.333611,0.873640:vel_eff
1553597446.220644,cobot_dynamixel_driver/goal|-:J1,J2,J3,J4,J5,J6:-0.543876,-0.064133,0.044571,-0.000687,0.014903,-1.016264:-1.321592,1.154076,-1.151519,0.069959,-0.185559,1.374325:vel_eff
1553597446.330529,cobot_dynamixel_driver/goal|-:J1,J2,J3,J4,J5,J6:-0.552465,-0.044199,0.029811,-0.000230,0.009787,-1.024842:-3.211570,0.784149,-0.658515,0.040669,-0.165570,-3.966519:vel_eff
1553597446.413213,cobot_dynamixel_driver/goal|-:J1,J2,J3,J4,J5,J6:-0.557999,-0.023828,0.015008,-0.000226,0.004339,-1.030353:-1.224476,1.103696,-0.491033,0.032186,-0.282888,1.841860:vel_eff
1553597446.522095,cobot_dynamixel_driver/goal|-:J1,J2,J3,J4,J5,J6:-0.560287,-0.003213,0.000179,0.000671,0.001268,-1.032607:-2.152572,1.101655,-0.481369,0.054424,-0.459811,-1.252511:vel_eff
1553597446.632221,cobot_dynamixel_driver/goal|-:J1,J2,J3,J4,J5,J6:-0.559245,-0.017445,0.014661,0.001094,0.006850,-1.031525:0.361526,1.028725,-0.868649,0.065138,-0.721660,0.990450:vel_eff
1553597446.715148,cobot_dynamixel_driver/goal|-:J1,J2,J3,J4,J5,J6:-0.554911,-0.037942,0.029494,0.001486,-0.012224,-1.027144:0.703435,2.439558,-2.058906,0.084714,-0.990376,-0.203783:vel_eff
1553597446.823996,cobot_dynamixel_driver/goal|-:J1,J2,J3,J4,J5,J6:-0.547433,0.058081,-0.044305,0.001838,-0.017218,-1.019618:0.899949,4.750556,-3.957453,0.091875,-0.860883,-0.534119:vel_eff
1553597446.936878,cobot_dynamixel_driver/goal|-:J1,J2,J3,J4,J5,J6:-0.537065,0.077682,-0.059079,0.002143,-0.021673,-1.009202:-0.334270,0.472725,-0.784042,0.107168,-0.221923,1.606800:vel_eff
1553597447.019877,cobot_dynamixel_driver/goal|-:J1,J2,J3,J4,J5,J6:-0.524139,0.096588,-0.073804,0.002399,-0.025457,-0.996230:0.051244,0.969454,-0.967352,0.119946,-0.497264,3.582494:vel_eff
1553597447.129715,cobot_dynamixel_driver/goal|-:J1,J2,J3,J4,J5,J6:-0.509043,0.114671,-0.088468,0.002602,-0.028459,-0.981092:0.806051,0.809492,-0.699051,0.119674,-0.078625,-0.296859:vel_eff
1553597447.239569,cobot_dynamixel_driver/goal|-:J1,J2,J3,J4,J5,J6:-0.492194,0.131832,-0.103064,0.002753,-0.030600,-0.964209:1.293774,0.759940,-1.063709,0.085485,0.400332,-1.469167:vel_eff
1553597447.321425,cobot_dynamixel_driver/goal|-:J1,J2,J3,J4,J5,J6:-0.474015,0.148006,-0.117586,0.002853,-0.031826,-0.946000:0.690050,0.838351,-1.070015,-0.118156,-0.315899,0.751110:vel_eff
1553597447.431346,cobot_dynamixel_driver/goal|-:J1,J2,J3,J4,J5,J6:-0.454909,0.163156,-0.132035,0.002906,-0.032110,-0.926872:0.894202,0.583905,-1.114330,0.113979,0.066297,3.517221:vel_eff
1553597447.514405,cobot_dynamixel_driver/goal|-:J1,J2,J3,J4,J5,J6:-0.435249,0.177273,-0.146411,0.002914,-0.031448,-0.907193:2.962176,0.559535,-0.518669,0.093559,-0.141885,-2.203277:vel_eff
1553597447.625213,cobot_dynamixel_driver/goal|-:J1,J2,J3,J4,J5,J6:-0.415515,0.190175,-0.160507,0.002884,-0.029872,-0.887337:0.662713,0.192657,-0.931357,0.071183,0.229886,-2.123884:vel_eff
1553597447.735054,cobot_dynamixel_driver/goal|-:J1,J2,J3,J4,J5,J6:-0.395778,0.202191,-0.174630,0.002820,-0.027405,-0.867525:-0.322173,0.334472,-0.469071,-0.036329,0.336010,-1.478014:vel_eff
1553597447.817151,cobot_dynamixel_driver/goal|-:J1,J2,J3,J4,J5,J6:-0.376357,0.213256,-0.188666,0.002728,-0.024096,-0.848013:1.942500,0.637329,-0.889236,-0.020097,0.036098,-5.707383:vel_eff
1553597447.926964,cobot_dynamixel_driver/goal|-:J1,J2,J3,J4,J5,J6:-0.357338,0.223542,-0.202769,0.002610,-0.019967,-0.828952:0.181058,-0.277600,-0.425930,0.036622,0.225325,0.381728:vel_eff
1553597448.036845,cobot_dynamixel_driver/goal|-:J1,J2,J3,J4,J5,J6:-0.339010,0.232952,-0.216746,0.002473,-0.015115,-0.810529:0.972257,0.203335,-0.144153,0.050623,0.347285,2.336966:vel_eff
1553597448.119744,cobot_dynamixel_driver/goal|-:J1,J2,J3,J4,J5,J6:-0.317035,0.237986,-0.227119,0.002289,-0.009541,-0.781600:3.166404,0.861879,-0.162033,-0.010757,0.832794,-0.284067:vel_eff
1553597448.231604,cobot_dynamixel_driver/goal|-:J1,J2,J3,J4,J5,J6:-0.213152,0.173225,-0.169301,0.001511,-0.002838,-0.541163:-0.089622,0.033721,-1.611030,-0.007912,0.340688,-3.756455:vel_eff
1553597448.314654,cobot_dynamixel_driver/goal|-:J1,J2,J3,J4,J5,J6:-0.000000,0.000000,-0.000000,0.000000,-0.000000,-0.000000:2.158796,-1.594283,1.327535,-0.016542,0.000000,5.500047:vel_eff
1553597448.424504,cobot_dynamixel_driver/goal|-:J1,J2,J3,J4,J5,J6:0.000000,0.000000,0.000000,0.000000,0.000000,0.000000:4.392012,-4.715414,4.392012,-0.041729,0.068940,8.876016:vel_eff
1553597450.927978,cobot_dynamixel_driver/goal|-:J1,J2,J3,J4,J5,J6:0.222931,-0.169942,0.160845,-0.000711,0.009766,0.536137:0.795584,-0.609805,0.572941,-0.002534,0.034787,1.909760:vel_eff
1553597451.039867,cobot_dynamixel_driver/goal|-:J1,J2,J3,J4,J5,J6:0.331236,-0.233448,0.215877,-0.000982,0.018607,0.775159:1.055130,-0.775166,0.704091,-0.003303,0.009260,2.386154:vel_eff
1553597451.122597,cobot_dynamixel_driver/goal|-:J1,J2,J3,J4,J5,J6:0.331236,-0.233448,0.215877,-0.000982,0.018607,0.775159:1.341579,-1.085130,0.944357,-0.004971,0.001714,3.117659:vel_eff
1553597451.234704,cobot_dynamixel_driver/goal|-:J1,J2,J3,J4,J5,J6:0.331236,-0.233448,0.215877,-0.000982,-0.018607,0.775159:1.582230,-1.379393,1.094001,-0.010078,0.003474,3.485518:vel_eff
1553597451.317440,cobot_dynamixel_driver/goal|-:J1,J2,J3,J4,J5,J6:0.352012,-0.226151,0.203713,-0.000950,0.023586,0.799438:0.122444,0.008962,0.336763,-0.009934,0.333139,0.869504:vel_eff
1553597451.427461,cobot_dynamixel_driver/goal|-:J1,J2,J3,J4,J5,J6:0.371144,-0.216160,0.189700,-0.000900,0.027715,0.818651:0.149990,0.168074,-0.229599,-0.009542,0.074555,0.102196:vel_eff
1553597451.537382,cobot_dynamixel_driver/goal|-:J1,J2,J3,J4,J5,J6:0.390857,-0.205284,0.175625,-0.000839,0.031021,0.838436:0.438273,0.231411,-0.438197,-0.009022,0.166813,0.257171:vel_eff
1553597451.623422,cobot_dynamixel_driver/goal|-:J1,J2,J3,J4,J5,J6:0.410981,-0.193446,0.161469,-0.000765,0.033446,0.858619:0.118185,0.214358,-0.098463,-0.008374,0.034067,0.826022:vel_eff
1553597451.734231,cobot_dynamixel_driver/goal|-:J1,J2,J3,J4,J5,J6:0.431201,-0.180706,0.147343,-0.000678,0.034936,0.878949:0.071781,0.587521,-0.147083,-0.002931,-0.006378,0.289730:vel_eff
1553597451.817067,cobot_dynamixel_driver/goal|-:J1,J2,J3,J4,J5,J6:0.451308,-0.166944,0.133147,-0.000578,0.035469,0.899171:0.099868,0.277733,-0.051935,-0.001834,0.042785,0.041476:vel_eff
1553597451.926962,cobot_dynamixel_driver/goal|-:J1,J2,J3,J4,J5,J6:0.471088,-0.151954,0.118707,-0.000463,0.035010,0.918989:-0.585415,0.178194,-0.224958,-0.005363,-0.061632,0.012211:vel_eff
1553597452.036777,cobot_dynamixel_driver/goal|-:J1,J2,J3,J4,J5,J6:0.490039,-0.135903,0.104190,-0.000334,0.033557,0.937984:1.686039,0.065427,-1.027935,-0.003925,-0.014801,0.171040:vel_eff
1553597452.119728,cobot_dynamixel_driver/goal|-:J1,J2,J3,J4,J5,J6:0.507743,-0.118819,0.089597,-0.000191,0.031134,0.955736:0.805997,0.173223,-0.596902,-0.002282,-0.035714,0.953537:vel_eff
1553597452.229592,cobot_dynamixel_driver/goal|-:J1,J2,J3,J4,J5,J6:0.507743,-0.118819,0.089597,-0.000191,0.031134,0.955736:0.714689,0.172418,-0.120820,-0.009557,-0.166778,4.027192:vel_eff
1553597452.314390,cobot_dynamixel_driver/goal|-:J1,J2,J3,J4,J5,J6:0.523755,-0.100761,0.074930,-0.000037,0.027795,0.971800:0.200832,0.146824,-0.426445,-0.001859,0.148850,3.779026:vel_eff
1553597452.423408,cobot_dynamixel_driver/goal|-:J1,J2,J3,J4,J5,J6:0.537629,-0.081823,0.060196,-0.000126,0.023623,0.985725:1.499596,0.916384,-0.808414,0.006302,-0.369994,1.941755:vel_eff
1553597452.533164,cobot_dynamixel_driver/goal|-:J1,J2,J3,J4,J5,J6:0.548941,-0.062130,0.045406,-0.000295,0.018731,0.997086:0.187345,3.768403,-0.358626,0.014773,1.315744,-0.368436:vel_eff
1553597452.616281,cobot_dynamixel_driver/goal|-:J1,J2,J3,J4,J5,J6:0.557318,-0.041840,0.030572,-0.000467,0.013264,1.005508:-1.834946,0.390889,-1.256825,0.023373,0.008258,2.069168:vel_eff
1553597452.727156,cobot_dynamixel_driver/goal|-:J1,J2,J3,J4,J5,J6:0.562471,-0.021136,0.015708,-0.000638,0.007388,1.010698:0.749118,1.154851,-0.769031,0.031896,-0.216585,2.845725:vel_eff
1553597452.836987,cobot_dynamixel_driver/goal|-:J1,J2,J3,J4,J5,J6:0.564215,0.000220,0.000829,-0.000803,0.001291,1.012469:0.429424,0.959198,-0.438450,0.040129,-0.538653,2.175909:vel_eff
1553597452.919804,cobot_dynamixel_driver/goal|-:J1,J2,J3,J4,J5,J6:0.562485,0.020695,-0.014049,-0.000957,-0.004829,1.010754:-0.648147,1.358164,-0.973666,0.068730,-0.861911,-1.132757:vel_eff
1553597453.029778,cobot_dynamixel_driver/goal|-:J1,J2,J3,J4,J5,J6:0.557345,0.041398,-0.028908,-0.001098,-0.010775,1.005618:-1.708418,1.381356,-1.278471,0.086216,-0.159582,-5.146808:vel_eff
1553597453.139690,cobot_dynamixel_driver/goal|-:J1,J2,J3,J4,J5,J6:0.548981,0.061685,-0.043733,0.001223,-0.016357,0.997245:0.022449,1.216872,-1.237326,0.102868,-0.231854,-0.998185:vel_eff
1553597453.222620,cobot_dynamixel_driver/goal|-:J1,J2,J3,J4,J5,J6:0.537684,0.081374,-0.058511,0.001328,-0.021402,0.985927:-0.897127,0.897271,-0.380064,0.108146,-0.191111,1.589925:vel_eff
1553597453.332360,cobot_dynamixel_driver/goal|-:J1,J2,J3,J4,J5,J6:0.523824,0.100307,-0.073228,0.001414,-0.025761,0.972038:-0.692926,1.677004,-1.022043,0.112420,-0.271208,0.430106:vel_eff
1553597453.417370,cobot_dynamixel_driver/goal|-:J1,J2,J3,J4,J5,J6:0.507826,0.118358,-0.087876,0.001479,-0.029315,0.956002:-0.846013,0.712160,-0.565116,0.073945,-0.224844,2.213591:vel_eff
1553597453.527249,cobot_dynamixel_driver/goal|-:J1,J2,J3,J4,J5,J6:0.490137,0.135434,-0.102446,0.001524,-0.031974,0.938271:-1.281874,0.627033,-0.563346,0.076208,-0.306063,-2.947271:vel_eff
1553597453.637143,cobot_dynamixel_driver/goal|-:J1,J2,J3,J4,J5,J6:0.471201,0.151474,-0.116934,0.001551,-0.033678,0.919289:-0.663841,0.865716,-0.578380,0.077534,-0.305090,0.067667:vel_eff
1553597453.720170,cobot_dynamixel_driver/goal|-:J1,J2,J3,J4,J5,J6:0.451436,0.166451,-0.131341,0.001560,-0.034397,0.899477:-3.039562,1.030358,-1.110951,0.078008,-0.358264,-1.233132:vel_eff
1553597453.831859,cobot_dynamixel_driver/goal|-:J1,J2,J3,J4,J5,J6:0.431223,0.180364,-0.145670,0.001554,-0.034124,0.879217:0.373083,0.484569,0.196480,-0.235247,-0.051654,-3.607679:vel_eff
1553597453.914824,cobot_dynamixel_driver/goal|-:J1,J2,J3,J4,J5,J6:0.411080,0.192999,-0.159671,0.001536,-0.032892,0.858906:-2.365856,-0.292054,-1.838922,-0.236190,0.096118,-1.779498:vel_eff
1553597454.024713,cobot_dynamixel_driver/goal|-:J1,J2,J3,J4,J5,J6:0.390971,0.204812,-0.173781,0.001506,-0.030723,0.838716:-0.992715,0.402913,-1.282092,0.075295,-0.019485,3.949883:vel_eff
1553597454.134704,cobot_dynamixel_driver/goal|-:J1,J2,J3,J4,J5,J6:0.371305,0.215624,-0.187759,0.001467,-0.027675,0.818935:-1.485690,0.922654,-0.238818,0.052494,0.098440,-3.209268:vel_eff
1553597454.217595,cobot_dynamixel_driver/goal|-:J1,J2,J3,J4,J5,J6:0.352126,0.225653,-0.201802,0.001421,-0.023772,0.799691:-3.112318,0.923344,-0.867909,0.018892,0.224670,-1.482827:vel_eff
1553597454.329477,cobot_dynamixel_driver/goal|-:J1,J2,J3,J4,J5,J6:0.333713,0.234812,-0.215724,0.001369,-0.019109,0.781169:0.536377,1.120480,0.292955,0.026739,-0.076490,0.193574:vel_eff
1553597454.439295,cobot_dynamixel_driver/goal|-:J1,J2,J3,J4,J5,J6:0.313969,0.241214,-0.227588,0.001304,-0.013736,0.757846:-0.836817,0.825053,-1.844242,0.044351,0.140489,-0.610672:vel_eff
1553597454.523310,cobot_dynamixel_driver/goal|-:J1,J2,J3,J4,J5,J6:0.210933,0.175389,-0.169660,0.000883,-0.005860,0.524334:-5.028813,-2.768712,3.576762,-0.007994,0.292987,-11.993246:vel_eff
1553597454.634177,cobot_dynamixel_driver/goal|-:J1,J2,J3,J4,J5,J6:0.000000,0.000000,-0.000000,0.000000,-0.000000,0.000000:-1.637689,-1.204349,1.131187,-0.004221,0.034866,-3.458684:vel_eff
1553597455.137617,cobot_dynamixel_driver/goal|-:J1,J2,J3,J4,J5,J6:-0.224057,-0.170153,0.159117,-0.001613,0.009513,-0.538042:-0.799872,-0.607440,0.568039,-0.005757,0.033960,-1.920783:vel_eff
1553597455.222566,cobot_dynamixel_driver/goal|-:J1,J2,J3,J4,J5,J6:-0.224057,-0.170153,0.159117,-0.001613,0.009513,-0.538042:-1.241676,-0.942955,0.881792,-0.008936,0.052717,-2.981713:vel_eff
1553597455.334486,cobot_dynamixel_driver/goal|-:J1,J2,J3,J4,J5,J6:-0.224057,-0.170153,0.159117,-0.001613,0.009513,-0.538042:-1.430242,-0.812873,0.844357,-0.020103,-0.006030,-2.784173:vel_eff
1553597455.417150,cobot_dynamixel_driver/goal|-:J1,J2,J3,J4,J5,J6:-0.224057,-0.170153,0.159117,-0.001613,0.009513,-0.538042:-4.338367,-2.154380,1.696440,-0.080628,0.148166,-6.823321:vel_eff
1553597455.528318,cobot_dynamixel_driver/goal|-:J1,J2,J3,J4,J5,J6:-0.333057,-0.233813,0.213544,-0.002194,-0.017975,-0.778154:-3.132529,-1.258299,1.653252,-0.109689,0.312761,-4.420490:vel_eff
1553597455.639326,cobot_dynamixel_driver/goal|-:J1,J2,J3,J4,J5,J6:-0.354951,-0.227081,0.201931,-0.002096,0.022683,-0.804598:-0.659370,0.257148,-0.857407,-0.104800,1.875254,-1.433963:vel_eff
1553597455.723200,cobot_dynamixel_driver/goal|-:J1,J2,J3,J4,J5,J6:-0.354951,-0.227081,0.201931,-0.002096,0.022683,-0.804598:-1.546119,1.060438,0.613552,0.281196,2.306128,-0.244750:vel_eff
1553597455.834809,cobot_dynamixel_driver/goal|-:J1,J2,J3,J4,J5,J6:-0.394609,-0.206195,0.173954,-0.001801,0.029485,-0.844467:-0.096793,0.028677,-0.900042,-0.079597,0.285012,0.002361:vel_eff
1553597455.916723,cobot_dynamixel_driver/goal|-:J1,J2,J3,J4,J5,J6:-0.415181,-0.194303,0.159828,-0.001624,0.031586,-0.865123:-1.135836,0.988427,-0.521364,-0.049892,0.131555,0.089846:vel_eff
1553597456.026772,cobot_dynamixel_driver/goal|-:J1,J2,J3,J4,J5,J6:-0.415181,-0.194303,0.159828,-0.001624,0.031586,-0.865123:0.387285,0.456378,-0.072773,0.033567,0.079850,-0.237618:vel_eff
1553597456.136647,cobot_dynamixel_driver/goal|-:J1,J2,J3,J4,J5,J6:-0.435866,-0.181476,0.145716,-0.001428,0.032752,-0.885935:-2.107498,0.503078,-1.133079,0.012048,0.034772,-0.261353:vel_eff
1553597456.219564,cobot_dynamixel_driver/goal|-:J1,J2,J3,J4,J5,J6:-0.456448,-0.167593,0.131519,-0.001213,0.032964,-0.906641:-2.082928,1.197238,-0.507593,-0.008477,-0.144225,-1.882647:vel_eff
1553597456.329443,cobot_dynamixel_driver/goal|-:J1,J2,J3,J4,J5,J6:-0.476705,-0.152444,0.117065,-0.000975,0.032188,-0.926935:-3.857310,2.173740,-1.397224,0.003392,-0.148547,-2.725005:vel_eff
1553597456.414200,cobot_dynamixel_driver/goal|-:J1,J2,J3,J4,J5,J6:-0.514239,-0.118886,0.087886,-0.000449,0.027725,-0.964529:-1.435890,1.014082,-0.821843,-0.001568,-0.061476,0.014289:vel_eff
1553597456.525365,cobot_dynamixel_driver/goal|-:J1,J2,J3,J4,J5,J6:-0.514239,-0.118886,0.087886,-0.000449,0.027725,-0.964529:-0.069255,0.189928,0.044041,0.008864,-0.078711,2.547832:vel_eff
1553597456.635164,cobot_dynamixel_driver/goal|-:J1,J2,J3,J4,J5,J6:-0.530615,-0.100567,0.073168,-0.000165,0.024132,-0.980924:0.123866,1.220615,-0.796200,0.012593,-0.103255,-0.271203:vel_eff
1553597456.718262,cobot_dynamixel_driver/goal|-:J1,J2,J3,J4,J5,J6:-0.544776,-0.081340,0.058373,-0.000125,0.019744,-0.995096:-1.157950,1.190900,-0.816115,0.027117,-0.202012,2.070816:vel_eff
1553597456.828091,cobot_dynamixel_driver/goal|-:J1,J2,J3,J4,J5,J6:-0.556278,-0.061336,0.043513,-0.000417,0.014684,-1.006600:0.019543,0.991377,-0.693262,0.031278,-0.196469,-3.416365:vel_eff
1553597456.938058,cobot_dynamixel_driver/goal|-:J1,J2,J3,J4,J5,J6:-0.564736,0.040719,0.028600,-0.000704,0.009105,-1.015050:-0.205147,1.125027,-0.500001,0.045610,-0.389270,0.280293:vel_eff
1553597457.021794,cobot_dynamixel_driver/goal|-:J1,J2,J3,J4,J5,J6:-0.569849,0.019681,0.013650,-0.000978,0.003181,-1.020146:-0.951115,0.705971,-0.767614,0.069758,-0.702708,-1.077533:vel_eff
1553597457.131617,cobot_dynamixel_driver/goal|-:J1,J2,J3,J4,J5,J6:-0.571429,0.001567,0.001321,-0.001233,-0.002896,-1.021699:-1.489102,-0.662329,-0.629384,0.092940,-0.386088,3.549926:vel_eff
1553597457.215707,cobot_dynamixel_driver/goal|-:J1,J2,J3,J4,J5,J6:-0.569415,0.022806,-0.016294,-0.001462,-0.008926,-1.019653:0.176448,0.900342,-1.012921,0.093969,-0.446297,-4.792905:vel_eff
1553597457.326524,cobot_dynamixel_driver/goal|-:J1,J2,J3,J4,J5,J6:-0.563882,0.043813,-0.031253,-0.001660,-0.014712,-1.014084:0.098375,2.169810,-1.364444,0.145604,-0.735580,2.172746:vel_eff
1553597457.439476,cobot_dynamixel_driver/goal|-:J1,J2,J3,J4,J5,J6:-0.555034,0.064381,-0.046181,0.001823,-0.020067,-1.005195:0.958104,-0.004516,-0.170435,0.164185,0.220341,2.013941:vel_eff
1553597457.523347,cobot_dynamixel_driver/goal|-:J1,J2,J3,J4,J5,J6:-0.543180,0.084321,-0.061063,0.001949,-0.024825,-0.993302:-1.860607,0.700355,-0.841510,0.087001,-0.327810,1.143637:vel_eff
1553597457.633125,cobot_dynamixel_driver/goal|-:J1,J2,J3,J4,J5,J6:-0.528717,0.103471,-0.075886,0.002036,-0.028846,-0.978800:0.761236,0.865009,-0.414229,0.101800,-0.459922,1.403388:vel_eff
1553597457.716110,cobot_dynamixel_driver/goal|-:J1,J2,J3,J4,J5,J6:-0.512091,0.121704,-0.090639,0.002086,-0.032019,-0.962138:1.592552,0.889902,-0.536370,0.104300,-0.135992,-1.882664:vel_eff
1553597457.827065,cobot_dynamixel_driver/goal|-:J1,J2,J3,J4,J5,J6:-0.493769,0.138926,-0.105315,0.002101,-0.034265,-0.943784:-0.036871,0.634750,-0.654636,0.052875,-0.265499,-0.465180:vel_eff
1553597457.937660,cobot_dynamixel_driver/goal|-:J1,J2,J3,J4,J5,J6:-0.474215,0.155079,-0.119908,0.002083,-0.035533,-0.924202:-0.258861,-0.351966,0.399612,-0.052323,-0.122115,-0.761449:vel_eff
1553597458.021774,cobot_dynamixel_driver/goal|-:J1,J2,J3,J4,J5,J6:-0.453861,0.170137,-0.134419,0.002037,-0.035804,-0.903824:-0.075731,0.682580,-0.659772,-0.054626,0.088407,-1.569456:vel_eff
1553597458.131508,cobot_dynamixel_driver/goal|-:J1,J2,J3,J4,J5,J6:-0.433096,0.184101,-0.148851,0.001966,-0.035079,-0.883039:0.764285,1.140875,-0.421572,0.098324,-0.323461,-1.495383:vel_eff
1553597458.214610,cobot_dynamixel_driver/goal|-:J1,J2,J3,J4,J5,J6:-0.412451,0.196760,-0.162950,0.001876,-0.033404,-0.862250:3.350957,0.334151,-1.742036,0.072937,0.122240,1.663997:vel_eff
1553597458.324451,cobot_dynamixel_driver/goal|-:J1,J2,J3,J4,J5,J6:-0.391886,0.208578,-0.177158,0.001768,-0.030796,-0.841630:2.386617,0.977183,-1.836947,0.057124,0.287102,1.988356:vel_eff
1553597458.437347,cobot_dynamixel_driver/goal|-:J1,J2,J3,J4,J5,J6:-0.371815,0.219376,-0.191233,0.001648,-0.027325,-0.821467:-1.137451,0.140043,1.799159,-0.001058,-0.039150,1.031692:vel_eff
1553597458.519998,cobot_dynamixel_driver/goal|-:J1,J2,J3,J4,J5,J6:-0.352277,0.229378,-0.205372,0.001517,-0.023013,-0.801886:0.246304,0.556677,-0.347435,-0.018042,0.262624,2.079717:vel_eff
1553597458.629272,cobot_dynamixel_driver/goal|-:J1,J2,J3,J4,J5,J6:-0.333555,0.238496,-0.219384,0.001379,-0.017965,-0.783071:2.340381,-0.166275,-0.985445,0.016804,0.549489,1.193559:vel_eff
1553597458.715025,cobot_dynamixel_driver/goal|-:J1,J2,J3,J4,J5,J6:-0.312838,0.244269,-0.230786,0.001227,-0.012217,-0.757757:1.352390,-0.451391,0.176212,-0.022098,0.388785,0.942571:vel_eff
1553597458.824314,cobot_dynamixel_driver/goal|-:J1,J2,J3,J4,J5,J6:-0.210011,0.177504,-0.171958,0.000774,-0.004576,-0.524154:4.636778,-4.384313,3.347109,0.017826,0.374427,12.795072:vel_eff
1553597458.936629,cobot_dynamixel_driver/goal|-:J1,J2,J3,J4,J5,J6:0.000000,0.000000,0.000000,0.000000,0.000000,0.000000:5.028132,-3.925811,3.545478,-0.025785,-0.383393,10.649802:vel_eff
1553597460.921766,cobot_dynamixel_driver/goal|-:J1,J2,J3,J4,J5,J6:0.220469,-0.174335,0.164486,0.001266,0.009423,0.532953:0.784747,-0.619985,0.582912,0.004479,0.033352,1.886306:vel_eff
1553597461.031459,cobot_dynamixel_driver/goal|-:J1,J2,J3,J4,J5,J6:0.328107,-0.239798,0.220813,0.001764,0.018317,0.771000:0.976709,-0.775835,0.729150,0.005891,0.002461,2.207870:vel_eff
1553597461.114452,cobot_dynamixel_driver/goal|-:J1,J2,J3,J4,J5,J6:0.328107,-0.239798,0.220813,0.001764,-0.018317,0.771000:1.072884,-0.913919,0.842928,0.006739,-0.003212,2.447255:vel_eff
1553597461.224473,cobot_dynamixel_driver/goal|-:J1,J2,J3,J4,J5,J6:0.328107,-0.239798,0.220813,0.001764,-0.018317,0.771000:1.607816,-1.409329,1.146780,0.000946,-0.093428,3.982300:vel_eff
1553597461.336292,cobot_dynamixel_driver/goal|-:J1,J2,J3,J4,J5,J6:0.347135,-0.231196,0.207102,0.001726,0.023352,0.790678:0.547560,0.215311,-0.174473,-0.005705,0.379285,0.213640:vel_eff
1553597461.418026,cobot_dynamixel_driver/goal|-:J1,J2,J3,J4,J5,J6:0.366747,-0.221393,0.192936,-0.001678,0.027642,0.810385:0.416494,0.232431,-0.115887,-0.004102,0.191083,0.778949:vel_eff
1553597461.528180,cobot_dynamixel_driver/goal|-:J1,J2,J3,J4,J5,J6:0.366747,-0.221393,0.192936,-0.001678,0.027642,0.810385:-0.367830,-1.127623,-0.399542,-0.136065,0.089477,-0.603435:vel_eff
1553597461.638969,cobot_dynamixel_driver/goal|-:J1,J2,J3,J4,J5,J6:0.387055,-0.210676,0.178700,0.001622,0.031092,0.830781:1.043988,0.159324,-1.852042,0.081090,0.227503,1.036818:vel_eff
1553597461.721961,cobot_dynamixel_driver/goal|-:J1,J2,J3,J4,J5,J6:0.407895,-0.198960,0.164370,0.001557,0.033639,0.851698:1.366175,0.119226,-0.909796,0.077829,0.079086,-1.812433:vel_eff
1553597461.831855,cobot_dynamixel_driver/goal|-:J1,J2,J3,J4,J5,J6:0.428950,-0.186293,0.150059,0.001483,0.035222,0.872879:1.031449,0.658681,-1.030712,0.074129,-0.065814,-0.632718:vel_eff
1553597461.915518,cobot_dynamixel_driver/goal|-:J1,J2,J3,J4,J5,J6:0.450012,-0.172545,0.135664,0.001399,0.035814,0.894070:2.063668,1.825946,-0.634190,0.069947,0.153382,-1.400077:vel_eff
1553597462.025671,cobot_dynamixel_driver/goal|-:J1,J2,J3,J4,J5,J6:0.470863,-0.157498,0.121008,0.001304,0.035375,0.914968:0.946724,0.460558,-0.928832,0.002612,-0.075388,1.178738:vel_eff
1553597462.136323,cobot_dynamixel_driver/goal|-:J1,J2,J3,J4,J5,J6:0.490974,-0.141310,0.106260,0.001199,0.033897,0.935126:1.566257,1.176062,-0.518679,0.018234,0.040316,-0.691597:vel_eff
1553597462.219475,cobot_dynamixel_driver/goal|-:J1,J2,J3,J4,J5,J6:0.509894,-0.124003,0.091420,0.001085,0.031404,0.954093:1.010022,0.726944,-0.885117,0.012509,-0.067117,1.583832:vel_eff
1553597462.329220,cobot_dynamixel_driver/goal|-:J1,J2,J3,J4,J5,J6:0.527140,-0.105632,0.076492,0.000961,0.027948,0.971382:0.954280,1.050851,-0.525687,0.016777,-0.308850,4.051138:vel_eff
1553597462.438978,cobot_dynamixel_driver/goal|-:J1,J2,J3,J4,J5,J6:0.542216,-0.086289,0.061484,0.000831,0.023616,0.986496:0.080642,1.642419,-1.276104,0.010243,-0.215217,-3.879609:vel_eff
1553597462.525104,cobot_dynamixel_driver/goal|-:J1,J2,J3,J4,J5,J6:0.554645,-0.066104,0.046406,0.000695,0.018529,0.998954:0.837689,1.650138,-1.049363,-0.006996,0.374925,0.104141:vel_eff
1553597462.635003,cobot_dynamixel_driver/goal|-:J1,J2,J3,J4,J5,J6:0.564000,0.045244,0.031272,0.000556,0.012839,1.008330:0.178737,1.107466,-0.522888,0.006913,-0.374918,1.107198:vel_eff
1553597462.718979,cobot_dynamixel_driver/goal|-:J1,J2,J3,J4,J5,J6:0.569940,0.023902,-0.016097,0.000416,0.006727,1.014280:2.040604,0.599236,-0.666099,-0.000046,-0.232390,-4.472417:vel_eff
1553597462.828974,cobot_dynamixel_driver/goal|-:J1,J2,J3,J4,J5,J6:0.572240,-0.002300,-0.000900,0.000280,0.000396,1.016579:-0.097765,-0.939173,-0.309709,-0.006852,-0.411097,2.088410:vel_eff
1553597462.939500,cobot_dynamixel_driver/goal|-:J1,J2,J3,J4,J5,J6:0.570811,-0.019331,-0.014302,0.000150,0.005944,1.015137:0.936598,0.705732,-0.642092,-0.023776,-0.297175,-1.396208:vel_eff
1553597463.022596,cobot_dynamixel_driver/goal|-:J1,J2,J3,J4,J5,J6:0.565707,0.040758,-0.029491,0.000030,0.012076,1.010011:-1.123384,2.329988,-1.140718,-0.019369,-0.845115,2.087461:vel_eff
1553597463.133481,cobot_dynamixel_driver/goal|-:J1,J2,J3,J4,J5,J6:0.557123,0.061757,-0.044649,0.000079,0.017800,1.001396:-0.258969,4.016330,-1.794275,-0.014363,-1.027890,2.346112:vel_eff
1553597463.218387,cobot_dynamixel_driver/goal|-:J1,J2,J3,J4,J5,J6:0.545375,0.082127,-0.059759,0.000173,-0.022931,0.989610:0.822780,1.185276,-0.807598,-0.008653,-1.991072,-0.931832:vel_eff
1553597463.328253,cobot_dynamixel_driver/goal|-:J1,J2,J3,J4,J5,J6:0.530870,0.101693,-0.074808,0.000252,-0.027313,0.975064:-2.072365,1.078637,-0.652447,-0.012601,-0.538380,0.374621:vel_eff
1553597463.438037,cobot_dynamixel_driver/goal|-:J1,J2,J3,J4,J5,J6:0.514079,0.120318,-0.089785,0.000315,-0.030822,0.958230:-0.773333,1.279620,-0.337185,-0.015736,-0.317428,-0.122410:vel_eff
1553597463.521183,cobot_dynamixel_driver/goal|-:J1,J2,J3,J4,J5,J6:0.495493,0.137900,-0.104681,0.000361,-0.033368,0.939602:-1.055791,0.979881,-0.967229,-0.018052,-0.151739,2.479381:vel_eff
1553597463.630085,cobot_dynamixel_driver/goal|-:J1,J2,J3,J4,J5,J6:0.475604,0.154376,-0.119492,0.000391,-0.034895,0.919672:-1.705989,0.687415,0.003143,-0.019574,-0.141900,-0.516370:vel_eff
1553597463.740916,cobot_dynamixel_driver/goal|-:J1,J2,J3,J4,J5,J6:0.454870,0.169717,-0.134216,0.000407,-0.035377,0.898901:-0.510146,0.202568,-0.576591,-0.041209,0.023604,-1.468761:vel_eff
1553597463.824059,cobot_dynamixel_driver/goal|-:J1,J2,J3,J4,J5,J6:0.433706,0.183925,-0.148857,0.000408,-0.034814,0.877702:-0.744233,0.923391,-1.767685,-0.041288,0.499841,-3.028542:vel_eff
1553597463.935745,cobot_dynamixel_driver/goal|-:J1,J2,J3,J4,J5,J6:0.412630,0.196825,-0.163204,0.000398,-0.033248,0.856489:-1.839739,0.838141,-0.273343,-0.030318,0.078339,0.495327:vel_eff
1553597464.018588,cobot_dynamixel_driver/goal|-:J1,J2,J3,J4,J5,J6:0.391778,0.208693,-0.177483,0.000376,-0.030724,0.835505:-1.275772,0.669962,-1.675827,-0.018811,-0.174646,-2.277342:vel_eff
1553597464.129549,cobot_dynamixel_driver/goal|-:J1,J2,J3,J4,J5,J6:0.371246,0.219740,-0.191892,0.000345,-0.027258,0.814933:-1.050498,0.231273,-0.758404,-0.027689,0.601890,-0.789645:vel_eff
1553597464.239359,cobot_dynamixel_driver/goal|-:J1,J2,J3,J4,J5,J6:0.351410,0.229815,-0.206188,-0.000306,-0.022942,0.795024:1.212605,1.256640,-1.087213,-0.025738,0.214483,-1.285288:vel_eff
1553597464.323289,cobot_dynamixel_driver/goal|-:J1,J2,J3,J4,J5,J6:0.332385,0.239029,-0.220416,-0.000261,-0.017842,0.775904:-0.719300,-0.369114,-0.150294,-0.023458,0.228160,-4.137119:vel_eff
1553597464.433122,cobot_dynamixel_driver/goal|-:J1,J2,J3,J4,J5,J6:0.314147,0.246992,-0.234020,-0.000210,-0.012126,0.756946:-0.900910,0.039425,-0.621847,-0.010514,0.358835,-0.552232:vel_eff
1553597464.516094,cobot_dynamixel_driver/goal|-:J1,J2,J3,J4,J5,J6:0.210696,0.179505,-0.174453,-0.000113,-0.004410,0.523337:-5.374500,-5.390091,2.700744,-0.005650,0.572292,-16.903392:vel_eff
1553597464.626079,cobot_dynamixel_driver/goal|-:J1,J2,J3,J4,J5,J6:0.000000,0.000000,-0.000000,-0.000000,-0.000000,0.000000:-1.059688,-0.917747,0.784473,0.000000,0.023271,-2.470289:vel_eff
1553597464.735821,cobot_dynamixel_driver/goal|-:J1,J2,J3,J4,J5,J6:0.000000,0.000000,0.000000,0.000000,0.000000,0.000000:-1.578915,-1.459879,1.428436,-0.000000,-0.000000,-4.200291:vel_eff
1553597465.239352,cobot_dynamixel_driver/goal|-:J1,J2,J3,J4,J5,J6:-0.220428,-0.171980,0.162407,-0.003194,0.007995,-0.535102:-0.784492,-0.612066,0.577997,-0.011366,0.028455,-1.904399:vel_eff
1553597465.324204,cobot_dynamixel_driver/goal|-:J1,J2,J3,J4,J5,J6:-0.327732,-0.236519,0.218095,-0.004448,0.015941,-0.773775:-1.022893,-0.775250,0.720343,-0.014949,0.002604,-2.389634:vel_eff
1553597465.434148,cobot_dynamixel_driver/goal|-:J1,J2,J3,J4,J5,J6:-0.327732,-0.236519,0.218095,-0.004448,-0.015941,-0.773775:-1.013431,-0.871319,0.695163,-0.022582,0.003933,-2.376042:vel_eff
1553597465.517013,cobot_dynamixel_driver/goal|-:J1,J2,J3,J4,J5,J6:-0.327732,-0.236519,0.218095,-0.004448,-0.015941,-0.773775:-1.118640,-0.963919,0.871076,-0.034989,-0.043381,-2.769116:vel_eff
1553597465.627874,cobot_dynamixel_driver/goal|-:J1,J2,J3,J4,J5,J6:-0.327732,-0.236519,0.218095,-0.004448,0.015941,-0.773775:0.294698,0.400736,-0.289145,-0.065926,-0.055969,2.020276:vel_eff
1553597465.737812,cobot_dynamixel_driver/goal|-:J1,J2,J3,J4,J5,J6:-0.348323,-0.229267,0.205777,-0.004367,0.020704,-0.797523:-0.776582,0.836359,-1.270152,-0.051423,0.328556,-0.683820:vel_eff
1553597465.820753,cobot_dynamixel_driver/goal|-:J1,J2,J3,J4,J5,J6:-0.367624,-0.219516,0.191793,-0.004226,0.024646,-0.816941:-2.732698,0.990067,-0.717475,0.039080,0.473977,-3.119682:vel_eff
1553597465.932739,cobot_dynamixel_driver/goal|-:J1,J2,J3,J4,J5,J6:-0.387582,-0.208867,0.177731,-0.004054,0.027770,-0.837007:0.609254,-0.146637,-0.846839,-0.056636,0.061420,0.754543:vel_eff
1553597466.017585,cobot_dynamixel_driver/goal|-:J1,J2,J3,J4,J5,J6:-0.408033,-0.197238,0.163569,-0.003848,0.030018,-0.857552:-1.373080,0.987732,-0.741191,-0.025458,0.225518,-3.616311:vel_eff
1553597466.129186,cobot_dynamixel_driver/goal|-:J1,J2,J3,J4,J5,J6:-0.428666,-0.184681,0.149420,-0.003607,0.031337,-0.878324:0.401557,1.625993,-1.156533,-0.023857,-0.036000,-2.879697:vel_eff
1553597466.239266,cobot_dynamixel_driver/goal|-:J1,J2,J3,J4,J5,J6:-0.449280,-0.171071,0.135183,-0.003329,0.031706,-0.899074:-1.265491,0.512146,-0.366118,-0.009941,0.258185,0.167489:vel_eff
1553597466.322365,cobot_dynamixel_driver/goal|-:J1,J2,J3,J4,J5,J6:-0.469667,-0.156193,0.120684,-0.003007,0.031090,-0.919511:-3.369837,1.558565,-1.299746,-0.066914,0.330804,-0.578624:vel_eff
1553597466.435057,cobot_dynamixel_driver/goal|-:J1,J2,J3,J4,J5,J6:-0.489318,-0.140207,0.106088,-0.002647,0.029490,-0.939205:0.655171,0.302733,-0.631606,-0.007156,0.095724,2.521405:vel_eff
1553597466.516937,cobot_dynamixel_driver/goal|-:J1,J2,J3,J4,J5,J6:-0.507801,-0.123132,0.091396,-0.002248,0.026936,-0.957722:-1.938157,0.561831,-1.543556,-0.049822,0.192078,1.785140:vel_eff
1553597466.629100,cobot_dynamixel_driver/goal|-:J1,J2,J3,J4,J5,J6:-0.524656,-0.105022,0.076611,-0.001815,0.023485,-0.974599:-0.235409,0.695311,-0.738791,-0.007296,0.088462,2.733699:vel_eff
1553597466.738840,cobot_dynamixel_driver/goal|-:J1,J2,J3,J4,J5,J6:-0.539411,-0.085967,0.061742,-0.001353,0.019226,-0.989365:-0.211612,1.136913,-0.877195,-0.036332,-0.227924,-1.020693:vel_eff
1553597466.821792,cobot_dynamixel_driver/goal|-:J1,J2,J3,J4,J5,J6:-0.551612,-0.066088,0.046797,-0.000868,0.014278,-1.001563:-1.739735,1.890877,-1.374041,-0.001685,-0.113380,-1.079083:vel_eff
1553597466.933754,cobot_dynamixel_driver/goal|-:J1,J2,J3,J4,J5,J6:-0.560854,-0.045545,0.031791,-0.000372,0.008791,-1.010788:-1.012536,0.727238,-0.726424,0.085743,-0.060243,0.424465:vel_eff
1553597467.016528,cobot_dynamixel_driver/goal|-:J1,J2,J3,J4,J5,J6:-0.566809,-0.024524,0.016738,-0.000126,0.002940,-1.016713:0.484068,0.933276,-0.853135,0.006324,-0.507905,-0.733563:vel_eff
1553597467.126430,cobot_dynamixel_driver/goal|-:J1,J2,J3,J4,J5,J6:-0.569258,-0.003234,0.001655,-0.000614,0.003083,-1.019121:1.217081,1.173640,-0.730966,0.030708,-0.464362,-5.248901:vel_eff
1553597467.236354,cobot_dynamixel_driver/goal|-:J1,J2,J3,J4,J5,J6:-0.568107,-0.018104,0.013440,-0.001080,0.009077,-1.017922:-0.238071,1.072120,-1.058003,0.053977,-0.453838,3.480265:vel_eff
1553597467.319229,cobot_dynamixel_driver/goal|-:J1,J2,J3,J4,J5,J6:-0.563399,-0.039266,0.028530,-0.001511,0.014841,-1.013160:0.873647,2.641401,-1.541251,0.075575,-1.190182,1.288220:vel_eff
1553597467.430207,cobot_dynamixel_driver/goal|-:J1,J2,J3,J4,J5,J6:-0.555308,0.060037,-0.043597,-0.001900,-0.020187,-1.005013:1.048726,5.234356,-4.161991,0.157617,-1.871086,1.109589:vel_eff
1553597467.540006,cobot_dynamixel_driver/goal|-:J1,J2,J3,J4,J5,J6:-0.544121,0.080220,-0.058625,0.002239,-0.024942,-0.993773:1.921016,1.653288,-2.023657,0.184980,-0.609397,2.171414:vel_eff
1553597467.622888,cobot_dynamixel_driver/goal|-:J1,J2,J3,J4,J5,J6:-0.530220,0.099646,-0.073601,0.002522,-0.028962,-0.979822:1.113831,1.403999,-0.685984,0.240876,-0.327810,-1.422550:vel_eff
1553597467.731668,cobot_dynamixel_driver/goal|-:J1,J2,J3,J4,J5,J6:-0.514043,0.118177,-0.088513,0.002748,-0.032131,-0.963602:0.556032,0.849161,-0.555258,0.126976,-0.124353,-0.904550:vel_eff
1553597467.814836,cobot_dynamixel_driver/goal|-:J1,J2,J3,J4,J5,J6:-0.496059,0.135711,-0.103352,0.002916,-0.034367,-0.945583:0.234637,0.828677,-1.151167,0.145820,-0.374029,1.719924:vel_eff
1553597467.924809,cobot_dynamixel_driver/goal|-:J1,J2,J3,J4,J5,J6:-0.476736,0.152181,-0.118114,0.003029,-0.035617,-0.926232:2.014506,0.692392,-0.626929,0.047136,0.046049,-1.242103:vel_eff
1553597468.035544,cobot_dynamixel_driver/goal|-:J1,J2,J3,J4,J5,J6:-0.456518,0.167553,-0.132796,0.003090,-0.035858,-0.905992:0.605122,0.198693,-0.369968,0.206668,-0.414083,0.235200:vel_eff
1553597468.118190,cobot_dynamixel_driver/goal|-:J1,J2,J3,J4,J5,J6:-0.435807,0.181824,-0.147401,0.003104,-0.035090,-0.885267:4.937305,0.922702,-1.121101,0.071734,0.313721,0.582100:vel_eff
1553597468.228250,cobot_dynamixel_driver/goal|-:J1,J2,J3,J4,J5,J6:-0.415113,0.194814,-0.161718,0.003075,-0.033354,-0.864456:1.381765,0.581109,-0.386818,0.039018,0.141972,2.122456:vel_eff
1553597468.338305,cobot_dynamixel_driver/goal|-:J1,J2,J3,J4,J5,J6:-0.394575,0.206790,-0.175970,0.003011,-0.030692,-0.843806:1.428008,0.470531,-0.776052,-0.068508,0.292285,-3.790781:vel_eff
1553597468.421099,cobot_dynamixel_driver/goal|-:J1,J2,J3,J4,J5,J6:-0.374295,0.217961,-0.190355,0.002916,-0.027116,-0.823505:1.503104,0.434441,-0.180812,0.072791,0.057466,-0.793700:vel_eff
1553597468.531125,cobot_dynamixel_driver/goal|-:J1,J2,J3,J4,J5,J6:-0.354648,0.228168,-0.204628,0.002796,-0.022716,-0.803801:1.358748,0.370995,-0.351985,-0.006275,0.432576,4.638133:vel_eff
1553597468.613884,cobot_dynamixel_driver/goal|-:J1,J2,J3,J4,J5,J6:-0.335755,0.237518,-0.218833,0.002654,-0.017556,-0.784826:2.512064,0.963669,-1.250029,-0.002929,0.845682,3.449757:vel_eff
1553597468.725820,cobot_dynamixel_driver/goal|-:J1,J2,J3,J4,J5,J6:-0.315825,0.244245,-0.231120,0.002481,-0.011736,-0.761678:1.515984,-0.045732,-0.414281,-0.063719,0.154318,0.367353:vel_eff
1553597468.835783,cobot_dynamixel_driver/goal|-:J1,J2,J3,J4,J5,J6:-0.211969,0.177618,-0.172334,0.001643,-0.004143,-0.526766:4.611885,-2.657236,3.390908,-0.053484,0.258218,10.751370:vel_eff
1553597468.918744,cobot_dynamixel_driver/goal|-:J1,J2,J3,J4,J5,J6:-0.000000,0.000000,-0.000000,0.000000,-0.000000,-0.000000:2.023367,-1.682305,1.230261,-0.018948,0.080494,4.907920:vel_eff
1553597471.232447,cobot_dynamixel_driver/goal|-:J1,J2,J3,J4,J5,J6:0.221456,-0.173801,0.164578,-0.000118,0.009414,0.535690:0.783912,-0.611532,0.583316,0.000417,0.033322,1.896245:vel_eff
1553597471.317378,cobot_dynamixel_driver/goal|-:J1,J2,J3,J4,J5,J6:0.329544,-0.238968,0.220928,-0.000168,0.018334,0.774918:1.015289,-0.763204,0.728076,-0.004736,0.007116,2.357794:vel_eff
1553597471.428306,cobot_dynamixel_driver/goal|-:J1,J2,J3,J4,J5,J6:0.329544,-0.238968,0.220928,-0.000168,0.018334,0.774918:1.426895,-1.086351,1.062897,-0.007104,0.003773,3.314217:vel_eff
1553597471.513163,cobot_dynamixel_driver/goal|-:J1,J2,J3,J4,J5,J6:0.329544,-0.238968,0.220928,-0.000168,-0.018334,0.774918:1.174281,-0.946062,0.876077,-0.001680,0.031746,2.747391:vel_eff
1553597471.624103,cobot_dynamixel_driver/goal|-:J1,J2,J3,J4,J5,J6:0.348646,-0.230314,0.207237,-0.000171,0.023401,0.794727:0.198692,-0.354830,-0.134784,0.001730,0.411725,0.078800:vel_eff
1553597471.735057,cobot_dynamixel_driver/goal|-:J1,J2,J3,J4,J5,J6:0.368281,-0.220420,0.193057,-0.000176,0.027719,0.814445:0.247899,0.217162,-0.187831,0.001791,0.190324,0.167068:vel_eff
1553597471.818071,cobot_dynamixel_driver/goal|-:J1,J2,J3,J4,J5,J6:0.388589,-0.209621,0.178821,-0.000185,0.031191,0.834832:0.515272,0.244119,0.175796,0.001880,0.092622,0.310923:vel_eff
1553597471.929917,cobot_dynamixel_driver/goal|-:J1,J2,J3,J4,J5,J6:0.388589,-0.209621,0.178821,-0.000185,0.031191,0.834832:1.225054,0.535478,1.325436,-0.009264,0.094553,-10.445922:vel_eff
1553597472.039701,cobot_dynamixel_driver/goal|-:J1,J2,J3,J4,J5,J6:0.409410,-0.197827,0.164498,-0.000198,0.033754,0.855720:0.753411,0.906111,-1.758833,0.009880,0.084866,0.956714:vel_eff
1553597472.122569,cobot_dynamixel_driver/goal|-:J1,J2,J3,J4,J5,J6:0.430423,-0.185089,0.150201,-0.000214,0.035350,0.876851:0.082714,0.531066,-0.564567,0.041982,0.268048,3.426525:vel_eff
1553597472.233459,cobot_dynamixel_driver/goal|-:J1,J2,J3,J4,J5,J6:0.451415,-0.171279,0.135827,-0.000234,0.035950,0.897966:1.361820,0.835602,-0.970296,-0.019602,-0.098365,1.983214:vel_eff
1553597472.316367,cobot_dynamixel_driver/goal|-:J1,J2,J3,J4,J5,J6:0.472165,-0.156177,0.121199,-0.000259,0.035513,0.918759:0.657098,-0.297587,-0.512442,0.033792,-0.102953,2.488547:vel_eff
1553597472.426255,cobot_dynamixel_driver/goal|-:J1,J2,J3,J4,J5,J6:0.492141,-0.139948,0.106484,-0.000287,0.034033,0.938782:-0.242743,0.649516,-0.413574,0.014375,-0.039105,7.557176:vel_eff
1553597472.537097,cobot_dynamixel_driver/goal|-:J1,J2,J3,J4,J5,J6:0.510895,-0.122613,0.091684,0.000321,0.031530,0.957585:1.279164,1.005071,-0.412891,0.016028,0.094293,3.792171:vel_eff
1553597472.619973,cobot_dynamixel_driver/goal|-:J1,J2,J3,J4,J5,J6:0.527944,-0.104230,0.076801,0.000357,0.028058,0.974683:0.890128,1.454751,-1.772521,0.017863,-0.337827,1.113888:vel_eff
1553597472.731751,cobot_dynamixel_driver/goal|-:J1,J2,J3,J4,J5,J6:0.542794,-0.084893,0.061844,0.000397,0.023702,0.989581:0.130403,0.637658,-0.736463,0.019846,0.340609,4.840459:vel_eff
1553597472.813931,cobot_dynamixel_driver/goal|-:J1,J2,J3,J4,J5,J6:0.554976,-0.064734,0.046822,0.000439,0.018583,1.001806:0.238719,1.165759,-0.496493,0.021928,-0.242840,1.401476:vel_eff
1553597472.924758,cobot_dynamixel_driver/goal|-:J1,J2,J3,J4,J5,J6:0.564070,-0.043917,0.031748,0.000481,0.012851,1.010937:0.776884,1.695416,-1.761355,0.024053,-0.391538,1.858005:vel_eff
1553597473.036557,cobot_dynamixel_driver/goal|-:J1,J2,J3,J4,J5,J6:0.569746,0.022639,0.016639,0.000523,0.006688,1.016640:-0.024278,1.382249,-0.586865,0.015724,-0.165416,-4.302719:vel_eff
1553597473.120412,cobot_dynamixel_driver/goal|-:J1,J2,J3,J4,J5,J6:0.571789,0.001118,0.001509,0.000563,0.000294,1.018699:0.870734,0.601353,-0.686091,0.028173,-0.209348,-0.769999:vel_eff
1553597473.230315,cobot_dynamixel_driver/goal|-:J1,J2,J3,J4,J5,J6:0.570120,0.020417,-0.013622,0.000601,0.006118,1.017034:0.463891,0.906075,-0.983620,0.030040,-0.529939,-1.490929:vel_eff
1553597473.314233,cobot_dynamixel_driver/goal|-:J1,J2,J3,J4,J5,J6:0.564804,0.041733,-0.028737,0.000634,-0.012334,1.011710:0.333704,0.918244,-1.426401,0.031705,-1.047572,-4.876668:vel_eff
1553597473.424196,cobot_dynamixel_driver/goal|-:J1,J2,J3,J4,J5,J6:0.556042,0.062612,-0.043819,0.000663,-0.018151,1.002929:-2.284739,2.379494,-2.086610,0.033129,-1.217777,-0.317568:vel_eff
1553597473.535984,cobot_dynamixel_driver/goal|-:J1,J2,J3,J4,J5,J6:0.544155,0.082855,-0.058852,0.000686,-0.023384,0.991013:0.657475,0.752248,-0.553597,0.034286,-0.186826,-1.258054:vel_eff
1553597473.619949,cobot_dynamixel_driver/goal|-:J1,J2,J3,J4,J5,J6:0.529554,0.102292,-0.073823,0.000703,-0.027877,0.976376:-0.312545,1.077268,-0.905727,0.014304,-0.239107,-1.403956:vel_eff
1553597473.729925,cobot_dynamixel_driver/goal|-:J1,J2,J3,J4,J5,J6:0.512705,0.120787,-0.088721,0.000716,-0.031503,0.959486:-0.946316,1.094410,-0.638694,-0.005948,-0.248078,1.767301:vel_eff
1553597473.839682,cobot_dynamixel_driver/goal|-:J1,J2,J3,J4,J5,J6:0.494101,0.138242,-0.103538,0.000723,-0.034172,0.940837:-0.311659,0.934381,-0.378045,-0.036882,-0.226405,-2.974048:vel_eff
1553597473.923615,cobot_dynamixel_driver/goal|-:J1,J2,J3,J4,J5,J6:0.474227,0.154596,-0.118270,0.000726,-0.035826,0.920917:-3.287529,0.395894,-1.072904,0.004987,0.104568,1.131507:vel_eff
1553597474.033613,cobot_dynamixel_driver/goal|-:J1,J2,J3,J4,J5,J6:0.453536,0.169823,-0.132916,0.000725,-0.036436,0.900182:-2.465112,1.772706,-1.158387,0.015368,-0.132786,-2.490518:vel_eff
1553597474.118454,cobot_dynamixel_driver/goal|-:J1,J2,J3,J4,J5,J6:0.432436,0.183924,-0.147479,0.000720,-0.036004,0.879039:-1.558822,0.370441,-0.373855,0.015160,0.026713,-0.204064:vel_eff
1553597474.228430,cobot_dynamixel_driver/goal|-:J1,J2,J3,J4,J5,J6:0.411442,0.196728,-0.161749,0.000714,-0.034566,0.857899:0.312524,1.187981,-0.836970,-0.037336,-0.039262,-16.117635:vel_eff
1553597474.338259,cobot_dynamixel_driver/goal|-:J1,J2,J3,J4,J5,J6:0.390683,0.208507,-0.175952,0.000705,-0.032169,0.836999:-1.153184,0.399897,-0.086587,0.014403,-0.005600,-1.944140:vel_eff
1553597474.421169,cobot_dynamixel_driver/goal|-:J1,J2,J3,J4,J5,J6:0.370250,0.219474,-0.190283,0.000696,-0.028829,0.816518:-0.453457,1.125594,-0.771880,0.013919,0.178625,-1.244678:vel_eff
1553597474.531848,cobot_dynamixel_driver/goal|-:J1,J2,J3,J4,J5,J6:0.350518,0.229477,-0.204503,0.000685,-0.024636,0.796705:-3.015372,0.592915,-0.867335,-0.007470,0.422764,-4.406966:vel_eff
1553597474.640919,cobot_dynamixel_driver/goal|-:J1,J2,J3,J4,J5,J6:0.331593,0.238628,-0.218657,0.000674,-0.019655,0.777681:-0.372889,0.320222,-0.271017,0.012849,0.120304,1.932234:vel_eff
1553597474.723860,cobot_dynamixel_driver/goal|-:J1,J2,J3,J4,J5,J6:0.313415,0.246499,-0.232156,0.000662,-0.014048,0.758714:-1.469568,0.880688,-0.841623,0.012259,-0.030216,-0.584472:vel_eff
1553597474.833816,cobot_dynamixel_driver/goal|-:J1,J2,J3,J4,J5,J6:0.210243,0.179121,-0.173085,0.000461,-0.005839,0.524647:-5.188486,-3.917460,3.353372,0.012609,0.380190,-10.788373:vel_eff
1553597474.917647,cobot_dynamixel_driver/goal|-:J1,J2,J3,J4,J5,J6:0.000000,0.000000,-0.000000,0.000000,-0.000000,0.000000:-1.093327,-0.950387,0.831453,-0.002182,0.097343,-2.749045:vel_eff
1553597475.422216,cobot_dynamixel_driver/goal|-:J1,J2,J3,J4,J5,J6:-0.226244,-0.167740,0.156492,-0.000545,0.010724,-0.538883:-0.810165,-0.610380,0.560388,-0.001953,0.038401,-1.929707:vel_eff
1553597475.533993,cobot_dynamixel_driver/goal|-:J1,J2,J3,J4,J5,J6:-0.226244,-0.167740,0.156492,-0.000545,0.010724,-0.538883:-0.975304,-0.820300,0.840158,-0.012334,0.027087,-2.390672:vel_eff
1553597475.617829,cobot_dynamixel_driver/goal|-:J1,J2,J3,J4,J5,J6:-0.226244,-0.167740,0.156492,-0.000545,-0.010724,-0.538883:-1.355662,-0.857162,0.915613,-0.006918,0.013596,-2.930343:vel_eff
1553597475.728714,cobot_dynamixel_driver/goal|-:J1,J2,J3,J4,J5,J6:-0.226244,-0.167740,0.156492,-0.000545,-0.010724,-0.538883:-0.076560,0.553506,-0.667322,-0.027274,-0.001898,1.717646:vel_eff
1553597475.838563,cobot_dynamixel_driver/goal|-:J1,J2,J3,J4,J5,J6:-0.336127,-0.230252,0.209875,-0.000741,0.019588,-0.779290:-5.758518,-2.728555,2.210454,-0.037047,1.410285,-13.508413:vel_eff
1553597475.921741,cobot_dynamixel_driver/goal|-:J1,J2,J3,J4,J5,J6:-0.359015,-0.224060,0.198967,-0.000709,0.024243,-0.808076:-0.852177,0.731565,-1.099492,-0.035438,0.419338,0.512030:vel_eff
1553597476.031491,cobot_dynamixel_driver/goal|-:J1,J2,J3,J4,J5,J6:-0.359015,-0.224060,0.198967,-0.000709,0.024243,-0.808076:-0.174076,-0.426424,0.027200,-0.035438,-0.011536,-1.607873:vel_eff
1553597476.115224,cobot_dynamixel_driver/goal|-:J1,J2,J3,J4,J5,J6:-0.378401,-0.213939,0.185114,-0.000660,0.027923,-0.827563:0.630148,0.277889,-0.195989,-0.033022,0.103549,-1.927278:vel_eff
1553597476.225255,cobot_dynamixel_driver/goal|-:J1,J2,J3,J4,J5,J6:-0.398340,-0.202909,0.171185,-0.000606,0.030775,-0.847591:-0.857127,1.194502,-0.996759,-0.030285,0.039296,-3.169985:vel_eff
1553597476.335111,cobot_dynamixel_driver/goal|-:J1,J2,J3,J4,J5,J6:-0.418650,-0.190898,0.157162,-0.000544,0.032743,-0.867976:-1.288420,0.470123,-1.228451,-0.027209,0.275570,1.601739:vel_eff
1553597476.420057,cobot_dynamixel_driver/goal|-:J1,J2,J3,J4,J5,J6:-0.459183,-0.164011,0.129074,-0.000402,0.033871,-0.908748:-2.084059,0.959023,-0.880252,-0.020084,-0.219555,-1.832903:vel_eff
1553597476.529919,cobot_dynamixel_driver/goal|-:J1,J2,J3,J4,J5,J6:-0.459183,-0.164011,0.129074,-0.000402,0.033871,-0.908748:-0.717424,0.520865,0.016928,-0.020084,0.107909,1.889853:vel_eff
1553597476.613878,cobot_dynamixel_driver/goal|-:J1,J2,J3,J4,J5,J6:-0.478960,-0.148816,0.114741,-0.000320,0.032981,-0.928562:-1.841892,1.176307,-0.553637,-0.015985,-0.005520,-0.376240:vel_eff
1553597476.723736,cobot_dynamixel_driver/goal|-:J1,J2,J3,J4,J5,J6:-0.497823,-0.132559,0.100326,-0.000232,0.031121,-0.947461:-0.823743,1.853524,-1.201381,-0.011584,-0.305306,-4.647528:vel_eff
1553597476.835411,cobot_dynamixel_driver/goal|-:J1,J2,J3,J4,J5,J6:-0.515343,-0.115276,0.085829,-0.000139,0.028327,-0.965016:-0.646115,-0.088593,0.681846,-0.006927,0.227144,0.162281:vel_eff
1553597476.918391,cobot_dynamixel_driver/goal|-:J1,J2,J3,J4,J5,J6:-0.531074,-0.097031,0.071255,-0.000042,0.024661,-0.980777:-0.952762,0.792322,-0.495448,-0.002078,-0.283642,0.546213:vel_eff
1553597477.027471,cobot_dynamixel_driver/goal|-:J1,J2,J3,J4,J5,J6:-0.544568,-0.077926,0.056611,-0.000058,0.020215,-0.994296:-1.408384,1.246841,-0.184375,0.002881,-0.212938,0.283899:vel_eff
1553597477.139335,cobot_dynamixel_driver/goal|-:J1,J2,J3,J4,J5,J6:-0.563233,-0.037691,0.027162,-0.000254,0.009503,-1.012990:0.057796,1.078231,-0.185889,0.012715,-0.524503,-0.650804:vel_eff
1553597477.222202,cobot_dynamixel_driver/goal|-:J1,J2,J3,J4,J5,J6:-0.563233,-0.037691,0.027162,-0.000254,0.009503,-1.012990:1.132326,0.087159,0.293999,-0.012715,0.164897,-2.563887:vel_eff
1553597477.332205,cobot_dynamixel_driver/goal|-:J1,J2,J3,J4,J5,J6:-0.567772,-0.016911,0.012383,-0.000347,0.003558,-1.017530:-0.993271,0.886205,-0.893529,0.017360,-0.425314,2.534716:vel_eff
1553597477.414881,cobot_dynamixel_driver/goal|-:J1,J2,J3,J4,J5,J6:-0.568859,0.004043,0.002411,-0.000433,0.002533,-1.018610:0.757169,1.203653,-0.715184,0.021669,-0.350695,-1.397156:vel_eff
1553597477.524912,cobot_dynamixel_driver/goal|-:J1,J2,J3,J4,J5,J6:-0.566455,0.024959,0.017204,-0.000511,0.008575,-1.016190:-1.292552,1.362695,-0.922777,0.025535,-0.446006,1.222900:vel_eff
1553597477.634849,cobot_dynamixel_driver/goal|-:J1,J2,J3,J4,J5,J6:-0.560647,0.045625,-0.031979,-0.000577,-0.014377,-1.010359:-0.178012,1.404941,-2.579588,0.028871,-1.063541,-1.260391:vel_eff
1553597477.718862,cobot_dynamixel_driver/goal|-:J1,J2,J3,J4,J5,J6:-0.551643,0.065843,-0.046721,-0.000632,-0.019755,-1.001326:0.668623,1.059614,-1.741420,0.031613,-0.918829,-0.102090:vel_eff
1553597477.828581,cobot_dynamixel_driver/goal|-:J1,J2,J3,J4,J5,J6:-0.539751,0.085432,-0.061416,-0.000674,-0.024549,-0.989401:0.866784,0.943703,-0.640082,0.304965,-0.313976,6.147250:vel_eff
1553597477.938541,cobot_dynamixel_driver/goal|-:J1,J2,J3,J4,J5,J6:-0.525356,0.104242,-0.076052,-0.000704,-0.028619,-0.974970:-0.948542,0.663612,-0.641601,0.035195,-0.241736,1.008887:vel_eff
1553597478.021510,cobot_dynamixel_driver/goal|-:J1,J2,J3,J4,J5,J6:-0.508891,0.122152,-0.090618,-0.000721,-0.031858,-0.958468:-0.761643,0.505414,-1.015228,0.036038,-0.110691,-5.542576:vel_eff
1553597478.131278,cobot_dynamixel_driver/goal|-:J1,J2,J3,J4,J5,J6:-0.490805,0.139073,-0.105109,-0.000726,-0.034187,-0.940346:1.206758,0.339551,-1.207701,0.036291,0.065852,1.671536:vel_eff
1553597478.214268,cobot_dynamixel_driver/goal|-:J1,J2,J3,J4,J5,J6:-0.471541,0.154952,-0.119520,-0.000720,-0.035557,-0.921048:1.523148,1.707280,-0.269491,0.036004,-0.140529,2.326219:vel_eff
1553597478.325027,cobot_dynamixel_driver/goal|-:J1,J2,J3,J4,J5,J6:-0.451514,0.169765,-0.133850,0.000705,-0.035946,-0.900989:0.344129,0.434477,-0.777370,0.045669,0.046851,1.950357:vel_eff
1553597478.435114,cobot_dynamixel_driver/goal|-:J1,J2,J3,J4,J5,J6:-0.431097,0.183515,-0.148104,0.000681,-0.035355,-0.880543:2.272586,2.759854,-1.177088,0.054919,-0.044230,0.749347:vel_eff
1553597478.520036,cobot_dynamixel_driver/goal|-:J1,J2,J3,J4,J5,J6:-0.390649,0.207578,-0.175983,0.000615,-0.031385,-0.839838:1.238330,0.937623,-0.140312,0.030742,0.188714,2.836291:vel_eff
1553597478.630899,cobot_dynamixel_driver/goal|-:J1,J2,J3,J4,J5,J6:-0.390649,0.207578,-0.175983,0.000615,-0.031385,-0.839838:0.236826,-0.439445,0.057902,0.030742,-0.018106,-0.352181:vel_eff
1553597478.713674,cobot_dynamixel_driver/goal|-:J1,J2,J3,J4,J5,J6:-0.370813,0.218357,-0.190020,0.000574,-0.028059,-0.819966:0.873905,0.475063,-0.518786,0.028707,-0.006939,1.658297:vel_eff
1553597478.822561,cobot_dynamixel_driver/goal|-:J1,J2,J3,J4,J5,J6:-0.351620,0.228214,-0.203949,0.000530,-0.023929,-0.800702:-0.336363,0.154232,-0.672755,0.026506,0.113430,-0.980638:vel_eff
1553597478.931510,cobot_dynamixel_driver/goal|-:J1,J2,J3,J4,J5,J6:-0.333194,0.237236,-0.217786,0.000484,-0.019061,-0.782173:0.835306,0.219306,-0.070985,0.024188,-0.022338,2.341459:vel_eff
1553597479.014581,cobot_dynamixel_driver/goal|-:J1,J2,J3,J4,J5,J6:-0.311741,0.242241,-0.228394,0.000431,-0.013418,-0.754784:0.468317,0.584318,-0.340545,0.021540,0.449350,-0.132450:vel_eff
1553597479.124504,cobot_dynamixel_driver/goal|-:J1,J2,J3,J4,J5,J6:-0.209442,0.176000,-0.170110,0.000273,-0.005562,-0.522250:4.320946,-3.301522,2.438042,0.013651,0.600903,10.218864:vel_eff
1553597479.234422,cobot_dynamixel_driver/goal|-:J1,J2,J3,J4,J5,J6:-0.000000,0.000000,-0.000000,0.000000,-0.000000,-0.000000:9.910716,-8.283272,8.251975,0.000000,0.137880,24.542615:vel_eff
1553597482.139377,cobot_dynamixel_driver/goal|-:J1,J2,J3,J4,J5,J6:0.219658,-0.172218,0.161731,-0.000404,0.010457,0.000000:0.792761,-0.607668,0.577663,-0.001444,0.037348,0.002462:vel_eff
1553597482.224266,cobot_dynamixel_driver/goal|-:J1,J2,J3,J4,J5,J6:0.322277,-0.241250,0.223457,-0.000589,0.017784,0.764230:1.053364,-0.786009,0.732956,-0.021723,0.003018,2.410296:vel_eff
1553597482.334155,cobot_dynamixel_driver/goal|-:J1,J2,J3,J4,J5,J6:0.322277,-0.241250,0.223457,-0.000589,0.017784,0.764230:1.159228,-0.899507,0.843941,-0.003000,0.018600,2.614878:vel_eff
1553597482.417929,cobot_dynamixel_driver/goal|-:J1,J2,J3,J4,J5,J6:0.322277,-0.241250,0.223457,-0.000589,-0.017784,0.764230:1.093476,-0.969208,0.959941,-0.006116,0.012859,2.645965:vel_eff
1553597482.527917,cobot_dynamixel_driver/goal|-:J1,J2,J3,J4,J5,J6:0.344308,-0.234885,0.211618,-0.000618,0.023329,0.790804:0.194242,-0.075189,-0.150937,-0.006593,0.410996,0.055877:vel_eff
1553597482.637909,cobot_dynamixel_driver/goal|-:J1,J2,J3,J4,J5,J6:0.363844,-0.225284,0.197505,-0.000635,0.027919,0.810356:0.097289,0.180052,-0.162195,-0.006915,0.097554,-0.210523:vel_eff
1553597482.721790,cobot_dynamixel_driver/goal|-:J1,J2,J3,J4,J5,J6:0.384081,-0.214832,0.183378,-0.000647,0.031677,0.830611:0.238160,0.269503,-0.004885,-0.007178,0.102930,-0.070154:vel_eff
1553597482.831820,cobot_dynamixel_driver/goal|-:J1,J2,J3,J4,J5,J6:0.384081,-0.214832,0.183378,-0.000647,0.031677,0.830611:3.232165,0.744385,0.124049,-0.032330,0.084424,-0.074683:vel_eff
1553597482.918569,cobot_dynamixel_driver/goal|-:J1,J2,J3,J4,J5,J6:0.426014,-0.191065,0.154995,-0.000647,0.036474,0.872591:0.595161,0.114911,-0.126773,-0.007539,0.091639,1.455835:vel_eff
1553597483.029483,cobot_dynamixel_driver/goal|-:J1,J2,J3,J4,J5,J6:0.426014,-0.191065,0.154995,-0.000647,0.036474,0.872591:-0.565486,0.420046,0.134129,-0.032349,-0.037662,-4.249248:vel_eff
1553597483.139334,cobot_dynamixel_driver/goal|-:J1,J2,J3,J4,J5,J6:0.447252,-0.177622,0.140707,-0.000634,0.037415,0.893859:2.614190,1.467785,-0.695014,-0.229893,0.061084,2.570628:vel_eff
1553597483.222251,cobot_dynamixel_driver/goal|-:J1,J2,J3,J4,J5,J6:0.468270,-0.163080,0.126341,-0.000610,0.037338,0.914911:0.890109,2.153153,-1.684537,0.073844,-0.184065,2.037625:vel_eff
1553597483.334192,cobot_dynamixel_driver/goal|-:J1,J2,J3,J4,J5,J6:0.488695,-0.147423,0.111893,-0.000574,0.036229,0.935373:1.650528,0.275768,0.274144,-0.028703,0.225853,0.199750:vel_eff
1553597483.416881,cobot_dynamixel_driver/goal|-:J1,J2,J3,J4,J5,J6:0.508100,-0.130661,0.097360,-0.000526,0.034099,0.954820:1.452341,0.863490,-0.953239,-0.026311,-0.139178,1.016948:vel_eff
1553597483.526025,cobot_dynamixel_driver/goal|-:J1,J2,J3,J4,J5,J6:0.526019,-0.112836,0.082746,-0.000466,0.030985,0.972783:1.023398,0.534147,-0.797197,-0.023285,0.135968,-2.962391:vel_eff
1553597483.635877,cobot_dynamixel_driver/goal|-:J1,J2,J3,J4,J5,J6:0.541967,-0.094025,0.068056,-0.000393,0.026954,0.988776:0.568945,1.912862,-0.801419,-0.019629,-0.117279,0.543160:vel_eff
1553597483.718891,cobot_dynamixel_driver/goal|-:J1,J2,J3,J4,J5,J6:0.555466,-0.074340,0.053300,-0.000307,0.022108,1.002318:1.525561,1.019290,-0.412538,-0.015373,-0.325120,-0.468762:vel_eff
1553597483.828870,cobot_dynamixel_driver/goal|-:J1,J2,J3,J4,J5,J6:0.566074,-0.053929,0.038489,-0.000212,0.016580,1.012966:1.210934,2.092009,-1.372167,-0.010579,-0.446412,1.666458:vel_eff
1553597483.940478,cobot_dynamixel_driver/goal|-:J1,J2,J3,J4,J5,J6:0.573420,0.032971,0.023637,-0.000107,0.010532,1.020345:-0.247419,0.949125,-0.403850,0.005095,0.216391,0.001702:vel_eff
1553597484.023359,cobot_dynamixel_driver/goal|-:J1,J2,J3,J4,J5,J6:0.577235,0.011670,0.008761,-0.000005,0.004153,1.024185:-0.234016,-0.364417,-0.761687,0.000235,-0.412799,1.641445:vel_eff
1553597484.133192,cobot_dynamixel_driver/goal|-:J1,J2,J3,J4,J5,J6:0.577375,0.009752,-0.006124,-0.000120,-0.002355,1.024340:-1.384998,-0.315677,-0.535716,0.006002,-0.393521,1.494092:vel_eff
1553597484.216163,cobot_dynamixel_driver/goal|-:J1,J2,J3,J4,J5,J6:0.573835,0.031069,-0.021000,-0.000236,-0.008784,1.020805:-0.122332,1.313510,-1.289925,0.011819,-0.714950,0.093625:vel_eff
1553597484.326022,cobot_dynamixel_driver/goal|-:J1,J2,J3,J4,J5,J6:0.566750,0.052059,-0.035849,-0.000351,-0.014927,1.013712:-0.226247,1.111114,-1.322994,0.017542,-0.608495,1.962316:vel_eff
1553597484.436046,cobot_dynamixel_driver/goal|-:J1,J2,J3,J4,J5,J6:0.556379,0.072515,-0.050656,-0.000461,-0.020595,1.003325:-2.069691,1.215888,-1.030554,0.033470,-0.305892,3.235373:vel_eff
1553597484.518901,cobot_dynamixel_driver/goal|-:J1,J2,J3,J4,J5,J6:0.543087,0.092257,-0.065407,-0.000564,-0.025618,0.990008:1.522133,1.232761,-0.443188,0.038628,-0.367467,-0.825773:vel_eff
1553597484.629557,cobot_dynamixel_driver/goal|-:J1,J2,J3,J4,J5,J6:0.527313,0.111133,-0.080089,-0.000659,-0.029857,0.974200:-0.560207,0.507411,-0.530499,0.043361,-0.148521,-1.185272:vel_eff
1553597484.739707,cobot_dynamixel_driver/goal|-:J1,J2,J3,J4,J5,J6:0.509532,0.129029,-0.094694,-0.000744,-0.033203,0.956381:-0.166058,0.734540,-0.478293,0.058043,0.097824,-1.093809:vel_eff
1553597484.822680,cobot_dynamixel_driver/goal|-:J1,J2,J3,J4,J5,J6:0.490232,0.145865,-0.109214,-0.000818,-0.035581,0.937039:-1.078930,0.449650,-0.682680,0.082643,-0.124490,-1.405979:vel_eff
1553597484.932509,cobot_dynamixel_driver/goal|-:J1,J2,J3,J4,J5,J6:0.469879,0.161597,-0.123647,0.000883,-0.036948,0.916644:-1.220269,0.871091,-0.642757,0.075424,-0.141116,2.279375:vel_eff
1553597485.015455,cobot_dynamixel_driver/goal|-:J1,J2,J3,J4,J5,J6:0.448902,0.176211,-0.137993,0.000937,-0.037287,0.895625:0.161658,1.841732,-0.734117,0.067695,0.152126,-5.114048:vel_eff
1553597485.125394,cobot_dynamixel_driver/goal|-:J1,J2,J3,J4,J5,J6:0.427681,0.189722,-0.152256,0.000981,-0.036609,0.874362:-0.492538,0.962870,-0.883955,0.069914,0.203288,0.699567:vel_eff
1553597485.235212,cobot_dynamixel_driver/goal|-:J1,J2,J3,J4,J5,J6:0.406734,0.201932,-0.166188,0.001016,-0.034962,0.853249:-1.758980,0.331956,-0.808543,0.050784,-0.248651,-4.578635:vel_eff
1553597485.318109,cobot_dynamixel_driver/goal|-:J1,J2,J3,J4,J5,J6:0.386024,0.213270,-0.180184,0.001043,-0.032377,0.832443:-1.313066,1.587364,-0.548589,0.052139,0.173578,0.327129:vel_eff
1553597485.427939,cobot_dynamixel_driver/goal|-:J1,J2,J3,J4,J5,J6:0.365852,0.223680,-0.194136,0.001063,-0.028909,0.812182:-1.747921,0.000531,-0.630663,0.053136,0.209121,-2.357732:vel_eff
1553597485.538669,cobot_dynamixel_driver/goal|-:J1,J2,J3,J4,J5,J6:0.346334,0.233274,-0.208109,0.001076,-0.024601,0.792604:-1.492798,-0.145689,0.068592,0.053820,0.234910,0.144852:vel_eff
1553597485.620754,cobot_dynamixel_driver/goal|-:J1,J2,J3,J4,J5,J6:0.327708,0.242008,-0.221956,0.001084,-0.019557,0.773871:-0.441961,0.676981,-0.519424,0.054216,0.211359,-2.015455:vel_eff
1553597485.730764,cobot_dynamixel_driver/goal|-:J1,J2,J3,J4,J5,J6:0.307043,0.247306,-0.233099,0.001076,-0.013783,0.748453:0.193991,-0.143054,-0.669706,0.053804,0.241553,2.073705:vel_eff
1553597485.814650,cobot_dynamixel_driver/goal|-:J1,J2,J3,J4,J5,J6:0.206060,0.179430,-0.173479,0.000759,-0.005692,0.517725:-5.199442,-3.662080,3.385825,0.027541,0.163526,-11.100008:vel_eff
1553597485.924296,cobot_dynamixel_driver/goal|-:J1,J2,J3,J4,J5,J6:0.000000,0.000000,-0.000000,0.000000,-0.000000,0.000000:-1.564549,-1.441421,1.377394,-0.057460,0.024410,-4.241919:vel_eff
1553597486.426863,cobot_dynamixel_driver/goal|-:J1,J2,J3,J4,J5,J6:-0.222543,-0.172487,0.161127,-0.002520,0.009626,-0.535923:-0.791421,-0.613410,0.573011,-0.008962,0.034231,-1.905882:vel_eff
1553597486.538799,cobot_dynamixel_driver/goal|-:J1,J2,J3,J4,J5,J6:-0.222543,-0.172487,0.161127,-0.002520,0.009626,-0.535923:-1.044087,-0.799165,0.845817,-0.013894,0.018862,-2.293451:vel_eff
1553597486.622655,cobot_dynamixel_driver/goal|-:J1,J2,J3,J4,J5,J6:-0.222543,-0.172487,0.161127,-0.002520,-0.009626,-0.535923:-1.439248,-0.966222,1.090433,-0.030898,0.020814,-3.122221:vel_eff
1553597486.732583,cobot_dynamixel_driver/goal|-:J1,J2,J3,J4,J5,J6:-0.331065,-0.237199,0.216283,-0.003477,0.018257,-0.775305:-1.992858,-1.270541,1.148882,-0.009908,0.098183,-4.705499:vel_eff
1553597486.818434,cobot_dynamixel_driver/goal|-:J1,J2,J3,J4,J5,J6:-0.331065,-0.237199,0.216283,-0.003477,0.018257,-0.775305:-3.178989,-1.751004,1.498063,-0.173826,0.257910,-7.311384:vel_eff
1553597486.928323,cobot_dynamixel_driver/goal|-:J1,J2,J3,J4,J5,J6:-0.351809,-0.229702,0.203784,-0.003369,0.023012,-0.798874:-0.606620,0.605966,0.080291,-0.116296,0.306076,-2.819537:vel_eff
1553597487.040270,cobot_dynamixel_driver/goal|-:J1,J2,J3,J4,J5,J6:-0.371543,-0.219829,0.189755,-0.003215,0.026937,-0.818724:-0.821312,0.525834,-0.214308,0.027042,0.812547,1.582502:vel_eff
1553597487.123173,cobot_dynamixel_driver/goal|-:J1,J2,J3,J4,J5,J6:-0.391949,-0.209032,0.175645,-0.003034,0.030022,-0.839237:-0.433240,0.345886,-1.211906,0.036096,-0.170691,0.729206:vel_eff
1553597487.234027,cobot_dynamixel_driver/goal|-:J1,J2,J3,J4,J5,J6:-0.412857,-0.197223,0.161432,-0.002824,0.032209,-0.860238:-1.520408,0.226907,-0.743740,-0.026429,0.145471,-2.130504:vel_eff
1553597487.316824,cobot_dynamixel_driver/goal|-:J1,J2,J3,J4,J5,J6:-0.433945,-0.184457,0.147227,-0.002585,0.033443,-0.881460:-1.667150,1.073839,-0.035192,0.006360,0.000368,1.048161:vel_eff
1553597487.426787,cobot_dynamixel_driver/goal|-:J1,J2,J3,J4,J5,J6:-0.454995,-0.170607,0.132931,-0.002316,0.033702,-0.902644:-0.643628,0.723125,-0.979505,-0.063632,-0.055645,-0.062702:vel_eff
1553597487.536656,cobot_dynamixel_driver/goal|-:J1,J2,J3,J4,J5,J6:-0.475786,-0.155456,0.118369,-0.002012,0.032948,-0.923480:-1.516264,0.395696,-0.726944,0.014161,0.096266,-4.603197:vel_eff
1553597487.620674,cobot_dynamixel_driver/goal|-:J1,J2,J3,J4,J5,J6:-0.495783,-0.139169,0.103710,-0.001677,0.031186,-0.943515:-0.753059,1.064008,-0.656600,-0.010833,0.146026,-0.572347:vel_eff
1553597487.730575,cobot_dynamixel_driver/goal|-:J1,J2,J3,J4,J5,J6:-0.514534,-0.121770,0.088955,-0.001314,0.028445,-0.962295:-1.909694,1.005463,-0.194642,0.007323,-0.077171,-5.406487:vel_eff
1553597487.840374,cobot_dynamixel_driver/goal|-:J1,J2,J3,J4,J5,J6:-0.531556,-0.103320,0.074108,-0.000926,0.024788,-0.979336:-0.465650,1.103838,-0.029367,0.068432,-0.173861,-0.726093:vel_eff
1553597487.923285,cobot_dynamixel_driver/goal|-:J1,J2,J3,J4,J5,J6:-0.546355,-0.083913,0.059178,-0.000520,0.020308,-0.994144:-1.549912,1.114388,-0.066472,-0.005147,-0.328941,-4.068965:vel_eff
1553597488.033172,cobot_dynamixel_driver/goal|-:J1,J2,J3,J4,J5,J6:-0.558464,-0.063684,0.044176,-0.000103,0.015131,-1.006248:-0.350528,1.072193,-0.701824,0.036589,-0.312030,-1.244399:vel_eff
1553597488.116148,cobot_dynamixel_driver/goal|-:J1,J2,J3,J4,J5,J6:-0.567465,-0.042799,0.029116,-0.000317,0.009414,-1.015233:0.284383,0.864540,-3.363957,0.057569,-0.442749,1.443133:vel_eff
1553597488.227058,cobot_dynamixel_driver/goal|-:J1,J2,J3,J4,J5,J6:-0.573031,-0.021457,0.014013,-0.000729,0.003340,-1.020771:-2.299489,0.961449,-0.613815,0.036427,-0.746457,-1.849933:vel_eff
1553597488.338944,cobot_dynamixel_driver/goal|-:J1,J2,J3,J4,J5,J6:-0.574952,-0.000124,0.001114,-0.001122,-0.002892,-1.022655:-0.152596,0.861645,-0.775526,0.056102,-0.420347,-0.013811:vel_eff
1553597488.422762,cobot_dynamixel_driver/goal|-:J1,J2,J3,J4,J5,J6:-0.573153,-0.021713,0.016247,-0.001487,-0.009073,-1.020812:-0.646859,0.751810,-1.104471,0.095230,-0.453636,1.577807:vel_eff
1553597488.532641,cobot_dynamixel_driver/goal|-:J1,J2,J3,J4,J5,J6:-0.567703,0.043079,0.031369,0.001815,-0.014997,-1.015312:-1.010695,3.405829,-2.194379,0.163799,-0.301729,1.594269:vel_eff
1553597488.615659,cobot_dynamixel_driver/goal|-:J1,J2,J3,J4,J5,J6:-0.558805,0.064002,-0.046461,0.002099,-0.020470,-1.006364:0.832113,1.666562,-4.002646,0.261456,-0.316862,-3.042653:vel_eff
1553597488.725170,cobot_dynamixel_driver/goal|-:J1,J2,J3,J4,J5,J6:-0.546784,0.084284,-0.061507,0.002334,-0.025319,-0.994294:-0.069063,1.553972,-1.875649,0.116714,-0.318035,-0.129630:vel_eff
1553597488.834282,cobot_dynamixel_driver/goal|-:J1,J2,J3,J4,J5,J6:-0.532050,0.103756,-0.076494,0.002517,-0.029399,-0.979515:-0.605128,0.754054,-0.569835,0.125874,-0.315219,-0.355842:vel_eff
1553597488.917330,cobot_dynamixel_driver/goal|-:J1,J2,J3,J4,J5,J6:-0.515073,0.122282,-0.091411,0.002649,-0.032597,-0.962498:2.278031,1.012708,-1.002686,0.132436,-0.233797,3.011314:vel_eff
1553597489.027133,cobot_dynamixel_driver/goal|-:J1,J2,J3,J4,J5,J6:-0.496344,0.139766,-0.106248,0.002730,-0.034831,-0.943735:1.054993,0.770634,-0.597007,0.021730,-0.207625,0.088811:vel_eff
1553597489.137027,cobot_dynamixel_driver/goal|-:J1,J2,J3,J4,J5,J6:-0.476347,0.156146,-0.121002,0.002764,-0.036053,-0.923711:0.406511,0.629861,-0.729630,-0.133056,0.075947,-1.822724:vel_eff
1553597489.220984,cobot_dynamixel_driver/goal|-:J1,J2,J3,J4,J5,J6:-0.455537,0.171396,-0.135672,0.002755,-0.036245,-0.902881:1.686949,0.933320,-0.461597,0.137751,-0.071513,0.873377:vel_eff
1553597489.330908,cobot_dynamixel_driver/goal|-:J1,J2,J3,J4,J5,J6:-0.434321,0.185519,-0.150260,0.002709,-0.035411,-0.881648:0.129254,0.168515,-0.585922,0.041542,0.108052,0.763012:vel_eff
1553597489.440861,cobot_dynamixel_driver/goal|-:J1,J2,J3,J4,J5,J6:-0.413246,0.198301,-0.164510,0.002630,-0.033603,-0.860432:1.276918,0.463368,-0.369964,0.037630,0.026123,0.445034:vel_eff
1553597489.524673,cobot_dynamixel_driver/goal|-:J1,J2,J3,J4,J5,J6:-0.413246,0.198301,-0.164510,0.002630,-0.033603,-0.860432:-0.778252,0.651150,-0.870716,0.058495,-0.163462,2.513232:vel_eff
1553597489.635416,cobot_dynamixel_driver/goal|-:J1,J2,J3,J4,J5,J6:-0.392275,0.210216,-0.178871,0.002525,-0.030839,-0.839411:0.270282,0.245408,-0.378597,-0.009372,0.147088,3.150623:vel_eff
1553597489.718166,cobot_dynamixel_driver/goal|-:J1,J2,J3,J4,J5,J6:-0.371832,0.221088,-0.193096,0.002398,-0.027194,-0.818883:2.126990,0.267348,-0.943809,0.005126,0.122506,-1.441546:vel_eff
1553597489.828257,cobot_dynamixel_driver/goal|-:J1,J2,J3,J4,J5,J6:-0.351959,0.231142,-0.207386,0.002252,-0.022693,-0.798970:1.670562,0.342360,-0.573364,0.050003,0.089026,3.207878:vel_eff
1553597489.938154,cobot_dynamixel_driver/goal|-:J1,J2,J3,J4,J5,J6:-0.332938,0.240300,-0.221556,0.002093,0.017445,-0.779862:1.192400,0.476851,-0.269886,-0.072697,0.368680,-1.644908:vel_eff
1553597490.021123,cobot_dynamixel_driver/goal|-:J1,J2,J3,J4,J5,J6:-0.313180,0.247022,-0.233978,0.001915,0.011547,-0.757238:1.523072,0.072267,-1.934248,-0.039850,-0.094747,0.365291:vel_eff
1553597490.132051,cobot_dynamixel_driver/goal|-:J1,J2,J3,J4,J5,J6:-0.210066,0.179476,-0.174346,0.001240,-0.003951,-0.523601:6.104965,-3.336369,1.871506,0.009825,-0.800773,10.427057:vel_eff
1553597493.339889,cobot_dynamixel_driver/goal|-:J1,J2,J3,J4,J5,J6:0.212844,-0.174624,0.166948,0.002112,0.006795,0.522969:0.764757,-0.628846,0.596924,0.007551,0.024295,1.869886:vel_eff
1553597493.424700,cobot_dynamixel_driver/goal|-:J1,J2,J3,J4,J5,J6:0.316423,-0.240610,0.224591,0.002942,0.014642,0.755907:1.063981,-0.784245,0.746291,0.009952,0.001722,2.342394:vel_eff
1553597493.534683,cobot_dynamixel_driver/goal|-:J1,J2,J3,J4,J5,J6:0.316423,-0.240610,0.224591,0.002942,-0.014642,0.755907:1.066407,-0.780672,0.770262,0.007561,0.002598,2.202244:vel_eff
1553597493.617522,cobot_dynamixel_driver/goal|-:J1,J2,J3,J4,J5,J6:0.316423,-0.240610,0.224591,0.002942,-0.014642,0.755907:1.233029,-0.919370,0.930798,-0.004155,-0.092091,2.421645:vel_eff
1553597493.727479,cobot_dynamixel_driver/goal|-:J1,J2,J3,J4,J5,J6:0.337802,-0.235000,0.213495,0.002907,0.019964,0.782441:0.171987,-0.125736,0.022864,-0.002386,0.401829,0.114076:vel_eff
1553597493.837422,cobot_dynamixel_driver/goal|-:J1,J2,J3,J4,J5,J6:0.337802,-0.235000,0.213495,-0.002907,0.019964,0.782441:-0.166755,-0.587387,-0.007946,0.041014,0.963729,0.515681:vel_eff
1553597493.920356,cobot_dynamixel_driver/goal|-:J1,J2,J3,J4,J5,J6:0.356563,-0.225775,0.199615,0.002822,0.024472,0.801296:0.802573,2.398451,-0.816721,0.078527,-0.241356,1.458442:vel_eff
1553597494.031204,cobot_dynamixel_driver/goal|-:J1,J2,J3,J4,J5,J6:0.376041,-0.215716,0.185676,0.002722,0.028207,0.820862:2.047718,-0.050950,-1.857937,0.125691,0.083268,0.713265:vel_eff
1553597494.114009,cobot_dynamixel_driver/goal|-:J1,J2,J3,J4,J5,J6:0.396105,-0.204737,0.171654,0.002606,0.031110,0.841005:0.536752,0.550177,-0.430860,0.057250,0.314562,-0.072061:vel_eff
1553597494.223956,cobot_dynamixel_driver/goal|-:J1,J2,J3,J4,J5,J6:0.416513,-0.192841,0.157614,0.002471,0.033119,0.861517:-0.331122,0.758996,-0.882447,0.008808,0.087563,0.264156:vel_eff
1553597494.334733,cobot_dynamixel_driver/goal|-:J1,J2,J3,J4,J5,J6:0.437004,-0.180017,0.143584,0.002319,0.034201,0.882158:1.392403,0.805561,-0.332095,-0.019651,0.021043,4.432948:vel_eff
1553597494.417789,cobot_dynamixel_driver/goal|-:J1,J2,J3,J4,J5,J6:0.457513,-0.165926,0.129257,0.002146,0.034325,0.902714:1.864916,0.581632,-1.100615,0.044681,-0.127890,0.393663:vel_eff
1553597494.527609,cobot_dynamixel_driver/goal|-:J1,J2,J3,J4,J5,J6:0.477536,-0.150746,0.114840,0.001952,0.033465,0.922783:0.956969,0.464297,-1.007723,0.045431,-0.015760,-0.515927:vel_eff
1553597494.637434,cobot_dynamixel_driver/goal|-:J1,J2,J3,J4,J5,J6:0.496682,-0.134481,0.100332,0.001739,0.031631,0.941973:1.048373,0.703780,-0.961135,-0.059108,-0.141941,0.633126:vel_eff
1553597494.720379,cobot_dynamixel_driver/goal|-:J1,J2,J3,J4,J5,J6:0.514517,-0.117162,0.085734,0.001508,0.028857,0.959847:0.302265,0.776856,-0.147045,-0.049793,-0.418545,4.611901:vel_eff
1553597494.830389,cobot_dynamixel_driver/goal|-:J1,J2,J3,J4,J5,J6:0.530586,-0.098855,0.071051,0.001261,0.025205,0.975948:0.970072,0.993267,-0.829012,0.000462,-0.377066,2.745521:vel_eff
1553597494.940341,cobot_dynamixel_driver/goal|-:J1,J2,J3,J4,J5,J6:0.544430,-0.079657,0.056292,0.001002,0.020770,0.989816:0.306079,1.243754,-1.087072,-0.033366,-0.236871,-0.266589:vel_eff
1553597495.023239,cobot_dynamixel_driver/goal|-:J1,J2,J3,J4,J5,J6:0.555619,0.059702,0.041468,0.000734,0.015677,1.001019:0.333480,1.031361,-0.409484,0.015855,-0.319207,-2.015909:vel_eff
1553597495.133110,cobot_dynamixel_driver/goal|-:J1,J2,J3,J4,J5,J6:0.563779,0.039153,-0.026592,0.000464,0.010076,1.009183:-0.082688,-1.018750,-0.464745,-0.018531,-0.237292,0.684521:vel_eff
1553597495.216000,cobot_dynamixel_driver/goal|-:J1,J2,J3,J4,J5,J6:0.568621,0.018202,-0.011680,0.000196,0.004145,1.014019:-0.716871,-2.474925,-0.793063,-0.011043,-0.240881,0.840132:vel_eff
1553597495.326754,cobot_dynamixel_driver/goal|-:J1,J2,J3,J4,J5,J6:0.569970,-0.002945,-0.003252,0.000062,0.001927,1.015350:-1.379713,-0.624765,-0.141723,-0.023967,-0.406590,0.510287:vel_eff
1553597495.436735,cobot_dynamixel_driver/goal|-:J1,J2,J3,J4,J5,J6:0.567773,-0.024067,-0.018186,0.000305,0.007941,1.013127:-0.373276,0.952977,-0.867570,-0.015271,-0.758972,-0.307482:vel_eff
1553597495.520718,cobot_dynamixel_driver/goal|-:J1,J2,J3,J4,J5,J6:0.562113,0.044949,-0.033105,0.000528,-0.013700,1.007433:1.711823,2.936001,-1.331870,-0.026411,-1.046946,-1.057540:vel_eff
1553597495.630522,cobot_dynamixel_driver/goal|-:J1,J2,J3,J4,J5,J6:0.553192,0.065386,-0.047994,-0.000726,-0.019022,0.998474:-0.966738,1.621000,-0.824404,-0.036291,-0.296150,3.751164:vel_eff
1553597495.714638,cobot_dynamixel_driver/goal|-:J1,J2,J3,J4,J5,J6:0.541321,0.085193,-0.062836,-0.000895,-0.023741,0.986562:-0.078891,1.109082,-0.481553,-0.044740,-0.290808,-0.567191:vel_eff
1553597495.824445,cobot_dynamixel_driver/goal|-:J1,J2,J3,J4,J5,J6:0.526890,0.104213,-0.077619,-0.001033,-0.027719,0.972089:-1.843681,0.620405,-0.167054,-0.051652,-0.472488,-5.065286:vel_eff
1553597495.935230,cobot_dynamixel_driver/goal|-:J1,J2,J3,J4,J5,J6:0.510338,0.122320,-0.092333,-0.001140,-0.030848,0.955497:-0.428317,0.566022,-1.017517,-0.056987,0.077697,-1.379312:vel_eff
1553597496.018233,cobot_dynamixel_driver/goal|-:J1,J2,J3,J4,J5,J6:0.492125,0.139426,-0.106971,-0.001215,-0.033050,0.937247:-1.735386,1.181351,-0.706163,-0.060763,-0.084107,0.190021:vel_eff
1553597496.128189,cobot_dynamixel_driver/goal|-:J1,J2,J3,J4,J5,J6:0.472704,0.155472,-0.121528,-0.001261,-0.034277,0.917792:-2.915085,1.242982,-1.611364,-0.063045,-0.128237,-1.006768:vel_eff
1553597496.239985,cobot_dynamixel_driver/goal|-:J1,J2,J3,J4,J5,J6:0.452500,0.170435,-0.136004,-0.001279,-0.034509,0.897558:-0.221833,0.478432,-0.384316,-0.063939,-0.277734,-3.948797:vel_eff
1553597496.322863,cobot_dynamixel_driver/goal|-:J1,J2,J3,J4,J5,J6:0.431893,0.184318,-0.150402,-0.001271,-0.033750,0.876926:-1.773764,1.109962,-0.843425,-0.063570,0.225574,-1.429997:vel_eff
1553597496.432702,cobot_dynamixel_driver/goal|-:J1,J2,J3,J4,J5,J6:0.411407,0.196908,-0.164471,-0.001242,-0.032046,0.856293:-2.140828,0.018148,-0.680970,-0.062093,0.172924,-1.513747:vel_eff
1553597496.515676,cobot_dynamixel_driver/goal|-:J1,J2,J3,J4,J5,J6:0.391031,0.208631,-0.178607,-0.001193,-0.029419,0.835837:-0.791479,1.793564,-0.302826,-0.059655,-0.109367,-0.106389:vel_eff
1553597496.625551,cobot_dynamixel_driver/goal|-:J1,J2,J3,J4,J5,J6:0.371077,0.219422,-0.192700,-0.001128,-0.025920,0.815809:-1.371916,0.444890,-0.558891,-0.192014,-0.192959,-0.987130:vel_eff
1553597496.735461,cobot_dynamixel_driver/goal|-:J1,J2,J3,J4,J5,J6:0.351679,0.229390,-0.206817,-0.001049,-0.021591,0.796365:-1.601133,0.014799,-0.492703,-0.062861,0.437146,-1.821480:vel_eff
1553597496.818140,cobot_dynamixel_driver/goal|-:J1,J2,J3,J4,J5,J6:0.333084,0.238485,-0.220810,-0.000958,-0.016529,0.777677:-0.934692,1.596218,-0.222148,-0.037485,0.035288,-0.515334:vel_eff
1553597496.927242,cobot_dynamixel_driver/goal|-:J1,J2,J3,J4,J5,J6:0.312006,0.243892,-0.231854,-0.000851,-0.010763,0.751403:-1.529589,-0.167726,-0.795219,-0.042555,0.116758,-3.397416:vel_eff
1553597497.039308,cobot_dynamixel_driver/goal|-:J1,J2,J3,J4,J5,J6:0.209521,0.177215,-0.172675,-0.000534,-0.003557,0.519761:-1.865411,-1.821934,0.901406,-0.005813,0.442623,-1.070871:vel_eff
1553597497.123186,cobot_dynamixel_driver/goal|-:J1,J2,J3,J4,J5,J6:0.000000,0.000000,-0.000000,-0.000000,-0.000000,0.000000:-1.679773,-1.369929,1.467408,0.005222,0.069018,-4.523571:vel_eff
1553597497.626507,cobot_dynamixel_driver/goal|-:J1,J2,J3,J4,J5,J6:-0.223953,-0.169446,0.157453,-0.003491,0.010743,-0.539482:-0.800226,-0.605462,0.562609,-0.012474,0.038387,-1.927667:vel_eff
1553597497.738479,cobot_dynamixel_driver/goal|-:J1,J2,J3,J4,J5,J6:-0.223953,-0.169446,0.157453,-0.003491,0.010743,-0.539482:-1.147367,-0.896844,0.874276,-0.019384,-0.007338,-2.612735:vel_eff
1553597497.824217,cobot_dynamixel_driver/goal|-:J1,J2,J3,J4,J5,J6:-0.223953,-0.169446,0.157453,-0.003491,-0.010743,-0.539482:-1.558949,-1.018106,1.035121,0.005919,-0.016529,-2.893324:vel_eff
1553597497.934083,cobot_dynamixel_driver/goal|-:J1,J2,J3,J4,J5,J6:-0.332807,-0.232912,0.211346,-0.004896,0.019529,-0.780106:-1.043887,-0.579044,0.439095,-0.022757,0.350812,-2.511561:vel_eff
1553597498.018029,cobot_dynamixel_driver/goal|-:J1,J2,J3,J4,J5,J6:-0.332807,-0.232912,0.211346,-0.004896,0.019529,-0.780106:-4.987424,-2.652911,2.763896,-0.036154,1.321169,-13.118368:vel_eff
1553597498.128979,cobot_dynamixel_driver/goal|-:J1,J2,J3,J4,J5,J6:-0.354954,-0.226438,0.199990,0.004866,0.024077,-0.807227:0.248086,-0.221907,-0.328492,-0.024205,0.324872,-2.082446:vel_eff
1553597498.213878,cobot_dynamixel_driver/goal|-:J1,J2,J3,J4,J5,J6:-0.374410,-0.216521,0.186142,-0.004752,0.027689,-0.826802:-0.401330,1.139811,-0.906179,-0.446239,0.315896,-3.354177:vel_eff
1553597498.324596,cobot_dynamixel_driver/goal|-:J1,J2,J3,J4,J5,J6:-0.394476,-0.205692,0.172209,-0.004605,0.030471,-0.846979:-2.082704,0.231182,-0.841255,-0.230249,0.161968,0.997032:vel_eff
1553597498.434497,cobot_dynamixel_driver/goal|-:J1,J2,J3,J4,J5,J6:-0.414979,-0.193869,0.158169,-0.004422,0.032366,-0.867582:-1.584761,1.312678,-1.637140,-0.012431,0.118877,-3.962670:vel_eff
1553597498.519331,cobot_dynamixel_driver/goal|-:J1,J2,J3,J4,J5,J6:-0.435598,-0.181109,0.144134,-0.004201,0.033329,-0.888344:-0.675311,1.241267,-0.753189,0.029910,-0.194909,1.634649:vel_eff
1553597498.628282,cobot_dynamixel_driver/goal|-:J1,J2,J3,J4,J5,J6:-0.456120,-0.167292,0.130006,-0.003939,0.033340,-0.909007:-1.148468,1.055808,-0.520675,0.043016,0.081372,-2.069914:vel_eff
1553597498.738328,cobot_dynamixel_driver/goal|-:J1,J2,J3,J4,J5,J6:-0.476325,-0.152209,0.115614,-0.003629,0.032365,-0.929267:-0.479107,0.881461,-0.562143,-0.056285,0.153277,0.536454:vel_eff
1553597498.821115,cobot_dynamixel_driver/goal|-:J1,J2,J3,J4,J5,J6:-0.495694,-0.136028,0.101125,-0.003276,0.030416,-0.948684:-3.377576,1.502749,-1.495241,0.076148,0.073057,-5.794495:vel_eff
1553597498.933182,cobot_dynamixel_driver/goal|-:J1,J2,J3,J4,J5,J6:-0.513795,-0.118776,0.086540,-0.002879,0.027528,-0.966823:0.662330,0.038909,0.049744,-0.060482,0.169959,-1.134513:vel_eff
1553597499.016214,cobot_dynamixel_driver/goal|-:J1,J2,J3,J4,J5,J6:-0.530165,-0.100516,0.071863,-0.002441,0.023767,-0.983219:-1.293314,0.847590,-0.715384,0.097028,-0.035346,-3.677828:vel_eff
1553597499.127036,cobot_dynamixel_driver/goal|-:J1,J2,J3,J4,J5,J6:-0.544341,-0.081343,0.057104,-0.001967,0.019228,-0.997407:0.011342,1.691479,-0.650086,-0.004483,-0.400175,-2.353494:vel_eff
1553597499.238790,cobot_dynamixel_driver/goal|-:J1,J2,J3,J4,J5,J6:-0.555881,-0.061388,0.042272,-0.001465,0.014038,-1.008944:-1.577596,1.385199,-0.452777,-0.021112,-0.263250,-1.672214:vel_eff
1553597499.321620,cobot_dynamixel_driver/goal|-:J1,J2,J3,J4,J5,J6:-0.564399,-0.040813,0.027381,-0.000944,0.008353,-1.017445:-0.052644,1.036870,-0.905207,0.015375,-0.357917,-0.701206:vel_eff
1553597499.431362,cobot_dynamixel_driver/goal|-:J1,J2,J3,J4,J5,J6:-0.569593,-0.019809,0.012447,-0.000415,0.002351,-1.022608:0.376193,1.137746,-0.733859,0.020963,-0.227151,-2.096850:vel_eff
1553597499.514434,cobot_dynamixel_driver/goal|-:J1,J2,J3,J4,J5,J6:-0.571271,-0.001415,0.002513,-0.000109,-0.003774,-1.024243:0.167079,1.093127,-0.803776,0.078499,-0.464477,1.302844:vel_eff
1553597499.626411,cobot_dynamixel_driver/goal|-:J1,J2,J3,J4,J5,J6:-0.569370,-0.022639,0.017483,-0.000617,-0.009822,-1.022290:0.293416,1.309304,-1.218407,0.093468,-0.491106,-0.771121:vel_eff
1553597499.735201,cobot_dynamixel_driver/goal|-:J1,J2,J3,J4,J5,J6:-0.563960,-0.043643,0.032444,-0.001097,-0.015595,-1.016822:0.146656,2.975003,-2.081201,0.054842,-0.538447,0.932792:vel_eff
1553597499.819059,cobot_dynamixel_driver/goal|-:J1,J2,J3,J4,J5,J6:-0.555236,0.064218,-0.047379,-0.001537,-0.020907,-1.008039:-0.835940,5.245182,-4.184180,0.076854,-0.269781,1.975184:vel_eff
1553597499.929022,cobot_dynamixel_driver/goal|-:J1,J2,J3,J4,J5,J6:-0.543504,0.084174,-0.062274,0.001930,-0.025595,-0.996250:0.240953,1.538021,-1.621878,0.232109,-0.159462,-2.709268:vel_eff
1553597500.038951,cobot_dynamixel_driver/goal|-:J1,J2,J3,J4,J5,J6:-0.529155,0.103351,-0.077115,0.002269,-0.029520,-0.981847:1.333992,1.203246,-0.840812,0.207340,-0.355718,2.336832:vel_eff
1553597500.121894,cobot_dynamixel_driver/goal|-:J1,J2,J3,J4,J5,J6:-0.512630,0.121619,-0.091892,0.002551,-0.032575,-0.965276:-0.719085,0.729139,-0.640725,0.127568,-0.249952,1.321238:vel_eff
1553597500.231771,cobot_dynamixel_driver/goal|-:J1,J2,J3,J4,J5,J6:-0.494395,0.138883,-0.106596,0.002776,-0.034684,-0.947003:1.027270,0.580436,-0.791717,0.138797,-0.062421,3.286237:vel_eff
1553597500.314682,cobot_dynamixel_driver/goal|-:J1,J2,J3,J4,J5,J6:-0.474909,0.155085,-0.121223,0.002944,-0.035802,-0.927488:1.302590,0.681115,-0.542434,0.126333,-0.014903,0.004960:vel_eff
1553597500.425676,cobot_dynamixel_driver/goal|-:J1,J2,J3,J4,J5,J6:-0.454605,0.170196,-0.135772,0.003058,-0.035911,-0.907163:-0.029517,0.529056,-0.477044,-0.024440,0.307141,2.796412:vel_eff
1553597500.535435,cobot_dynamixel_driver/goal|-:J1,J2,J3,J4,J5,J6:-0.433874,0.184218,-0.150247,0.003123,-0.035015,-0.886417:1.372170,0.927625,-0.606129,-0.021215,0.041675,0.162658:vel_eff
1553597500.618423,cobot_dynamixel_driver/goal|-:J1,J2,J3,J4,J5,J6:-0.413245,0.196936,-0.164392,0.003141,-0.033167,-0.865649:1.475141,0.979295,-1.156920,0.073608,0.065163,2.510891:vel_eff
1553597500.730197,cobot_dynamixel_driver/goal|-:J1,J2,J3,J4,J5,J6:-0.392683,0.208814,-0.178652,0.003121,-0.030381,-0.845040:0.646309,0.415252,-0.012977,0.020452,0.238928,0.421817:vel_eff
1553597500.814110,cobot_dynamixel_driver/goal|-:J1,J2,J3,J4,J5,J6:-0.372601,0.219675,-0.192783,0.003067,-0.026731,-0.824875:1.431330,-0.011914,-0.385688,-0.003129,0.076713,5.773266:vel_eff
1553597500.925045,cobot_dynamixel_driver/goal|-:J1,J2,J3,J4,J5,J6:-0.353042,0.229741,-0.206983,0.002983,-0.022240,-0.805281:1.188713,-0.040702,-1.544272,-0.017755,0.111688,-1.416396:vel_eff
1553597501.034966,cobot_dynamixel_driver/goal|-:J1,J2,J3,J4,J5,J6:-0.334286,0.238925,-0.221065,0.002875,-0.017014,-0.786441:1.197997,0.428946,-1.163399,0.008117,0.286803,1.197372:vel_eff
1553597501.118965,cobot_dynamixel_driver/goal|-:J1,J2,J3,J4,J5,J6:-0.313243,0.244533,-0.232306,0.002719,-0.011097,-0.760376:0.247146,1.606511,0.256672,0.021171,0.358616,1.794031:vel_eff
1553597501.227745,cobot_dynamixel_driver/goal|-:J1,J2,J3,J4,J5,J6:-0.210280,0.177725,-0.173071,0.001828,-0.003679,-0.525988:5.009313,-3.496919,3.281014,-0.127702,0.333103,13.203190:vel_eff
1553597501.337707,cobot_dynamixel_driver/goal|-:J1,J2,J3,J4,J5,J6:-0.000000,0.000000,-0.000000,0.000000,-0.000000,-0.000000:1.602930,-1.158406,1.374884,-0.011568,0.060061,3.770212:vel_eff
1553597503.814192,cobot_dynamixel_driver/goal|-:J1,J2,J3,J4,J5,J6:0.218725,-0.174215,0.165984,0.000748,0.008105,0.533766:0.779213,-0.616526,0.587398,0.002647,0.028683,1.888940:vel_eff
1553597503.925143,cobot_dynamixel_driver/goal|-:J1,J2,J3,J4,J5,J6:0.325358,-0.239640,0.222894,0.001045,0.016543,0.771860:1.010719,-0.708190,0.715678,0.003494,0.031098,2.151176:vel_eff
1553597504.034945,cobot_dynamixel_driver/goal|-:J1,J2,J3,J4,J5,J6:0.325358,-0.239640,0.222894,0.001045,0.016543,0.771860:1.009084,-0.650363,0.728565,0.002103,0.020732,2.195795:vel_eff
1553597504.117859,cobot_dynamixel_driver/goal|-:J1,J2,J3,J4,J5,J6:0.325358,-0.239640,0.222894,-0.001045,-0.016543,0.771860:1.083297,-0.800991,0.932353,-0.006261,-0.000025,2.314965:vel_eff
1553597504.227826,cobot_dynamixel_driver/goal|-:J1,J2,J3,J4,J5,J6:0.344006,-0.231051,0.209130,0.001027,0.021691,0.791098:0.227958,-0.095127,-0.177518,0.001937,0.346055,0.554215:vel_eff
1553597504.337610,cobot_dynamixel_driver/goal|-:J1,J2,J3,J4,J5,J6:0.363259,-0.221315,0.194946,0.001005,0.026113,0.810440:0.109003,0.166120,-0.127112,0.010095,0.006077,-0.079106:vel_eff
1553597504.420582,cobot_dynamixel_driver/goal|-:J1,J2,J3,J4,J5,J6:0.383189,-0.210693,0.180703,0.000980,0.029710,0.830452:0.399365,0.287543,-0.249264,0.009845,0.069916,0.243090:vel_eff
1553597504.532472,cobot_dynamixel_driver/goal|-:J1,J2,J3,J4,J5,J6:0.383189,-0.210693,0.180703,0.000980,0.029710,0.830452:1.038473,0.064590,0.198965,0.049002,0.123948,-0.341185:vel_eff
1553597504.615334,cobot_dynamixel_driver/goal|-:J1,J2,J3,J4,J5,J6:0.403640,-0.199098,0.166375,0.000952,0.032422,0.850974:2.926904,1.155517,-0.924281,0.026713,-0.067924,1.443249:vel_eff
1553597504.726146,cobot_dynamixel_driver/goal|-:J1,J2,J3,J4,J5,J6:0.424305,-0.186580,0.152074,0.000920,0.034187,0.871760:1.706794,2.615999,-3.099863,-0.016593,-0.065840,1.396755:vel_eff
1553597504.838174,cobot_dynamixel_driver/goal|-:J1,J2,J3,J4,J5,J6:0.444987,-0.173010,0.137696,0.000885,0.034980,0.892567:-0.107158,0.383905,-0.313489,-0.018341,0.008257,-0.286037:vel_eff
1553597504.921052,cobot_dynamixel_driver/goal|-:J1,J2,J3,J4,J5,J6:0.465480,-0.158169,0.123063,0.000846,0.034761,0.913104:1.199164,1.021627,0.018956,0.031871,-0.123331,4.498041:vel_eff
1553597505.032982,cobot_dynamixel_driver/goal|-:J1,J2,J3,J4,J5,J6:0.485274,-0.142214,0.108343,0.000804,0.033519,0.932944:1.145653,1.193448,-0.967416,-0.001553,0.210978,-6.057366:vel_eff
1553597505.115874,cobot_dynamixel_driver/goal|-:J1,J2,J3,J4,J5,J6:0.503939,-0.125162,0.093536,0.000758,0.031273,0.951656:0.879180,0.950623,-0.821044,0.027445,-0.159826,0.445118:vel_eff
1553597505.226807,cobot_dynamixel_driver/goal|-:J1,J2,J3,J4,J5,J6:0.521009,-0.107066,0.078644,0.000708,0.028072,0.968772:1.231950,0.728763,-0.626733,0.004120,-0.147525,7.091872:vel_eff
1553597505.336642,cobot_dynamixel_driver/goal|-:J1,J2,J3,J4,J5,J6:0.536008,0.088010,0.063674,0.000656,0.023996,0.983812:0.114484,1.045170,-0.947492,0.011953,-0.299632,1.070552:vel_eff
1553597505.419511,cobot_dynamixel_driver/goal|-:J1,J2,J3,J4,J5,J6:0.548471,0.068118,0.048637,0.000602,0.019158,0.996313:1.645273,0.725290,-0.583106,0.009241,0.061670,0.919980:vel_eff
1553597505.530457,cobot_dynamixel_driver/goal|-:J1,J2,J3,J4,J5,J6:0.557983,-0.047547,0.033544,0.000546,0.013702,1.005853:0.952453,-0.123982,-1.316869,0.006457,-0.452410,7.584376:vel_eff
1553597505.615359,cobot_dynamixel_driver/goal|-:J1,J2,J3,J4,J5,J6:0.564206,-0.026485,0.018412,0.000490,0.007801,1.012095:-1.146299,-0.312300,-0.759027,-0.006785,-0.351038,1.054160:vel_eff
1553597505.726274,cobot_dynamixel_driver/goal|-:J1,J2,J3,J4,J5,J6:0.566907,-0.005141,-0.003255,0.000435,0.001650,1.014805:1.263037,1.453851,-0.744839,0.011298,-0.107103,1.706711:vel_eff
1553597505.835960,cobot_dynamixel_driver/goal|-:J1,J2,J3,J4,J5,J6:0.565986,-0.016260,-0.011907,0.000381,-0.004547,1.013880:0.142422,1.021628,-0.324085,0.019034,-0.485871,-2.010574:vel_eff
1553597505.918012,cobot_dynamixel_driver/goal|-:J1,J2,J3,J4,J5,J6:0.561476,0.037490,-0.027057,0.000330,-0.010580,1.009356:-0.865512,2.479593,-1.185915,-0.004383,-0.528990,-1.340558:vel_eff
1553597506.027985,cobot_dynamixel_driver/goal|-:J1,J2,J3,J4,J5,J6:0.553546,0.058333,-0.042178,0.000283,-0.016248,1.001403:-2.253049,1.466535,-1.117815,0.003695,-0.329843,1.708793:vel_eff
1553597506.137853,cobot_dynamixel_driver/goal|-:J1,J2,J3,J4,J5,J6:0.542486,0.078586,-0.057254,0.000240,-0.021370,0.990311:-0.187546,1.029135,-0.744933,0.001585,-0.361856,-5.412325:vel_eff
1553597506.220923,cobot_dynamixel_driver/goal|-:J1,J2,J3,J4,J5,J6:0.528676,0.098079,-0.072271,0.000204,-0.025786,0.976464:-0.982347,1.075289,-0.828137,-0.000243,-0.306906,0.754851:vel_eff
1553597506.331629,cobot_dynamixel_driver/goal|-:J1,J2,J3,J4,J5,J6:0.512562,0.116670,-0.087219,0.000173,-0.029369,0.960309:-0.306699,0.972054,-1.022594,-0.001763,-0.279257,-1.638559:vel_eff
