surachairobotic/cobot/cobot_dynamixel_driver/log/2019-07-04T09:10:48.361113_driver_cmd.txt
1562231454.304523,cobot_dynamixel_driver/goal|-:J1,J2,J3,J4,J5:0.000000,-840.649614,-608.965374,-4.885116,-66.722069:eff_
1562231454.640685,cobot_dynamixel_driver/goal|-:J1,J2,J3,J4,J5:0.000000,-840.649614,-608.965374,-4.885116,-66.722069:eff_
1562231454.680766,cobot_dynamixel_driver/goal|-:J1,J2,J3,J4,J5:0.000000,-1140.649614,-758.965374,-4.885116,-66.722069:eff_
1562231454.720769,cobot_dynamixel_driver/goal|-:J1,J2,J3,J4,J5:0.000000,-1138.387558,-758.902634,-4.884892,-66.651419:eff_
1562231454.760813,cobot_dynamixel_driver/goal|-:J1,J2,J3,J4,J5:0.000000,-1136.770881,-608.788099,-4.884438,-66.528081:eff_
1562231454.800752,cobot_dynamixel_driver/goal|-:J1,J2,J3,J4,J5:0.000000,-1135.854240,-608.712730,-4.884111,-66.450368:eff_
1562231454.840751,cobot_dynamixel_driver/goal|-:J1,J2,J3,J4,J5:0.000000,-1135.447714,-608.680948,-4.883967,-66.418327:eff_
1562231454.880812,cobot_dynamixel_driver/goal|-:J1,J2,J3,J4,J5:0.000000,-835.395708,-608.676799,-4.883948,-66.414175:eff_
1562231454.920751,cobot_dynamixel_driver/goal|-:J1,J2,J3,J4,J5:0.000000,-835.433532,-608.679817,-4.883962,-66.417195:eff_
1562231454.960744,cobot_dynamixel_driver/goal|-:J1,J2,J3,J4,J5:0.000000,-835.461895,-608.682078,-4.883972,-66.419459:eff_
1562231455.000770,cobot_dynamixel_driver/goal|-:J1,J2,J3,J4,J5:0.000000,-835.461895,-608.682078,-4.883972,-66.419459:eff_
1562231455.040785,cobot_dynamixel_driver/goal|-:J1,J2,J3,J4,J5:0.000000,-835.461895,-608.682078,-4.883972,-66.419459:eff_
1562231455.080758,cobot_dynamixel_driver/goal|-:J1,J2,J3,J4,J5:0.000000,-835.461895,-608.682078,-4.883972,-66.419459:eff_
1562231455.120791,cobot_dynamixel_driver/goal|-:J1,J2,J3,J4,J5:0.000000,-835.461895,-608.682078,-4.883972,-66.419459:eff_
1562231455.160750,cobot_dynamixel_driver/goal|-:J1,J2,J3,J4,J5:0.000000,-835.461895,-608.682078,-4.883972,-66.419459:eff_
1562231455.200773,cobot_dynamixel_driver/goal|-:J1,J2,J3,J4,J5:0.000000,-835.461895,-608.682078,-4.883972,-66.419459:eff_
1562231455.240754,cobot_dynamixel_driver/goal|-:J1,J2,J3,J4,J5:0.000000,-835.461895,-608.682078,-4.883972,-66.419459:eff_
1562231455.280753,cobot_dynamixel_driver/goal|-:J1,J2,J3,J4,J5:0.000000,-835.461895,-608.682078,-4.883972,-66.419459:eff_
1562231455.320750,cobot_dynamixel_driver/goal|-:J1,J2,J3,J4,J5:0.000000,-835.461895,-608.682078,-4.883972,-66.419459:eff_
1562231455.360750,cobot_dynamixel_driver/goal|-:J1,J2,J3,J4,J5:0.000000,-835.461895,-608.682078,-4.883972,-66.419459:eff_
1562231455.400750,cobot_dynamixel_driver/goal|-:J1,J2,J3,J4,J5:0.000000,-835.461895,-608.682078,-4.883972,-66.419459:eff_
1562231455.440768,cobot_dynamixel_driver/goal|-:J1,J2,J3,J4,J5:0.000000,-835.461895,-608.682078,-4.883972,-66.419459:eff_
1562231455.480755,cobot_dynamixel_driver/goal|-:J1,J2,J3,J4,J5:0.000000,-835.461895,-608.682078,-4.883972,-66.419459:eff_
1562231455.520790,cobot_dynamixel_driver/goal|-:J1,J2,J3,J4,J5:0.000000,-835.461895,-608.682078,-4.883972,-66.419459:eff_
1562231455.560791,cobot_dynamixel_driver/goal|-:J1,J2,J3,J4,J5:0.000000,-835.461895,-608.682078,-4.883972,-66.419459:eff_
1562231455.600759,cobot_dynamixel_driver/goal|-:J1,J2,J3,J4,J5:0.000000,-835.461895,-608.682078,-4.883972,-66.419459:eff_
1562231455.640760,cobot_dynamixel_driver/goal|-:J1,J2,J3,J4,J5:0.000000,-835.461895,-608.682078,-4.883972,-66.419459:eff_
1562231455.680746,cobot_dynamixel_driver/goal|-:J1,J2,J3,J4,J5:0.000000,-835.461895,-608.682078,-4.883972,-66.419459:eff_
1562231455.720746,cobot_dynamixel_driver/goal|-:J1,J2,J3,J4,J5:0.000000,-835.461895,-608.682078,-4.883972,-66.419459:eff_
1562231455.760749,cobot_dynamixel_driver/goal|-:J1,J2,J3,J4,J5:0.000000,-835.461895,-608.682078,-4.883972,-66.419459:eff_
1562231455.800791,cobot_dynamixel_driver/goal|-:J1,J2,J3,J4,J5:0.000000,-835.461895,-608.682078,-4.883972,-66.419459:eff_
1562231455.840761,cobot_dynamixel_driver/goal|-:J1,J2,J3,J4,J5:0.000000,-835.461895,-608.682078,-4.883972,-66.419459:eff_
1562231455.880748,cobot_dynamixel_driver/goal|-:J1,J2,J3,J4,J5:0.000000,-835.461895,-608.682078,-4.883972,-66.419459:eff_
1562231455.920755,cobot_dynamixel_driver/goal|-:J1,J2,J3,J4,J5:0.000000,-835.461895,-608.682078,-4.883972,-66.419459:eff_
1562231455.960771,cobot_dynamixel_driver/goal|-:J1,J2,J3,J4,J5:0.000000,-835.461895,-608.682078,-4.883972,-66.419459:eff_
1562231456.000750,cobot_dynamixel_driver/goal|-:J1,J2,J3,J4,J5:0.000000,-835.461895,-608.682078,-4.883972,-66.419459:eff_
1562231456.040755,cobot_dynamixel_driver/goal|-:J1,J2,J3,J4,J5:0.000000,-835.461895,-608.682078,-4.883972,-66.419459:eff_
1562231456.080752,cobot_dynamixel_driver/goal|-:J1,J2,J3,J4,J5:0.000000,-835.461895,-608.682078,-4.883972,-66.419459:eff_
1562231456.120745,cobot_dynamixel_driver/goal|-:J1,J2,J3,J4,J5:0.000000,-835.461895,-608.682078,-4.883972,-66.419459:eff_
1562231456.160749,cobot_dynamixel_driver/goal|-:J1,J2,J3,J4,J5:0.000000,-835.461895,-608.682078,-4.883972,-66.419459:eff_
1562231456.200756,cobot_dynamixel_driver/goal|-:J1,J2,J3,J4,J5:0.000000,-835.461895,-608.682078,-4.883972,-66.419459:eff_
1562231456.240757,cobot_dynamixel_driver/goal|-:J1,J2,J3,J4,J5:0.000000,-835.461895,-608.682078,-4.883972,-66.419459:eff_
1562231456.280747,cobot_dynamixel_driver/goal|-:J1,J2,J3,J4,J5:0.000000,-835.461895,-608.682078,-4.883972,-66.419459:eff_
1562231456.320757,cobot_dynamixel_driver/goal|-:J1,J2,J3,J4,J5:0.000000,-835.461895,-608.682078,-4.883972,-66.419459:eff_
1562231456.360778,cobot_dynamixel_driver/goal|-:J1,J2,J3,J4,J5:0.000000,-835.461895,-608.682078,-4.883972,-66.419459:eff_
1562231456.400751,cobot_dynamixel_driver/goal|-:J1,J2,J3,J4,J5:0.000000,-835.461895,-608.682078,-4.883972,-66.419459:eff_
1562231456.440748,cobot_dynamixel_driver/goal|-:J1,J2,J3,J4,J5:0.000000,-835.461895,-608.682078,-4.883972,-66.419459:eff_
1562231456.480786,cobot_dynamixel_driver/goal|-:J1,J2,J3,J4,J5:0.000000,-835.461895,-608.682078,-4.883972,-66.419459:eff_
1562231456.520752,cobot_dynamixel_driver/goal|-:J1,J2,J3,J4,J5:0.000000,-835.461895,-608.682078,-4.883972,-66.419459:eff_
1562231456.560756,cobot_dynamixel_driver/goal|-:J1,J2,J3,J4,J5:0.000000,-835.461895,-608.682078,-4.883972,-66.419459:eff_
1562231456.600755,cobot_dynamixel_driver/goal|-:J1,J2,J3,J4,J5:0.000000,-835.461895,-608.682078,-4.883972,-66.419459:eff_
1562231456.640808,cobot_dynamixel_driver/goal|-:J1,J2,J3,J4,J5:0.000000,-835.461895,-608.682078,-4.883972,-66.419459:eff_
1562231456.680769,cobot_dynamixel_driver/goal|-:J1,J2,J3,J4,J5:0.000000,-835.461895,-608.682078,-4.883972,-66.419459:eff_
1562231456.720767,cobot_dynamixel_driver/goal|-:J1,J2,J3,J4,J5:0.000000,-835.461895,-608.682078,-4.883972,-66.419459:eff_
1562231456.760744,cobot_dynamixel_driver/goal|-:J1,J2,J3,J4,J5:0.000000,-835.461895,-608.682078,-4.883972,-66.419459:eff_
1562231456.800752,cobot_dynamixel_driver/goal|-:J1,J2,J3,J4,J5:0.000000,-835.461895,-608.682078,-4.883972,-66.419459:eff_
1562231456.840788,cobot_dynamixel_driver/goal|-:J1,J2,J3,J4,J5:0.000000,-835.461895,-608.682078,-4.883972,-66.419459:eff_
1562231456.880792,cobot_dynamixel_driver/goal|-:J1,J2,J3,J4,J5:0.000000,-835.461895,-608.682078,-4.883972,-66.419459:eff_
1562231456.920756,cobot_dynamixel_driver/goal|-:J1,J2,J3,J4,J5:0.000000,-835.461895,-608.682078,-4.883972,-66.419459:eff_
1562231456.960757,cobot_dynamixel_driver/goal|-:J1,J2,J3,J4,J5:0.000000,-835.461895,-608.682078,-4.883972,-66.419459:eff_
1562231457.000755,cobot_dynamixel_driver/goal|-:J1,J2,J3,J4,J5:0.000000,-835.461895,-608.682078,-4.883972,-66.419459:eff_
1562231457.040794,cobot_dynamixel_driver/goal|-:J1,J2,J3,J4,J5:0.000000,-835.461895,-608.682078,-4.883972,-66.419459:eff_
1562231457.080759,cobot_dynamixel_driver/goal|-:J1,J2,J3,J4,J5:0.000000,-835.461895,-608.682078,-4.883972,-66.419459:eff_
1562231457.120749,cobot_dynamixel_driver/goal|-:J1,J2,J3,J4,J5:0.000000,-835.461895,-608.682078,-4.883972,-66.419459:eff_
1562231457.160752,cobot_dynamixel_driver/goal|-:J1,J2,J3,J4,J5:0.000000,-835.461895,-608.682078,-4.883972,-66.419459:eff_
1562231457.200761,cobot_dynamixel_driver/goal|-:J1,J2,J3,J4,J5:0.000000,-835.461895,-608.682078,-4.883972,-66.419459:eff_
1562231457.240751,cobot_dynamixel_driver/goal|-:J1,J2,J3,J4,J5:0.000000,-835.461895,-608.682078,-4.883972,-66.419459:eff_
1562231457.280794,cobot_dynamixel_driver/goal|-:J1,J2,J3,J4,J5:0.000000,-835.461895,-608.682078,-4.883972,-66.419459:eff_
1562231457.320750,cobot_dynamixel_driver/goal|-:J1,J2,J3,J4,J5:0.000000,-835.461895,-608.682078,-4.883972,-66.419459:eff_
1562231457.360800,cobot_dynamixel_driver/goal|-:J1,J2,J3,J4,J5:0.000000,-835.461895,-608.682078,-4.883972,-66.419459:eff_
1562231457.400767,cobot_dynamixel_driver/goal|-:J1,J2,J3,J4,J5:0.000000,-835.461895,-608.682078,-4.883972,-66.419459:eff_
1562231457.440751,cobot_dynamixel_driver/goal|-:J1,J2,J3,J4,J5:0.000000,-835.461895,-608.682078,-4.883972,-66.419459:eff_
1562231457.480751,cobot_dynamixel_driver/goal|-:J1,J2,J3,J4,J5:0.000000,-835.461895,-608.682078,-4.883972,-66.419459:eff_
1562231457.520808,cobot_dynamixel_driver/goal|-:J1,J2,J3,J4,J5:0.000000,-835.461895,-608.682078,-4.883972,-66.419459:eff_
1562231457.560744,cobot_dynamixel_driver/goal|-:J1,J2,J3,J4,J5:0.000000,-835.461895,-608.682078,-4.883972,-66.419459:eff_
1562231457.600764,cobot_dynamixel_driver/goal|-:J1,J2,J3,J4,J5:0.000000,-835.461895,-608.682078,-4.883972,-66.419459:eff_
1562231457.640762,cobot_dynamixel_driver/goal|-:J1,J2,J3,J4,J5:0.000000,-835.461895,-608.682078,-4.883972,-66.419459:eff_
1562231457.680748,cobot_dynamixel_driver/goal|-:J1,J2,J3,J4,J5:0.000000,-835.461895,-608.682078,-4.883972,-66.419459:eff_
1562231457.720747,cobot_dynamixel_driver/goal|-:J1,J2,J3,J4,J5:0.000000,-835.461895,-608.682078,-4.883972,-66.419459:eff_
1562231457.760765,cobot_dynamixel_driver/goal|-:J1,J2,J3,J4,J5:0.000000,-835.461895,-608.682078,-4.883972,-66.419459:eff_
1562231457.800753,cobot_dynamixel_driver/goal|-:J1,J2,J3,J4,J5:0.000000,-835.461895,-608.682078,-4.883972,-66.419459:eff_
1562231457.840773,cobot_dynamixel_driver/goal|-:J1,J2,J3,J4,J5:0.000000,-835.461895,-608.682078,-4.883972,-66.419459:eff_
1562231457.880756,cobot_dynamixel_driver/goal|-:J1,J2,J3,J4,J5:0.000000,-835.461895,-608.682078,-4.883972,-66.419459:eff_
1562231457.920792,cobot_dynamixel_driver/goal|-:J1,J2,J3,J4,J5:0.000000,-835.461895,-608.682078,-4.883972,-66.419459:eff_
1562231457.960748,cobot_dynamixel_driver/goal|-:J1,J2,J3,J4,J5:0.000000,-835.461895,-608.682078,-4.883972,-66.419459:eff_
1562231458.000810,cobot_dynamixel_driver/goal|-:J1,J2,J3,J4,J5:0.000000,-835.461895,-608.682078,-4.883972,-66.419459:eff_
1562231458.040760,cobot_dynamixel_driver/goal|-:J1,J2,J3,J4,J5:0.000000,-835.461895,-608.682078,-4.883972,-66.419459:eff_
1562231458.080789,cobot_dynamixel_driver/goal|-:J1,J2,J3,J4,J5:0.000000,-835.461895,-608.682078,-4.883972,-66.419459:eff_
1562231458.120748,cobot_dynamixel_driver/goal|-:J1,J2,J3,J4,J5:0.000000,-835.461895,-608.682078,-4.883972,-66.419459:eff_
1562231458.160769,cobot_dynamixel_driver/goal|-:J1,J2,J3,J4,J5:0.000000,-835.461895,-608.682078,-4.883972,-66.419459:eff_
1562231458.200754,cobot_dynamixel_driver/goal|-:J1,J2,J3,J4,J5:0.000000,-835.461895,-608.682078,-4.883972,-66.419459:eff_
1562231458.240748,cobot_dynamixel_driver/goal|-:J1,J2,J3,J4,J5:0.000000,-835.461895,-608.682078,-4.883972,-66.419459:eff_
1562231458.280757,cobot_dynamixel_driver/goal|-:J1,J2,J3,J4,J5:0.000000,-835.461895,-608.682078,-4.883972,-66.419459:eff_
1562231458.320781,cobot_dynamixel_driver/goal|-:J1,J2,J3,J4,J5:0.000000,-835.461895,-608.682078,-4.883972,-66.419459:eff_
1562231458.360754,cobot_dynamixel_driver/goal|-:J1,J2,J3,J4,J5:0.000000,-835.461895,-608.682078,-4.883972,-66.419459:eff_
1562231458.400822,cobot_dynamixel_driver/goal|-:J1,J2,J3,J4,J5:0.000000,-835.461895,-608.682078,-4.883972,-66.419459:eff_
1562231458.440766,cobot_dynamixel_driver/goal|-:J1,J2,J3,J4,J5:0.000000,-835.461895,-608.682078,-4.883972,-66.419459:eff_
1562231458.480749,cobot_dynamixel_driver/goal|-:J1,J2,J3,J4,J5:0.000000,-835.461895,-608.682078,-4.883972,-66.419459:eff_
1562231458.520747,cobot_dynamixel_driver/goal|-:J1,J2,J3,J4,J5:0.000000,-835.461895,-608.682078,-4.883972,-66.419459:eff_
1562231458.560755,cobot_dynamixel_driver/goal|-:J1,J2,J3,J4,J5:0.000000,-835.461895,-608.682078,-4.883972,-66.419459:eff_
1562231458.600759,cobot_dynamixel_driver/goal|-:J1,J2,J3,J4,J5:0.000000,-835.461895,-608.682078,-4.883972,-66.419459:eff_
1562231458.640772,cobot_dynamixel_driver/goal|-:J1,J2,J3,J4,J5:0.000000,-835.461895,-608.682078,-4.883972,-66.419459:eff_
1562231458.680752,cobot_dynamixel_driver/goal|-:J1,J2,J3,J4,J5:0.000000,-835.461895,-608.682078,-4.883972,-66.419459:eff_
1562231458.720753,cobot_dynamixel_driver/goal|-:J1,J2,J3,J4,J5:0.000000,-835.461895,-608.682078,-4.883972,-66.419459:eff_
1562231458.760788,cobot_dynamixel_driver/goal|-:J1,J2,J3,J4,J5:0.000000,-835.461895,-608.682078,-4.883972,-66.419459:eff_
1562231458.800764,cobot_dynamixel_driver/goal|-:J1,J2,J3,J4,J5:0.000000,-835.461895,-608.682078,-4.883972,-66.419459:eff_
1562231458.840757,cobot_dynamixel_driver/goal|-:J1,J2,J3,J4,J5:0.000000,-835.461895,-608.682078,-4.883972,-66.419459:eff_
1562231458.880766,cobot_dynamixel_driver/goal|-:J1,J2,J3,J4,J5:0.000000,-835.461895,-608.682078,-4.883972,-66.419459:eff_
1562231458.920808,cobot_dynamixel_driver/goal|-:J1,J2,J3,J4,J5:0.000000,-835.461895,-608.682078,-4.883972,-66.419459:eff_
1562231458.960753,cobot_dynamixel_driver/goal|-:J1,J2,J3,J4,J5:0.000000,-835.461895,-608.682078,-4.883972,-66.419459:eff_
1562231459.000751,cobot_dynamixel_driver/goal|-:J1,J2,J3,J4,J5:0.000000,-835.461895,-608.682078,-4.883972,-66.419459:eff_
1562231459.040756,cobot_dynamixel_driver/goal|-:J1,J2,J3,J4,J5:0.000000,-835.461895,-608.682078,-4.883972,-66.419459:eff_
1562231459.080770,cobot_dynamixel_driver/goal|-:J1,J2,J3,J4,J5:0.000000,-835.461895,-608.682078,-4.883972,-66.419459:eff_
1562231459.120748,cobot_dynamixel_driver/goal|-:J1,J2,J3,J4,J5:0.000000,-835.461895,-608.682078,-4.883972,-66.419459:eff_
1562231459.160748,cobot_dynamixel_driver/goal|-:J1,J2,J3,J4,J5:0.000000,-835.461895,-608.682078,-4.883972,-66.419459:eff_
1562231459.200748,cobot_dynamixel_driver/goal|-:J1,J2,J3,J4,J5:0.000000,-835.461895,-608.682078,-4.883972,-66.419459:eff_
1562231459.240748,cobot_dynamixel_driver/goal|-:J1,J2,J3,J4,J5:0.000000,-835.461895,-608.682078,-4.883972,-66.419459:eff_
1562231459.280766,cobot_dynamixel_driver/goal|-:J1,J2,J3,J4,J5:0.000000,-835.461895,-608.682078,-4.883972,-66.419459:eff_
1562231459.320761,cobot_dynamixel_driver/goal|-:J1,J2,J3,J4,J5:0.000000,-835.461895,-608.682078,-4.883972,-66.419459:eff_
1562231459.360776,cobot_dynamixel_driver/goal|-:J1,J2,J3,J4,J5:0.000000,-835.461895,-608.682078,-4.883972,-66.419459:eff_
1562231459.400794,cobot_dynamixel_driver/goal|-:J1,J2,J3,J4,J5:0.000000,-835.461895,-608.682078,-4.883972,-66.419459:eff_
1562231459.440771,cobot_dynamixel_driver/goal|-:J1,J2,J3,J4,J5:0.000000,-835.461895,-608.682078,-4.883972,-66.419459:eff_
1562231459.480809,cobot_dynamixel_driver/goal|-:J1,J2,J3,J4,J5:0.000000,-835.461895,-608.682078,-4.883972,-66.419459:eff_
1562231459.520746,cobot_dynamixel_driver/goal|-:J1,J2,J3,J4,J5:0.000000,-835.461895,-608.682078,-4.883972,-66.419459:eff_
1562231459.560752,cobot_dynamixel_driver/goal|-:J1,J2,J3,J4,J5:0.000000,-835.461895,-608.682078,-4.883972,-66.419459:eff_
1562231459.600748,cobot_dynamixel_driver/goal|-:J1,J2,J3,J4,J5:0.000000,-835.461895,-608.682078,-4.883972,-66.419459:eff_
1562231459.640748,cobot_dynamixel_driver/goal|-:J1,J2,J3,J4,J5:0.000000,-835.461895,-608.682078,-4.883972,-66.419459:eff_
1562231459.680782,cobot_dynamixel_driver/goal|-:J1,J2,J3,J4,J5:0.000000,-835.461895,-608.682078,-4.883972,-66.419459:eff_
1562231459.720750,cobot_dynamixel_driver/goal|-:J1,J2,J3,J4,J5:0.000000,-835.461895,-608.682078,-4.883972,-66.419459:eff_
1562231459.760750,cobot_dynamixel_driver/goal|-:J1,J2,J3,J4,J5:0.000000,-835.461895,-608.682078,-4.883972,-66.419459:eff_
1562231459.800766,cobot_dynamixel_driver/goal|-:J1,J2,J3,J4,J5:0.000000,-835.461895,-608.682078,-4.883972,-66.419459:eff_
1562231459.840755,cobot_dynamixel_driver/goal|-:J1,J2,J3,J4,J5:0.000000,-835.461895,-608.682078,-4.883972,-66.419459:eff_
1562231459.880785,cobot_dynamixel_driver/goal|-:J1,J2,J3,J4,J5:0.000000,-835.461895,-608.682078,-4.883972,-66.419459:eff_
1562231459.920756,cobot_dynamixel_driver/goal|-:J1,J2,J3,J4,J5:0.000000,-835.461895,-608.682078,-4.883972,-66.419459:eff_
1562231459.960747,cobot_dynamixel_driver/goal|-:J1,J2,J3,J4,J5:0.000000,-835.461895,-608.682078,-4.883972,-66.419459:eff_
1562231460.000747,cobot_dynamixel_driver/goal|-:J1,J2,J3,J4,J5:0.000000,-835.461895,-608.682078,-4.883972,-66.419459:eff_
1562231460.040746,cobot_dynamixel_driver/goal|-:J1,J2,J3,J4,J5:0.000000,-835.461895,-608.682078,-4.883972,-66.419459:eff_
1562231460.080760,cobot_dynamixel_driver/goal|-:J1,J2,J3,J4,J5:0.000000,-835.461895,-608.682078,-4.883972,-66.419459:eff_
1562231460.120754,cobot_dynamixel_driver/goal|-:J1,J2,J3,J4,J5:0.000000,-835.461895,-608.682078,-4.883972,-66.419459:eff_
1562231460.160808,cobot_dynamixel_driver/goal|-:J1,J2,J3,J4,J5:0.000000,-835.461895,-608.682078,-4.883972,-66.419459:eff_
1562231460.200751,cobot_dynamixel_driver/goal|-:J1,J2,J3,J4,J5:0.000000,-835.461895,-608.682078,-4.883972,-66.419459:eff_
1562231460.240762,cobot_dynamixel_driver/goal|-:J1,J2,J3,J4,J5:0.000000,-835.461895,-608.682078,-4.883972,-66.419459:eff_
1562231460.280747,cobot_dynamixel_driver/goal|-:J1,J2,J3,J4,J5:0.000000,-835.461895,-608.682078,-4.883972,-66.419459:eff_
1562231460.320774,cobot_dynamixel_driver/goal|-:J1,J2,J3,J4,J5:0.000000,-835.461895,-608.682078,-4.883972,-66.419459:eff_
1562231460.360743,cobot_dynamixel_driver/goal|-:J1,J2,J3,J4,J5:0.000000,-835.461895,-608.682078,-4.883972,-66.419459:eff_
1562231460.400758,cobot_dynamixel_driver/goal|-:J1,J2,J3,J4,J5:0.000000,-835.461895,-608.682078,-4.883972,-66.419459:eff_
1562231460.440748,cobot_dynamixel_driver/goal|-:J1,J2,J3,J4,J5:0.000000,-835.461895,-608.682078,-4.883972,-66.419459:eff_
1562231460.480813,cobot_dynamixel_driver/goal|-:J1,J2,J3,J4,J5:0.000000,-835.461895,-608.682078,-4.883972,-66.419459:eff_
1562231460.520762,cobot_dynamixel_driver/goal|-:J1,J2,J3,J4,J5:0.000000,-835.461895,-608.682078,-4.883972,-66.419459:eff_
1562231460.560763,cobot_dynamixel_driver/goal|-:J1,J2,J3,J4,J5:0.000000,-835.461895,-608.682078,-4.883972,-66.419459:eff_
1562231460.600750,cobot_dynamixel_driver/goal|-:J1,J2,J3,J4,J5:0.000000,-835.461895,-608.682078,-4.883972,-66.419459:eff_
1562231460.640778,cobot_dynamixel_driver/goal|-:J1,J2,J3,J4,J5:0.000000,-835.461895,-608.682078,-4.883972,-66.419459:eff_
1562231460.680754,cobot_dynamixel_driver/goal|-:J1,J2,J3,J4,J5:0.000000,-835.461895,-608.682078,-4.883972,-66.419459:eff_
1562231460.720731,cobot_dynamixel_driver/goal|-:J1,J2,J3,J4,J5:0.000000,-835.461895,-608.682078,-4.883972,-66.419459:eff_
1562231460.760745,cobot_dynamixel_driver/goal|-:J1,J2,J3,J4,J5:0.000000,-835.461895,-608.682078,-4.883972,-66.419459:eff_
1562231460.800753,cobot_dynamixel_driver/goal|-:J1,J2,J3,J4,J5:0.000000,-835.461895,-608.682078,-4.883972,-66.419459:eff_
1562231460.920803,cobot_dynamixel_driver/goal|-:J1,J2,J3,J4,J5:0.000000,-835.461895,-608.682078,-4.883972,-66.419459:eff_
1562231460.960765,cobot_dynamixel_driver/goal|-:J1,J2,J3,J4,J5:0.000000,-835.461895,-608.682078,-4.883972,-66.419459:eff_
1562231461.000764,cobot_dynamixel_driver/goal|-:J1,J2,J3,J4,J5:0.000000,-835.461895,-608.682078,-4.883972,-66.419459:eff_
1562231461.040753,cobot_dynamixel_driver/goal|-:J1,J2,J3,J4,J5:0.000000,-835.461895,-608.682078,-4.883972,-66.419459:eff_
1562231461.100749,cobot_dynamixel_driver/goal|-:J1,J2,J3,J4,J5:0.000000,-835.461895,-608.682078,-4.883972,-66.419459:eff_
1562231461.120757,cobot_dynamixel_driver/goal|-:J1,J2,J3,J4,J5:0.000000,-835.461895,-608.682078,-4.883972,-66.419459:eff_
1562231461.180804,cobot_dynamixel_driver/goal|-:J1,J2,J3,J4,J5:0.000000,-835.461895,-608.682078,-4.883972,-66.419459:eff_
1562231461.200759,cobot_dynamixel_driver/goal|-:J1,J2,J3,J4,J5:0.000000,-835.461895,-608.682078,-4.883972,-66.419459:eff_
1562231461.260753,cobot_dynamixel_driver/goal|-:J1,J2,J3,J4,J5:0.000000,-835.461895,-608.682078,-4.883972,-66.419459:eff_
1562231461.280763,cobot_dynamixel_driver/goal|-:J1,J2,J3,J4,J5:0.000000,-835.461895,-608.682078,-4.883972,-66.419459:eff_
1562231461.340794,cobot_dynamixel_driver/goal|-:J1,J2,J3,J4,J5:0.000000,-835.461895,-608.682078,-4.883972,-66.419459:eff_
1562231461.360769,cobot_dynamixel_driver/goal|-:J1,J2,J3,J4,J5:0.000000,-835.461895,-608.682078,-4.883972,-66.419459:eff_
1562231461.400758,cobot_dynamixel_driver/goal|-:J1,J2,J3,J4,J5:0.000000,-835.461895,-608.682078,-4.883972,-66.419459:eff_
1562231461.440752,cobot_dynamixel_driver/goal|-:J1,J2,J3,J4,J5:0.000000,-835.461895,-608.682078,-4.883972,-66.419459:eff_
1562231461.500756,cobot_dynamixel_driver/goal|-:J1,J2,J3,J4,J5:0.000000,-835.461895,-608.682078,-4.883972,-66.419459:eff_
1562231461.520795,cobot_dynamixel_driver/goal|-:J1,J2,J3,J4,J5:0.000000,-835.461895,-608.682078,-4.883972,-66.419459:eff_
1562231461.580756,cobot_dynamixel_driver/goal|-:J1,J2,J3,J4,J5:0.000000,-835.461895,-608.682078,-4.883972,-66.419459:eff_
1562231461.600760,cobot_dynamixel_driver/goal|-:J1,J2,J3,J4,J5:0.000000,-835.461895,-608.682078,-4.883972,-66.419459:eff_
1562231461.660752,cobot_dynamixel_driver/goal|-:J1,J2,J3,J4,J5:0.000000,-835.461895,-608.682078,-4.883972,-66.419459:eff_
1562231461.680758,cobot_dynamixel_driver/goal|-:J1,J2,J3,J4,J5:0.000000,-835.461895,-608.682078,-4.883972,-66.419459:eff_
1562231461.740752,cobot_dynamixel_driver/goal|-:J1,J2,J3,J4,J5:0.000000,-835.461895,-608.682078,-4.883972,-66.419459:eff_
1562231461.760793,cobot_dynamixel_driver/goal|-:J1,J2,J3,J4,J5:0.000000,-835.461895,-608.682078,-4.883972,-66.419459:eff_
1562231461.820760,cobot_dynamixel_driver/goal|-:J1,J2,J3,J4,J5:0.000000,-835.461895,-608.682078,-4.883972,-66.419459:eff_
1562231461.840765,cobot_dynamixel_driver/goal|-:J1,J2,J3,J4,J5:0.000000,-835.461895,-608.682078,-4.883972,-66.419459:eff_
1562231461.900756,cobot_dynamixel_driver/goal|-:J1,J2,J3,J4,J5:0.000000,-835.461895,-608.682078,-4.883972,-66.419459:eff_
1562231461.920760,cobot_dynamixel_driver/goal|-:J1,J2,J3,J4,J5:0.000000,-835.461895,-608.682078,-4.883972,-66.419459:eff_
1562231461.980793,cobot_dynamixel_driver/goal|-:J1,J2,J3,J4,J5:0.000000,-835.461895,-608.682078,-4.883972,-66.419459:eff_
1562231462.000754,cobot_dynamixel_driver/goal|-:J1,J2,J3,J4,J5:0.000000,-835.461895,-608.682078,-4.883972,-66.419459:eff_
1562231462.060753,cobot_dynamixel_driver/goal|-:J1,J2,J3,J4,J5:0.000000,-835.461895,-608.682078,-4.883972,-66.419459:eff_
1562231462.080755,cobot_dynamixel_driver/goal|-:J1,J2,J3,J4,J5:0.000000,-835.461895,-608.682078,-4.883972,-66.419459:eff_
1562231462.140747,cobot_dynamixel_driver/goal|-:J1,J2,J3,J4,J5:0.000000,-835.461895,-608.682078,-4.883972,-66.419459:eff_
1562231462.160753,cobot_dynamixel_driver/goal|-:J1,J2,J3,J4,J5:0.000000,-835.461895,-608.682078,-4.883972,-66.419459:eff_
1562231462.220748,cobot_dynamixel_driver/goal|-:J1,J2,J3,J4,J5:0.000000,-835.461895,-608.682078,-4.883972,-66.419459:eff_
1562231462.240755,cobot_dynamixel_driver/goal|-:J1,J2,J3,J4,J5:0.000000,-835.461895,-608.682078,-4.883972,-66.419459:eff_
1562231462.300750,cobot_dynamixel_driver/goal|-:J1,J2,J3,J4,J5:0.000000,-835.461895,-608.682078,-4.883972,-66.419459:eff_
1562231462.320808,cobot_dynamixel_driver/goal|-:J1,J2,J3,J4,J5:0.000000,-835.461895,-608.682078,-4.883972,-66.419459:eff_
1562231462.380750,cobot_dynamixel_driver/goal|-:J1,J2,J3,J4,J5:0.000000,-835.461895,-608.682078,-4.883972,-66.419459:eff_
1562231462.400744,cobot_dynamixel_driver/goal|-:J1,J2,J3,J4,J5:0.000000,-835.461895,-608.682078,-4.883972,-66.419459:eff_
1562231462.460765,cobot_dynamixel_driver/goal|-:J1,J2,J3,J4,J5:0.000000,-835.461895,-608.682078,-4.883972,-66.419459:eff_
1562231462.480768,cobot_dynamixel_driver/goal|-:J1,J2,J3,J4,J5:0.000000,-835.461895,-608.682078,-4.883972,-66.419459:eff_
1562231462.540750,cobot_dynamixel_driver/goal|-:J1,J2,J3,J4,J5:0.000000,-835.461895,-608.682078,-4.883972,-66.419459:eff_
1562231462.560796,cobot_dynamixel_driver/goal|-:J1,J2,J3,J4,J5:0.000000,-835.461895,-608.682078,-4.883972,-66.419459:eff_
1562231462.620763,cobot_dynamixel_driver/goal|-:J1,J2,J3,J4,J5:0.000000,-835.461895,-608.682078,-4.883972,-66.419459:eff_
1562231462.640799,cobot_dynamixel_driver/goal|-:J1,J2,J3,J4,J5:0.000000,-835.461895,-608.682078,-4.883972,-66.419459:eff_
1562231462.700762,cobot_dynamixel_driver/goal|-:J1,J2,J3,J4,J5:0.000000,-835.461895,-608.682078,-4.883972,-66.419459:eff_
1562231462.720750,cobot_dynamixel_driver/goal|-:J1,J2,J3,J4,J5:0.000000,-835.461895,-608.682078,-4.883972,-66.419459:eff_
1562231462.780747,cobot_dynamixel_driver/goal|-:J1,J2,J3,J4,J5:0.000000,-835.461895,-608.682078,-4.883972,-66.419459:eff_
1562231462.800750,cobot_dynamixel_driver/goal|-:J1,J2,J3,J4,J5:0.000000,-835.461895,-608.682078,-4.883972,-66.419459:eff_
1562231462.860750,cobot_dynamixel_driver/goal|-:J1,J2,J3,J4,J5:0.000000,-835.461895,-608.682078,-4.883972,-66.419459:eff_
1562231462.880789,cobot_dynamixel_driver/goal|-:J1,J2,J3,J4,J5:0.000000,-835.461895,-608.682078,-4.883972,-66.419459:eff_
1562231462.940783,cobot_dynamixel_driver/goal|-:J1,J2,J3,J4,J5:0.000000,-835.461895,-608.682078,-4.883972,-66.419459:eff_
1562231462.960758,cobot_dynamixel_driver/goal|-:J1,J2,J3,J4,J5:0.000000,-835.461895,-608.682078,-4.883972,-66.419459:eff_
1562231463.020756,cobot_dynamixel_driver/goal|-:J1,J2,J3,J4,J5:0.000000,-835.461895,-608.682078,-4.883972,-66.419459:eff_
1562231463.040806,cobot_dynamixel_driver/goal|-:J1,J2,J3,J4,J5:0.000000,-835.461895,-608.682078,-4.883972,-66.419459:eff_
1562231463.100752,cobot_dynamixel_driver/goal|-:J1,J2,J3,J4,J5:0.000000,-835.461895,-608.682078,-4.883972,-66.419459:eff_
1562231463.120751,cobot_dynamixel_driver/goal|-:J1,J2,J3,J4,J5:0.000000,-835.461895,-608.682078,-4.883972,-66.419459:eff_
1562231463.180748,cobot_dynamixel_driver/goal|-:J1,J2,J3,J4,J5:0.000000,-835.461895,-608.682078,-4.883972,-66.419459:eff_
1562231463.200750,cobot_dynamixel_driver/goal|-:J1,J2,J3,J4,J5:0.000000,-835.461895,-608.682078,-4.883972,-66.419459:eff_
1562231463.260752,cobot_dynamixel_driver/goal|-:J1,J2,J3,J4,J5:0.000000,-835.461895,-608.682078,-4.883972,-66.419459:eff_
1562231463.280749,cobot_dynamixel_driver/goal|-:J1,J2,J3,J4,J5:0.000000,-835.461895,-608.682078,-4.883972,-66.419459:eff_
1562231463.340793,cobot_dynamixel_driver/goal|-:J1,J2,J3,J4,J5:0.000000,-835.461895,-608.682078,-4.883972,-66.419459:eff_
1562231463.360751,cobot_dynamixel_driver/goal|-:J1,J2,J3,J4,J5:0.000000,-835.461895,-608.682078,-4.883972,-66.419459:eff_
1562231463.420742,cobot_dynamixel_driver/goal|-:J1,J2,J3,J4,J5:0.000000,-835.461895,-608.682078,-4.883972,-66.419459:eff_
1562231463.440744,cobot_dynamixel_driver/goal|-:J1,J2,J3,J4,J5:0.000000,-835.461895,-608.682078,-4.883972,-66.419459:eff_
1562231463.500767,cobot_dynamixel_driver/goal|-:J1,J2,J3,J4,J5:0.000000,-835.461895,-608.682078,-4.883972,-66.419459:eff_
1562231463.520762,cobot_dynamixel_driver/goal|-:J1,J2,J3,J4,J5:0.000000,-835.461895,-608.682078,-4.883972,-66.419459:eff_
1562231463.580750,cobot_dynamixel_driver/goal|-:J1,J2,J3,J4,J5:0.000000,-835.461895,-608.682078,-4.883972,-66.419459:eff_
1562231463.600804,cobot_dynamixel_driver/goal|-:J1,J2,J3,J4,J5:0.000000,-835.461895,-608.682078,-4.883972,-66.419459:eff_
1562231463.660758,cobot_dynamixel_driver/goal|-:J1,J2,J3,J4,J5:0.000000,-835.461895,-608.682078,-4.883972,-66.419459:eff_
1562231463.680765,cobot_dynamixel_driver/goal|-:J1,J2,J3,J4,J5:0.000000,-835.461895,-608.682078,-4.883972,-66.419459:eff_
1562231463.740754,cobot_dynamixel_driver/goal|-:J1,J2,J3,J4,J5:0.000000,-835.461895,-608.682078,-4.883972,-66.419459:eff_
1562231463.760754,cobot_dynamixel_driver/goal|-:J1,J2,J3,J4,J5:0.000000,-835.461895,-608.682078,-4.883972,-66.419459:eff_
1562231463.820757,cobot_dynamixel_driver/goal|-:J1,J2,J3,J4,J5:0.000000,-835.461895,-608.682078,-4.883972,-66.419459:eff_
1562231463.840754,cobot_dynamixel_driver/goal|-:J1,J2,J3,J4,J5:0.000000,-835.461895,-608.682078,-4.883972,-66.419459:eff_
1562231463.900813,cobot_dynamixel_driver/goal|-:J1,J2,J3,J4,J5:0.000000,-835.461895,-608.682078,-4.883972,-66.419459:eff_
1562231463.920788,cobot_dynamixel_driver/goal|-:J1,J2,J3,J4,J5:0.000000,-835.461895,-608.682078,-4.883972,-66.419459:eff_
1562231463.960758,cobot_dynamixel_driver/goal|-:J1,J2,J3,J4,J5:0.000000,-835.461895,-608.682078,-4.883972,-66.419459:eff_
1562231464.000762,cobot_dynamixel_driver/goal|-:J1,J2,J3,J4,J5:0.000000,-835.461895,-608.682078,-4.883972,-66.419459:eff_
1562231464.060758,cobot_dynamixel_driver/goal|-:J1,J2,J3,J4,J5:0.000000,-835.461895,-608.682078,-4.883972,-66.419459:eff_
1562231464.080758,cobot_dynamixel_driver/goal|-:J1,J2,J3,J4,J5:0.000000,-835.461895,-608.682078,-4.883972,-66.419459:eff_
1562231464.140754,cobot_dynamixel_driver/goal|-:J1,J2,J3,J4,J5:0.000000,-835.461895,-608.682078,-4.883972,-66.419459:eff_
1562231464.160746,cobot_dynamixel_driver/goal|-:J1,J2,J3,J4,J5:0.000000,-835.461895,-608.682078,-4.883972,-66.419459:eff_
1562231464.220746,cobot_dynamixel_driver/goal|-:J1,J2,J3,J4,J5:0.000000,-835.461895,-608.682078,-4.883972,-66.419459:eff_
1562231464.240765,cobot_dynamixel_driver/goal|-:J1,J2,J3,J4,J5:0.000000,-835.461895,-608.682078,-4.883972,-66.419459:eff_
1562231464.300760,cobot_dynamixel_driver/goal|-:J1,J2,J3,J4,J5:0.000000,-835.461895,-608.682078,-4.883972,-66.419459:eff_
1562231464.320758,cobot_dynamixel_driver/goal|-:J1,J2,J3,J4,J5:0.000000,-835.461895,-608.682078,-4.883972,-66.419459:eff_
1562231464.380768,cobot_dynamixel_driver/goal|-:J1,J2,J3,J4,J5:0.000000,-835.461895,-608.682078,-4.883972,-66.419459:eff_
1562231464.400765,cobot_dynamixel_driver/goal|-:J1,J2,J3,J4,J5:0.000000,-835.461895,-608.682078,-4.883972,-66.419459:eff_
1562231464.460762,cobot_dynamixel_driver/goal|-:J1,J2,J3,J4,J5:0.000000,-835.461895,-608.682078,-4.883972,-66.419459:eff_
1562231464.480798,cobot_dynamixel_driver/goal|-:J1,J2,J3,J4,J5:0.000000,-835.461895,-608.682078,-4.883972,-66.419459:eff_
1562231464.540760,cobot_dynamixel_driver/goal|-:J1,J2,J3,J4,J5:0.000000,-835.461895,-608.682078,-4.883972,-66.419459:eff_
1562231464.560774,cobot_dynamixel_driver/goal|-:J1,J2,J3,J4,J5:0.000000,-835.461895,-608.682078,-4.883972,-66.419459:eff_
1562231464.620772,cobot_dynamixel_driver/goal|-:J1,J2,J3,J4,J5:0.000000,-835.461895,-608.682078,-4.883972,-66.419459:eff_
1562231464.640780,cobot_dynamixel_driver/goal|-:J1,J2,J3,J4,J5:0.000000,-835.461895,-608.682078,-4.883972,-66.419459:eff_
1562231464.700761,cobot_dynamixel_driver/goal|-:J1,J2,J3,J4,J5:0.000000,-835.461895,-608.682078,-4.883972,-66.419459:eff_
1562231464.720807,cobot_dynamixel_driver/goal|-:J1,J2,J3,J4,J5:0.000000,-835.461895,-608.682078,-4.883972,-66.419459:eff_
1562231464.760761,cobot_dynamixel_driver/goal|-:J1,J2,J3,J4,J5:0.000000,-835.461895,-608.682078,-4.883972,-66.419459:eff_
1562231464.800756,cobot_dynamixel_driver/goal|-:J1,J2,J3,J4,J5:0.000000,-835.461895,-608.682078,-4.883972,-66.419459:eff_
1562231464.860744,cobot_dynamixel_driver/goal|-:J1,J2,J3,J4,J5:0.000000,-835.461895,-608.682078,-4.883972,-66.419459:eff_
1562231464.880742,cobot_dynamixel_driver/goal|-:J1,J2,J3,J4,J5:0.000000,-835.461895,-608.682078,-4.883972,-66.419459:eff_
1562231464.940746,cobot_dynamixel_driver/goal|-:J1,J2,J3,J4,J5:0.000000,-835.461895,-608.682078,-4.883972,-66.419459:eff_
1562231464.960744,cobot_dynamixel_driver/goal|-:J1,J2,J3,J4,J5:0.000000,-835.461895,-608.682078,-4.883972,-66.419459:eff_
1562231465.020754,cobot_dynamixel_driver/goal|-:J1,J2,J3,J4,J5:0.000000,-835.461895,-608.682078,-4.883972,-66.419459:eff_
1562231465.040747,cobot_dynamixel_driver/goal|-:J1,J2,J3,J4,J5:0.000000,-835.461895,-608.682078,-4.883972,-66.419459:eff_
1562231465.100744,cobot_dynamixel_driver/goal|-:J1,J2,J3,J4,J5:0.000000,-835.461895,-608.682078,-4.883972,-66.419459:eff_
1562231465.120770,cobot_dynamixel_driver/goal|-:J1,J2,J3,J4,J5:0.000000,-835.461895,-608.682078,-4.883972,-66.419459:eff_
1562231465.160753,cobot_dynamixel_driver/goal|-:J1,J2,J3,J4,J5:0.000000,-835.461895,-608.682078,-4.883972,-66.419459:eff_
1562231465.200746,cobot_dynamixel_driver/goal|-:J1,J2,J3,J4,J5:0.000000,-835.461895,-608.682078,-4.883972,-66.419459:eff_
1562231465.260753,cobot_dynamixel_driver/goal|-:J1,J2,J3,J4,J5:0.000000,-835.461895,-608.682078,-4.883972,-66.419459:eff_
1562231465.280768,cobot_dynamixel_driver/goal|-:J1,J2,J3,J4,J5:0.000000,-835.461895,-608.682078,-4.883972,-66.419459:eff_
1562231465.340728,cobot_dynamixel_driver/goal|-:J1,J2,J3,J4,J5:0.000000,-835.461895,-608.682078,-4.883972,-66.419459:eff_
1562231465.360752,cobot_dynamixel_driver/goal|-:J1,J2,J3,J4,J5:0.000000,-835.461895,-608.682078,-4.883972,-66.419459:eff_
1562231465.420759,cobot_dynamixel_driver/goal|-:J1,J2,J3,J4,J5:0.000000,-835.461895,-608.682078,-4.883972,-66.419459:eff_
1562231465.440758,cobot_dynamixel_driver/goal|-:J1,J2,J3,J4,J5:0.000000,-835.461895,-608.682078,-4.883972,-66.419459:eff_
1562231465.500757,cobot_dynamixel_driver/goal|-:J1,J2,J3,J4,J5:0.000000,-835.461895,-608.682078,-4.883972,-66.419459:eff_
1562231465.520767,cobot_dynamixel_driver/goal|-:J1,J2,J3,J4,J5:0.000000,-835.461895,-608.682078,-4.883972,-66.419459:eff_
1562231465.580758,cobot_dynamixel_driver/goal|-:J1,J2,J3,J4,J5:0.000000,-835.461895,-608.682078,-4.883972,-66.419459:eff_
1562231465.600754,cobot_dynamixel_driver/goal|-:J1,J2,J3,J4,J5:0.000000,-835.461895,-608.682078,-4.883972,-66.419459:eff_
1562231465.660852,cobot_dynamixel_driver/goal|-:J1,J2,J3,J4,J5:0.000000,-835.461895,-608.682078,-4.883972,-66.419459:eff_
1562231465.680782,cobot_dynamixel_driver/goal|-:J1,J2,J3,J4,J5:0.000000,-835.461895,-608.682078,-4.883972,-66.419459:eff_
1562231465.720799,cobot_dynamixel_driver/goal|-:J1,J2,J3,J4,J5:0.000000,-835.461895,-608.682078,-4.883972,-66.419459:eff_
1562231465.760790,cobot_dynamixel_driver/goal|-:J1,J2,J3,J4,J5:0.000000,-835.461895,-608.682078,-4.883972,-66.419459:eff_
1562231465.820767,cobot_dynamixel_driver/goal|-:J1,J2,J3,J4,J5:0.000000,-835.461895,-608.682078,-4.883972,-66.419459:eff_
1562231465.840798,cobot_dynamixel_driver/goal|-:J1,J2,J3,J4,J5:0.000000,-835.461895,-608.682078,-4.883972,-66.419459:eff_
1562231465.900752,cobot_dynamixel_driver/goal|-:J1,J2,J3,J4,J5:0.000000,-835.461895,-608.682078,-4.883972,-66.419459:eff_
1562231465.920797,cobot_dynamixel_driver/goal|-:J1,J2,J3,J4,J5:0.000000,-835.461895,-608.682078,-4.883972,-66.419459:eff_
1562231465.980746,cobot_dynamixel_driver/goal|-:J1,J2,J3,J4,J5:0.000000,-835.461895,-608.682078,-4.883972,-66.419459:eff_
1562231466.000749,cobot_dynamixel_driver/goal|-:J1,J2,J3,J4,J5:0.000000,-835.461895,-608.682078,-4.883972,-66.419459:eff_
1562231466.060775,cobot_dynamixel_driver/goal|-:J1,J2,J3,J4,J5:0.000000,-835.461895,-608.682078,-4.883972,-66.419459:eff_
1562231466.080747,cobot_dynamixel_driver/goal|-:J1,J2,J3,J4,J5:0.000000,-835.461895,-608.682078,-4.883972,-66.419459:eff_
1562231466.140775,cobot_dynamixel_driver/goal|-:J1,J2,J3,J4,J5:0.000000,-835.461895,-608.682078,-4.883972,-66.419459:eff_
1562231466.160747,cobot_dynamixel_driver/goal|-:J1,J2,J3,J4,J5:0.000000,-835.461895,-608.682078,-4.883972,-66.419459:eff_
1562231466.220799,cobot_dynamixel_driver/goal|-:J1,J2,J3,J4,J5:0.000000,-835.461895,-608.682078,-4.883972,-66.419459:eff_
1562231466.240745,cobot_dynamixel_driver/goal|-:J1,J2,J3,J4,J5:0.000000,-835.461895,-608.682078,-4.883972,-66.419459:eff_
1562231466.300750,cobot_dynamixel_driver/goal|-:J1,J2,J3,J4,J5:0.000000,-835.461895,-608.682078,-4.883972,-66.419459:eff_
1562231466.320751,cobot_dynamixel_driver/goal|-:J1,J2,J3,J4,J5:0.000000,-835.461895,-608.682078,-4.883972,-66.419459:eff_
1562231466.380742,cobot_dynamixel_driver/goal|-:J1,J2,J3,J4,J5:0.000000,-835.461895,-608.682078,-4.883972,-66.419459:eff_
1562231466.400755,cobot_dynamixel_driver/goal|-:J1,J2,J3,J4,J5:0.000000,-835.461895,-608.682078,-4.883972,-66.419459:eff_
1562231466.460744,cobot_dynamixel_driver/goal|-:J1,J2,J3,J4,J5:0.000000,-835.461895,-608.682078,-4.883972,-66.419459:eff_
1562231466.480746,cobot_dynamixel_driver/goal|-:J1,J2,J3,J4,J5:0.000000,-835.461895,-608.682078,-4.883972,-66.419459:eff_
1562231466.540776,cobot_dynamixel_driver/goal|-:J1,J2,J3,J4,J5:0.000000,-835.461895,-608.682078,-4.883972,-66.419459:eff_
1562231466.560774,cobot_dynamixel_driver/goal|-:J1,J2,J3,J4,J5:0.000000,-835.461895,-608.682078,-4.883972,-66.419459:eff_
1562231466.620748,cobot_dynamixel_driver/goal|-:J1,J2,J3,J4,J5:0.000000,-835.461895,-608.682078,-4.883972,-66.419459:eff_
1562231466.640753,cobot_dynamixel_driver/goal|-:J1,J2,J3,J4,J5:0.000000,-835.461895,-608.682078,-4.883972,-66.419459:eff_
1562231466.700745,cobot_dynamixel_driver/goal|-:J1,J2,J3,J4,J5:0.000000,-835.461895,-608.682078,-4.883972,-66.419459:eff_
1562231466.720746,cobot_dynamixel_driver/goal|-:J1,J2,J3,J4,J5:0.000000,-835.461895,-608.682078,-4.883972,-66.419459:eff_
1562231466.780743,cobot_dynamixel_driver/goal|-:J1,J2,J3,J4,J5:0.000000,-835.461895,-608.682078,-4.883972,-66.419459:eff_
1562231466.800745,cobot_dynamixel_driver/goal|-:J1,J2,J3,J4,J5:0.000000,-835.461895,-608.682078,-4.883972,-66.419459:eff_
1562231466.860744,cobot_dynamixel_driver/goal|-:J1,J2,J3,J4,J5:0.000000,-835.461895,-608.682078,-4.883972,-66.419459:eff_
1562231466.880741,cobot_dynamixel_driver/goal|-:J1,J2,J3,J4,J5:0.000000,-835.461895,-608.682078,-4.883972,-66.419459:eff_
1562231466.940749,cobot_dynamixel_driver/goal|-:J1,J2,J3,J4,J5:0.000000,-835.461895,-608.682078,-4.883972,-66.419459:eff_
1562231466.960774,cobot_dynamixel_driver/goal|-:J1,J2,J3,J4,J5:0.000000,-835.461895,-608.682078,-4.883972,-66.419459:eff_
1562231467.020746,cobot_dynamixel_driver/goal|-:J1,J2,J3,J4,J5:0.000000,-835.461895,-608.682078,-4.883972,-66.419459:eff_
1562231467.040828,cobot_dynamixel_driver/goal|-:J1,J2,J3,J4,J5:0.000000,-835.461895,-608.682078,-4.883972,-66.419459:eff_
1562231467.100767,cobot_dynamixel_driver/goal|-:J1,J2,J3,J4,J5:0.000000,-835.461895,-608.682078,-4.883972,-66.419459:eff_
1562231467.120768,cobot_dynamixel_driver/goal|-:J1,J2,J3,J4,J5:0.000000,-835.461895,-608.682078,-4.883972,-66.419459:eff_
1562231467.180749,cobot_dynamixel_driver/goal|-:J1,J2,J3,J4,J5:0.000000,-835.461895,-608.682078,-4.883972,-66.419459:eff_
1562231467.200748,cobot_dynamixel_driver/goal|-:J1,J2,J3,J4,J5:0.000000,-835.461895,-608.682078,-4.883972,-66.419459:eff_
1562231467.260743,cobot_dynamixel_driver/goal|-:J1,J2,J3,J4,J5:0.000000,-835.461895,-608.682078,-4.883972,-66.419459:eff_
1562231467.280750,cobot_dynamixel_driver/goal|-:J1,J2,J3,J4,J5:0.000000,-835.461895,-608.682078,-4.883972,-66.419459:eff_
1562231467.340751,cobot_dynamixel_driver/goal|-:J1,J2,J3,J4,J5:0.000000,-835.461895,-608.682078,-4.883972,-66.419459:eff_
1562231467.360759,cobot_dynamixel_driver/goal|-:J1,J2,J3,J4,J5:0.000000,-835.461895,-608.682078,-4.883972,-66.419459:eff_
1562231467.420809,cobot_dynamixel_driver/goal|-:J1,J2,J3,J4,J5:0.000000,-835.461895,-608.682078,-4.883972,-66.419459:eff_
1562231467.440816,cobot_dynamixel_driver/goal|-:J1,J2,J3,J4,J5:0.000000,-835.461895,-608.682078,-4.883972,-66.419459:eff_
1562231467.500752,cobot_dynamixel_driver/goal|-:J1,J2,J3,J4,J5:0.000000,-835.461895,-608.682078,-4.883972,-66.419459:eff_
1562231467.520752,cobot_dynamixel_driver/goal|-:J1,J2,J3,J4,J5:0.000000,-835.461895,-608.682078,-4.883972,-66.419459:eff_
1562231467.580764,cobot_dynamixel_driver/goal|-:J1,J2,J3,J4,J5:0.000000,-835.461895,-608.682078,-4.883972,-66.419459:eff_
1562231467.600810,cobot_dynamixel_driver/goal|-:J1,J2,J3,J4,J5:0.000000,-835.461895,-608.682078,-4.883972,-66.419459:eff_
1562231467.660754,cobot_dynamixel_driver/goal|-:J1,J2,J3,J4,J5:0.000000,-835.461895,-608.682078,-4.883972,-66.419459:eff_
1562231467.680793,cobot_dynamixel_driver/goal|-:J1,J2,J3,J4,J5:0.000000,-835.461895,-608.682078,-4.883972,-66.419459:eff_
1562231467.740755,cobot_dynamixel_driver/goal|-:J1,J2,J3,J4,J5:0.000000,-835.461895,-608.682078,-4.883972,-66.419459:eff_
1562231467.760760,cobot_dynamixel_driver/goal|-:J1,J2,J3,J4,J5:0.000000,-835.461895,-608.682078,-4.883972,-66.419459:eff_
1562231467.820752,cobot_dynamixel_driver/goal|-:J1,J2,J3,J4,J5:0.000000,-835.461895,-608.682078,-4.883972,-66.419459:eff_
1562231467.840769,cobot_dynamixel_driver/goal|-:J1,J2,J3,J4,J5:0.000000,-835.461895,-608.682078,-4.883972,-66.419459:eff_
1562231467.900746,cobot_dynamixel_driver/goal|-:J1,J2,J3,J4,J5:0.000000,-835.461895,-608.682078,-4.883972,-66.419459:eff_
1562231467.920800,cobot_dynamixel_driver/goal|-:J1,J2,J3,J4,J5:0.000000,-835.461895,-608.682078,-4.883972,-66.419459:eff_
1562231467.960749,cobot_dynamixel_driver/goal|-:J1,J2,J3,J4,J5:0.000000,-835.461895,-608.682078,-4.883972,-66.419459:eff_
1562231468.000765,cobot_dynamixel_driver/goal|-:J1,J2,J3,J4,J5:0.000000,-835.461895,-608.682078,-4.883972,-66.419459:eff_
1562231468.060759,cobot_dynamixel_driver/goal|-:J1,J2,J3,J4,J5:0.000000,-835.461895,-608.682078,-4.883972,-66.419459:eff_
1562231468.080754,cobot_dynamixel_driver/goal|-:J1,J2,J3,J4,J5:0.000000,-835.461895,-608.682078,-4.883972,-66.419459:eff_
1562231468.140780,cobot_dynamixel_driver/goal|-:J1,J2,J3,J4,J5:0.000000,-835.461895,-608.682078,-4.883972,-66.419459:eff_
1562231468.160774,cobot_dynamixel_driver/goal|-:J1,J2,J3,J4,J5:0.000000,-835.461895,-608.682078,-4.883972,-66.419459:eff_
1562231468.220753,cobot_dynamixel_driver/goal|-:J1,J2,J3,J4,J5:0.000000,-835.461895,-608.682078,-4.883972,-66.419459:eff_
1562231468.240759,cobot_dynamixel_driver/goal|-:J1,J2,J3,J4,J5:0.000000,-835.461895,-608.682078,-4.883972,-66.419459:eff_
1562231468.300763,cobot_dynamixel_driver/goal|-:J1,J2,J3,J4,J5:0.000000,-835.461895,-608.682078,-4.883972,-66.419459:eff_
1562231468.320810,cobot_dynamixel_driver/goal|-:J1,J2,J3,J4,J5:0.000000,-835.461895,-608.682078,-4.883972,-66.419459:eff_
1562231468.380755,cobot_dynamixel_driver/goal|-:J1,J2,J3,J4,J5:0.000000,-835.461895,-608.682078,-4.883972,-66.419459:eff_
1562231468.400749,cobot_dynamixel_driver/goal|-:J1,J2,J3,J4,J5:0.000000,-835.461895,-608.682078,-4.883972,-66.419459:eff_
1562231468.460753,cobot_dynamixel_driver/goal|-:J1,J2,J3,J4,J5:0.000000,-835.461895,-608.682078,-4.883972,-66.419459:eff_
1562231468.480746,cobot_dynamixel_driver/goal|-:J1,J2,J3,J4,J5:0.000000,-835.461895,-608.682078,-4.883972,-66.419459:eff_
1562231468.540753,cobot_dynamixel_driver/goal|-:J1,J2,J3,J4,J5:0.000000,-835.461895,-608.682078,-4.883972,-66.419459:eff_
1562231468.560760,cobot_dynamixel_driver/goal|-:J1,J2,J3,J4,J5:0.000000,-835.461895,-608.682078,-4.883972,-66.419459:eff_
1562231468.620750,cobot_dynamixel_driver/goal|-:J1,J2,J3,J4,J5:0.000000,-835.461895,-608.682078,-4.883972,-66.419459:eff_
1562231468.640776,cobot_dynamixel_driver/goal|-:J1,J2,J3,J4,J5:0.000000,-835.461895,-608.682078,-4.883972,-66.419459:eff_
1562231468.700754,cobot_dynamixel_driver/goal|-:J1,J2,J3,J4,J5:0.000000,-835.461895,-608.682078,-4.883972,-66.419459:eff_
1562231468.720789,cobot_dynamixel_driver/goal|-:J1,J2,J3,J4,J5:0.000000,-835.461895,-608.682078,-4.883972,-66.419459:eff_
1562231468.780750,cobot_dynamixel_driver/goal|-:J1,J2,J3,J4,J5:0.000000,-835.461895,-608.682078,-4.883972,-66.419459:eff_
1562231468.800750,cobot_dynamixel_driver/goal|-:J1,J2,J3,J4,J5:0.000000,-835.461895,-608.682078,-4.883972,-66.419459:eff_
1562231468.860746,cobot_dynamixel_driver/goal|-:J1,J2,J3,J4,J5:0.000000,-835.461895,-608.682078,-4.883972,-66.419459:eff_
1562231468.880780,cobot_dynamixel_driver/goal|-:J1,J2,J3,J4,J5:0.000000,-835.461895,-608.682078,-4.883972,-66.419459:eff_
1562231468.940773,cobot_dynamixel_driver/goal|-:J1,J2,J3,J4,J5:0.000000,-835.461895,-608.682078,-4.883972,-66.419459:eff_
1562231468.960789,cobot_dynamixel_driver/goal|-:J1,J2,J3,J4,J5:0.000000,-835.461895,-608.682078,-4.883972,-66.419459:eff_
1562231469.020747,cobot_dynamixel_driver/goal|-:J1,J2,J3,J4,J5:0.000000,-835.461895,-608.682078,-4.883972,-66.419459:eff_
1562231469.040807,cobot_dynamixel_driver/goal|-:J1,J2,J3,J4,J5:0.000000,-835.461895,-608.682078,-4.883972,-66.419459:eff_
1562231469.080756,cobot_dynamixel_driver/goal|-:J1,J2,J3,J4,J5:0.000000,-835.461895,-608.682078,-4.883972,-66.419459:eff_
1562231469.120750,cobot_dynamixel_driver/goal|-:J1,J2,J3,J4,J5:0.000000,-835.461895,-608.682078,-4.883972,-66.419459:eff_
1562231469.180778,cobot_dynamixel_driver/goal|-:J1,J2,J3,J4,J5:0.000000,-835.461895,-608.682078,-4.883972,-66.419459:eff_
1562231469.200755,cobot_dynamixel_driver/goal|-:J1,J2,J3,J4,J5:0.000000,-835.461895,-608.682078,-4.883972,-66.419459:eff_
1562231469.260750,cobot_dynamixel_driver/goal|-:J1,J2,J3,J4,J5:0.000000,-835.461895,-608.682078,-4.883972,-66.419459:eff_
1562231469.280759,cobot_dynamixel_driver/goal|-:J1,J2,J3,J4,J5:0.000000,-835.461895,-608.682078,-4.883972,-66.419459:eff_
1562231469.340784,cobot_dynamixel_driver/goal|-:J1,J2,J3,J4,J5:0.000000,-835.461895,-608.682078,-4.883972,-66.419459:eff_
1562231469.360749,cobot_dynamixel_driver/goal|-:J1,J2,J3,J4,J5:0.000000,-835.461895,-608.682078,-4.883972,-66.419459:eff_
1562231469.420755,cobot_dynamixel_driver/goal|-:J1,J2,J3,J4,J5:0.000000,-835.461895,-608.682078,-4.883972,-66.419459:eff_
1562231469.440800,cobot_dynamixel_driver/goal|-:J1,J2,J3,J4,J5:0.000000,-835.461895,-608.682078,-4.883972,-66.419459:eff_
1562231469.500751,cobot_dynamixel_driver/goal|-:J1,J2,J3,J4,J5:0.000000,-835.461895,-608.682078,-4.883972,-66.419459:eff_
1562231469.520745,cobot_dynamixel_driver/goal|-:J1,J2,J3,J4,J5:0.000000,-835.461895,-608.682078,-4.883972,-66.419459:eff_
1562231469.580744,cobot_dynamixel_driver/goal|-:J1,J2,J3,J4,J5:0.000000,-835.461895,-608.682078,-4.883972,-66.419459:eff_
1562231469.600754,cobot_dynamixel_driver/goal|-:J1,J2,J3,J4,J5:0.000000,-835.461895,-608.682078,-4.883972,-66.419459:eff_
1562231469.660757,cobot_dynamixel_driver/goal|-:J1,J2,J3,J4,J5:0.000000,-835.461895,-608.682078,-4.883972,-66.419459:eff_
1562231469.680744,cobot_dynamixel_driver/goal|-:J1,J2,J3,J4,J5:0.000000,-835.461895,-608.682078,-4.883972,-66.419459:eff_
1562231469.740785,cobot_dynamixel_driver/goal|-:J1,J2,J3,J4,J5:0.000000,-835.461895,-608.682078,-4.883972,-66.419459:eff_
1562231469.760808,cobot_dynamixel_driver/goal|-:J1,J2,J3,J4,J5:0.000000,-835.461895,-608.682078,-4.883972,-66.419459:eff_
1562231469.820746,cobot_dynamixel_driver/goal|-:J1,J2,J3,J4,J5:0.000000,-835.461895,-608.682078,-4.883972,-66.419459:eff_
1562231469.840780,cobot_dynamixel_driver/goal|-:J1,J2,J3,J4,J5:0.000000,-835.461895,-608.682078,-4.883972,-66.419459:eff_
1562231469.900785,cobot_dynamixel_driver/goal|-:J1,J2,J3,J4,J5:0.000000,-835.461895,-608.682078,-4.883972,-66.419459:eff_
1562231469.920819,cobot_dynamixel_driver/goal|-:J1,J2,J3,J4,J5:0.000000,-835.461895,-608.682078,-4.883972,-66.419459:eff_
1562231469.980750,cobot_dynamixel_driver/goal|-:J1,J2,J3,J4,J5:0.000000,-835.461895,-608.682078,-4.883972,-66.419459:eff_
1562231470.000752,cobot_dynamixel_driver/goal|-:J1,J2,J3,J4,J5:0.000000,-835.461895,-608.682078,-4.883972,-66.419459:eff_
1562231470.060751,cobot_dynamixel_driver/goal|-:J1,J2,J3,J4,J5:0.000000,-835.461895,-608.682078,-4.883972,-66.419459:eff_
1562231470.080760,cobot_dynamixel_driver/goal|-:J1,J2,J3,J4,J5:0.000000,-835.461895,-608.682078,-4.883972,-66.419459:eff_
1562231470.140756,cobot_dynamixel_driver/goal|-:J1,J2,J3,J4,J5:0.000000,-835.461895,-608.682078,-4.883972,-66.419459:eff_
1562231470.160768,cobot_dynamixel_driver/goal|-:J1,J2,J3,J4,J5:0.000000,-835.461895,-608.682078,-4.883972,-66.419459:eff_
1562231470.220802,cobot_dynamixel_driver/goal|-:J1,J2,J3,J4,J5:0.000000,-835.461895,-608.682078,-4.883972,-66.419459:eff_
1562231470.240802,cobot_dynamixel_driver/goal|-:J1,J2,J3,J4,J5:0.000000,-835.461895,-608.682078,-4.883972,-66.419459:eff_
1562231470.300796,cobot_dynamixel_driver/goal|-:J1,J2,J3,J4,J5:0.000000,-835.461895,-608.682078,-4.883972,-66.419459:eff_
1562231470.320761,cobot_dynamixel_driver/goal|-:J1,J2,J3,J4,J5:0.000000,-835.461895,-608.682078,-4.883972,-66.419459:eff_
1562231470.380769,cobot_dynamixel_driver/goal|-:J1,J2,J3,J4,J5:0.000000,-835.461895,-608.682078,-4.883972,-66.419459:eff_
1562231470.400750,cobot_dynamixel_driver/goal|-:J1,J2,J3,J4,J5:0.000000,-835.461895,-608.682078,-4.883972,-66.419459:eff_
1562231470.460749,cobot_dynamixel_driver/goal|-:J1,J2,J3,J4,J5:0.000000,-835.461895,-608.682078,-4.883972,-66.419459:eff_
1562231470.480818,cobot_dynamixel_driver/goal|-:J1,J2,J3,J4,J5:0.000000,-835.461895,-608.682078,-4.883972,-66.419459:eff_
1562231470.540750,cobot_dynamixel_driver/goal|-:J1,J2,J3,J4,J5:0.000000,-835.461895,-608.682078,-4.883972,-66.419459:eff_
1562231470.560753,cobot_dynamixel_driver/goal|-:J1,J2,J3,J4,J5:0.000000,-835.461895,-608.682078,-4.883972,-66.419459:eff_
1562231470.620747,cobot_dynamixel_driver/goal|-:J1,J2,J3,J4,J5:0.000000,-835.461895,-608.682078,-4.883972,-66.419459:eff_
1562231470.640804,cobot_dynamixel_driver/goal|-:J1,J2,J3,J4,J5:0.000000,-835.461895,-608.682078,-4.883972,-66.419459:eff_
1562231470.680796,cobot_dynamixel_driver/goal|-:J1,J2,J3,J4,J5:0.000000,-835.461895,-608.682078,-4.883972,-66.419459:eff_
1562231470.720744,cobot_dynamixel_driver/goal|-:J1,J2,J3,J4,J5:0.000000,-835.461895,-608.682078,-4.883972,-66.419459:eff_
1562231470.740739,cobot_dynamixel_driver/goal|-:J1,J2,J3,J4,J5:0.000000,-835.461895,-608.682078,-4.883972,-66.419459:eff_
cobot_dynamixel_driver/goal|-:J1,J2,J3,J4,J5:0.000000,-835.461895,-608.682078,-4.883972,-66.419459:eff_
0
-:J1,J2,J3,J4,J5:0.000000,-835.461895,-608.682078,-4.883972,-66.419459:eff_
[TxRxResult] Failed transmit instruction packet!
 /home/mtec/catkin_ws/src/cobot/cobot_dynamixel_driver/src/cJoint_pro.cpp:815
1562231470.740739,cobot_dynamixel_driver/goal|-:J1,J2,J3,J4,J5:0.000000,-835.461895,-608.682078,-4.883972,-66.419459:eff_
cobot_dynamixel_driver/goal|-:J1,J2,J3,J4,J5:0.000000,-835.461895,-608.682078,-4.883972,-66.419459:eff_
1
-:J1,J2,J3,J4,J5:0.000000,-835.461895,-608.682078,-4.883972,-66.419459:eff_
[TxRxResult] Failed transmit instruction packet!
 /home/mtec/catkin_ws/src/cobot/cobot_dynamixel_driver/src/cJoint_pro.cpp:815
1562231470.740739,cobot_dynamixel_driver/goal|-:J1,J2,J3,J4,J5:0.000000,-835.461895,-608.682078,-4.883972,-66.419459:eff_
cobot_dynamixel_driver/goal|-:J1,J2,J3,J4,J5:0.000000,-835.461895,-608.682078,-4.883972,-66.419459:eff_
2
-:J1,J2,J3,J4,J5:0.000000,-835.461895,-608.682078,-4.883972,-66.419459:eff_
[TxRxResult] Failed transmit instruction packet!
 /home/mtec/catkin_ws/src/cobot/cobot_dynamixel_driver/src/cJoint_pro.cpp:815
1562231470.740739,cobot_dynamixel_driver/goal|-:J1,J2,J3,J4,J5:0.000000,-835.461895,-608.682078,-4.883972,-66.419459:eff_
cobot_dynamixel_driver/goal|-:J1,J2,J3,J4,J5:0.000000,-835.461895,-608.682078,-4.883972,-66.419459:eff_
3
-:J1,J2,J3,J4,J5:0.000000,-835.461895,-608.682078,-4.883972,-66.419459:eff_
[TxRxResult] Failed transmit instruction packet!
 /home/mtec/catkin_ws/src/cobot/cobot_dynamixel_driver/src/cJoint_pro.cpp:815
1562231470.740739,cobot_dynamixel_driver/goal|-:J1,J2,J3,J4,J5:0.000000,-835.461895,-608.682078,-4.883972,-66.419459:eff_
cobot_dynamixel_driver/goal|-:J1,J2,J3,J4,J5:0.000000,-835.461895,-608.682078,-4.883972,-66.419459:eff_
4
-:J1,J2,J3,J4,J5:0.000000,-835.461895,-608.682078,-4.883972,-66.419459:eff_
[TxRxResult] Failed transmit instruction packet!
 /home/mtec/catkin_ws/src/cobot/cobot_dynamixel_driver/src/cJoint_pro.cpp:815
1562231470.740739,cobot_dynamixel_driver/goal|-:J1,J2,J3,J4,J5:0.000000,-835.461895,-608.682078,-4.883972,-66.419459:eff_
cobot_dynamixel_driver/goal|-:J1,J2,J3,J4,J5:0.000000,-835.461895,-608.682078,-4.883972,-66.419459:eff_
5
-:J1,J2,J3,J4,J5:0.000000,-835.461895,-608.682078,-4.883972,-66.419459:eff_
[TxRxResult] Failed transmit instruction packet!
 /home/mtec/catkin_ws/src/cobot/cobot_dynamixel_driver/src/cJoint_pro.cpp:815
1562231470.740739,cobot_dynamixel_driver/goal|-:J1,J2,J3,J4,J5:0.000000,-835.461895,-608.682078,-4.883972,-66.419459:eff_
cobot_dynamixel_driver/goal|-:J1,J2,J3,J4,J5:0.000000,-835.461895,-608.682078,-4.883972,-66.419459:eff_
6
-:J1,J2,J3,J4,J5:0.000000,-835.461895,-608.682078,-4.883972,-66.419459:eff_
[TxRxResult] Failed transmit instruction packet!
 /home/mtec/catkin_ws/src/cobot/cobot_dynamixel_driver/src/cJoint_pro.cpp:815
1562231470.740739,cobot_dynamixel_driver/goal|-:J1,J2,J3,J4,J5:0.000000,-835.461895,-608.682078,-4.883972,-66.419459:eff_
cobot_dynamixel_driver/goal|-:J1,J2,J3,J4,J5:0.000000,-835.461895,-608.682078,-4.883972,-66.419459:eff_
7
-:J1,J2,J3,J4,J5:0.000000,-835.461895,-608.682078,-4.883972,-66.419459:eff_
[TxRxResult] Failed transmit instruction packet!
 /home/mtec/catkin_ws/src/cobot/cobot_dynamixel_driver/src/cJoint_pro.cpp:815
1562231470.740739,cobot_dynamixel_driver/goal|-:J1,J2,J3,J4,J5:0.000000,-835.461895,-608.682078,-4.883972,-66.419459:eff_
cobot_dynamixel_driver/goal|-:J1,J2,J3,J4,J5:0.000000,-835.461895,-608.682078,-4.883972,-66.419459:eff_
8
-:J1,J2,J3,J4,J5:0.000000,-835.461895,-608.682078,-4.883972,-66.419459:eff_
[TxRxResult] Failed transmit instruction packet!
 /home/mtec/catkin_ws/src/cobot/cobot_dynamixel_driver/src/cJoint_pro.cpp:815
1562231470.740739,cobot_dynamixel_driver/goal|-:J1,J2,J3,J4,J5:0.000000,-835.461895,-608.682078,-4.883972,-66.419459:eff_
cobot_dynamixel_driver/goal|-:J1,J2,J3,J4,J5:0.000000,-835.461895,-608.682078,-4.883972,-66.419459:eff_
9
-:J1,J2,J3,J4,J5:0.000000,-835.461895,-608.682078,-4.883972,-66.419459:eff_
[TxRxResult] Failed transmit instruction packet!
 /home/mtec/catkin_ws/src/cobot/cobot_dynamixel_driver/src/cJoint_pro.cpp:815
1562231470.740739,cobot_dynamixel_driver/goal|-:J1,J2,J3,J4,J5:0.000000,-835.461895,-608.682078,-4.883972,-66.419459:eff_
cobot_dynamixel_driver/goal|-:J1,J2,J3,J4,J5:0.000000,-835.461895,-608.682078,-4.883972,-66.419459:eff_
10
-:J1,J2,J3,J4,J5:0.000000,-835.461895,-608.682078,-4.883972,-66.419459:eff_
[TxRxResult] Failed transmit instruction packet!
 /home/mtec/catkin_ws/src/cobot/cobot_dynamixel_driver/src/cJoint_pro.cpp:815
1562231470.740739,cobot_dynamixel_driver/goal|-:J1,J2,J3,J4,J5:0.000000,-835.461895,-608.682078,-4.883972,-66.419459:eff_
cobot_dynamixel_driver/goal|-:J1,J2,J3,J4,J5:0.000000,-835.461895,-608.682078,-4.883972,-66.419459:eff_
11
-:J1,J2,J3,J4,J5:0.000000,-835.461895,-608.682078,-4.883972,-66.419459:eff_
[TxRxResult] Failed transmit instruction packet!
 /home/mtec/catkin_ws/src/cobot/cobot_dynamixel_driver/src/cJoint_pro.cpp:815
1562231470.740739,cobot_dynamixel_driver/goal|-:J1,J2,J3,J4,J5:0.000000,-835.461895,-608.682078,-4.883972,-66.419459:eff_
cobot_dynamixel_driver/goal|-:J1,J2,J3,J4,J5:0.000000,-835.461895,-608.682078,-4.883972,-66.419459:eff_
12
-:J1,J2,J3,J4,J5:0.000000,-835.461895,-608.682078,-4.883972,-66.419459:eff_
[TxRxResult] Failed transmit instruction packet!
 /home/mtec/catkin_ws/src/cobot/cobot_dynamixel_driver/src/cJoint_pro.cpp:815
1562231470.740739,cobot_dynamixel_driver/goal|-:J1,J2,J3,J4,J5:0.000000,-835.461895,-608.682078,-4.883972,-66.419459:eff_
cobot_dynamixel_driver/goal|-:J1,J2,J3,J4,J5:0.000000,-835.461895,-608.682078,-4.883972,-66.419459:eff_
13
-:J1,J2,J3,J4,J5:0.000000,-835.461895,-608.682078,-4.883972,-66.419459:eff_
[TxRxResult] Failed transmit instruction packet!
 /home/mtec/catkin_ws/src/cobot/cobot_dynamixel_driver/src/cJoint_pro.cpp:815
1562231470.740739,cobot_dynamixel_driver/goal|-:J1,J2,J3,J4,J5:0.000000,-835.461895,-608.682078,-4.883972,-66.419459:eff_
cobot_dynamixel_driver/goal|-:J1,J2,J3,J4,J5:0.000000,-835.461895,-608.682078,-4.883972,-66.419459:eff_
14
-:J1,J2,J3,J4,J5:0.000000,-835.461895,-608.682078,-4.883972,-66.419459:eff_
[TxRxResult] Failed transmit instruction packet!
 /home/mtec/catkin_ws/src/cobot/cobot_dynamixel_driver/src/cJoint_pro.cpp:815
1562231470.740739,cobot_dynamixel_driver/goal|-:J1,J2,J3,J4,J5:0.000000,-835.461895,-608.682078,-4.883972,-66.419459:eff_
cobot_dynamixel_driver/goal|-:J1,J2,J3,J4,J5:0.000000,-835.461895,-608.682078,-4.883972,-66.419459:eff_
15
-:J1,J2,J3,J4,J5:0.000000,-835.461895,-608.682078,-4.883972,-66.419459:eff_
[TxRxResult] Failed transmit instruction packet!
 /home/mtec/catkin_ws/src/cobot/cobot_dynamixel_driver/src/cJoint_pro.cpp:815
1562231470.740739,cobot_dynamixel_driver/goal|-:J1,J2,J3,J4,J5:0.000000,-835.461895,-608.682078,-4.883972,-66.419459:eff_
cobot_dynamixel_driver/goal|-:J1,J2,J3,J4,J5:0.000000,-835.461895,-608.682078,-4.883972,-66.419459:eff_
16
-:J1,J2,J3,J4,J5:0.000000,-835.461895,-608.682078,-4.883972,-66.419459:eff_
[TxRxResult] Failed transmit instruction packet!
 /home/mtec/catkin_ws/src/cobot/cobot_dynamixel_driver/src/cJoint_pro.cpp:815
1562231470.740739,cobot_dynamixel_driver/goal|-:J1,J2,J3,J4,J5:0.000000,-835.461895,-608.682078,-4.883972,-66.419459:eff_
cobot_dynamixel_driver/goal|-:J1,J2,J3,J4,J5:0.000000,-835.461895,-608.682078,-4.883972,-66.419459:eff_
17
-:J1,J2,J3,J4,J5:0.000000,-835.461895,-608.682078,-4.883972,-66.419459:eff_
[TxRxResult] Failed transmit instruction packet!
 /home/mtec/catkin_ws/src/cobot/cobot_dynamixel_driver/src/cJoint_pro.cpp:815
1562231470.740739,cobot_dynamixel_driver/goal|-:J1,J2,J3,J4,J5:0.000000,-835.461895,-608.682078,-4.883972,-66.419459:eff_
cobot_dynamixel_driver/goal|-:J1,J2,J3,J4,J5:0.000000,-835.461895,-608.682078,-4.883972,-66.419459:eff_
18
-:J1,J2,J3,J4,J5:0.000000,-835.461895,-608.682078,-4.883972,-66.419459:eff_
[TxRxResult] Failed transmit instruction packet!
 /home/mtec/catkin_ws/src/cobot/cobot_dynamixel_driver/src/cJoint_pro.cpp:815
1562231470.740739,cobot_dynamixel_driver/goal|-:J1,J2,J3,J4,J5:0.000000,-835.461895,-608.682078,-