surachairobotic/cobot/cobot_dynamixel_driver/log/2019-02-05T09:43:27.861932_driver_cmd.txt
1549359816.489655,cobot_dynamixel_driver/goal|-:J1,J2,J3,J4,J5,J6:0.000000,0.000000,0.000000,0.000000,0.000000,0.000000:0.500000,0.500000,0.500000,0.500000,0.500000,0.500000:pos_vel_
1549359927.935562,cobot_dynamixel_driver/goal|-:J1,J2,J3,J4,J5,J6:-0.000007,-0.050015,0.000019,-0.000032,0.000023,-0.000021:0.500000,0.500000,0.500000,0.500000,0.500000,0.500000:pos_vel_
1549359931.095968,cobot_dynamixel_driver/goal|-:J1,J2,J3,J4,J5,J6:-0.000007,-0.100037,0.000019,-0.000032,0.000023,-0.000021:0.500000,0.500000,0.500000,0.500000,0.500000,0.500000:pos_vel_
1549359931.854476,cobot_dynamixel_driver/goal|-:J1,J2,J3,J4,J5,J6:-0.000007,-0.149121,0.000019,-0.000032,0.000023,-0.000021:0.500000,0.500000,0.500000,0.500000,0.500000,0.500000:pos_vel_
1549359932.612062,cobot_dynamixel_driver/goal|-:J1,J2,J3,J4,J5,J6:-0.000007,-0.198268,0.000019,-0.000032,0.000023,-0.000021:0.500000,0.500000,0.500000,0.500000,0.500000,0.500000:pos_vel_
1549359940.335717,cobot_dynamixel_driver/goal|-:J1,J2,J3,J4,J5,J6:0.000000,0.000000,0.000000,0.000000,0.000000,0.000000:0.500000,0.500000,0.500000,0.500000,0.500000,0.500000:pos_vel_
1549359947.631881,cobot_dynamixel_driver/goal|-:J1,J2,J3,J4,J5,J6:-0.000007,0.050036,0.000019,-0.000032,0.000003,-0.000021:0.500000,0.500000,0.500000,0.500000,0.500000,0.500000:pos_vel_
1549359950.736925,cobot_dynamixel_driver/goal|-:J1,J2,J3,J4,J5,J6:-0.000007,0.100083,0.000019,-0.000032,0.000003,-0.000021:0.500000,0.500000,0.500000,0.500000,0.500000,0.500000:pos_vel_
1549359953.737608,cobot_dynamixel_driver/goal|-:J1,J2,J3,J4,J5,J6:-0.000007,0.150144,0.000019,-0.000032,0.000003,-0.000021:0.500000,0.500000,0.500000,0.500000,0.500000,0.500000:pos_vel_
1549359956.251008,cobot_dynamixel_driver/goal|-:J1,J2,J3,J4,J5,J6:-0.000007,0.200229,0.000019,-0.000032,-0.000018,-0.000021:0.500000,0.500000,0.500000,0.500000,0.500000,0.500000:pos_vel_
1549359960.438714,cobot_dynamixel_driver/goal|-:J1,J2,J3,J4,J5,J6:-0.000007,0.250252,0.000019,-0.000032,-0.000060,0.000062:0.500000,0.500000,0.500000,0.500000,0.500000,0.500000:pos_vel_
1549359964.114624,cobot_dynamixel_driver/goal|-:J1,J2,J3,J4,J5,J6:-0.000007,0.300325,0.000019,-0.000032,-0.000101,0.000062:0.500000,0.500000,0.500000,0.500000,0.500000,0.500000:pos_vel_
1549359965.925657,cobot_dynamixel_driver/goal|-:J1,J2,J3,J4,J5,J6:-0.000007,0.350460,0.000006,-0.000032,-0.000122,0.000062:0.500000,0.500000,0.500000,0.500000,0.500000,0.500000:pos_vel_
1549359966.952146,cobot_dynamixel_driver/goal|-:J1,J2,J3,J4,J5,J6:-0.000007,0.400133,0.000006,-0.000032,-0.000142,0.000062:0.500000,0.500000,0.500000,0.500000,0.500000,0.500000:pos_vel_
1549359967.708683,cobot_dynamixel_driver/goal|-:J1,J2,J3,J4,J5,J6:-0.000007,0.449642,0.000006,-0.000032,-0.000163,0.000062:0.500000,0.500000,0.500000,0.500000,0.500000,0.500000:pos_vel_
1549359968.547123,cobot_dynamixel_driver/goal|-:J1,J2,J3,J4,J5,J6:-0.000007,0.499164,-0.000006,-0.000044,-0.000184,0.000062:0.500000,0.500000,0.500000,0.500000,0.500000,0.500000:pos_vel_
1549359969.464671,cobot_dynamixel_driver/goal|-:J1,J2,J3,J4,J5,J6:-0.000007,0.548874,-0.000006,-0.000044,-0.000225,0.000062:0.500000,0.500000,0.500000,0.500000,0.500000,0.500000:pos_vel_
1549359970.385321,cobot_dynamixel_driver/goal|-:J1,J2,J3,J4,J5,J6:-0.000007,0.598321,-0.000019,-0.000044,-0.000266,0.000062:0.500000,0.500000,0.500000,0.500000,0.500000,0.500000:pos_vel_
1549359983.977766,cobot_dynamixel_driver/goal|-:J1,J2,J3,J4,J5,J6:0.000000,0.000000,0.000000,0.000000,0.000000,0.000000:0.500000,0.500000,0.500000,0.500000,0.500000,0.500000:pos_vel_
1549359997.297519,cobot_dynamixel_driver/goal|-:J1,J2,J3,J4,J5,J6:-0.000007,-0.050002,-0.000031,-0.000032,0.000003,0.000041:0.500000,0.500000,0.500000,0.500000,0.500000,0.500000:pos_vel_
1549360001.592989,cobot_dynamixel_driver/goal|-:J1,J2,J3,J4,J5,J6:-0.000007,-0.100037,-0.000031,-0.000032,0.000023,0.000041:0.500000,0.500000,0.500000,0.500000,0.500000,0.500000:pos_vel_
1549360006.971167,cobot_dynamixel_driver/goal|-:J1,J2,J3,J4,J5,J6:-0.000007,-0.150060,-0.000031,-0.000032,0.000023,0.000041:0.500000,0.500000,0.500000,0.500000,0.500000,0.500000:pos_vel_
1549360010.750878,cobot_dynamixel_driver/goal|-:J1,J2,J3,J4,J5,J6:-0.000007,-0.200083,-0.000031,-0.000032,0.000023,0.000041:0.500000,0.500000,0.500000,0.500000,0.500000,0.500000:pos_vel_
1549360037.130693,cobot_dynamixel_driver/goal|-:J1,J2,J3,J4,J5,J6:-0.000007,-0.250106,-0.000031,-0.000032,0.000023,0.000041:0.500000,0.500000,0.500000,0.500000,0.500000,0.500000:pos_vel_
1549360045.907015,cobot_dynamixel_driver/goal|-:J1,J2,J3,J4,J5,J6:-0.000007,-0.300129,-0.000031,-0.000032,0.000023,0.000041:0.500000,0.500000,0.500000,0.500000,0.500000,0.500000:pos_vel_
1549360051.121268,cobot_dynamixel_driver/goal|-:J1,J2,J3,J4,J5,J6:-0.000007,-0.350152,-0.000031,-0.000032,0.000023,0.000041:0.500000,0.500000,0.500000,0.500000,0.500000,0.500000:pos_vel_
1549360064.485082,cobot_dynamixel_driver/goal|-:J1,J2,J3,J4,J5,J6:-0.000007,-0.400162,-0.000031,-0.000032,0.000023,0.000041:0.500000,0.500000,0.500000,0.500000,0.500000,0.500000:pos_vel_
1549360231.704537,cobot_dynamixel_driver/goal|-:J1,J2,J3,J4,J5,J6:0.000000,0.000000,0.000000,0.000000,0.000000,0.000000:0.500000,0.500000,0.500000,0.500000,0.500000,0.500000:pos_vel_
1549360268.375230,cobot_dynamixel_driver/goal|-:J2:0.000000:eff_
1549360268.466282,cobot_dynamixel_driver/goal|-:J1,J2,J3,J4,J5,J6:0.000000,0.523599,0.000000,0.000000,0.000000,0.000000:0.250000,0.250000,0.250000,0.250000,0.250000,0.250000:pos_vel_
1549360271.878299,cobot_dynamixel_driver/goal|-:J2:628.417969:eff_
1549360272.562804,cobot_dynamixel_driver/goal|-:J1,J2,J3,J4,J5,J6:0.000000,0.523599,0.000000,0.000000,0.000000,0.000000:0.250000,0.250000,0.250000,0.250000,0.250000,0.250000:pos_vel_
1549360273.383447,cobot_dynamixel_driver/goal|-:J2:638.417969:eff_
1549360273.961066,cobot_dynamixel_driver/goal|-:J1,J2,J3,J4,J5,J6:0.000000,0.523599,0.000000,0.000000,0.000000,0.000000:0.250000,0.250000,0.250000,0.250000,0.250000,0.250000:pos_vel_
1549360274.780457,cobot_dynamixel_driver/goal|-:J2:648.417969:eff_
1549360275.384390,cobot_dynamixel_driver/goal|-:J1,J2,J3,J4,J5,J6:0.000000,0.523599,0.000000,0.000000,0.000000,0.000000:0.250000,0.250000,0.250000,0.250000,0.250000,0.250000:pos_vel_
1549360276.284930,cobot_dynamixel_driver/goal|-:J2:658.417969:eff_
1549360276.889363,cobot_dynamixel_driver/goal|-:J1,J2,J3,J4,J5,J6:0.000000,0.523599,0.000000,0.000000,0.000000,0.000000:0.250000,0.250000,0.250000,0.250000,0.250000,0.250000:pos_vel_
1549360277.682752,cobot_dynamixel_driver/goal|-:J2:668.417969:eff_
1549360278.288750,cobot_dynamixel_driver/goal|-:J1,J2,J3,J4,J5,J6:0.000000,0.523599,0.000000,0.000000,0.000000,0.000000:0.250000,0.250000,0.250000,0.250000,0.250000,0.250000:pos_vel_
1549360279.084064,cobot_dynamixel_driver/goal|-:J2:678.417969:eff_
1549360279.688038,cobot_dynamixel_driver/goal|-:J1,J2,J3,J4,J5,J6:0.000000,0.523599,0.000000,0.000000,0.000000,0.000000:0.250000,0.250000,0.250000,0.250000,0.250000,0.250000:pos_vel_
1549360280.480540,cobot_dynamixel_driver/goal|-:J2:688.417969:eff_
1549360281.084170,cobot_dynamixel_driver/goal|-:J1,J2,J3,J4,J5,J6:0.000000,0.523599,0.000000,0.000000,0.000000,0.000000:0.250000,0.250000,0.250000,0.250000,0.250000,0.250000:pos_vel_
1549360281.877058,cobot_dynamixel_driver/goal|-:J2:698.417969:eff_
1549360282.481766,cobot_dynamixel_driver/goal|-:J1,J2,J3,J4,J5,J6:0.000000,0.523599,0.000000,0.000000,0.000000,0.000000:0.250000,0.250000,0.250000,0.250000,0.250000,0.250000:pos_vel_
1549360283.167078,cobot_dynamixel_driver/goal|-:J2:708.417969:eff_
1549360283.770883,cobot_dynamixel_driver/goal|-:J1,J2,J3,J4,J5,J6:0.000000,0.523599,0.000000,0.000000,0.000000,0.000000:0.250000,0.250000,0.250000,0.250000,0.250000,0.250000:pos_vel_
1549360284.591253,cobot_dynamixel_driver/goal|-:J2:718.417969:eff_
1549360285.168842,cobot_dynamixel_driver/goal|-:J1,J2,J3,J4,J5,J6:0.000000,0.523599,0.000000,0.000000,0.000000,0.000000:0.250000,0.250000,0.250000,0.250000,0.250000,0.250000:pos_vel_
1549360285.989362,cobot_dynamixel_driver/goal|-:J2:728.417969:eff_
1549360286.595050,cobot_dynamixel_driver/goal|-:J1,J2,J3,J4,J5,J6:0.000000,0.523599,0.000000,0.000000,0.000000,0.000000:0.250000,0.250000,0.250000,0.250000,0.250000,0.250000:pos_vel_
1549360287.470397,cobot_dynamixel_driver/goal|-:J2:738.417969:eff_
1549360288.077055,cobot_dynamixel_driver/goal|-:J1,J2,J3,J4,J5,J6:0.000000,0.523599,0.000000,0.000000,0.000000,0.000000:0.250000,0.250000,0.250000,0.250000,0.250000,0.250000:pos_vel_
1549360288.897714,cobot_dynamixel_driver/goal|-:J2:748.417969:eff_
1549360289.475330,cobot_dynamixel_driver/goal|-:J1,J2,J3,J4,J5,J6:0.000000,0.523599,0.000000,0.000000,0.000000,0.000000:0.250000,0.250000,0.250000,0.250000,0.250000,0.250000:pos_vel_
1549360290.186876,cobot_dynamixel_driver/goal|-:J2:758.417969:eff_
1549360290.792722,cobot_dynamixel_driver/goal|-:J1,J2,J3,J4,J5,J6:0.000000,0.523599,0.000000,0.000000,0.000000,0.000000:0.250000,0.250000,0.250000,0.250000,0.250000,0.250000:pos_vel_
1549360291.585148,cobot_dynamixel_driver/goal|-:J2:768.417969:eff_
1549360292.190878,cobot_dynamixel_driver/goal|-:J1,J2,J3,J4,J5,J6:0.000000,0.523599,0.000000,0.000000,0.000000,0.000000:0.250000,0.250000,0.250000,0.250000,0.250000,0.250000:pos_vel_
1549360292.985638,cobot_dynamixel_driver/goal|-:J2:778.417969:eff_
1549360293.590302,cobot_dynamixel_driver/goal|-:J1,J2,J3,J4,J5,J6:0.000000,0.523599,0.000000,0.000000,0.000000,0.000000:0.250000,0.250000,0.250000,0.250000,0.250000,0.250000:pos_vel_
1549360294.383890,cobot_dynamixel_driver/goal|-:J2:788.417969:eff_
1549360294.988518,cobot_dynamixel_driver/goal|-:J1,J2,J3,J4,J5,J6:0.000000,0.523599,0.000000,0.000000,0.000000,0.000000:0.250000,0.250000,0.250000,0.250000,0.250000,0.250000:pos_vel_
1549360295.782090,cobot_dynamixel_driver/goal|-:J2:798.417969:eff_
1549360296.386087,cobot_dynamixel_driver/goal|-:J1,J2,J3,J4,J5,J6:0.000000,0.523599,0.000000,0.000000,0.000000,0.000000:0.250000,0.250000,0.250000,0.250000,0.250000,0.250000:pos_vel_
1549360297.097435,cobot_dynamixel_driver/goal|-:J2:808.417969:eff_
1549360297.703121,cobot_dynamixel_driver/goal|-:J1,J2,J3,J4,J5,J6:0.000000,0.523599,0.000000,0.000000,0.000000,0.000000:0.250000,0.250000,0.250000,0.250000,0.250000,0.250000:pos_vel_
1549360298.496573,cobot_dynamixel_driver/goal|-:J2:818.417969:eff_
1549360299.101140,cobot_dynamixel_driver/goal|-:J1,J2,J3,J4,J5,J6:0.000000,0.523599,0.000000,0.000000,0.000000,0.000000:0.250000,0.250000,0.250000,0.250000,0.250000,0.250000:pos_vel_
1549360300.004715,cobot_dynamixel_driver/goal|-:J2:828.417969:eff_
1549360300.581308,cobot_dynamixel_driver/goal|-:J1,J2,J3,J4,J5,J6:0.000000,0.523599,0.000000,0.000000,0.000000,0.000000:0.250000,0.250000,0.250000,0.250000,0.250000,0.250000:pos_vel_
1549360301.402701,cobot_dynamixel_driver/goal|-:J2:838.417969:eff_
1549360302.006261,cobot_dynamixel_driver/goal|-:J1,J2,J3,J4,J5,J6:0.000000,0.523599,0.000000,0.000000,0.000000,0.000000:0.250000,0.250000,0.250000,0.250000,0.250000,0.250000:pos_vel_
1549360302.800284,cobot_dynamixel_driver/goal|-:J2:848.417969:eff_
1549360303.405136,cobot_dynamixel_driver/goal|-:J1,J2,J3,J4,J5,J6:0.000000,0.523599,0.000000,0.000000,0.000000,0.000000:0.250000,0.250000,0.250000,0.250000,0.250000,0.250000:pos_vel_
1549360304.090192,cobot_dynamixel_driver/goal|-:J2:858.417969:eff_
1549360304.694938,cobot_dynamixel_driver/goal|-:J1,J2,J3,J4,J5,J6:0.000000,0.523599,0.000000,0.000000,0.000000,0.000000:0.250000,0.250000,0.250000,0.250000,0.250000,0.250000:pos_vel_
1549360305.407690,cobot_dynamixel_driver/goal|-:J2:868.417969:eff_
1549360305.985325,cobot_dynamixel_driver/goal|-:J1,J2,J3,J4,J5,J6:0.000000,0.523599,0.000000,0.000000,0.000000,0.000000:0.250000,0.250000,0.250000,0.250000,0.250000,0.250000:pos_vel_
1549360306.593102,cobot_dynamixel_driver/goal|-:J2:878.417969:eff_
1549360307.197910,cobot_dynamixel_driver/goal|-:J1,J2,J3,J4,J5,J6:0.000000,0.523599,0.000000,0.000000,0.000000,0.000000:0.250000,0.250000,0.250000,0.250000,0.250000,0.250000:pos_vel_
1549360308.098381,cobot_dynamixel_driver/goal|-:J2:888.417969:eff_
1549360308.702388,cobot_dynamixel_driver/goal|-:J2:878.417969:eff_
1549360309.296814,cobot_dynamixel_driver/goal|-:J2:868.417969:eff_
1549360309.891533,cobot_dynamixel_driver/goal|-:J2:858.417969:eff_
1549360310.512209,cobot_dynamixel_driver/goal|-:J2:848.417969:eff_
1549360311.107825,cobot_dynamixel_driver/goal|-:J2:838.417969:eff_
1549360311.701371,cobot_dynamixel_driver/goal|-:J2:828.417969:eff_
1549360312.295145,cobot_dynamixel_driver/goal|-:J2:818.417969:eff_
1549360312.917777,cobot_dynamixel_driver/goal|-:J2:808.417969:eff_
1549360313.511681,cobot_dynamixel_driver/goal|-:J2:798.417969:eff_
1549360314.105884,cobot_dynamixel_driver/goal|-:J2:788.417969:eff_
1549360314.699420,cobot_dynamixel_driver/goal|-:J2:778.417969:eff_
1549360315.322114,cobot_dynamixel_driver/goal|-:J2:768.417969:eff_
1549360315.918012,cobot_dynamixel_driver/goal|-:J2:758.417969:eff_
1549360316.512644,cobot_dynamixel_driver/goal|-:J2:748.417969:eff_
1549360317.107095,cobot_dynamixel_driver/goal|-:J2:738.417969:eff_
1549360317.701773,cobot_dynamixel_driver/goal|-:J2:728.417969:eff_
1549360318.323907,cobot_dynamixel_driver/goal|-:J2:718.417969:eff_
1549360318.919172,cobot_dynamixel_driver/goal|-:J2:708.417969:eff_
1549360319.514018,cobot_dynamixel_driver/goal|-:J2:698.417969:eff_
1549360320.107830,cobot_dynamixel_driver/goal|-:J2:688.417969:eff_
1549360320.728554,cobot_dynamixel_driver/goal|-:J2:678.417969:eff_
1549360321.322140,cobot_dynamixel_driver/goal|-:J2:668.417969:eff_
1549360321.917198,cobot_dynamixel_driver/goal|-:J2:658.417969:eff_
1549360322.511901,cobot_dynamixel_driver/goal|-:J2:648.417969:eff_
1549360323.132288,cobot_dynamixel_driver/goal|-:J2:638.417969:eff_
1549360323.725817,cobot_dynamixel_driver/goal|-:J2:628.417969:eff_
1549360324.320814,cobot_dynamixel_driver/goal|-:J2:618.417969:eff_
1549360324.914989,cobot_dynamixel_driver/goal|-:J2:608.417969:eff_
1549360325.536668,cobot_dynamixel_driver/goal|-:J2:0.000000:eff_
1549360325.617685,cobot_dynamixel_driver/goal|-:J1,J2,J3,J4,J5,J6:0.000000,0.523599,0.000000,0.000000,0.000000,0.000000:0.250000,0.250000,0.250000,0.250000,0.250000,0.250000:pos_vel_
1549360327.842280,cobot_dynamixel_driver/goal|-:J2:0.000000:eff_
1549360327.933227,cobot_dynamixel_driver/goal|-:J1,J2,J3,J4,J5,J6:0.000000,0.523599,0.000000,0.000000,0.000000,0.000000:0.250000,0.250000,0.250000,0.250000,0.250000,0.250000:pos_vel_
1549360329.240447,cobot_dynamixel_driver/goal|-:J2:1611.328125:eff_
1549360329.926103,cobot_dynamixel_driver/goal|-:J2:1621.328125:eff_
1549360330.548877,cobot_dynamixel_driver/goal|-:J2:1631.328125:eff_
1549360331.142517,cobot_dynamixel_driver/goal|-:J2:1641.328125:eff_
1549360331.737214,cobot_dynamixel_driver/goal|-:J2:1651.328125:eff_
1549360332.332865,cobot_dynamixel_driver/goal|-:J2:1661.328125:eff_
1549360332.927583,cobot_dynamixel_driver/goal|-:J2:1671.328125:eff_
1549360333.548433,cobot_dynamixel_driver/goal|-:J2:1681.328125:eff_
1549360334.142076,cobot_dynamixel_driver/goal|-:J2:1691.328125:eff_
1549360334.739782,cobot_dynamixel_driver/goal|-:J2:1701.328125:eff_
1549360335.334495,cobot_dynamixel_driver/goal|-:J2:1711.328125:eff_
1549360335.955229,cobot_dynamixel_driver/goal|-:J2:1721.328125:eff_
1549360336.550774,cobot_dynamixel_driver/goal|-:J2:1731.328125:eff_
1549360337.146483,cobot_dynamixel_driver/goal|-:J2:1741.328125:eff_
1549360337.741295,cobot_dynamixel_driver/goal|-:J2:1751.328125:eff_
1549360338.334699,cobot_dynamixel_driver/goal|-:J2:1761.328125:eff_
1549360338.956763,cobot_dynamixel_driver/goal|-:J2:1771.328125:eff_
1549360339.550875,cobot_dynamixel_driver/goal|-:J2:1781.328125:eff_
1549360340.145549,cobot_dynamixel_driver/goal|-:J2:1791.328125:eff_
1549360340.740543,cobot_dynamixel_driver/goal|-:J2:1801.328125:eff_
1549360341.362124,cobot_dynamixel_driver/goal|-:J2:1811.328125:eff_
1549360341.955479,cobot_dynamixel_driver/goal|-:J2:1821.328125:eff_
1549360342.549147,cobot_dynamixel_driver/goal|-:J2:1831.328125:eff_
1549360343.144916,cobot_dynamixel_driver/goal|-:J2:1841.328125:eff_
1549360343.766498,cobot_dynamixel_driver/goal|-:J2:1851.328125:eff_
1549360344.360323,cobot_dynamixel_driver/goal|-:J2:1861.328125:eff_
1549360344.956952,cobot_dynamixel_driver/goal|-:J2:1871.328125:eff_
1549360345.551539,cobot_dynamixel_driver/goal|-:J2:1881.328125:eff_
1549360346.146665,cobot_dynamixel_driver/goal|-:J2:1891.328125:eff_
1549360346.768267,cobot_dynamixel_driver/goal|-:J2:1901.328125:eff_
1549360347.364136,cobot_dynamixel_driver/goal|-:J2:1911.328125:eff_
1549360347.958716,cobot_dynamixel_driver/goal|-:J2:1921.328125:eff_
1549360348.552198,cobot_dynamixel_driver/goal|-:J2:1931.328125:eff_
1549360349.173832,cobot_dynamixel_driver/goal|-:J2:1941.328125:eff_
1549360349.767409,cobot_dynamixel_driver/goal|-:J2:1951.328125:eff_
1549360350.361208,cobot_dynamixel_driver/goal|-:J2:0.000000:eff_
1549360350.469407,cobot_dynamixel_driver/goal|-:J1,J2,J3,J4,J5,J6:0.000000,0.523599,0.000000,0.000000,0.000000,0.000000:0.250000,0.250000,0.250000,0.250000,0.250000,0.250000:pos_vel_
1549360353.071960,cobot_dynamixel_driver/goal|-:J2:0.000000:eff_
1549360353.190890,cobot_dynamixel_driver/goal|-:J1,J2,J3,J4,J5,J6:0.000000,0.436332,0.000000,0.000000,0.000000,0.000000:0.250000,0.250000,0.250000,0.250000,0.250000,0.250000:pos_vel_
1549360354.876835,cobot_dynamixel_driver/goal|-:J2:1434.082031:eff_
1549360355.590005,cobot_dynamixel_driver/goal|-:J2:1424.082031:eff_
1549360356.183734,cobot_dynamixel_driver/goal|-:J2:1414.082031:eff_
1549360356.777362,cobot_dynamixel_driver/goal|-:J2:1404.082031:eff_
1549360357.373192,cobot_dynamixel_driver/goal|-:J2:1394.082031:eff_
1549360357.994149,cobot_dynamixel_driver/goal|-:J2:1384.082031:eff_
1549360358.589599,cobot_dynamixel_driver/goal|-:J2:1374.082031:eff_
1549360359.184323,cobot_dynamixel_driver/goal|-:J2:1364.082031:eff_
1549360359.778063,cobot_dynamixel_driver/goal|-:J2:1354.082031:eff_
1549360360.398869,cobot_dynamixel_driver/goal|-:J2:1344.082031:eff_
1549360360.992453,cobot_dynamixel_driver/goal|-:J2:1334.082031:eff_
1549360361.586477,cobot_dynamixel_driver/goal|-:J2:1324.082031:eff_
1549360362.179876,cobot_dynamixel_driver/goal|-:J2:1314.082031:eff_
1549360362.800506,cobot_dynamixel_driver/goal|-:J2:1304.082031:eff_
1549360363.394113,cobot_dynamixel_driver/goal|-:J2:1294.082031:eff_
1549360363.989704,cobot_dynamixel_driver/goal|-:J2:1284.082031:eff_
1549360364.583633,cobot_dynamixel_driver/goal|-:J2:1274.082031:eff_
1549360365.206146,cobot_dynamixel_driver/goal|-:J2:1264.082031:eff_
1549360365.799982,cobot_dynamixel_driver/goal|-:J2:1254.082031:eff_
1549360366.393623,cobot_dynamixel_driver/goal|-:J2:1244.082031:eff_
1549360366.986998,cobot_dynamixel_driver/goal|-:J2:1234.082031:eff_
1549360367.608575,cobot_dynamixel_driver/goal|-:J2:1224.082031:eff_
1549360368.203259,cobot_dynamixel_driver/goal|-:J2:1214.082031:eff_
1549360368.797932,cobot_dynamixel_driver/goal|-:J2:1204.082031:eff_
1549360369.392519,cobot_dynamixel_driver/goal|-:J2:1194.082031:eff_
1549360370.014261,cobot_dynamixel_driver/goal|-:J2:1184.082031:eff_
1549360370.610064,cobot_dynamixel_driver/goal|-:J2:1174.082031:eff_
1549360371.204060,cobot_dynamixel_driver/goal|-:J2:1164.082031:eff_
1549360371.797732,cobot_dynamixel_driver/goal|-:J2:1154.082031:eff_
1549360372.391184,cobot_dynamixel_driver/goal|-:J2:1144.082031:eff_
1549360373.011920,cobot_dynamixel_driver/goal|-:J2:1134.082031:eff_
1549360373.606977,cobot_dynamixel_driver/goal|-:J2:1124.082031:eff_
1549360374.201423,cobot_dynamixel_driver/goal|-:J2:1114.082031:eff_
1549360374.795991,cobot_dynamixel_driver/goal|-:J2:1104.082031:eff_
1549360375.417939,cobot_dynamixel_driver/goal|-:J2:1094.082031:eff_
1549360376.013287,cobot_dynamixel_driver/goal|-:J2:1084.082031:eff_
1549360376.607881,cobot_dynamixel_driver/goal|-:J2:1074.082031:eff_
1549360377.202630,cobot_dynamixel_driver/goal|-:J2:1064.082031:eff_
1549360377.823009,cobot_dynamixel_driver/goal|-:J2:1054.082031:eff_
1549360378.418655,cobot_dynamixel_driver/goal|-:J2:1044.082031:eff_
1549360379.012304,cobot_dynamixel_driver/goal|-:J2:1034.082031:eff_
1549360379.607032,cobot_dynamixel_driver/goal|-:J2:1024.082031:eff_
1549360380.201540,cobot_dynamixel_driver/goal|-:J2:1014.082031:eff_
1549360380.823217,cobot_dynamixel_driver/goal|-:J2:1004.082031:eff_
1549360381.417035,cobot_dynamixel_driver/goal|-:J2:994.082031:eff_
1549360382.012703,cobot_dynamixel_driver/goal|-:J2:984.082031:eff_
1549360382.606201,cobot_dynamixel_driver/goal|-:J2:974.082031:eff_
1549360383.226860,cobot_dynamixel_driver/goal|-:J2:964.082031:eff_
1549360383.820678,cobot_dynamixel_driver/goal|-:J2:954.082031:eff_
1549360384.415380,cobot_dynamixel_driver/goal|-:J2:944.082031:eff_
1549360385.010082,cobot_dynamixel_driver/goal|-:J2:934.082031:eff_
1549360385.633359,cobot_dynamixel_driver/goal|-:J2:924.082031:eff_
1549360386.228973,cobot_dynamixel_driver/goal|-:J2:914.082031:eff_
1549360386.822201,cobot_dynamixel_driver/goal|-:J2:904.082031:eff_
1549360387.415986,cobot_dynamixel_driver/goal|-:J2:894.082031:eff_
1549360388.037602,cobot_dynamixel_driver/goal|-:J2:884.082031:eff_
1549360388.632413,cobot_dynamixel_driver/goal|-:J2:874.082031:eff_
1549360389.227323,cobot_dynamixel_driver/goal|-:J2:864.082031:eff_
1549360389.821783,cobot_dynamixel_driver/goal|-:J2:854.082031:eff_
1549360390.442330,cobot_dynamixel_driver/goal|-:J2:844.082031:eff_
1549360391.037121,cobot_dynamixel_driver/goal|-:J2:834.082031:eff_
1549360391.630804,cobot_dynamixel_driver/goal|-:J2:824.082031:eff_
1549360392.225176,cobot_dynamixel_driver/goal|-:J2:814.082031:eff_
1549360392.845755,cobot_dynamixel_driver/goal|-:J2:804.082031:eff_
1549360393.439627,cobot_dynamixel_driver/goal|-:J2:794.082031:eff_
1549360394.034105,cobot_dynamixel_driver/goal|-:J2:784.082031:eff_
1549360394.627771,cobot_dynamixel_driver/goal|-:J2:774.082031:eff_
1549360395.248553,cobot_dynamixel_driver/goal|-:J2:764.082031:eff_
1549360395.843232,cobot_dynamixel_driver/goal|-:J2:754.082031:eff_
1549360396.436746,cobot_dynamixel_driver/goal|-:J2:744.082031:eff_
1549360397.030547,cobot_dynamixel_driver/goal|-:J2:734.082031:eff_
1549360397.651189,cobot_dynamixel_driver/goal|-:J2:724.082031:eff_
1549360398.244967,cobot_dynamixel_driver/goal|-:J2:714.082031:eff_
1549360398.838714,cobot_dynamixel_driver/goal|-:J2:704.082031:eff_
1549360399.433473,cobot_dynamixel_driver/goal|-:J2:694.082031:eff_
1549360400.055210,cobot_dynamixel_driver/goal|-:J2:684.082031:eff_
1549360400.649906,cobot_dynamixel_driver/goal|-:J2:674.082031:eff_
1549360401.243511,cobot_dynamixel_driver/goal|-:J2:664.082031:eff_
1549360401.838423,cobot_dynamixel_driver/goal|-:J2:654.082031:eff_
1549360402.433110,cobot_dynamixel_driver/goal|-:J2:644.082031:eff_
1549360403.054623,cobot_dynamixel_driver/goal|-:J2:634.082031:eff_
1549360403.650115,cobot_dynamixel_driver/goal|-:J2:624.082031:eff_
1549360404.243768,cobot_dynamixel_driver/goal|-:J2:614.082031:eff_
1549360404.837323,cobot_dynamixel_driver/goal|-:J2:604.082031:eff_
1549360405.458959,cobot_dynamixel_driver/goal|-:J2:594.082031:eff_
1549360406.053566,cobot_dynamixel_driver/goal|-:J2:584.082031:eff_
1549360406.648178,cobot_dynamixel_driver/goal|-:J2:574.082031:eff_
1549360407.241842,cobot_dynamixel_driver/goal|-:J2:564.082031:eff_
1549360407.862549,cobot_dynamixel_driver/goal|-:J2:554.082031:eff_
1549360408.456138,cobot_dynamixel_driver/goal|-:J2:544.082031:eff_
1549360409.051880,cobot_dynamixel_driver/goal|-:J2:534.082031:eff_
1549360409.646485,cobot_dynamixel_driver/goal|-:J2:524.082031:eff_
1549360410.268264,cobot_dynamixel_driver/goal|-:J2:514.082031:eff_
1549360410.862999,cobot_dynamixel_driver/goal|-:J2:504.082031:eff_
1549360411.457761,cobot_dynamixel_driver/goal|-:J2:494.082031:eff_
1549360412.052535,cobot_dynamixel_driver/goal|-:J2:484.082031:eff_
1549360412.646168,cobot_dynamixel_driver/goal|-:J2:474.082031:eff_
1549360413.266860,cobot_dynamixel_driver/goal|-:J2:464.082031:eff_
1549360414.158319,cobot_dynamixel_driver/goal|-:J2:0.000000:eff_
1549360414.239400,cobot_dynamixel_driver/goal|-:J1,J2,J3,J4,J5,J6:0.000000,0.436332,0.000000,0.000000,0.000000,0.000000:0.250000,0.250000,0.250000,0.250000,0.250000,0.250000:pos_vel_
1549360416.355065,cobot_dynamixel_driver/goal|-:J2:0.000000:eff_
1549360416.473512,cobot_dynamixel_driver/goal|-:J1,J2,J3,J4,J5,J6:0.000000,0.436332,0.000000,0.000000,0.000000,0.000000:0.250000,0.250000,0.250000,0.250000,0.250000,0.250000:pos_vel_
1549360417.754386,cobot_dynamixel_driver/goal|-:J2:1417.968750:eff_
1549360418.466915,cobot_dynamixel_driver/goal|-:J2:1427.968750:eff_
1549360419.060435,cobot_dynamixel_driver/goal|-:J2:1437.968750:eff_
1549360419.654057,cobot_dynamixel_driver/goal|-:J2:1447.968750:eff_
1549360420.274832,cobot_dynamixel_driver/goal|-:J2:1457.968750:eff_
1549360420.868428,cobot_dynamixel_driver/goal|-:J2:1467.968750:eff_
1549360421.463057,cobot_dynamixel_driver/goal|-:J2:1477.968750:eff_
1549360422.057654,cobot_dynamixel_driver/goal|-:J2:1487.968750:eff_
1549360422.680578,cobot_dynamixel_driver/goal|-:J2:1497.968750:eff_
1549360423.275092,cobot_dynamixel_driver/goal|-:J2:1507.968750:eff_
1549360423.869849,cobot_dynamixel_driver/goal|-:J2:1517.968750:eff_
1549360424.465523,cobot_dynamixel_driver/goal|-:J2:1527.968750:eff_
1549360425.059350,cobot_dynamixel_driver/goal|-:J2:1537.968750:eff_
1549360425.680153,cobot_dynamixel_driver/goal|-:J2:1547.968750:eff_
1549360426.277060,cobot_dynamixel_driver/goal|-:J2:1557.968750:eff_
1549360426.870369,cobot_dynamixel_driver/goal|-:J2:1567.968750:eff_
1549360427.466360,cobot_dynamixel_driver/goal|-:J2:1577.968750:eff_
1549360428.087889,cobot_dynamixel_driver/goal|-:J2:1587.968750:eff_
1549360428.681506,cobot_dynamixel_driver/goal|-:J2:1597.968750:eff_
1549360429.277127,cobot_dynamixel_driver/goal|-:J2:1607.968750:eff_
1549360429.871001,cobot_dynamixel_driver/goal|-:J2:1617.968750:eff_
1549360430.465405,cobot_dynamixel_driver/goal|-:J2:1627.968750:eff_
1549360431.086872,cobot_dynamixel_driver/goal|-:J2:1637.968750:eff_
1549360431.681853,cobot_dynamixel_driver/goal|-:J2:1647.968750:eff_
1549360432.276160,cobot_dynamixel_driver/goal|-:J2:1657.968750:eff_
1549360432.869861,cobot_dynamixel_driver/goal|-:J2:1667.968750:eff_
1549360433.492479,cobot_dynamixel_driver/goal|-:J2:1677.968750:eff_
1549360434.113263,cobot_dynamixel_driver/goal|-:J2:0.000000:eff_
1549360434.195151,cobot_dynamixel_driver/goal|-:J1,J2,J3,J4,J5,J6:0.000000,0.436332,0.000000,0.000000,0.000000,0.000000:0.250000,0.250000,0.250000,0.250000,0.250000,0.250000:pos_vel_
1549360436.015134,cobot_dynamixel_driver/goal|-:J2:0.000000:eff_
1549360436.133613,cobot_dynamixel_driver/goal|-:J1,J2,J3,J4,J5,J6:0.000000,0.349066,0.000000,0.000000,0.000000,0.000000:0.250000,0.250000,0.250000,0.250000,0.250000,0.250000:pos_vel_
1549360437.817291,cobot_dynamixel_driver/goal|-:J2:1369.628906:eff_
1549360439.529432,cobot_dynamixel_driver/goal|-:J2:0.000000:eff_
1549360439.611440,cobot_dynamixel_driver/goal|-:J1,J2,J3,J4,J5,J6:0.000000,0.349066,0.000000,0.000000,0.000000,0.000000:0.250000,0.250000,0.250000,0.250000,0.250000,0.250000:pos_vel_
1549360440.217064,cobot_dynamixel_driver/goal|-:J2:1359.628906:eff_
1549360441.820063,cobot_dynamixel_driver/goal|-:J2:0.000000:eff_
1549360441.928118,cobot_dynamixel_driver/goal|-:J1,J2,J3,J4,J5,J6:0.000000,0.349066,0.000000,0.000000,0.000000,0.000000:0.250000,0.250000,0.250000,0.250000,0.250000,0.250000:pos_vel_
1549360442.721637,cobot_dynamixel_driver/goal|-:J2:1349.628906:eff_
1549360444.323691,cobot_dynamixel_driver/goal|-:J2:0.000000:eff_
1549360444.431653,cobot_dynamixel_driver/goal|-:J1,J2,J3,J4,J5,J6:0.000000,0.349066,0.000000,0.000000,0.000000,0.000000:0.250000,0.250000,0.250000,0.250000,0.250000,0.250000:pos_vel_
1549360445.117420,cobot_dynamixel_driver/goal|-:J2:1339.628906:eff_
1549360446.720386,cobot_dynamixel_driver/goal|-:J2:0.000000:eff_
1549360446.828377,cobot_dynamixel_driver/goal|-:J1,J2,J3,J4,J5,J6:0.000000,0.349066,0.000000,0.000000,0.000000,0.000000:0.250000,0.250000,0.250000,0.250000,0.250000,0.250000:pos_vel_
1549360447.540988,cobot_dynamixel_driver/goal|-:J2:1329.628906:eff_
1549360449.117223,cobot_dynamixel_driver/goal|-:J2:0.000000:eff_
1549360449.225503,cobot_dynamixel_driver/goal|-:J1,J2,J3,J4,J5,J6:0.000000,0.349066,0.000000,0.000000,0.000000,0.000000:0.250000,0.250000,0.250000,0.250000,0.250000,0.250000:pos_vel_
1549360449.937944,cobot_dynamixel_driver/goal|-:J2:1319.628906:eff_
1549360450.542596,cobot_dynamixel_driver/goal|-:J2:1309.628906:eff_
1549360451.138451,cobot_dynamixel_driver/goal|-:J2:1299.628906:eff_
1549360451.733126,cobot_dynamixel_driver/goal|-:J2:1289.628906:eff_
1549360452.327925,cobot_dynamixel_driver/goal|-:J2:1279.628906:eff_
1549360452.921504,cobot_dynamixel_driver/goal|-:J2:1269.628906:eff_
1549360453.542351,cobot_dynamixel_driver/goal|-:J2:1259.628906:eff_
1549360454.137940,cobot_dynamixel_driver/goal|-:J2:1249.628906:eff_
1549360454.731726,cobot_dynamixel_driver/goal|-:J2:1239.628906:eff_
1549360455.325258,cobot_dynamixel_driver/goal|-:J2:1229.628906:eff_
1549360455.945956,cobot_dynamixel_driver/goal|-:J2:1219.628906:eff_
1549360456.540363,cobot_dynamixel_driver/goal|-:J2:1209.628906:eff_
1549360457.134064,cobot_dynamixel_driver/goal|-:J2:1199.628906:eff_
1549360457.728627,cobot_dynamixel_driver/goal|-:J2:1189.628906:eff_
1549360458.349646,cobot_dynamixel_driver/goal|-:J2:1179.628906:eff_
1549360458.943863,cobot_dynamixel_driver/goal|-:J2:1169.628906:eff_
1549360459.538516,cobot_dynamixel_driver/goal|-:J2:1159.628906:eff_
1549360460.135269,cobot_dynamixel_driver/goal|-:J2:1149.628906:eff_
1549360460.732016,cobot_dynamixel_driver/goal|-:J2:1139.628906:eff_
1549360461.352672,cobot_dynamixel_driver/goal|-:J2:1129.628906:eff_
1549360461.946348,cobot_dynamixel_driver/goal|-:J2:1119.628906:eff_
1549360462.539993,cobot_dynamixel_driver/goal|-:J2:1109.628906:eff_
1549360463.136008,cobot_dynamixel_driver/goal|-:J2:1099.628906:eff_
1549360463.758474,cobot_dynamixel_driver/goal|-:J2:1089.628906:eff_
1549360464.353155,cobot_dynamixel_driver/goal|-:J2:1079.628906:eff_
1549360464.946901,cobot_dynamixel_driver/goal|-:J2:1069.628906:eff_
1549360465.540524,cobot_dynamixel_driver/goal|-:J2:1059.628906:eff_
1549360466.161275,cobot_dynamixel_driver/goal|-:J2:1049.628906:eff_
1549360466.755078,cobot_dynamixel_driver/goal|-:J2:1039.628906:eff_
1549360467.350120,cobot_dynamixel_driver/goal|-:J2:1029.628906:eff_
1549360467.944310,cobot_dynamixel_driver/goal|-:J2:1019.628906:eff_
1549360468.566202,cobot_dynamixel_driver/goal|-:J2:1009.628906:eff_
1549360469.160846,cobot_dynamixel_driver/goal|-:J2:999.628906:eff_
1549360469.754447,cobot_dynamixel_driver/goal|-:J2:989.628906:eff_
1549360470.349929,cobot_dynamixel_driver/goal|-:J2:979.628906:eff_
1549360470.944454,cobot_dynamixel_driver/goal|-:J2:969.628906:eff_
1549360471.565579,cobot_dynamixel_driver/goal|-:J2:959.628906:eff_
1549360472.160076,cobot_dynamixel_driver/goal|-:J2:949.628906:eff_
1549360472.753492,cobot_dynamixel_driver/goal|-:J2:939.628906:eff_
1549360473.374146,cobot_dynamixel_driver/goal|-:J2:929.628906:eff_
1549360473.969748,cobot_dynamixel_driver/goal|-:J2:919.628906:eff_
1549360474.564527,cobot_dynamixel_driver/goal|-:J2:909.628906:eff_
1549360475.161170,cobot_dynamixel_driver/goal|-:J2:899.628906:eff_
1549360475.755928,cobot_dynamixel_driver/goal|-:J2:889.628906:eff_
1549360476.377689,cobot_dynamixel_driver/goal|-:J2:879.628906:eff_
1549360476.972462,cobot_dynamixel_driver/goal|-:J2:869.628906:eff_
1549360477.566152,cobot_dynamixel_driver/goal|-:J2:859.628906:eff_
1549360478.160987,cobot_dynamixel_driver/goal|-:J2:849.628906:eff_
1549360478.781483,cobot_dynamixel_driver/goal|-:J2:839.628906:eff_
1549360479.376152,cobot_dynamixel_driver/goal|-:J2:829.628906:eff_
1549360479.969787,cobot_dynamixel_driver/goal|-:J2:819.628906:eff_
1549360480.563602,cobot_dynamixel_driver/goal|-:J2:809.628906:eff_
1549360481.184322,cobot_dynamixel_driver/goal|-:J2:799.628906:eff_
1549360481.777808,cobot_dynamixel_driver/goal|-:J2:789.628906:eff_
1549360482.371587,cobot_dynamixel_driver/goal|-:J2:779.628906:eff_
1549360482.966056,cobot_dynamixel_driver/goal|-:J2:769.628906:eff_
1549360483.586727,cobot_dynamixel_driver/goal|-:J2:759.628906:eff_
1549360484.181392,cobot_dynamixel_driver/goal|-:J2:749.628906:eff_
1549360484.775975,cobot_dynamixel_driver/goal|-:J2:739.628906:eff_
1549360485.370747,cobot_dynamixel_driver/goal|-:J2:729.628906:eff_
1549360485.991808,cobot_dynamixel_driver/goal|-:J2:719.628906:eff_
1549360486.586170,cobot_dynamixel_driver/goal|-:J2:709.628906:eff_
1549360487.179819,cobot_dynamixel_driver/goal|-:J2:699.628906:eff_
1549360487.774572,cobot_dynamixel_driver/goal|-:J2:689.628906:eff_
1549360488.369309,cobot_dynamixel_driver/goal|-:J2:679.628906:eff_
1549360488.989909,cobot_dynamixel_driver/goal|-:J2:669.628906:eff_
1549360489.583649,cobot_dynamixel_driver/goal|-:J2:659.628906:eff_
1549360490.178363,cobot_dynamixel_driver/goal|-:J2:649.628906:eff_
1549360490.773089,cobot_dynamixel_driver/goal|-:J2:639.628906:eff_
1549360491.393787,cobot_dynamixel_driver/goal|-:J2:629.628906:eff_
1549360491.988537,cobot_dynamixel_driver/goal|-:J2:619.628906:eff_
1549360492.583156,cobot_dynamixel_driver/goal|-:J2:609.628906:eff_
1549360493.176805,cobot_dynamixel_driver/goal|-:J2:599.628906:eff_
1549360493.798524,cobot_dynamixel_driver/goal|-:J2:589.628906:eff_
1549360494.392241,cobot_dynamixel_driver/goal|-:J2:579.628906:eff_
1549360494.985736,cobot_dynamixel_driver/goal|-:J2:569.628906:eff_
1549360495.580266,cobot_dynamixel_driver/goal|-:J2:559.628906:eff_
1549360496.201004,cobot_dynamixel_driver/goal|-:J2:549.628906:eff_
1549360496.795654,cobot_dynamixel_driver/goal|-:J2:539.628906:eff_
1549360497.392190,cobot_dynamixel_driver/goal|-:J2:529.628906:eff_
1549360497.986832,cobot_dynamixel_driver/goal|-:J2:519.628906:eff_
1549360498.608480,cobot_dynamixel_driver/goal|-:J2:509.628906:eff_
1549360499.203155,cobot_dynamixel_driver/goal|-:J2:499.628906:eff_
1549360499.796678,cobot_dynamixel_driver/goal|-:J2:489.628906:eff_
1549360500.390433,cobot_dynamixel_driver/goal|-:J2:479.628906:eff_
1549360501.523755,cobot_dynamixel_driver/goal|-:J2:0.000000:eff_
1549360501.604939,cobot_dynamixel_driver/goal|-:J1,J2,J3,J4,J5,J6:0.000000,0.349066,0.000000,0.000000,0.000000,0.000000:0.250000,0.250000,0.250000,0.250000,0.250000,0.250000:pos_vel_
1549360503.613981,cobot_dynamixel_driver/goal|-:J2:0.000000:eff_
1549360503.732388,cobot_dynamixel_driver/goal|-:J1,J2,J3,J4,J5,J6:0.000000,0.349066,0.000000,0.000000,0.000000,0.000000:0.250000,0.250000,0.250000,0.250000,0.250000,0.250000:pos_vel_
1549360504.930479,cobot_dynamixel_driver/goal|-:J2:1289.062500:eff_
1549360506.613382,cobot_dynamixel_driver/goal|-:J2:0.000000:eff_
1549360506.722404,cobot_dynamixel_driver/goal|-:J1,J2,J3,J4,J5,J6:0.000000,0.349066,0.000000,0.000000,0.000000,0.000000:0.250000,0.250000,0.250000,0.250000,0.250000,0.250000:pos_vel_
1549360507.435039,cobot_dynamixel_driver/goal|-:J2:1299.062500:eff_
1549360508.012622,cobot_dynamixel_driver/goal|-:J2:1309.062500:eff_
1549360508.634336,cobot_dynamixel_driver/goal|-:J2:1319.062500:eff_
1549360509.227872,cobot_dynamixel_driver/goal|-:J2:1329.062500:eff_
1549360509.823569,cobot_dynamixel_driver/goal|-:J2:1339.062500:eff_
1549360510.418218,cobot_dynamixel_driver/goal|-:J2:1349.062500:eff_
1549360511.039853,cobot_dynamixel_driver/goal|-:J2:1359.062500:eff_
1549360511.634731,cobot_dynamixel_driver/goal|-:J2:1369.062500:eff_
1549360512.228275,cobot_dynamixel_driver/goal|-:J2:1379.062500:eff_
1549360512.821746,cobot_dynamixel_driver/goal|-:J2:1389.062500:eff_
1549360513.443445,cobot_dynamixel_driver/goal|-:J2:1399.062500:eff_
1549360514.037149,cobot_dynamixel_driver/goal|-:J2:1409.062500:eff_
1549360514.631881,cobot_dynamixel_driver/goal|-:J2:1419.062500:eff_
1549360515.225651,cobot_dynamixel_driver/goal|-:J2:1429.062500:eff_
1549360515.820652,cobot_dynamixel_driver/goal|-:J2:1439.062500:eff_
1549360516.496944,cobot_dynamixel_driver/goal|-:J2:0.000000:eff_
1549360516.577983,cobot_dynamixel_driver/goal|-:J1,J2,J3,J4,J5,J6:0.000000,0.349066,0.000000,0.000000,0.000000,0.000000:0.250000,0.250000,0.250000,0.250000,0.250000,0.250000:pos_vel_
1549360518.289205,cobot_dynamixel_driver/goal|-:J2:0.000000:eff_
1549360518.407804,cobot_dynamixel_driver/goal|-:J1,J2,J3,J4,J5,J6:0.000000,0.261799,0.000000,0.000000,0.000000,0.000000:0.250000,0.250000,0.250000,0.250000,0.250000,0.250000:pos_vel_
1549360520.091232,cobot_dynamixel_driver/goal|-:J2:1289.062500:eff_
1549360520.802781,cobot_dynamixel_driver/goal|-:J2:1279.062500:eff_
1549360521.396779,cobot_dynamixel_driver/goal|-:J2:1269.062500:eff_
1549360521.991141,cobot_dynamixel_driver/goal|-:J2:1259.062500:eff_
1549360522.612707,cobot_dynamixel_driver/goal|-:J2:1249.062500:eff_
1549360523.207173,cobot_dynamixel_driver/goal|-:J2:1239.062500:eff_
1549360523.801811,cobot_dynamixel_driver/goal|-:J2:1229.062500:eff_
1549360524.396742,cobot_dynamixel_driver/goal|-:J2:1219.062500:eff_
1549360525.018077,cobot_dynamixel_driver/goal|-:J2:1209.062500:eff_
1549360525.611761,cobot_dynamixel_driver/goal|-:J2:1199.062500:eff_
1549360526.205452,cobot_dynamixel_driver/goal|-:J2:1189.062500:eff_
1549360526.799117,cobot_dynamixel_driver/goal|-:J2:1179.062500:eff_
1549360527.419741,cobot_dynamixel_driver/goal|-:J2:1169.062500:eff_
1549360528.013593,cobot_dynamixel_driver/goal|-:J2:1159.062500:eff_
1549360528.608246,cobot_dynamixel_driver/goal|-:J2:1149.062500:eff_
1549360529.201952,cobot_dynamixel_driver/goal|-:J2:1139.062500:eff_
1549360529.822749,cobot_dynamixel_driver/goal|-:J2:1129.062500:eff_
1549360530.416508,cobot_dynamixel_driver/goal|-:J2:1119.062500:eff_
1549360531.011225,cobot_dynamixel_driver/goal|-:J2:1109.062500:eff_
1549360531.605189,cobot_dynamixel_driver/goal|-:J2:1099.062500:eff_
1549360532.226512,cobot_dynamixel_driver/goal|-:J2:1089.062500:eff_
1549360532.821215,cobot_dynamixel_driver/goal|-:J2:1079.062500:eff_
1549360533.415846,cobot_dynamixel_driver/goal|-:J2:1069.062500:eff_
1549360534.010474,cobot_dynamixel_driver/goal|-:J2:1059.062500:eff_
1549360534.605000,cobot_dynamixel_driver/goal|-:J2:1049.062500:eff_
1549360535.225698,cobot_dynamixel_driver/goal|-:J2:1039.062500:eff_
1549360535.820326,cobot_dynamixel_driver/goal|-:J2:1029.062500:eff_
1549360536.413948,cobot_dynamixel_driver/goal|-:J2:1019.062500:eff_
1549360537.008663,cobot_dynamixel_driver/goal|-:J2:1009.062500:eff_
1549360537.629528,cobot_dynamixel_driver/goal|-:J2:999.062500:eff_
1549360538.223899,cobot_dynamixel_driver/goal|-:J2:989.062500:eff_
1549360538.818647,cobot_dynamixel_driver/goal|-:J2:979.062500:eff_
1549360539.412322,cobot_dynamixel_driver/goal|-:J2:969.062500:eff_
1549360540.034238,cobot_dynamixel_driver/goal|-:J2:959.062500:eff_
1549360540.628178,cobot_dynamixel_driver/goal|-:J2:949.062500:eff_
1549360541.223325,cobot_dynamixel_driver/goal|-:J2:939.062500:eff_
1549360541.819108,cobot_dynamixel_driver/goal|-:J2:929.062500:eff_
1549360542.441240,cobot_dynamixel_driver/goal|-:J2:919.062500:eff_
1549360543.036556,cobot_dynamixel_driver/goal|-:J2:909.062500:eff_
1549360543.631554,cobot_dynamixel_driver/goal|-:J2:899.062500:eff_
1549360544.227970,cobot_dynamixel_driver/goal|-:J2:889.062500:eff_
1549360544.821590,cobot_dynamixel_driver/goal|-:J2:879.062500:eff_
1549360545.442376,cobot_dynamixel_driver/goal|-:J2:869.062500:eff_
1549360546.036042,cobot_dynamixel_driver/goal|-:J2:859.062500:eff_
1549360546.630970,cobot_dynamixel_driver/goal|-:J2:849.062500:eff_
1549360547.225401,cobot_dynamixel_driver/goal|-:J2:839.062500:eff_
1549360547.846007,cobot_dynamixel_driver/goal|-:J2:829.062500:eff_
1549360548.440598,cobot_dynamixel_driver/goal|-:J2:819.062500:eff_
1549360549.034597,cobot_dynamixel_driver/goal|-:J2:809.062500:eff_
1549360549.627861,cobot_dynamixel_driver/goal|-:J2:799.062500:eff_
1549360550.249610,cobot_dynamixel_driver/goal|-:J2:789.062500:eff_
1549360550.844261,cobot_dynamixel_driver/goal|-:J2:779.062500:eff_
1549360551.437926,cobot_dynamixel_driver/goal|-:J2:769.062500:eff_
1549360552.058625,cobot_dynamixel_driver/goal|-:J2:759.062500:eff_
1549360552.654242,cobot_dynamixel_driver/goal|-:J2:749.062500:eff_
1549360553.248884,cobot_dynamixel_driver/goal|-:J2:739.062500:eff_
1549360553.843739,cobot_dynamixel_driver/goal|-:J2:729.062500:eff_
1549360554.437517,cobot_dynamixel_driver/goal|-:J2:719.062500:eff_
1549360555.058055,cobot_dynamixel_driver/goal|-:J2:709.062500:eff_
1549360555.653939,cobot_dynamixel_driver/goal|-:J2:699.062500:eff_
1549360556.247638,cobot_dynamixel_driver/goal|-:J2:689.062500:eff_
1549360556.842363,cobot_dynamixel_driver/goal|-:J2:679.062500:eff_
1549360557.464007,cobot_dynamixel_driver/goal|-:J2:669.062500:eff_
1549360558.057562,cobot_dynamixel_driver/goal|-:J2:659.062500:eff_
1549360558.653315,cobot_dynamixel_driver/goal|-:J2:649.062500:eff_
1549360559.246943,cobot_dynamixel_driver/goal|-:J2:639.062500:eff_
1549360559.867659,cobot_dynamixel_driver/goal|-:J2:629.062500:eff_
1549360560.461190,cobot_dynamixel_driver/goal|-:J2:619.062500:eff_
1549360561.055966,cobot_dynamixel_driver/goal|-:J2:609.062500:eff_
1549360561.650646,cobot_dynamixel_driver/goal|-:J2:599.062500:eff_
1549360562.272205,cobot_dynamixel_driver/goal|-:J2:589.062500:eff_
1549360562.866780,cobot_dynamixel_driver/goal|-:J2:579.062500:eff_
1549360563.462455,cobot_dynamixel_driver/goal|-:J2:569.062500:eff_
1549360564.057099,cobot_dynamixel_driver/goal|-:J2:559.062500:eff_
1549360564.651811,cobot_dynamixel_driver/goal|-:J2:549.062500:eff_
1549360565.272459,cobot_dynamixel_driver/goal|-:J2:539.062500:eff_
1549360565.867096,cobot_dynamixel_driver/goal|-:J2:529.062500:eff_
1549360566.460709,cobot_dynamixel_driver/goal|-:J2:519.062500:eff_
1549360567.054664,cobot_dynamixel_driver/goal|-:J2:509.062500:eff_
1549360567.675351,cobot_dynamixel_driver/goal|-:J2:499.062500:eff_
1549360568.270033,cobot_dynamixel_driver/goal|-:J2:489.062500:eff_
1549360568.864709,cobot_dynamixel_driver/goal|-:J2:479.062500:eff_
1549360569.458529,cobot_dynamixel_driver/goal|-:J2:469.062500:eff_
1549360570.079175,cobot_dynamixel_driver/goal|-:J2:459.062500:eff_
1549360570.673930,cobot_dynamixel_driver/goal|-:J2:449.062500:eff_
1549360571.267675,cobot_dynamixel_driver/goal|-:J2:439.062500:eff_
1549360571.861179,cobot_dynamixel_driver/goal|-:J2:429.062500:eff_
1549360572.481909,cobot_dynamixel_driver/goal|-:J2:419.062500:eff_
1549360573.076726,cobot_dynamixel_driver/goal|-:J2:409.062500:eff_
1549360573.671450,cobot_dynamixel_driver/goal|-:J2:399.062500:eff_
1549360574.264645,cobot_dynamixel_driver/goal|-:J2:389.062500:eff_
1549360574.885718,cobot_dynamixel_driver/goal|-:J2:379.062500:eff_
1549360576.479304,cobot_dynamixel_driver/goal|-:J2:0.000000:eff_
1549360576.560343,cobot_dynamixel_driver/goal|-:J1,J2,J3,J4,J5,J6:0.000000,0.261799,0.000000,0.000000,0.000000,0.000000:0.250000,0.250000,0.250000,0.250000,0.250000,0.250000:pos_vel_
1549360578.568223,cobot_dynamixel_driver/goal|-:J2:0.000000:eff_
1549360578.686566,cobot_dynamixel_driver/goal|-:J1,J2,J3,J4,J5,J6:0.000000,0.261799,0.000000,0.000000,0.000000,0.000000:0.250000,0.250000,0.250000,0.250000,0.250000,0.250000:pos_vel_
1549360579.966462,cobot_dynamixel_driver/goal|-:J2:1369.628906:eff_
1549360580.680388,cobot_dynamixel_driver/goal|-:J1,J2,J3,J4,J5,J6:0.000000,0.261799,0.000000,0.000000,0.000000,0.000000:0.250000,0.250000,0.250000,0.250000,0.250000,0.250000:pos_vel_
1549360581.473977,cobot_dynamixel_driver/goal|-:J2:1379.628906:eff_
1549360582.079376,cobot_dynamixel_driver/goal|-:J1,J2,J3,J4,J5,J6:0.000000,0.261799,0.000000,0.000000,0.000000,0.000000:0.250000,0.250000,0.250000,0.250000,0.250000,0.250000:pos_vel_
cobot_dynamixel_driver/goal|-:J1,J2,J3,J4,J5,J6:0.000000,0.261799,0.000000,0.000000,0.000000,0.000000:0.250000,0.250000,0.250000,0.250000,0.250000,0.250000:pos_vel_
0
-:J1,J2,J3,J4,J5,J6:0.000000,0.261799,0.000000,0.000000,0.000000,0.000000:0.250000,0.250000,0.250000,0.250000,0.250000,0.250000:pos_vel_
[TxRxResult] There is no status packet!
 /home/mtec/catkin_ws/src/cobot/cobot_dynamixel_driver/src/cJoint_pro.cpp:413
1549360582.079376,cobot_dynamixel_driver/goal|-:J1,J2,J3,J4,J5,J6:0.000000,0.261799,0.000000,0.000000,0.000000,0.000000:0.250000,0.250000,0.250000,0.250000,0.250000,0.250000:pos_vel_
cobot_dynamixel_driver/goal|-:J1,J2,J3,J4,J5,J6:0.000000,0.261799,0.000000,0.000000,0.000000,0.000000:0.250000,0.250000,0.250000,0.250000,0.250000,0.250000:pos_vel_
1
-:J1,J2,J3,J4,J5,J6:0.000000,0.261799,0.000000,0.000000,0.000000,0.000000:0.250000,0.250000,0.250000,0.250000,0.250000,0.250000:pos_vel_
[TxRxResult] There is no status packet!
 /home/mtec/catkin_ws/src/cobot/cobot_dynamixel_driver/src/cJoint_pro.cpp:413
