surachairobotic/cobot/cobot_dynamixel_driver/log/2019-06-18T05:13:44.613922_driver_cmd.txt
1560834829.860273,cobot_dynamixel_driver/goal|-:J1,J2,J3,J4,J5,J6:0.000000,0.000000,0.000000,0.000000,0.000000,0.000000:0.500000,0.500000,0.500000,0.500000,0.500000,0.500000:pos_vel_
1560834834.947933,cobot_dynamixel_driver/goal|-:J1,J2,J3,J4,J5,J6:-0.050035,-0.000024,-0.000113,-0.000027,-0.000023,0.000000:0.500000,0.500000,0.500000,0.500000,0.500000,0.500000:pos_vel_
1560834835.475905,cobot_dynamixel_driver/goal|-:J1,J2,J3,J4,J5,J6:-0.097542,-0.000024,-0.000100,-0.000027,-0.000023,0.000000:0.500000,0.500000,0.500000,0.500000,0.500000,0.500000:pos_vel_
1560834835.731932,cobot_dynamixel_driver/goal|-:J1,J2,J3,J4,J5,J6:-0.131892,-0.000024,-0.000100,-0.000027,-0.000023,0.000000:0.500000,0.500000,0.500000,0.500000,0.500000,0.500000:pos_vel_
1560834835.939825,cobot_dynamixel_driver/goal|-:J1,J2,J3,J4,J5,J6:-0.162098,-0.000024,-0.000100,-0.000027,-0.000023,0.000000:0.500000,0.500000,0.500000,0.500000,0.500000,0.500000:pos_vel_
1560834836.147769,cobot_dynamixel_driver/goal|-:J1,J2,J3,J4,J5,J6:-0.196148,-0.000024,-0.000100,-0.000027,-0.000023,0.000000:0.500000,0.500000,0.500000,0.500000,0.500000,0.500000:pos_vel_
1560834836.355777,cobot_dynamixel_driver/goal|-:J1,J2,J3,J4,J5,J6:-0.226417,-0.000024,-0.000100,-0.000027,-0.000023,0.000000:0.500000,0.500000,0.500000,0.500000,0.500000,0.500000:pos_vel_
1560834836.563916,cobot_dynamixel_driver/goal|-:J1,J2,J3,J4,J5,J6:-0.260429,-0.000024,-0.000100,-0.000014,-0.000023,0.000000:0.500000,0.500000,0.500000,0.500000,0.500000,0.500000:pos_vel_
1560834836.787875,cobot_dynamixel_driver/goal|-:J1,J2,J3,J4,J5,J6:-0.290623,-0.000024,-0.000100,-0.000014,-0.000023,0.000000:0.500000,0.500000,0.500000,0.500000,0.500000,0.500000:pos_vel_
1560834837.571700,cobot_dynamixel_driver/goal|-:J1,J2,J3,J4,J5,J6:-0.290295,-0.050024,-0.000100,-0.000014,-0.000023,0.000000:0.500000,0.500000,0.500000,0.500000,0.500000,0.500000:pos_vel_
1560834837.955748,cobot_dynamixel_driver/goal|-:J1,J2,J3,J4,J5,J6:-0.290408,-0.092311,-0.000088,-0.000014,-0.000023,0.000000:0.500000,0.500000,0.500000,0.500000,0.500000,0.500000:pos_vel_
1560834838.259740,cobot_dynamixel_driver/goal|-:J1,J2,J3,J4,J5,J6:-0.290396,-0.129966,-0.000088,-0.000014,-0.000023,0.000000:0.500000,0.500000,0.500000,0.500000,0.500000,0.500000:pos_vel_
1560834838.499714,cobot_dynamixel_driver/goal|-:J1,J2,J3,J4,J5,J6:-0.290396,-0.164065,-0.000088,-0.000014,-0.000023,0.000000:0.500000,0.500000,0.500000,0.500000,0.500000,0.500000:pos_vel_
1560834838.707639,cobot_dynamixel_driver/goal|-:J1,J2,J3,J4,J5,J6:-0.290396,-0.192744,-0.000088,-0.000014,-0.000023,0.000000:0.500000,0.500000,0.500000,0.500000,0.500000,0.500000:pos_vel_
1560834838.931674,cobot_dynamixel_driver/goal|-:J1,J2,J3,J4,J5,J6:-0.290408,-0.226193,-0.000088,-0.000014,0.000018,0.000000:0.500000,0.500000,0.500000,0.500000,0.500000,0.500000:pos_vel_
1560834839.123693,cobot_dynamixel_driver/goal|-:J1,J2,J3,J4,J5,J6:-0.290408,-0.258014,-0.000088,-0.000014,0.000060,0.000000:0.500000,0.500000,0.500000,0.500000,0.500000,0.500000:pos_vel_
1560834839.811526,cobot_dynamixel_driver/goal|-:J1,J2,J3,J4,J5,J6:-0.290421,-0.257174,-0.050088,-0.000014,0.000060,0.000000:0.500000,0.500000,0.500000,0.500000,0.500000,0.500000:pos_vel_
1560834840.307591,cobot_dynamixel_driver/goal|-:J1,J2,J3,J4,J5,J6:-0.290421,-0.257374,-0.095892,-0.000014,0.000060,0.000000:0.500000,0.500000,0.500000,0.500000,0.500000,0.500000:pos_vel_
1560834840.563569,cobot_dynamixel_driver/goal|-:J1,J2,J3,J4,J5,J6:-0.290421,-0.257349,-0.130855,-0.000014,0.000060,0.000000:0.500000,0.500000,0.500000,0.500000,0.500000,0.500000:pos_vel_
1560834840.787485,cobot_dynamixel_driver/goal|-:J1,J2,J3,J4,J5,J6:-0.290421,-0.257336,-0.165005,-0.000014,0.000060,0.000000:0.500000,0.500000,0.500000,0.500000,0.500000,0.500000:pos_vel_
1560834841.011501,cobot_dynamixel_driver/goal|-:J1,J2,J3,J4,J5,J6:-0.290421,-0.257336,-0.199318,-0.000014,0.000060,0.000000:0.500000,0.500000,0.500000,0.500000,0.500000,0.500000:pos_vel_
1560834841.251726,cobot_dynamixel_driver/goal|-:J1,J2,J3,J4,J5,J6:-0.290421,-0.257336,-0.233580,-0.000014,0.000060,0.000000:0.500000,0.500000,0.500000,0.500000,0.500000,0.500000:pos_vel_
1560834842.227602,cobot_dynamixel_driver/goal|-:J1,J2,J3,J4,J5,J6:-0.290421,-0.257349,-0.233115,-0.050014,0.000060,0.000000:0.500000,0.500000,0.500000,0.500000,0.500000,0.500000:pos_vel_
1560834842.563414,cobot_dynamixel_driver/goal|-:J1,J2,J3,J4,J5,J6:-0.290421,-0.257349,-0.233403,-0.089309,0.000060,0.000000:0.500000,0.500000,0.500000,0.500000,0.500000,0.500000:pos_vel_
1560834842.803321,cobot_dynamixel_driver/goal|-:J1,J2,J3,J4,J5,J6:-0.290421,-0.257349,-0.233390,-0.124360,0.000060,0.000000:0.500000,0.500000,0.500000,0.500000,0.500000,0.500000:pos_vel_
1560834843.043404,cobot_dynamixel_driver/goal|-:J1,J2,J3,J4,J5,J6:-0.290421,-0.257349,-0.233390,-0.158472,0.000060,0.000000:0.500000,0.500000,0.500000,0.500000,0.500000,0.500000:pos_vel_
1560834843.251332,cobot_dynamixel_driver/goal|-:J1,J2,J3,J4,J5,J6:-0.290433,-0.257349,-0.233390,-0.187164,0.000060,0.000000:0.500000,0.500000,0.500000,0.500000,0.500000,0.500000:pos_vel_
1560834843.459433,cobot_dynamixel_driver/goal|-:J1,J2,J3,J4,J5,J6:-0.290433,-0.257349,-0.233390,-0.220225,0.000060,0.000000:0.500000,0.500000,0.500000,0.500000,0.500000,0.500000:pos_vel_
1560834843.667310,cobot_dynamixel_driver/goal|-:J1,J2,J3,J4,J5,J6:-0.290433,-0.257349,-0.233390,-0.253348,0.000060,0.000000:0.500000,0.500000,0.500000,0.500000,0.500000,0.500000:pos_vel_
1560834843.907272,cobot_dynamixel_driver/goal|-:J1,J2,J3,J4,J5,J6:-0.290433,-0.257349,-0.233390,-0.286108,0.000060,0.000000:0.500000,0.500000,0.500000,0.500000,0.500000,0.500000:pos_vel_
1560834844.899198,cobot_dynamixel_driver/goal|-:J1,J2,J3,J4,J5,J6:-0.290433,-0.257349,-0.233390,-0.286056,-0.049940,0.000000:0.500000,0.500000,0.500000,0.500000,0.500000,0.500000:pos_vel_
1560834845.283274,cobot_dynamixel_driver/goal|-:J1,J2,J3,J4,J5,J6:-0.290433,-0.257349,-0.233390,-0.286056,-0.092138,0.000000:0.500000,0.500000,0.500000,0.500000,0.500000,0.500000:pos_vel_
1560834845.523221,cobot_dynamixel_driver/goal|-:J1,J2,J3,J4,J5,J6:-0.290433,-0.257349,-0.233390,-0.286068,-0.121367,0.000000:0.500000,0.500000,0.500000,0.500000,0.500000,0.500000:pos_vel_
1560834845.763174,cobot_dynamixel_driver/goal|-:J1,J2,J3,J4,J5,J6:-0.290433,-0.257349,-0.233390,-0.286068,-0.158083,0.000000:0.500000,0.500000,0.500000,0.500000,0.500000,0.500000:pos_vel_
1560834845.971087,cobot_dynamixel_driver/goal|-:J1,J2,J3,J4,J5,J6:-0.290433,-0.257349,-0.233390,-0.286068,-0.190870,0.000000:0.500000,0.500000,0.500000,0.500000,0.500000,0.500000:pos_vel_
1560834846.163096,cobot_dynamixel_driver/goal|-:J1,J2,J3,J4,J5,J6:-0.290433,-0.257349,-0.233390,-0.286068,-0.222394,0.000000:0.500000,0.500000,0.500000,0.500000,0.500000,0.500000:pos_vel_
1560834846.371121,cobot_dynamixel_driver/goal|-:J1,J2,J3,J4,J5,J6:-0.290433,-0.257349,-0.233390,-0.286081,-0.254001,0.000000:0.500000,0.500000,0.500000,0.500000,0.500000,0.500000:pos_vel_
1560834846.563091,cobot_dynamixel_driver/goal|-:J1,J2,J3,J4,J5,J6:-0.290433,-0.257349,-0.233390,-0.286081,-0.284264,0.000000:0.500000,0.500000,0.500000,0.500000,0.500000,0.500000:pos_vel_
1560834847.379051,cobot_dynamixel_driver/goal|-:J1,J2,J3,J4,J5,J6:-0.290433,-0.257349,-0.233390,-0.286106,-0.283992,-0.050000:0.500000,0.500000,0.500000,0.500000,0.500000,0.500000:pos_vel_
1560834847.602906,cobot_dynamixel_driver/goal|-:J1,J2,J3,J4,J5,J6:-0.290433,-0.257349,-0.233390,-0.286106,-0.284013,-0.080656:0.500000,0.500000,0.500000,0.500000,0.500000,0.500000:pos_vel_
1560834847.826939,cobot_dynamixel_driver/goal|-:J1,J2,J3,J4,J5,J6:-0.290433,-0.257349,-0.233390,-0.286106,-0.284013,-0.112635:0.500000,0.500000,0.500000,0.500000,0.500000,0.500000:pos_vel_
1560834848.018977,cobot_dynamixel_driver/goal|-:J1,J2,J3,J4,J5,J6:-0.290433,-0.257349,-0.233390,-0.286118,-0.284013,-0.145215:0.500000,0.500000,0.500000,0.500000,0.500000,0.500000:pos_vel_
1560834848.226888,cobot_dynamixel_driver/goal|-:J1,J2,J3,J4,J5,J6:-0.290433,-0.257349,-0.233390,-0.286118,-0.284013,-0.176781:0.500000,0.500000,0.500000,0.500000,0.500000,0.500000:pos_vel_
1560834848.450964,cobot_dynamixel_driver/goal|-:J1,J2,J3,J4,J5,J6:-0.290433,-0.257349,-0.233390,-0.286118,-0.284013,-0.210829:0.500000,0.500000,0.500000,0.500000,0.500000,0.500000:pos_vel_
1560834848.642993,cobot_dynamixel_driver/goal|-:J1,J2,J3,J4,J5,J6:-0.290433,-0.257349,-0.233390,-0.286118,-0.284013,-0.240450:0.500000,0.500000,0.500000,0.500000,0.500000,0.500000:pos_vel_
1560834848.850948,cobot_dynamixel_driver/goal|-:J1,J2,J3,J4,J5,J6:-0.290433,-0.257349,-0.233390,-0.286118,-0.284013,-0.274933:0.500000,0.500000,0.500000,0.500000,0.500000,0.500000:pos_vel_
1560834849.058889,cobot_dynamixel_driver/goal|-:J1,J2,J3,J4,J5,J6:-0.290433,-0.257349,-0.233390,-0.286131,-0.284013,-0.306044:0.500000,0.500000,0.500000,0.500000,0.500000,0.500000:pos_vel_
1560834849.266868,cobot_dynamixel_driver/goal|-:J1,J2,J3,J4,J5,J6:-0.290433,-0.257349,-0.233390,-0.286131,-0.284013,-0.336555:0.500000,0.500000,0.500000,0.500000,0.500000,0.500000:pos_vel_
1560834849.474844,cobot_dynamixel_driver/goal|-:J1,J2,J3,J4,J5,J6:-0.290433,-0.257349,-0.233390,-0.286131,-0.284013,-0.367541:0.500000,0.500000,0.500000,0.500000,0.500000,0.500000:pos_vel_
1560834850.626817,cobot_dynamixel_driver/goal|-:J1,J2,J3,J4,J5,J6:-0.290433,-0.257349,-0.233390,-0.286143,-0.284013,-0.317352:0.500000,0.500000,0.500000,0.500000,0.500000,0.500000:pos_vel_
1560834850.850913,cobot_dynamixel_driver/goal|-:J1,J2,J3,J4,J5,J6:-0.290433,-0.257349,-0.233390,-0.286143,-0.284013,-0.288992:0.500000,0.500000,0.500000,0.500000,0.500000,0.500000:pos_vel_
1560834851.074700,cobot_dynamixel_driver/goal|-:J1,J2,J3,J4,J5,J6:-0.290433,-0.257349,-0.233390,-0.286156,-0.284013,-0.254303:0.500000,0.500000,0.500000,0.500000,0.500000,0.500000:pos_vel_
1560834851.282674,cobot_dynamixel_driver/goal|-:J1,J2,J3,J4,J5,J6:-0.290433,-0.257349,-0.233390,-0.286156,-0.284013,-0.221082:0.500000,0.500000,0.500000,0.500000,0.500000,0.500000:pos_vel_
1560834851.506737,cobot_dynamixel_driver/goal|-:J1,J2,J3,J4,J5,J6:-0.290433,-0.257349,-0.233390,-0.286156,-0.284013,-0.186206:0.500000,0.500000,0.500000,0.500000,0.500000,0.500000:pos_vel_
1560834851.714628,cobot_dynamixel_driver/goal|-:J1,J2,J3,J4,J5,J6:-0.290433,-0.257349,-0.233390,-0.286156,-0.284013,-0.155427:0.500000,0.500000,0.500000,0.500000,0.500000,0.500000:pos_vel_
1560834851.922707,cobot_dynamixel_driver/goal|-:J1,J2,J3,J4,J5,J6:-0.290433,-0.257349,-0.233390,-0.286168,-0.284013,-0.127005:0.500000,0.500000,0.500000,0.500000,0.500000,0.500000:pos_vel_
1560834852.114716,cobot_dynamixel_driver/goal|-:J1,J2,J3,J4,J5,J6:-0.290433,-0.257349,-0.233390,-0.286168,-0.284013,-0.096742:0.500000,0.500000,0.500000,0.500000,0.500000,0.500000:pos_vel_
1560834852.306655,cobot_dynamixel_driver/goal|-:J1,J2,J3,J4,J5,J6:-0.290433,-0.257349,-0.233390,-0.286168,-0.284013,-0.067700:0.500000,0.500000,0.500000,0.500000,0.500000,0.500000:pos_vel_
1560834853.106599,cobot_dynamixel_driver/goal|-:J1,J2,J3,J4,J5,J6:-0.290433,-0.257349,-0.233390,-0.286181,-0.234013,-0.068117:0.500000,0.500000,0.500000,0.500000,0.500000,0.500000:pos_vel_
1560834853.442611,cobot_dynamixel_driver/goal|-:J1,J2,J3,J4,J5,J6:-0.290433,-0.257349,-0.233390,-0.286181,-0.194545,-0.068096:0.500000,0.500000,0.500000,0.500000,0.500000,0.500000:pos_vel_
1560834853.666577,cobot_dynamixel_driver/goal|-:J1,J2,J3,J4,J5,J6:-0.290433,-0.257349,-0.233390,-0.286193,-0.162565,-0.068076:0.500000,0.500000,0.500000,0.500000,0.500000,0.500000:pos_vel_
1560834853.874517,cobot_dynamixel_driver/goal|-:J1,J2,J3,J4,J5,J6:-0.290433,-0.257349,-0.233390,-0.286193,-0.128621,-0.068076:0.500000,0.500000,0.500000,0.500000,0.500000,0.500000:pos_vel_
1560834854.114570,cobot_dynamixel_driver/goal|-:J1,J2,J3,J4,J5,J6:-0.290433,-0.257349,-0.233390,-0.286206,-0.093890,-0.068076:0.500000,0.500000,0.500000,0.500000,0.500000,0.500000:pos_vel_
1560834854.306476,cobot_dynamixel_driver/goal|-:J1,J2,J3,J4,J5,J6:-0.290433,-0.257349,-0.233390,-0.286206,-0.064620,-0.068076:0.500000,0.500000,0.500000,0.500000,0.500000,0.500000:pos_vel_
1560834854.530558,cobot_dynamixel_driver/goal|-:J1,J2,J3,J4,J5,J6:-0.290433,-0.257349,-0.233390,-0.286206,-0.030096,-0.068076:0.500000,0.500000,0.500000,0.500000,0.500000,0.500000:pos_vel_
1560834855.154484,cobot_dynamixel_driver/goal|-:J1,J2,J3,J4,J5,J6:-0.290433,-0.257349,-0.233390,-0.236231,-0.031154,-0.068076:0.500000,0.500000,0.500000,0.500000,0.500000,0.500000:pos_vel_
1560834855.426443,cobot_dynamixel_driver/goal|-:J1,J2,J3,J4,J5,J6:-0.290433,-0.257349,-0.233390,-0.203070,-0.030886,-0.068076:0.500000,0.500000,0.500000,0.500000,0.500000,0.500000:pos_vel_
1560834855.698481,cobot_dynamixel_driver/goal|-:J1,J2,J3,J4,J5,J6:-0.290433,-0.257349,-0.233390,-0.166655,-0.030886,-0.068076:0.500000,0.500000,0.500000,0.500000,0.500000,0.500000:pos_vel_
1560834855.922576,cobot_dynamixel_driver/goal|-:J1,J2,J3,J4,J5,J6:-0.290433,-0.257349,-0.233390,-0.136286,-0.030886,-0.068076:0.500000,0.500000,0.500000,0.500000,0.500000,0.500000:pos_vel_
1560834856.146484,cobot_dynamixel_driver/goal|-:J1,J2,J3,J4,J5,J6:-0.290433,-0.257349,-0.233390,-0.103788,-0.030886,-0.068076:0.500000,0.500000,0.500000,0.500000,0.500000,0.500000:pos_vel_
1560834856.354400,cobot_dynamixel_driver/goal|-:J1,J2,J3,J4,J5,J6:-0.290433,-0.257349,-0.233390,-0.072029,-0.030886,-0.068076:0.500000,0.500000,0.500000,0.500000,0.500000,0.500000:pos_vel_
1560834856.562395,cobot_dynamixel_driver/goal|-:J1,J2,J3,J4,J5,J6:-0.290433,-0.257349,-0.233390,-0.038431,-0.030886,-0.068076:0.500000,0.500000,0.500000,0.500000,0.500000,0.500000:pos_vel_
1560834856.770299,cobot_dynamixel_driver/goal|-:J1,J2,J3,J4,J5,J6:-0.290433,-0.257349,-0.233390,-0.007999,-0.030886,-0.068076:0.500000,0.500000,0.500000,0.500000,0.500000,0.500000:pos_vel_
1560834856.962363,cobot_dynamixel_driver/goal|-:J1,J2,J3,J4,J5,J6:-0.290433,-0.257349,-0.233390,0.019491,-0.030886,-0.068076:0.500000,0.500000,0.500000,0.500000,0.500000,0.500000:pos_vel_
1560834857.202293,cobot_dynamixel_driver/goal|-:J1,J2,J3,J4,J5,J6:-0.290433,-0.257349,-0.233390,0.054755,-0.030886,-0.068076:0.500000,0.500000,0.500000,0.500000,0.500000,0.500000:pos_vel_
1560834857.730262,cobot_dynamixel_driver/goal|-:J1,J2,J3,J4,J5,J6:-0.290433,-0.257349,-0.183390,0.052612,-0.030886,-0.068076:0.500000,0.500000,0.500000,0.500000,0.500000,0.500000:pos_vel_
1560834858.194247,cobot_dynamixel_driver/goal|-:J1,J2,J3,J4,J5,J6:-0.290433,-0.257336,-0.138500,0.053025,-0.030886,-0.068076:0.500000,0.500000,0.500000,0.500000,0.500000,0.500000:pos_vel_
1560834858.482239,cobot_dynamixel_driver/goal|-:J1,J2,J3,J4,J5,J6:-0.290433,-0.257336,-0.103248,0.052850,-0.030886,-0.068076:0.500000,0.500000,0.500000,0.500000,0.500000,0.500000:pos_vel_
1560834858.706266,cobot_dynamixel_driver/goal|-:J1,J2,J3,J4,J5,J6:-0.290446,-0.257336,-0.072266,0.052963,-0.030886,-0.068076:0.500000,0.500000,0.500000,0.500000,0.500000,0.500000:pos_vel_
1560834858.914185,cobot_dynamixel_driver/goal|-:J1,J2,J3,J4,J5,J6:-0.290446,-0.257336,-0.042009,0.052950,-0.030886,-0.068076:0.500000,0.500000,0.500000,0.500000,0.500000,0.500000:pos_vel_
1560834859.138186,cobot_dynamixel_driver/goal|-:J1,J2,J3,J4,J5,J6:-0.290446,-0.257336,-0.007584,0.052950,-0.030886,-0.068076:0.500000,0.500000,0.500000,0.500000,0.500000,0.500000:pos_vel_
1560834859.970191,cobot_dynamixel_driver/goal|-:J1,J2,J3,J4,J5,J6:-0.290446,-0.207336,-0.007724,0.052950,-0.030886,-0.068076:0.500000,0.500000,0.500000,0.500000,0.500000,0.500000:pos_vel_
1560834860.322117,cobot_dynamixel_driver/goal|-:J1,J2,J3,J4,J5,J6:-0.290446,-0.166727,-0.007599,0.052950,-0.030886,-0.068076:0.500000,0.500000,0.500000,0.500000,0.500000,0.500000:pos_vel_
1560834860.642048,cobot_dynamixel_driver/goal|-:J1,J2,J3,J4,J5,J6:-0.290458,-0.126456,-0.007599,0.052950,-0.030886,-0.068076:0.500000,0.500000,0.500000,0.500000,0.500000,0.500000:pos_vel_
1560834860.930062,cobot_dynamixel_driver/goal|-:J1,J2,J3,J4,J5,J6:-0.290458,-0.088538,-0.007599,0.052950,-0.030886,-0.068076:0.500000,0.500000,0.500000,0.500000,0.500000,0.500000:pos_vel_
1560834861.154049,cobot_dynamixel_driver/goal|-:J1,J2,J3,J4,J5,J6:-0.290458,-0.056617,-0.007599,0.052950,-0.030886,-0.068076:0.500000,0.500000,0.500000,0.500000,0.500000,0.500000:pos_vel_
1560834861.906068,cobot_dynamixel_driver/goal|-:J1,J2,J3,J4,J5,J6:-0.240458,-0.057257,-0.007599,0.052950,-0.030886,-0.068076:0.500000,0.500000,0.500000,0.500000,0.500000,0.500000:pos_vel_
1560834862.129959,cobot_dynamixel_driver/goal|-:J1,J2,J3,J4,J5,J6:-0.217450,-0.056894,-0.007599,0.052950,-0.030886,-0.068076:0.500000,0.500000,0.500000,0.500000,0.500000,0.500000:pos_vel_
1560834862.353940,cobot_dynamixel_driver/goal|-:J1,J2,J3,J4,J5,J6:-0.180997,-0.056894,-0.007599,0.052950,-0.030886,-0.068076:0.500000,0.500000,0.500000,0.500000,0.500000,0.500000:pos_vel_
1560834862.593890,cobot_dynamixel_driver/goal|-:J1,J2,J3,J4,J5,J6:-0.147097,-0.056894,-0.007599,0.052950,-0.030886,-0.068076:0.500000,0.500000,0.500000,0.500000,0.500000,0.500000:pos_vel_
1560834862.833894,cobot_dynamixel_driver/goal|-:J1,J2,J3,J4,J5,J6:-0.114287,-0.056894,-0.007599,0.052950,-0.030886,-0.068076:0.500000,0.500000,0.500000,0.500000,0.500000,0.500000:pos_vel_
1560834863.073938,cobot_dynamixel_driver/goal|-:J1,J2,J3,J4,J5,J6:-0.078986,-0.056894,-0.007599,0.052950,-0.030886,-0.068076:0.500000,0.500000,0.500000,0.500000,0.500000,0.500000:pos_vel_
1560834863.313957,cobot_dynamixel_driver/goal|-:J1,J2,J3,J4,J5,J6:-0.046651,-0.056894,-0.007599,0.052950,-0.030886,-0.068076:0.500000,0.500000,0.500000,0.500000,0.500000,0.500000:pos_vel_
1560834863.537900,cobot_dynamixel_driver/goal|-:J1,J2,J3,J4,J5,J6:-0.017208,-0.056894,-0.007599,0.052950,-0.030886,-0.068076:0.500000,0.500000,0.500000,0.500000,0.500000,0.500000:pos_vel_
1560834863.761906,cobot_dynamixel_driver/goal|-:J1,J2,J3,J4,J5,J6:0.016090,-0.056894,-0.007599,0.052950,-0.030886,-0.068076:0.500000,0.500000,0.500000,0.500000,0.500000,0.500000:pos_vel_
1560834863.969858,cobot_dynamixel_driver/goal|-:J1,J2,J3,J4,J5,J6:0.047436,-0.056894,-0.007599,0.052950,-0.030886,-0.068076:0.500000,0.500000,0.500000,0.500000,0.500000,0.500000:pos_vel_
1560834864.177837,cobot_dynamixel_driver/goal|-:J1,J2,J3,J4,J5,J6:0.080997,-0.056894,-0.007599,0.052950,-0.030886,-0.068076:0.500000,0.500000,0.500000,0.500000,0.500000,0.500000:pos_vel_
1560834864.385778,cobot_dynamixel_driver/goal|-:J1,J2,J3,J4,J5,J6:0.111392,-0.056894,-0.007599,0.052950,-0.030886,-0.068076:0.500000,0.500000,0.500000,0.500000,0.500000,0.500000:pos_vel_
1560834864.609717,cobot_dynamixel_driver/goal|-:J1,J2,J3,J4,J5,J6:0.145329,-0.056894,-0.007599,0.052950,-0.030886,-0.068076:0.500000,0.500000,0.500000,0.500000,0.500000,0.500000:pos_vel_
1560834865.409725,cobot_dynamixel_driver/goal|-:J1,J2,J3,J4,J5,J6:0.000000,0.000000,0.000000,0.000000,0.000000,0.000000:0.500000,0.500000,0.500000,0.500000,0.500000,0.500000:pos_vel_
