surachairobotic/cobot/cobot_dynamixel_driver/log/2019-02-07T03:38:05.705907_driver_cmd.txt
1549510725.878337,cobot_dynamixel_driver/goal|-:J1,J2,J3,J4,J5,J6:0.000000,0.000000,0.000000,0.000000,0.000000,0.000000:0.500000,0.500000,0.500000,0.500000,0.500000,0.500000:pos_vel_
1549510766.587817,cobot_dynamixel_driver/goal|-:J3:0.000000:eff_
1549510766.678754,cobot_dynamixel_driver/goal|-:J1,J2,J3,J4,J5,J6:0.000000,0.000000,0.523599,0.000000,0.000000,0.000000:0.250000,0.250000,0.250000,0.250000,0.250000,0.250000:pos_vel_
1549510771.713285,cobot_dynamixel_driver/goal|-:J3:-271.968724:eff_
1549510772.317398,cobot_dynamixel_driver/goal|-:J3:-281.968724:eff_
1549510772.913622,cobot_dynamixel_driver/goal|-:J3:-291.968724:eff_
1549510773.509108,cobot_dynamixel_driver/goal|-:J3:-301.968724:eff_
1549510774.105087,cobot_dynamixel_driver/goal|-:J3:-311.968724:eff_
1549510774.727929,cobot_dynamixel_driver/goal|-:J3:-321.968724:eff_
1549510775.322724,cobot_dynamixel_driver/goal|-:J3:-331.968724:eff_
1549510775.920715,cobot_dynamixel_driver/goal|-:J3:-341.968724:eff_
1549510776.515407,cobot_dynamixel_driver/goal|-:J3:-351.968724:eff_
1549510777.110269,cobot_dynamixel_driver/goal|-:J3:-361.968724:eff_
1549510777.732175,cobot_dynamixel_driver/goal|-:J3:-371.968724:eff_
1549510778.327000,cobot_dynamixel_driver/goal|-:J3:-381.968724:eff_
1549510778.922808,cobot_dynamixel_driver/goal|-:J3:-391.968724:eff_
1549510779.519775,cobot_dynamixel_driver/goal|-:J3:-401.968724:eff_
1549510780.116409,cobot_dynamixel_driver/goal|-:J3:-411.968724:eff_
1549510780.739295,cobot_dynamixel_driver/goal|-:J3:-421.968724:eff_
1549510781.334124,cobot_dynamixel_driver/goal|-:J3:-431.968724:eff_
1549510781.928969,cobot_dynamixel_driver/goal|-:J3:-441.968724:eff_
1549510782.524897,cobot_dynamixel_driver/goal|-:J3:-451.968724:eff_
1549510783.122718,cobot_dynamixel_driver/goal|-:J3:-461.968724:eff_
1549510783.744257,cobot_dynamixel_driver/goal|-:J3:-471.968724:eff_
1549510784.338063,cobot_dynamixel_driver/goal|-:J3:-481.968724:eff_
1549510784.932037,cobot_dynamixel_driver/goal|-:J3:-491.968724:eff_
1549510785.527110,cobot_dynamixel_driver/goal|-:J3:-501.968724:eff_
1549510786.147617,cobot_dynamixel_driver/goal|-:J3:-511.968724:eff_
1549510786.741567,cobot_dynamixel_driver/goal|-:J3:-521.968724:eff_
1549510787.335831,cobot_dynamixel_driver/goal|-:J3:-531.968724:eff_
1549510787.932419,cobot_dynamixel_driver/goal|-:J3:-541.968724:eff_
1549510788.527315,cobot_dynamixel_driver/goal|-:J3:-551.968724:eff_
1549510789.150232,cobot_dynamixel_driver/goal|-:J3:-561.968724:eff_
1549510789.746885,cobot_dynamixel_driver/goal|-:J3:-571.968724:eff_
1549510790.342840,cobot_dynamixel_driver/goal|-:J3:-581.968724:eff_
1549510790.939488,cobot_dynamixel_driver/goal|-:J3:-591.968724:eff_
1549510791.535595,cobot_dynamixel_driver/goal|-:J3:-601.968724:eff_
1549510792.157345,cobot_dynamixel_driver/goal|-:J3:-611.968724:eff_
1549510792.753213,cobot_dynamixel_driver/goal|-:J3:-621.968724:eff_
1549510793.347912,cobot_dynamixel_driver/goal|-:J3:-631.968724:eff_
1549510793.945885,cobot_dynamixel_driver/goal|-:J3:-641.968724:eff_
1549510794.541523,cobot_dynamixel_driver/goal|-:J3:-651.968724:eff_
1549510795.137484,cobot_dynamixel_driver/goal|-:J3:-661.968724:eff_
1549510795.760521,cobot_dynamixel_driver/goal|-:J3:-671.968724:eff_
1549510796.356235,cobot_dynamixel_driver/goal|-:J3:-681.968724:eff_
1549510796.954183,cobot_dynamixel_driver/goal|-:J3:-691.968724:eff_
1549510797.549948,cobot_dynamixel_driver/goal|-:J3:-701.968724:eff_
1549510798.144750,cobot_dynamixel_driver/goal|-:J3:-711.968724:eff_
1549510798.767698,cobot_dynamixel_driver/goal|-:J3:-721.968724:eff_
1549510799.362282,cobot_dynamixel_driver/goal|-:J3:-731.968724:eff_
1549510799.959173,cobot_dynamixel_driver/goal|-:J3:-741.968724:eff_
1549510800.553195,cobot_dynamixel_driver/goal|-:J3:-751.968724:eff_
1549510801.147974,cobot_dynamixel_driver/goal|-:J3:-761.968724:eff_
1549510801.770619,cobot_dynamixel_driver/goal|-:J3:-771.968724:eff_
1549510802.366604,cobot_dynamixel_driver/goal|-:J3:-781.968724:eff_
1549510802.961325,cobot_dynamixel_driver/goal|-:J3:-791.968724:eff_
1549510803.557433,cobot_dynamixel_driver/goal|-:J3:-801.968724:eff_
1549510804.179207,cobot_dynamixel_driver/goal|-:J3:-811.968724:eff_
1549510804.773844,cobot_dynamixel_driver/goal|-:J3:-821.968724:eff_
1549510805.368939,cobot_dynamixel_driver/goal|-:J3:-831.968724:eff_
1549510805.962738,cobot_dynamixel_driver/goal|-:J3:-841.968724:eff_
1549510806.639210,cobot_dynamixel_driver/goal|-:J3:0.000000:eff_
1549510806.720289,cobot_dynamixel_driver/goal|-:J1,J2,J3,J4,J5,J6:0.000000,0.000000,0.523599,0.000000,0.000000,0.000000:0.250000,0.250000,0.250000,0.250000,0.250000,0.250000:pos_vel_
1549510808.756018,cobot_dynamixel_driver/goal|-:J3:0.000000:eff_
1549510808.846916,cobot_dynamixel_driver/goal|-:J1,J2,J3,J4,J5,J6:0.000000,0.000000,0.523599,0.000000,0.000000,0.000000:0.250000,0.250000,0.250000,0.250000,0.250000,0.250000:pos_vel_
1549510811.503998,cobot_dynamixel_driver/goal|-:J3:-635.249414:eff_
1549510812.108136,cobot_dynamixel_driver/goal|-:J3:-625.249414:eff_
1549510812.703870,cobot_dynamixel_driver/goal|-:J3:-615.249414:eff_
1549510813.300935,cobot_dynamixel_driver/goal|-:J3:-605.249414:eff_
1549510813.896533,cobot_dynamixel_driver/goal|-:J3:-595.249414:eff_
1549510814.492590,cobot_dynamixel_driver/goal|-:J3:-585.249414:eff_
1549510815.089657,cobot_dynamixel_driver/goal|-:J3:-575.249414:eff_
1549510815.712258,cobot_dynamixel_driver/goal|-:J3:-565.249414:eff_
1549510816.306910,cobot_dynamixel_driver/goal|-:J3:-555.249414:eff_
1549510816.903031,cobot_dynamixel_driver/goal|-:J3:-545.249414:eff_
1549510817.498815,cobot_dynamixel_driver/goal|-:J3:-535.249414:eff_
1549510818.094748,cobot_dynamixel_driver/goal|-:J3:-525.249414:eff_
1549510818.694539,cobot_dynamixel_driver/goal|-:J3:-515.249414:eff_
1549510819.317438,cobot_dynamixel_driver/goal|-:J3:-505.249414:eff_
1549510819.913221,cobot_dynamixel_driver/goal|-:J3:-495.249414:eff_
1549510820.509118,cobot_dynamixel_driver/goal|-:J3:-485.249414:eff_
1549510821.103913,cobot_dynamixel_driver/goal|-:J3:-475.249414:eff_
1549510821.725764,cobot_dynamixel_driver/goal|-:J3:-465.249414:eff_
1549510822.321633,cobot_dynamixel_driver/goal|-:J3:-455.249414:eff_
1549510822.916452,cobot_dynamixel_driver/goal|-:J3:-445.249414:eff_
1549510823.512314,cobot_dynamixel_driver/goal|-:J3:-435.249414:eff_
1549510824.107088,cobot_dynamixel_driver/goal|-:J3:-425.249414:eff_
1549510824.728976,cobot_dynamixel_driver/goal|-:J3:-415.249414:eff_
1549510825.324856,cobot_dynamixel_driver/goal|-:J3:-405.249414:eff_
1549510825.919385,cobot_dynamixel_driver/goal|-:J3:-395.249414:eff_
1549510826.515461,cobot_dynamixel_driver/goal|-:J3:-385.249414:eff_
1549510827.110479,cobot_dynamixel_driver/goal|-:J3:-375.249414:eff_
1549510827.733408,cobot_dynamixel_driver/goal|-:J3:-365.249414:eff_
1549510828.330047,cobot_dynamixel_driver/goal|-:J3:-355.249414:eff_
1549510828.926877,cobot_dynamixel_driver/goal|-:J3:-345.249414:eff_
1549510829.522735,cobot_dynamixel_driver/goal|-:J3:-335.249414:eff_
1549510830.117399,cobot_dynamixel_driver/goal|-:J3:-325.249414:eff_
1549510830.739459,cobot_dynamixel_driver/goal|-:J3:-315.249414:eff_
1549510831.335254,cobot_dynamixel_driver/goal|-:J3:-305.249414:eff_
1549510831.932153,cobot_dynamixel_driver/goal|-:J3:-295.249414:eff_
1549510832.527122,cobot_dynamixel_driver/goal|-:J3:-285.249414:eff_
1549510833.122910,cobot_dynamixel_driver/goal|-:J3:-275.249414:eff_
1549510833.718822,cobot_dynamixel_driver/goal|-:J3:-265.249414:eff_
1549510834.341499,cobot_dynamixel_driver/goal|-:J3:-255.249414:eff_
1549510834.938352,cobot_dynamixel_driver/goal|-:J3:-245.249414:eff_
1549510835.533400,cobot_dynamixel_driver/goal|-:J3:-235.249414:eff_
1549510836.128869,cobot_dynamixel_driver/goal|-:J3:-225.249414:eff_
1549510836.725783,cobot_dynamixel_driver/goal|-:J3:-215.249414:eff_
1549510837.347803,cobot_dynamixel_driver/goal|-:J3:-205.249414:eff_
1549510838.942011,cobot_dynamixel_driver/goal|-:J3:0.000000:eff_
1549510839.050326,cobot_dynamixel_driver/goal|-:J1,J2,J3,J4,J5,J6:0.000000,0.000000,0.523599,0.000000,0.000000,0.000000:0.250000,0.250000,0.250000,0.250000,0.250000,0.250000:pos_vel_
1549510839.735921,cobot_dynamixel_driver/goal|-:J3:-195.249414:eff_
1549510841.339335,cobot_dynamixel_driver/goal|-:J3:0.000000:eff_
1549510841.447693,cobot_dynamixel_driver/goal|-:J1,J2,J3,J4,J5,J6:0.000000,0.000000,0.523599,0.000000,0.000000,0.000000:0.250000,0.250000,0.250000,0.250000,0.250000,0.250000:pos_vel_
1549510842.132346,cobot_dynamixel_driver/goal|-:J3:-185.249414:eff_
1549510842.738142,cobot_dynamixel_driver/goal|-:J3:0.000000:eff_
1549510842.847270,cobot_dynamixel_driver/goal|-:J1,J2,J3,J4,J5,J6:0.000000,0.000000,0.523599,0.000000,0.000000,0.000000:0.250000,0.250000,0.250000,0.250000,0.250000,0.250000:pos_vel_
1549510844.775769,cobot_dynamixel_driver/goal|-:J3:0.000000:eff_
1549510844.893778,cobot_dynamixel_driver/goal|-:J1,J2,J3,J4,J5,J6:0.000000,0.000000,0.436332,0.000000,0.000000,0.000000:0.250000,0.250000,0.250000,0.250000,0.250000,0.250000:pos_vel_
1549510848.200556,cobot_dynamixel_driver/goal|-:J3:-497.551202:eff_
1549510848.805725,cobot_dynamixel_driver/goal|-:J3:-507.551202:eff_
1549510849.401530,cobot_dynamixel_driver/goal|-:J3:-517.551202:eff_
1549510850.025317,cobot_dynamixel_driver/goal|-:J3:-527.551202:eff_
1549510850.624418,cobot_dynamixel_driver/goal|-:J3:-537.551202:eff_
1549510851.220109,cobot_dynamixel_driver/goal|-:J3:-547.551202:eff_
1549510851.815041,cobot_dynamixel_driver/goal|-:J3:-557.551202:eff_
1549510852.409853,cobot_dynamixel_driver/goal|-:J3:-567.551202:eff_
1549510853.004726,cobot_dynamixel_driver/goal|-:J3:-577.551202:eff_
1549510853.628596,cobot_dynamixel_driver/goal|-:J3:-587.551202:eff_
1549510854.224422,cobot_dynamixel_driver/goal|-:J3:-597.551202:eff_
1549510854.820257,cobot_dynamixel_driver/goal|-:J3:-607.551202:eff_
1549510855.417021,cobot_dynamixel_driver/goal|-:J3:-617.551202:eff_
1549510856.011940,cobot_dynamixel_driver/goal|-:J3:-627.551202:eff_
1549510856.633531,cobot_dynamixel_driver/goal|-:J3:-637.551202:eff_
1549510857.228589,cobot_dynamixel_driver/goal|-:J3:-647.551202:eff_
1549510857.825441,cobot_dynamixel_driver/goal|-:J3:-657.551202:eff_
1549510858.420110,cobot_dynamixel_driver/goal|-:J3:-667.551202:eff_
1549510859.018225,cobot_dynamixel_driver/goal|-:J3:-677.551202:eff_
1549510859.639996,cobot_dynamixel_driver/goal|-:J3:-687.551202:eff_
1549510860.234541,cobot_dynamixel_driver/goal|-:J3:-697.551202:eff_
1549510860.828682,cobot_dynamixel_driver/goal|-:J3:-707.551202:eff_
1549510861.424351,cobot_dynamixel_driver/goal|-:J3:-717.551202:eff_
1549510862.019434,cobot_dynamixel_driver/goal|-:J3:-727.551202:eff_
1549510862.641206,cobot_dynamixel_driver/goal|-:J3:-737.551202:eff_
1549510863.235949,cobot_dynamixel_driver/goal|-:J3:-747.551202:eff_
1549510863.831866,cobot_dynamixel_driver/goal|-:J3:-757.551202:eff_
1549510864.427781,cobot_dynamixel_driver/goal|-:J3:-767.551202:eff_
1549510866.023907,cobot_dynamixel_driver/goal|-:J3:0.000000:eff_
1549510866.132268,cobot_dynamixel_driver/goal|-:J1,J2,J3,J4,J5,J6:0.000000,0.000000,0.436332,0.000000,0.000000,0.000000:0.250000,0.250000,0.250000,0.250000,0.250000,0.250000:pos_vel_
1549510866.629135,cobot_dynamixel_driver/goal|-:J3:-777.551202:eff_
1549510868.231341,cobot_dynamixel_driver/goal|-:J3:0.000000:eff_
1549510868.339548,cobot_dynamixel_driver/goal|-:J1,J2,J3,J4,J5,J6:0.000000,0.000000,0.436332,0.000000,0.000000,0.000000:0.250000,0.250000,0.250000,0.250000,0.250000,0.250000:pos_vel_
1549510868.539531,cobot_dynamixel_driver/goal|-:J3:-787.551202:eff_
1549510870.142886,cobot_dynamixel_driver/goal|-:J3:0.000000:eff_
1549510870.251208,cobot_dynamixel_driver/goal|-:J1,J2,J3,J4,J5,J6:0.000000,0.000000,0.436332,0.000000,0.000000,0.000000:0.250000,0.250000,0.250000,0.250000,0.250000,0.250000:pos_vel_
1549510870.639097,cobot_dynamixel_driver/goal|-:J3:-797.551202:eff_
1549510871.242952,cobot_dynamixel_driver/goal|-:J3:0.000000:eff_
1549510871.352925,cobot_dynamixel_driver/goal|-:J1,J2,J3,J4,J5,J6:0.000000,0.000000,0.436332,0.000000,0.000000,0.000000:0.250000,0.250000,0.250000,0.250000,0.250000,0.250000:pos_vel_
1549510872.985539,cobot_dynamixel_driver/goal|-:J3:0.000000:eff_
1549510873.076327,cobot_dynamixel_driver/goal|-:J1,J2,J3,J4,J5,J6:0.000000,0.000000,0.436332,0.000000,0.000000,0.000000:0.250000,0.250000,0.250000,0.250000,0.250000,0.250000:pos_vel_
1549510875.922302,cobot_dynamixel_driver/goal|-:J3:-713.588336:eff_
1549510876.499395,cobot_dynamixel_driver/goal|-:J3:-703.588336:eff_
1549510877.124445,cobot_dynamixel_driver/goal|-:J3:-693.588336:eff_
1549510877.719270,cobot_dynamixel_driver/goal|-:J3:-683.588336:eff_
1549510878.315057,cobot_dynamixel_driver/goal|-:J3:-673.588336:eff_
1549510878.909880,cobot_dynamixel_driver/goal|-:J3:-663.588336:eff_
1549510879.504477,cobot_dynamixel_driver/goal|-:J3:-653.588336:eff_
1549510880.126410,cobot_dynamixel_driver/goal|-:J3:-643.588336:eff_
1549510880.722476,cobot_dynamixel_driver/goal|-:J3:-633.588336:eff_
1549510881.316979,cobot_dynamixel_driver/goal|-:J3:-623.588336:eff_
1549510881.912870,cobot_dynamixel_driver/goal|-:J3:-613.588336:eff_
1549510882.509796,cobot_dynamixel_driver/goal|-:J3:-603.588336:eff_
1549510883.130817,cobot_dynamixel_driver/goal|-:J3:-593.588336:eff_
1549510883.724678,cobot_dynamixel_driver/goal|-:J3:-583.588336:eff_
1549510884.320542,cobot_dynamixel_driver/goal|-:J3:-573.588336:eff_
1549510884.916311,cobot_dynamixel_driver/goal|-:J3:-563.588336:eff_
1549510885.539248,cobot_dynamixel_driver/goal|-:J3:-553.588336:eff_
1549510886.134203,cobot_dynamixel_driver/goal|-:J3:-543.588336:eff_
1549510886.728821,cobot_dynamixel_driver/goal|-:J3:-533.588336:eff_
1549510887.350577,cobot_dynamixel_driver/goal|-:J3:-523.588336:eff_
1549510887.945469,cobot_dynamixel_driver/goal|-:J3:-513.588336:eff_
1549510888.541231,cobot_dynamixel_driver/goal|-:J3:-503.588336:eff_
1549510889.163103,cobot_dynamixel_driver/goal|-:J3:-493.588336:eff_
1549510889.756931,cobot_dynamixel_driver/goal|-:J3:-483.588336:eff_
1549510890.352040,cobot_dynamixel_driver/goal|-:J3:-473.588336:eff_
1549510890.946708,cobot_dynamixel_driver/goal|-:J3:-463.588336:eff_
1549510891.568651,cobot_dynamixel_driver/goal|-:J3:-453.588336:eff_
1549510892.162452,cobot_dynamixel_driver/goal|-:J3:-443.588336:eff_
1549510892.758286,cobot_dynamixel_driver/goal|-:J3:-433.588336:eff_
1549510893.354205,cobot_dynamixel_driver/goal|-:J3:-423.588336:eff_
1549510893.951136,cobot_dynamixel_driver/goal|-:J3:-413.588336:eff_
1549510894.575000,cobot_dynamixel_driver/goal|-:J3:-403.588336:eff_
1549510895.169818,cobot_dynamixel_driver/goal|-:J3:-393.588336:eff_
1549510895.764781,cobot_dynamixel_driver/goal|-:J3:-383.588336:eff_
1549510896.358563,cobot_dynamixel_driver/goal|-:J3:-373.588336:eff_
1549510896.959482,cobot_dynamixel_driver/goal|-:J3:-363.588336:eff_
1549510897.553994,cobot_dynamixel_driver/goal|-:J3:-353.588336:eff_
1549510898.176925,cobot_dynamixel_driver/goal|-:J3:-343.588336:eff_
1549510898.772017,cobot_dynamixel_driver/goal|-:J3:-333.588336:eff_
1549510899.367714,cobot_dynamixel_driver/goal|-:J3:-323.588336:eff_
1549510899.962757,cobot_dynamixel_driver/goal|-:J3:-313.588336:eff_
1549510900.583562,cobot_dynamixel_driver/goal|-:J3:-303.588336:eff_
1549510901.180329,cobot_dynamixel_driver/goal|-:J3:-293.588336:eff_
1549510901.775256,cobot_dynamixel_driver/goal|-:J3:-283.588336:eff_
1549510902.369786,cobot_dynamixel_driver/goal|-:J3:-273.588336:eff_
1549510902.963920,cobot_dynamixel_driver/goal|-:J3:-263.588336:eff_
1549510903.586591,cobot_dynamixel_driver/goal|-:J3:-253.588336:eff_
1549510904.181376,cobot_dynamixel_driver/goal|-:J3:-243.588336:eff_
1549510904.777358,cobot_dynamixel_driver/goal|-:J3:-233.588336:eff_
1549510905.372372,cobot_dynamixel_driver/goal|-:J3:-223.588336:eff_
1549510906.992543,cobot_dynamixel_driver/goal|-:J3:0.000000:eff_
1549510907.073944,cobot_dynamixel_driver/goal|-:J1,J2,J3,J4,J5,J6:0.000000,0.000000,0.436332,0.000000,0.000000,0.000000:0.250000,0.250000,0.250000,0.250000,0.250000,0.250000:pos_vel_
1549510907.677684,cobot_dynamixel_driver/goal|-:J3:-213.588336:eff_
1549510909.172097,cobot_dynamixel_driver/goal|-:J3:0.000000:eff_
1549510909.172097,cobot_dynamixel_driver/goal|-:J1,J2,J3,J4,J5,J6:0.000000,0.000000,0.436332,0.000000,0.000000,0.000000:0.250000,0.250000,0.250000,0.250000,0.250000,0.250000:pos_vel_
1549510909.648531,cobot_dynamixel_driver/goal|-:J1,J2,J3,J4,J5,J6:0.000000,0.000000,0.436332,0.000000,0.000000,0.000000:0.250000,0.250000,0.250000,0.250000,0.250000,0.250000:pos_vel_
1549510910.194199,cobot_dynamixel_driver/goal|-:J3:-203.588336:eff_
1549510910.772028,cobot_dynamixel_driver/goal|-:J3:0.000000:eff_
1549510910.880950,cobot_dynamixel_driver/goal|-:J1,J2,J3,J4,J5,J6:0.000000,0.000000,0.436332,0.000000,0.000000,0.000000:0.250000,0.250000,0.250000,0.250000,0.250000,0.250000:pos_vel_
1549510912.915220,cobot_dynamixel_driver/goal|-:J3:0.000000:eff_
1549510913.006124,cobot_dynamixel_driver/goal|-:J1,J2,J3,J4,J5,J6:0.000000,0.000000,0.349066,0.000000,0.000000,0.000000:0.250000,0.250000,0.250000,0.250000,0.250000,0.250000:pos_vel_
1549510916.257214,cobot_dynamixel_driver/goal|-:J3:-647.080972:eff_
1549510916.834407,cobot_dynamixel_driver/goal|-:J3:-657.080972:eff_
1549510917.457407,cobot_dynamixel_driver/goal|-:J3:-667.080972:eff_
1549510918.052960,cobot_dynamixel_driver/goal|-:J3:-677.080972:eff_
1549510918.648859,cobot_dynamixel_driver/goal|-:J3:-687.080972:eff_
1549510919.244789,cobot_dynamixel_driver/goal|-:J3:-697.080972:eff_
1549510919.839473,cobot_dynamixel_driver/goal|-:J3:-707.080972:eff_
1549510920.460286,cobot_dynamixel_driver/goal|-:J3:-717.080972:eff_
1549510921.055451,cobot_dynamixel_driver/goal|-:J3:-727.080972:eff_
1549510921.650340,cobot_dynamixel_driver/goal|-:J3:-737.080972:eff_
1549510922.246924,cobot_dynamixel_driver/goal|-:J3:-747.080972:eff_
1549510922.842743,cobot_dynamixel_driver/goal|-:J3:-757.080972:eff_
1549510923.465589,cobot_dynamixel_driver/goal|-:J3:-767.080972:eff_
1549510924.059729,cobot_dynamixel_driver/goal|-:J3:-777.080972:eff_
1549510924.655597,cobot_dynamixel_driver/goal|-:J3:-787.080972:eff_
1549510925.250561,cobot_dynamixel_driver/goal|-:J3:-797.080972:eff_
1549510925.847212,cobot_dynamixel_driver/goal|-:J3:-807.080972:eff_
1549510926.470051,cobot_dynamixel_driver/goal|-:J3:-817.080972:eff_
1549510927.066738,cobot_dynamixel_driver/goal|-:J3:-827.080972:eff_
1549510927.661576,cobot_dynamixel_driver/goal|-:J3:-837.080972:eff_
1549510928.255685,cobot_dynamixel_driver/goal|-:J3:-847.080972:eff_
1549510928.877452,cobot_dynamixel_driver/goal|-:J3:-857.080972:eff_
1549510929.472089,cobot_dynamixel_driver/goal|-:J3:-867.080972:eff_
1549510930.065945,cobot_dynamixel_driver/goal|-:J3:-877.080972:eff_
1549510930.661883,cobot_dynamixel_driver/goal|-:J3:-887.080972:eff_
1549510931.256751,cobot_dynamixel_driver/goal|-:J3:-897.080972:eff_
1549510931.877529,cobot_dynamixel_driver/goal|-:J3:-907.080972:eff_
1549510932.473496,cobot_dynamixel_driver/goal|-:J3:0.000000:eff_
1549510932.581388,cobot_dynamixel_driver/goal|-:J1,J2,J3,J4,J5,J6:0.000000,0.000000,0.349066,0.000000,0.000000,0.000000:0.250000,0.250000,0.250000,0.250000,0.250000,0.250000:pos_vel_
1549510934.616171,cobot_dynamixel_driver/goal|-:J3:0.000000:eff_
1549510934.706753,cobot_dynamixel_driver/goal|-:J1,J2,J3,J4,J5,J6:0.000000,0.000000,0.349066,0.000000,0.000000,0.000000:0.250000,0.250000,0.250000,0.250000,0.250000,0.250000:pos_vel_
1549510937.445101,cobot_dynamixel_driver/goal|-:J3:-708.610326:eff_
1549510938.048975,cobot_dynamixel_driver/goal|-:J3:-698.610326:eff_
1549510938.643269,cobot_dynamixel_driver/goal|-:J3:-688.610326:eff_
1549510939.238782,cobot_dynamixel_driver/goal|-:J3:-678.610326:eff_
1549510939.835824,cobot_dynamixel_driver/goal|-:J3:-668.610326:eff_
1549510940.431600,cobot_dynamixel_driver/goal|-:J3:-658.610326:eff_
1549510941.053542,cobot_dynamixel_driver/goal|-:J3:-648.610326:eff_
1549510941.649329,cobot_dynamixel_driver/goal|-:J3:-638.610326:eff_
1549510942.245336,cobot_dynamixel_driver/goal|-:J3:-628.610326:eff_
1549510942.839101,cobot_dynamixel_driver/goal|-:J3:-618.610326:eff_
1549510943.460764,cobot_dynamixel_driver/goal|-:J3:-608.610326:eff_
1549510944.056081,cobot_dynamixel_driver/goal|-:J3:-598.610326:eff_
1549510944.652582,cobot_dynamixel_driver/goal|-:J3:-588.610326:eff_
1549510945.247617,cobot_dynamixel_driver/goal|-:J3:-578.610326:eff_
1549510945.844237,cobot_dynamixel_driver/goal|-:J3:-568.610326:eff_
1549510946.439994,cobot_dynamixel_driver/goal|-:J3:-558.610326:eff_
1549510947.060796,cobot_dynamixel_driver/goal|-:J3:-548.610326:eff_
1549510947.658728,cobot_dynamixel_driver/goal|-:J3:-538.610326:eff_
1549510948.253742,cobot_dynamixel_driver/goal|-:J3:-528.610326:eff_
1549510948.850645,cobot_dynamixel_driver/goal|-:J3:-518.610326:eff_
1549510949.446102,cobot_dynamixel_driver/goal|-:J3:-508.610326:eff_
1549510950.068050,cobot_dynamixel_driver/goal|-:J3:-498.610326:eff_
1549510950.662958,cobot_dynamixel_driver/goal|-:J3:-488.610326:eff_
1549510951.256979,cobot_dynamixel_driver/goal|-:J3:-478.610326:eff_
1549510951.852763,cobot_dynamixel_driver/goal|-:J3:-468.610326:eff_
1549510952.475405,cobot_dynamixel_driver/goal|-:J3:-458.610326:eff_
1549510953.070609,cobot_dynamixel_driver/goal|-:J3:-448.610326:eff_
1549510953.664115,cobot_dynamixel_driver/goal|-:J3:-438.610326:eff_
1549510954.259985,cobot_dynamixel_driver/goal|-:J3:-428.610326:eff_
1549510954.854874,cobot_dynamixel_driver/goal|-:J3:-418.610326:eff_
1549510955.476725,cobot_dynamixel_driver/goal|-:J3:-408.610326:eff_
1549510956.070700,cobot_dynamixel_driver/goal|-:J3:-398.610326:eff_
1549510956.665702,cobot_dynamixel_driver/goal|-:J3:-388.610326:eff_
1549510957.260347,cobot_dynamixel_driver/goal|-:J3:-378.610326:eff_
1549510957.882355,cobot_dynamixel_driver/goal|-:J3:-368.610326:eff_
1549510958.475998,cobot_dynamixel_driver/goal|-:J3:-358.610326:eff_
1549510959.070813,cobot_dynamixel_driver/goal|-:J3:-348.610326:eff_
1549510959.665668,cobot_dynamixel_driver/goal|-:J3:-338.610326:eff_
1549510960.262559,cobot_dynamixel_driver/goal|-:J3:-328.610326:eff_
1549510960.883744,cobot_dynamixel_driver/goal|-:J3:-318.610326:eff_
1549510961.478207,cobot_dynamixel_driver/goal|-:J3:-308.610326:eff_
1549510962.072300,cobot_dynamixel_driver/goal|-:J3:-298.610326:eff_
1549510962.669278,cobot_dynamixel_driver/goal|-:J3:-288.610326:eff_
1549510963.292020,cobot_dynamixel_driver/goal|-:J3:-278.610326:eff_
1549510963.886971,cobot_dynamixel_driver/goal|-:J3:-268.610326:eff_
1549510964.480630,cobot_dynamixel_driver/goal|-:J3:-258.610326:eff_
1549510965.075482,cobot_dynamixel_driver/goal|-:J3:-248.610326:eff_
1549510965.671205,cobot_dynamixel_driver/goal|-:J3:-238.610326:eff_
1549510967.291588,cobot_dynamixel_driver/goal|-:J3:0.000000:eff_
1549510967.372890,cobot_dynamixel_driver/goal|-:J1,J2,J3,J4,J5,J6:0.000000,0.000000,0.349066,0.000000,0.000000,0.000000:0.250000,0.250000,0.250000,0.250000,0.250000,0.250000:pos_vel_
1549510967.976532,cobot_dynamixel_driver/goal|-:J3:-228.610326:eff_
1549510968.580900,cobot_dynamixel_driver/goal|-:J3:-218.610326:eff_
1549510969.176366,cobot_dynamixel_driver/goal|-:J3:-208.610326:eff_
1549510969.797303,cobot_dynamixel_driver/goal|-:J3:-198.610326:eff_
1549510970.392970,cobot_dynamixel_driver/goal|-:J3:-188.610326:eff_
1549510970.987848,cobot_dynamixel_driver/goal|-:J3:-178.610326:eff_
1549510971.582643,cobot_dynamixel_driver/goal|-:J3:0.000000:eff_
1549510971.691885,cobot_dynamixel_driver/goal|-:J1,J2,J3,J4,J5,J6:0.000000,0.000000,0.349066,0.000000,0.000000,0.000000:0.250000,0.250000,0.250000,0.250000,0.250000,0.250000:pos_vel_
1549510973.726444,cobot_dynamixel_driver/goal|-:J3:0.000000:eff_
1549510973.817066,cobot_dynamixel_driver/goal|-:J1,J2,J3,J4,J5,J6:0.000000,0.000000,0.261799,0.000000,0.000000,0.000000:0.250000,0.250000,0.250000,0.250000,0.250000,0.250000:pos_vel_
1549510977.259213,cobot_dynamixel_driver/goal|-:J3:-869.462233:eff_
1549510977.863171,cobot_dynamixel_driver/goal|-:J1,J2,J3,J4,J5,J6:0.000000,0.000000,0.261799,0.000000,0.000000,0.000000:0.250000,0.250000,0.250000,0.250000,0.250000,0.250000:pos_vel_
1549510978.575461,cobot_dynamixel_driver/goal|-:J3:-859.462233:eff_
1549510979.153923,cobot_dynamixel_driver/goal|-:J1,J2,J3,J4,J5,J6:0.000000,0.000000,0.261799,0.000000,0.000000,0.000000:0.250000,0.250000,0.250000,0.250000,0.250000,0.250000:pos_vel_
1549510979.866838,cobot_dynamixel_driver/goal|-:J3:-849.462233:eff_
1549510980.471879,cobot_dynamixel_driver/goal|-:J1,J2,J3,J4,J5,J6:0.000000,0.000000,0.261799,0.000000,0.000000,0.000000:0.250000,0.250000,0.250000,0.250000,0.250000,0.250000:pos_vel_
1549510981.157354,cobot_dynamixel_driver/goal|-:J3:-839.462233:eff_
1549510981.761440,cobot_dynamixel_driver/goal|-:J1,J2,J3,J4,J5,J6:0.000000,0.000000,0.261799,0.000000,0.000000,0.000000:0.250000,0.250000,0.250000,0.250000,0.250000,0.250000:pos_vel_
1549510982.475176,cobot_dynamixel_driver/goal|-:J3:-829.462233:eff_
1549510983.079148,cobot_dynamixel_driver/goal|-:J1,J2,J3,J4,J5,J6:0.000000,0.000000,0.261799,0.000000,0.000000,0.000000:0.250000,0.250000,0.250000,0.250000,0.250000,0.250000:pos_vel_
1549510983.656648,cobot_dynamixel_driver/goal|-:J3:-819.462233:eff_
1549510985.259202,cobot_dynamixel_driver/goal|-:J3:0.000000:eff_
1549510985.367406,cobot_dynamixel_driver/goal|-:J1,J2,J3,J4,J5,J6:0.000000,0.000000,0.261799,0.000000,0.000000,0.000000:0.250000,0.250000,0.250000,0.250000,0.250000,0.250000:pos_vel_
1549510985.566372,cobot_dynamixel_driver/goal|-:J3:-829.462233:eff_
1549510986.170277,cobot_dynamixel_driver/goal|-:J3:0.000000:eff_
1549510986.278976,cobot_dynamixel_driver/goal|-:J1,J2,J3,J4,J5,J6:0.000000,0.000000,0.261799,0.000000,0.000000,0.000000:0.250000,0.250000,0.250000,0.250000,0.250000,0.250000:pos_vel_
1549510987.720673,cobot_dynamixel_driver/goal|-:J3:0.000000:eff_
1549510987.811681,cobot_dynamixel_driver/goal|-:J1,J2,J3,J4,J5,J6:0.000000,0.000000,0.261799,0.000000,0.000000,0.000000:0.250000,0.250000,0.250000,0.250000,0.250000,0.250000:pos_vel_
1549510990.549876,cobot_dynamixel_driver/goal|-:J3:-879.697658:eff_
1549510991.155205,cobot_dynamixel_driver/goal|-:J1,J2,J3,J4,J5,J6:0.000000,0.000000,0.261799,0.000000,0.000000,0.000000:0.250000,0.250000,0.250000,0.250000,0.250000,0.250000:pos_vel_
1549510991.949627,cobot_dynamixel_driver/goal|-:J3:-869.697658:eff_
1549510992.553531,cobot_dynamixel_driver/goal|-:J1,J2,J3,J4,J5,J6:0.000000,0.000000,0.261799,0.000000,0.000000,0.000000:0.250000,0.250000,0.250000,0.250000,0.250000,0.250000:pos_vel_
1549510993.266482,cobot_dynamixel_driver/goal|-:J3:-859.697658:eff_
1549510993.843435,cobot_dynamixel_driver/goal|-:J1,J2,J3,J4,J5,J6:0.000000,0.000000,0.261799,0.000000,0.000000,0.000000:0.250000,0.250000,0.250000,0.250000,0.250000,0.250000:pos_vel_
1549510994.554929,cobot_dynamixel_driver/goal|-:J3:-849.697658:eff_
1549510995.159959,cobot_dynamixel_driver/goal|-:J1,J2,J3,J4,J5,J6:0.000000,0.000000,0.261799,0.000000,0.000000,0.000000:0.250000,0.250000,0.250000,0.250000,0.250000,0.250000:pos_vel_
1549510995.844646,cobot_dynamixel_driver/goal|-:J3:-839.697658:eff_
1549510996.448453,cobot_dynamixel_driver/goal|-:J1,J2,J3,J4,J5,J6:0.000000,0.000000,0.261799,0.000000,0.000000,0.000000:0.250000,0.250000,0.250000,0.250000,0.250000,0.250000:pos_vel_
1549510997.162521,cobot_dynamixel_driver/goal|-:J3:-829.697658:eff_
1549510997.766376,cobot_dynamixel_driver/goal|-:J1,J2,J3,J4,J5,J6:0.000000,0.000000,0.261799,0.000000,0.000000,0.000000:0.250000,0.250000,0.250000,0.250000,0.250000,0.250000:pos_vel_
1549510998.451226,cobot_dynamixel_driver/goal|-:J3:-819.697658:eff_
1549511000.054547,cobot_dynamixel_driver/goal|-:J3:0.000000:eff_
1549511000.162752,cobot_dynamixel_driver/goal|-:J1,J2,J3,J4,J5,J6:0.000000,0.000000,0.261799,0.000000,0.000000,0.000000:0.250000,0.250000,0.250000,0.250000,0.250000,0.250000:pos_vel_
1549511000.470674,cobot_dynamixel_driver/goal|-:J3:-809.697658:eff_
1549511002.072932,cobot_dynamixel_driver/goal|-:J3:0.000000:eff_
1549511002.154067,cobot_dynamixel_driver/goal|-:J1,J2,J3,J4,J5,J6:0.000000,0.000000,0.261799,0.000000,0.000000,0.000000:0.250000,0.250000,0.250000,0.250000,0.250000,0.250000:pos_vel_
1549511002.568866,cobot_dynamixel_driver/goal|-:J3:-799.697658:eff_
1549511004.173518,cobot_dynamixel_driver/goal|-:J3:0.000000:eff_
1549511004.254725,cobot_dynamixel_driver/goal|-:J1,J2,J3,J4,J5,J6:0.000000,0.000000,0.261799,0.000000,0.000000,0.000000:0.250000,0.250000,0.250000,0.250000,0.250000,0.250000:pos_vel_
1549511004.669523,cobot_dynamixel_driver/goal|-:J3:-789.697658:eff_
1549511006.272853,cobot_dynamixel_driver/goal|-:J3:0.000000:eff_
1549511006.354135,cobot_dynamixel_driver/goal|-:J1,J2,J3,J4,J5,J6:0.000000,0.000000,0.261799,0.000000,0.000000,0.000000:0.250000,0.250000,0.250000,0.250000,0.250000,0.250000:pos_vel_
1549511006.958097,cobot_dynamixel_driver/goal|-:J3:-779.697658:eff_
1549511007.561912,cobot_dynamixel_driver/goal|-:J3:-769.697658:eff_
1549511008.158742,cobot_dynamixel_driver/goal|-:J3:-759.697658:eff_
1549511008.781578,cobot_dynamixel_driver/goal|-:J3:-749.697658:eff_
1549511009.376431,cobot_dynamixel_driver/goal|-:J3:-739.697658:eff_
1549511009.971394,cobot_dynamixel_driver/goal|-:J3:-729.697658:eff_
1549511010.568118,cobot_dynamixel_driver/goal|-:J3:-719.697658:eff_
1549511011.162969,cobot_dynamixel_driver/goal|-:J3:-709.697658:eff_
1549511011.784594,cobot_dynamixel_driver/goal|-:J3:-699.697658:eff_
1549511012.378623,cobot_dynamixel_driver/goal|-:J3:-689.697658:eff_
1549511012.973619,cobot_dynamixel_driver/goal|-:J3:-679.697658:eff_
1549511013.568260,cobot_dynamixel_driver/goal|-:J3:-669.697658:eff_
1549511014.190067,cobot_dynamixel_driver/goal|-:J3:-659.697658:eff_
1549511014.784778,cobot_dynamixel_driver/goal|-:J3:-649.697658:eff_
1549511015.379797,cobot_dynamixel_driver/goal|-:J3:-639.697658:eff_
1549511015.973665,cobot_dynamixel_driver/goal|-:J3:-629.697658:eff_
1549511016.568509,cobot_dynamixel_driver/goal|-:J3:-619.697658:eff_
1549511017.190492,cobot_dynamixel_driver/goal|-:J3:-609.697658:eff_
1549511017.785246,cobot_dynamixel_driver/goal|-:J3:-599.697658:eff_
1549511018.379996,cobot_dynamixel_driver/goal|-:J3:-589.697658:eff_
1549511018.974135,cobot_dynamixel_driver/goal|-:J3:-579.697658:eff_
1549511019.597844,cobot_dynamixel_driver/goal|-:J3:-569.697658:eff_
1549511020.191606,cobot_dynamixel_driver/goal|-:J3:-559.697658:eff_
1549511020.786479,cobot_dynamixel_driver/goal|-:J3:-549.697658:eff_
1549511021.381216,cobot_dynamixel_driver/goal|-:J3:-539.697658:eff_
1549511022.003118,cobot_dynamixel_driver/goal|-:J3:-529.697658:eff_
1549511022.598100,cobot_dynamixel_driver/goal|-:J3:-519.697658:eff_
1549511023.193824,cobot_dynamixel_driver/goal|-:J3:-509.697658:eff_
1549511023.787709,cobot_dynamixel_driver/goal|-:J3:-499.697658:eff_
1549511024.382500,cobot_dynamixel_driver/goal|-:J3:-489.697658:eff_
1549511025.004364,cobot_dynamixel_driver/goal|-:J3:-479.697658:eff_
1549511025.599143,cobot_dynamixel_driver/goal|-:J3:-469.697658:eff_
1549511026.194208,cobot_dynamixel_driver/goal|-:J3:-459.697658:eff_
1549511026.788765,cobot_dynamixel_driver/goal|-:J3:-449.697658:eff_
1549511027.410614,cobot_dynamixel_driver/goal|-:J3:-439.697658:eff_
1549511028.006728,cobot_dynamixel_driver/goal|-:J3:-429.697658:eff_
1549511028.600716,cobot_dynamixel_driver/goal|-:J3:-419.697658:eff_
1549511029.195276,cobot_dynamixel_driver/goal|-:J3:-409.697658:eff_
1549511029.793105,cobot_dynamixel_driver/goal|-:J3:-399.697658:eff_
1549511030.415011,cobot_dynamixel_driver/goal|-:J3:-389.697658:eff_
1549511031.010767,cobot_dynamixel_driver/goal|-:J3:-379.697658:eff_
1549511031.605858,cobot_dynamixel_driver/goal|-:J3:-369.697658:eff_
1549511032.199530,cobot_dynamixel_driver/goal|-:J3:-359.697658:eff_
1549511032.820428,cobot_dynamixel_driver/goal|-:J3:-349.697658:eff_
1549511033.417211,cobot_dynamixel_driver/goal|-:J3:-339.697658:eff_
1549511034.012000,cobot_dynamixel_driver/goal|-:J3:-329.697658:eff_
1549511034.610240,cobot_dynamixel_driver/goal|-:J3:-319.697658:eff_
1549511035.204661,cobot_dynamixel_driver/goal|-:J3:-309.697658:eff_
1549511035.798763,cobot_dynamixel_driver/goal|-:J3:-299.697658:eff_
1549511036.420443,cobot_dynamixel_driver/goal|-:J3:-289.697658:eff_
1549511038.014941,cobot_dynamixel_driver/goal|-:J3:0.000000:eff_
1549511038.123300,cobot_dynamixel_driver/goal|-:J1,J2,J3,J4,J5,J6:0.000000,0.000000,0.261799,0.000000,0.000000,0.000000:0.250000,0.250000,0.250000,0.250000,0.250000,0.250000:pos_vel_
1549511038.808699,cobot_dynamixel_driver/goal|-:J3:-279.697658:eff_
1549511039.413980,cobot_dynamixel_driver/goal|-:J3:-269.697658:eff_
1549511040.008801,cobot_dynamixel_driver/goal|-:J3:-259.697658:eff_
1549511040.630413,cobot_dynamixel_driver/goal|-:J3:-249.697658:eff_
1549511041.225202,cobot_dynamixel_driver/goal|-:J3:-239.697658:eff_
1549511042.817742,cobot_dynamixel_driver/goal|-:J3:0.000000:eff_
1549511042.925950,cobot_dynamixel_driver/goal|-:J1,J2,J3,J4,J5,J6:0.000000,0.000000,0.261799,0.000000,0.000000,0.000000:0.250000,0.250000,0.250000,0.250000,0.250000,0.250000:pos_vel_
1549511043.611706,cobot_dynamixel_driver/goal|-:J3:-229.697658:eff_
1549511044.217626,cobot_dynamixel_driver/goal|-:J3:0.000000:eff_
1549511044.325375,cobot_dynamixel_driver/goal|-:J1,J2,J3,J4,J5,J6:0.000000,0.000000,0.261799,0.000000,0.000000,0.000000:0.250000,0.250000,0.250000,0.250000,0.250000,0.250000:pos_vel_
1549511046.332895,cobot_dynamixel_driver/goal|-:J3:0.000000:eff_
1549511046.451118,cobot_dynamixel_driver/goal|-:J1,J2,J3,J4,J5,J6:0.000000,0.000000,0.174533,0.000000,0.000000,0.000000:0.250000,0.250000,0.250000,0.250000,0.250000,0.250000:pos_vel_
1549511049.567082,cobot_dynamixel_driver/goal|-:J3:-740.471058:eff_
1549511050.172210,cobot_dynamixel_driver/goal|-:J3:-750.471058:eff_
1549511050.767042,cobot_dynamixel_driver/goal|-:J3:-760.471058:eff_
1549511051.388761,cobot_dynamixel_driver/goal|-:J3:-770.471058:eff_
1549511051.985564,cobot_dynamixel_driver/goal|-:J3:-780.471058:eff_
1549511052.580335,cobot_dynamixel_driver/goal|-:J3:-790.471058:eff_
1549511053.175579,cobot_dynamixel_driver/goal|-:J3:-800.471058:eff_
1549511053.771185,cobot_dynamixel_driver/goal|-:J3:-810.471058:eff_
1549511054.392998,cobot_dynamixel_driver/goal|-:J3:-820.471058:eff_
1549511054.987828,cobot_dynamixel_driver/goal|-:J3:-830.471058:eff_
1549511055.583740,cobot_dynamixel_driver/goal|-:J3:-840.471058:eff_
1549511056.177633,cobot_dynamixel_driver/goal|-:J3:-850.471058:eff_
1549511056.798636,cobot_dynamixel_driver/goal|-:J3:-860.471058:eff_
1549511057.394256,cobot_dynamixel_driver/goal|-:J3:-870.471058:eff_
1549511057.988160,cobot_dynamixel_driver/goal|-:J3:-880.471058:eff_
1549511058.582158,cobot_dynamixel_driver/goal|-:J3:-890.471058:eff_
1549511059.204103,cobot_dynamixel_driver/goal|-:J3:-900.471058:eff_
1549511059.798678,cobot_dynamixel_driver/goal|-:J3:-910.471058:eff_
1549511060.392727,cobot_dynamixel_driver/goal|-:J3:-920.471058:eff_
1549511060.987441,cobot_dynamixel_driver/goal|-:J3:0.000000:eff_
1549511061.098457,cobot_dynamixel_driver/goal|-:J1,J2,J3,J4,J5,J6:0.000000,0.000000,0.174533,0.000000,0.000000,0.000000:0.250000,0.250000,0.250000,0.250000,0.250000,0.250000:pos_vel_
1549511063.024790,cobot_dynamixel_driver/goal|-:J3:0.000000:eff_
1549511063.142995,cobot_dynamixel_driver/goal|-:J1,J2,J3,J4,J5,J6:0.000000,0.000000,0.174533,0.000000,0.000000,0.000000:0.250000,0.250000,0.250000,0.250000,0.250000,0.250000:pos_vel_
1549511065.962075,cobot_dynamixel_driver/goal|-:J3:-890.881572:eff_
1549511066.592938,cobot_dynamixel_driver/goal|-:J3:0.000000:eff_
1549511066.674030,cobot_dynamixel_driver/goal|-:J1,J2,J3,J4,J5,J6:0.000000,0.000000,0.174533,0.000000,0.000000,0.000000:0.250000,0.250000,0.250000,0.250000,0.250000,0.250000:pos_vel_
1549511068.604899,cobot_dynamixel_driver/goal|-:J3:0.000000:eff_
1549511068.696470,cobot_dynamixel_driver/goal|-:J1,J2,J3,J4,J5,J6:0.000000,0.000000,0.087266,0.000000,0.000000,0.000000:0.250000,0.250000,0.250000,0.250000,0.250000,0.250000:pos_vel_
1549511072.029435,cobot_dynamixel_driver/goal|-:J3:-822.787601:eff_
1549511072.637488,cobot_dynamixel_driver/goal|-:J3:-832.787601:eff_
1549511073.232523,cobot_dynamixel_driver/goal|-:J3:-842.787601:eff_
1549511073.854296,cobot_dynamixel_driver/goal|-:J3:-852.787601:eff_
1549511074.449137,cobot_dynamixel_driver/goal|-:J3:-862.787601:eff_
1549511075.043690,cobot_dynamixel_driver/goal|-:J3:-872.787601:eff_
1549511075.638615,cobot_dynamixel_driver/goal|-:J3:-882.787601:eff_
1549511076.259712,cobot_dynamixel_driver/goal|-:J3:-892.787601:eff_
1549511076.854650,cobot_dynamixel_driver/goal|-:J3:-902.787601:eff_
1549511077.448403,cobot_dynamixel_driver/goal|-:J3:-912.787601:eff_
1549511078.045125,cobot_dynamixel_driver/goal|-:J3:-922.787601:eff_
1549511078.640115,cobot_dynamixel_driver/goal|-:J3:-932.787601:eff_
1549511079.261691,cobot_dynamixel_driver/goal|-:J3:-942.787601:eff_
1549511079.856049,cobot_dynamixel_driver/goal|-:J3:-952.787601:eff_
1549511080.451395,cobot_dynamixel_driver/goal|-:J3:-962.787601:eff_
1549511081.045271,cobot_dynamixel_driver/goal|-:J3:-972.787601:eff_
1549511081.665972,cobot_dynamixel_driver/goal|-:J3:-982.787601:eff_
1549511082.260079,cobot_dynamixel_driver/goal|-:J3:-992.787601:eff_
1549511082.854952,cobot_dynamixel_driver/goal|-:J3:-1002.787601:eff_
1549511083.448706,cobot_dynamixel_driver/goal|-:J3:0.000000:eff_
1549511083.556562,cobot_dynamixel_driver/goal|-:J1,J2,J3,J4,J5,J6:0.000000,0.000000,0.087266,0.000000,0.000000,0.000000:0.250000,0.250000,0.250000,0.250000,0.250000,0.250000:pos_vel_
1549511085.701124,cobot_dynamixel_driver/goal|-:J3:0.000000:eff_
1549511085.792104,cobot_dynamixel_driver/goal|-:J1,J2,J3,J4,J5,J6:0.000000,0.000000,0.087266,0.000000,0.000000,0.000000:0.250000,0.250000,0.250000,0.250000,0.250000,0.250000:pos_vel_
1549511088.827200,cobot_dynamixel_driver/goal|-:J3:-804.593665:eff_
1549511089.431131,cobot_dynamixel_driver/goal|-:J3:-794.593665:eff_
1549511090.025118,cobot_dynamixel_driver/goal|-:J3:-784.593665:eff_
1549511090.619802,cobot_dynamixel_driver/goal|-:J3:-774.593665:eff_
1549511091.214651,cobot_dynamixel_driver/goal|-:J3:-764.593665:eff_
1549511091.809467,cobot_dynamixel_driver/goal|-:J3:-754.593665:eff_
1549511092.431413,cobot_dynamixel_driver/goal|-:J3:-744.593665:eff_
1549511093.025232,cobot_dynamixel_driver/goal|-:J3:-734.593665:eff_
1549511093.620002,cobot_dynamixel_driver/goal|-:J3:-724.593665:eff_
1549511094.214951,cobot_dynamixel_driver/goal|-:J3:-714.593665:eff_
1549511094.836981,cobot_dynamixel_driver/goal|-:J3:-704.593665:eff_
1549511095.431595,cobot_dynamixel_driver/goal|-:J3:-694.593665:eff_
1549511096.027588,cobot_dynamixel_driver/goal|-:J3:-684.593665:eff_
1549511096.623328,cobot_dynamixel_driver/goal|-:J3:-674.593665:eff_
1549511097.218130,cobot_dynamixel_driver/goal|-:J3:-664.593665:eff_
1549511097.840971,cobot_dynamixel_driver/goal|-:J3:-654.593665:eff_
1549511098.434831,cobot_dynamixel_driver/goal|-:J3:-644.593665:eff_
1549511099.028709,cobot_dynamixel_driver/goal|-:J3:-634.593665:eff_
1549511099.623540,cobot_dynamixel_driver/goal|-:J3:-624.593665:eff_
1549511100.245606,cobot_dynamixel_driver/goal|-:J3:-614.593665:eff_
1549511100.839725,cobot_dynamixel_driver/goal|-:J3:-604.593665:eff_
1549511101.434095,cobot_dynamixel_driver/goal|-:J3:-594.593665:eff_
1549511102.028251,cobot_dynamixel_driver/goal|-:J3:-584.593665:eff_
1549511102.649901,cobot_dynamixel_driver/goal|-:J3:-574.593665:eff_
1549511103.243732,cobot_dynamixel_driver/goal|-:J3:-564.593665:eff_
1549511103.837619,cobot_dynamixel_driver/goal|-:J3:-554.593665:eff_
1549511104.431376,cobot_dynamixel_driver/goal|-:J3:-544.593665:eff_
1549511105.053251,cobot_dynamixel_driver/goal|-:J3:-534.593665:eff_
1549511105.648247,cobot_dynamixel_driver/goal|-:J3:-524.593665:eff_
1549511106.242985,cobot_dynamixel_driver/goal|-:J3:-514.593665:eff_
1549511106.837735,cobot_dynamixel_driver/goal|-:J3:-504.593665:eff_
1549511107.432525,cobot_dynamixel_driver/goal|-:J3:-494.593665:eff_
1549511108.053572,cobot_dynamixel_driver/goal|-:J3:-484.593665:eff_
1549511108.648328,cobot_dynamixel_driver/goal|-:J3:-474.593665:eff_
1549511109.242309,cobot_dynamixel_driver/goal|-:J3:-464.593665:eff_
1549511109.838088,cobot_dynamixel_driver/goal|-:J3:-454.593665:eff_
1549511110.460113,cobot_dynamixel_driver/goal|-:J3:-444.593665:eff_
1549511111.054029,cobot_dynamixel_driver/goal|-:J3:-434.593665:eff_
1549511111.648660,cobot_dynamixel_driver/goal|-:J3:-424.593665:eff_
1549511112.243563,cobot_dynamixel_driver/goal|-:J3:-414.593665:eff_
1549511112.865434,cobot_dynamixel_driver/goal|-:J3:-404.593665:eff_
1549511113.461079,cobot_dynamixel_driver/goal|-:J3:-394.593665:eff_
1549511114.055899,cobot_dynamixel_driver/goal|-:J3:-384.593665:eff_
1549511114.650004,cobot_dynamixel_driver/goal|-:J3:-374.593665:eff_
1549511115.270636,cobot_dynamixel_driver/goal|-:J3:-364.593665:eff_
1549511115.864783,cobot_dynamixel_driver/goal|-:J3:-354.593665:eff_
1549511116.459675,cobot_dynamixel_driver/goal|-:J3:-344.593665:eff_
1549511117.054331,cobot_dynamixel_driver/goal|-:J3:-334.593665:eff_
1549511117.676183,cobot_dynamixel_driver/goal|-:J3:-324.593665:eff_
1549511118.270867,cobot_dynamixel_driver/goal|-:J3:-314.593665:eff_
1549511118.865101,cobot_dynamixel_driver/goal|-:J3:-304.593665:eff_
1549511119.460857,cobot_dynamixel_driver/goal|-:J3:-294.593665:eff_
1549511120.057684,cobot_dynamixel_driver/goal|-:J3:-284.593665:eff_
1549511120.653573,cobot_dynamixel_driver/goal|-:J3:-274.593665:eff_
1549511121.274209,cobot_dynamixel_driver/goal|-:J3:-264.593665:eff_
1549511122.867705,cobot_dynamixel_driver/goal|-:J3:0.000000:eff_
1549511122.976028,cobot_dynamixel_driver/goal|-:J1,J2,J3,J4,J5,J6:0.000000,0.000000,0.087266,0.000000,0.000000,0.000000:0.250000,0.250000,0.250000,0.250000,0.250000,0.250000:pos_vel_
1549511123.363875,cobot_dynamixel_driver/goal|-:J3:-254.593665:eff_
1549511123.967515,cobot_dynamixel_driver/goal|-:J3:0.000000:eff_
1549511124.076591,cobot_dynamixel_driver/goal|-:J1,J2,J3,J4,J5,J6:0.000000,0.000000,0.087266,0.000000,0.000000,0.000000:0.250000,0.250000,0.250000,0.250000,0.250000,0.250000:pos_vel_
1549511126.084318,cobot_dynamixel_driver/goal|-:J3:0.000000:eff_
1549511126.202297,cobot_dynamixel_driver/goal|-:J1,J2,J3,J4,J5,J6:0.000000,0.000000,0.000000,0.000000,0.000000,0.000000:0.250000,0.250000,0.250000,0.250000,0.250000,0.250000:pos_vel_
1549511129.424068,cobot_dynamixel_driver/goal|-:J3:-674.043150:eff_
1549511130.028252,cobot_dynamixel_driver/goal|-:J3:-684.043150:eff_
1549511130.622953,cobot_dynamixel_driver/goal|-:J3:-694.043150:eff_
1549511131.217015,cobot_dynamixel_driver/goal|-:J3:-704.043150:eff_
1549511131.839616,cobot_dynamixel_driver/goal|-:J3:-714.043150:eff_
1549511132.433498,cobot_dynamixel_driver/goal|-:J3:-724.043150:eff_
1549511133.028484,cobot_dynamixel_driver/goal|-:J3:-734.043150:eff_
1549511133.623251,cobot_dynamixel_driver/goal|-:J3:-744.043150:eff_
1549511134.245085,cobot_dynamixel_driver/goal|-:J3:-754.043150:eff_
1549511134.838935,cobot_dynamixel_driver/goal|-:J3:-764.043150:eff_
1549511135.433753,cobot_dynamixel_driver/goal|-:J3:-774.043150:eff_
1549511136.027699,cobot_dynamixel_driver/goal|-:J3:-784.043150:eff_
1549511136.649689,cobot_dynamixel_driver/goal|-:J3:-794.043150:eff_
1549511137.244340,cobot_dynamixel_driver/goal|-:J3:-804.043150:eff_
1549511137.840153,cobot_dynamixel_driver/goal|-:J3:-814.043150:eff_
1549511138.436164,cobot_dynamixel_driver/goal|-:J3:-824.043150:eff_
1549511139.031157,cobot_dynamixel_driver/goal|-:J3:-834.043150:eff_
1549511139.652894,cobot_dynamixel_driver/goal|-:J3:-844.043150:eff_
1549511140.247819,cobot_dynamixel_driver/goal|-:J3:-854.043150:eff_
1549511140.842730,cobot_dynamixel_driver/goal|-:J3:-864.043150:eff_
1549511141.438248,cobot_dynamixel_driver/goal|-:J3:-874.043150:eff_
1549511142.032369,cobot_dynamixel_driver/goal|-:J3:-884.043150:eff_
1549511142.654081,cobot_dynamixel_driver/goal|-:J3:-894.043150:eff_
1549511143.249108,cobot_dynamixel_driver/goal|-:J3:-904.043150:eff_
1549511143.843706,cobot_dynamixel_driver/goal|-:J3:-914.043150:eff_
1549511144.438786,cobot_dynamixel_driver/goal|-:J3:-924.043150:eff_
1549511145.060421,cobot_dynamixel_driver/goal|-:J3:-934.043150:eff_
1549511145.655514,cobot_dynamixel_driver/goal|-:J3:-944.043150:eff_
1549511146.250099,cobot_dynamixel_driver/goal|-:J3:-954.043150:eff_
1549511146.844028,cobot_dynamixel_driver/goal|-:J3:-964.043150:eff_
1549511147.465873,cobot_dynamixel_driver/goal|-:J3:-974.043150:eff_
1549511148.060827,cobot_dynamixel_driver/goal|-:J3:0.000000:eff_
1549511148.169038,cobot_dynamixel_driver/goal|-:J1,J2,J3,J4,J5,J6:0.000000,0.000000,0.000000,0.000000,0.000000,0.000000:0.250000,0.250000,0.250000,0.250000,0.250000,0.250000:pos_vel_
1549511150.204212,cobot_dynamixel_driver/goal|-:J3:0.000000:eff_
1549511150.295117,cobot_dynamixel_driver/goal|-:J1,J2,J3,J4,J5,J6:0.000000,0.000000,0.000000,0.000000,0.000000,0.000000:0.250000,0.250000,0.250000,0.250000,0.250000,0.250000:pos_vel_
1549511153.114317,cobot_dynamixel_driver/goal|-:J3:-450.479374:eff_
1549511153.718441,cobot_dynamixel_driver/goal|-:J3:-440.479374:eff_
1549511154.339079,cobot_dynamixel_driver/goal|-:J3:-430.479374:eff_
1549511154.932992,cobot_dynamixel_driver/goal|-:J3:-420.479374:eff_
1549511155.526802,cobot_dynamixel_driver/goal|-:J3:-410.479374:eff_
1549511156.121748,cobot_dynamixel_driver/goal|-:J3:-400.479374:eff_
1549511156.742448,cobot_dynamixel_driver/goal|-:J3:-390.479374:eff_
1549511157.336636,cobot_dynamixel_driver/goal|-:J3:-380.479374:eff_
1549511157.931410,cobot_dynamixel_driver/goal|-:J3:-370.479374:eff_
1549511158.525295,cobot_dynamixel_driver/goal|-:J3:-360.479374:eff_
1549511159.119860,cobot_dynamixel_driver/goal|-:J3:-350.479374:eff_
1549511159.740984,cobot_dynamixel_driver/goal|-:J3:-340.479374:eff_
1549511160.335935,cobot_dynamixel_driver/goal|-:J3:-330.479374:eff_
1549511160.930367,cobot_dynamixel_driver/goal|-:J3:-320.479374:eff_
1549511161.525629,cobot_dynamixel_driver/goal|-:J3:-310.479374:eff_
1549511162.148250,cobot_dynamixel_driver/goal|-:J3:-300.479374:eff_
1549511162.743217,cobot_dynamixel_driver/goal|-:J3:-290.479374:eff_
1549511163.339968,cobot_dynamixel_driver/goal|-:J3:-280.479374:eff_
1549511163.935665,cobot_dynamixel_driver/goal|-:J3:-270.479374:eff_
1549511164.530686,cobot_dynamixel_driver/goal|-:J3:-260.479374:eff_
1549511165.151247,cobot_dynamixel_driver/goal|-:J3:-250.479374:eff_
1549511165.746202,cobot_dynamixel_driver/goal|-:J3:-240.479374:eff_
1549511166.341020,cobot_dynamixel_driver/goal|-:J3:-230.479374:eff_
1549511166.936092,cobot_dynamixel_driver/goal|-:J3:-220.479374:eff_
1549511167.557812,cobot_dynamixel_driver/goal|-:J3:-210.479374:eff_
1549511168.152612,cobot_dynamixel_driver/goal|-:J3:-200.479374:eff_
1549511168.855318,cobot_dynamixel_driver/goal|-:J3:0.000000:eff_
1549511168.937452,cobot_dynamixel_driver/goal|-:J1,J2,J3,J4,J5,J6:0.000000,0.000000,0.000000,0.000000,0.000000,0.000000:0.250000,0.250000,0.250000,0.250000,0.250000,0.250000:pos_vel_
1549511170.973208,cobot_dynamixel_driver/goal|-:J3:0.000000:eff_
1549511171.091081,cobot_dynamixel_driver/goal|-:J1,J2,J3,J4,J5,J6:0.000000,0.000000,-0.087266,0.000000,0.000000,0.000000:0.250000,0.250000,0.250000,0.250000,0.250000,0.250000:pos_vel_
1549511174.205046,cobot_dynamixel_driver/goal|-:J3:-679.519060:eff_
1549511174.810183,cobot_dynamixel_driver/goal|-:J3:-689.519060:eff_
1549511175.430967,cobot_dynamixel_driver/goal|-:J3:-699.519060:eff_
1549511176.025755,cobot_dynamixel_driver/goal|-:J3:-709.519060:eff_
1549511176.620620,cobot_dynamixel_driver/goal|-:J3:-719.519060:eff_
1549511177.215597,cobot_dynamixel_driver/goal|-:J3:-729.519060:eff_
1549511177.810348,cobot_dynamixel_driver/goal|-:J3:-739.519060:eff_
1549511178.431140,cobot_dynamixel_driver/goal|-:J3:-749.519060:eff_
1549511179.025854,cobot_dynamixel_driver/goal|-:J3:-759.519060:eff_
1549511179.620771,cobot_dynamixel_driver/goal|-:J3:-769.519060:eff_
1549511180.216841,cobot_dynamixel_driver/goal|-:J3:-779.519060:eff_
1549511180.837715,cobot_dynamixel_driver/goal|-:J3:-789.519060:eff_
1549511181.433244,cobot_dynamixel_driver/goal|-:J3:-799.519060:eff_
1549511182.027087,cobot_dynamixel_driver/goal|-:J3:-809.519060:eff_
1549511182.620994,cobot_dynamixel_driver/goal|-:J3:-819.519060:eff_
1549511183.242943,cobot_dynamixel_driver/goal|-:J3:-829.519060:eff_
1549511183.836986,cobot_dynamixel_driver/goal|-:J3:-839.519060:eff_
1549511184.433514,cobot_dynamixel_driver/goal|-:J3:-849.519060:eff_
1549511185.029271,cobot_dynamixel_driver/goal|-:J3:-859.519060:eff_
1549511185.623210,cobot_dynamixel_driver/goal|-:J3:-869.519060:eff_
1549511186.245058,cobot_dynamixel_driver/goal|-:J3:-879.519060:eff_
1549511186.839150,cobot_dynamixel_driver/goal|-:J3:-889.519060:eff_
1549511187.432830,cobot_dynamixel_driver/goal|-:J3:-899.519060:eff_
1549511188.027737,cobot_dynamixel_driver/goal|-:J3:-909.519060:eff_
1549511188.650635,cobot_dynamixel_driver/goal|-:J3:-919.519060:eff_
1549511189.245573,cobot_dynamixel_driver/goal|-:J3:-929.519060:eff_
1549511189.839103,cobot_dynamixel_driver/goal|-:J3:-939.519060:eff_
1549511190.756815,cobot_dynamixel_driver/goal|-:J3:0.000000:eff_
1549511190.838142,cobot_dynamixel_driver/goal|-:J1,J2,J3,J4,J5,J6:0.000000,0.000000,-0.087266,0.000000,0.000000,0.000000:0.250000,0.250000,0.250000,0.250000,0.250000,0.250000:pos_vel_
1549511192.659711,cobot_dynamixel_driver/goal|-:J3:0.000000:eff_
1549511192.777465,cobot_dynamixel_driver/goal|-:J1,J2,J3,J4,J5,J6:0.000000,0.000000,-0.087266,0.000000,0.000000,0.000000:0.250000,0.250000,0.250000,0.250000,0.250000,0.250000:pos_vel_
1549511195.622515,cobot_dynamixel_driver/goal|-:J3:-751.464854:eff_
1549511196.200844,cobot_dynamixel_driver/goal|-:J3:-741.464854:eff_
1549511196.822622,cobot_dynamixel_driver/goal|-:J3:-731.464854:eff_
1549511197.417176,cobot_dynamixel_driver/goal|-:J3:-721.464854:eff_
1549511198.011378,cobot_dynamixel_driver/goal|-:J3:-711.464854:eff_
1549511198.606901,cobot_dynamixel_driver/goal|-:J3:-701.464854:eff_
1549511199.227697,cobot_dynamixel_driver/goal|-:J3:-691.464854:eff_
1549511199.822659,cobot_dynamixel_driver/goal|-:J3:-681.464854:eff_
1549511200.419416,cobot_dynamixel_driver/goal|-:J3:-671.464854:eff_
1549511201.014472,cobot_dynamixel_driver/goal|-:J3:-661.464854:eff_
1549511201.610442,cobot_dynamixel_driver/goal|-:J3:-651.464854:eff_
1549511202.233012,cobot_dynamixel_driver/goal|-:J3:-641.464854:eff_
1549511202.828835,cobot_dynamixel_driver/goal|-:J3:-631.464854:eff_
1549511203.423798,cobot_dynamixel_driver/goal|-:J3:-621.464854:eff_
1549511204.017876,cobot_dynamixel_driver/goal|-:J3:-611.464854:eff_
1549511204.638395,cobot_dynamixel_driver/goal|-:J3:-601.464854:eff_
1549511205.233553,cobot_dynamixel_driver/goal|-:J3:-591.464854:eff_
1549511205.828049,cobot_dynamixel_driver/goal|-:J3:-581.464854:eff_
1549511206.423898,cobot_dynamixel_driver/goal|-:J3:-571.464854:eff_
1549511207.019028,cobot_dynamixel_driver/goal|-:J3:-561.464854:eff_
1549511207.641649,cobot_dynamixel_driver/goal|-:J3:-551.464854:eff_
1549511208.236451,cobot_dynamixel_driver/goal|-:J3:-541.464854:eff_
1549511208.830501,cobot_dynamixel_driver/goal|-:J3:-531.464854:eff_
1549511209.426241,cobot_dynamixel_driver/goal|-:J3:-521.464854:eff_
1549511210.022020,cobot_dynamixel_driver/goal|-:J3:-511.464854:eff_
1549511210.644142,cobot_dynamixel_driver/goal|-:J3:-501.464854:eff_
1549511211.238738,cobot_dynamixel_driver/goal|-:J3:-491.464854:eff_
1549511211.835512,cobot_dynamixel_driver/goal|-:J3:-481.464854:eff_
1549511212.429378,cobot_dynamixel_driver/goal|-:J3:-471.464854:eff_
1549511213.051525,cobot_dynamixel_driver/goal|-:J3:-461.464854:eff_
1549511213.647099,cobot_dynamixel_driver/goal|-:J3:-451.464854:eff_
1549511214.240952,cobot_dynamixel_driver/goal|-:J3:-441.464854:eff_
1549511214.835013,cobot_dynamixel_driver/goal|-:J3:-431.464854:eff_
1549511215.430558,cobot_dynamixel_driver/goal|-:J3:-421.464854:eff_
1549511216.051485,cobot_dynamixel_driver/goal|-:J3:-411.464854:eff_
1549511216.646563,cobot_dynamixel_driver/goal|-:J3:-401.464854:eff_
1549511217.240413,cobot_dynamixel_driver/goal|-:J3:-391.464854:eff_
1549511217.835175,cobot_dynamixel_driver/goal|-:J3:-381.464854:eff_
1549511218.456934,cobot_dynamixel_driver/goal|-:J3:-371.464854:eff_
1549511219.051974,cobot_dynamixel_driver/goal|-:J3:-361.464854:eff_
1549511219.646699,cobot_dynamixel_driver/goal|-:J3:-351.464854:eff_
1549511220.241760,cobot_dynamixel_driver/goal|-:J3:-341.464854:eff_
1549511220.863479,cobot_dynamixel_driver/goal|-:J3:-331.464854:eff_
1549511221.459278,cobot_dynamixel_driver/goal|-:J3:-321.464854:eff_
1549511222.053285,cobot_dynamixel_driver/goal|-:J3:-311.464854:eff_
1549511222.647067,cobot_dynamixel_driver/goal|-:J3:-301.464854:eff_
1549511223.267861,cobot_dynamixel_driver/goal|-:J3:-291.464854:eff_
1549511223.862739,cobot_dynamixel_driver/goal|-:J3:-281.464854:eff_
1549511224.457592,cobot_dynamixel_driver/goal|-:J3:-271.464854:eff_
1549511225.052532,cobot_dynamixel_driver/goal|-:J3:-261.464854:eff_
1549511225.646303,cobot_dynamixel_driver/goal|-:J3:-251.464854:eff_
1549511226.268952,cobot_dynamixel_driver/goal|-:J3:-241.464854:eff_
1549511227.484594,cobot_dynamixel_driver/goal|-:J3:0.000000:eff_
1549511227.565860,cobot_dynamixel_driver/goal|-:J1,J2,J3,J4,J5,J6:0.000000,0.000000,-0.087266,0.000000,0.000000,0.000000:0.250000,0.250000,0.250000,0.250000,0.250000,0.250000:pos_vel_
1549511229.600076,cobot_dynamixel_driver/goal|-:J3:0.000000:eff_
1549511229.691228,cobot_dynamixel_driver/goal|-:J1,J2,J3,J4,J5,J6:0.000000,0.000000,-0.174533,0.000000,0.000000,0.000000:0.250000,0.250000,0.250000,0.250000,0.250000,0.250000:pos_vel_
1549511232.918187,cobot_dynamixel_driver/goal|-:J3:-613.507751:eff_
1549511233.522320,cobot_dynamixel_driver/goal|-:J3:-623.507751:eff_
1549511234.144153,cobot_dynamixel_driver/goal|-:J3:-633.507751:eff_
1549511234.739907,cobot_dynamixel_driver/goal|-:J3:-643.507751:eff_
1549511235.335084,cobot_dynamixel_driver/goal|-:J3:-653.507751:eff_
1549511235.929738,cobot_dynamixel_driver/goal|-:J3:-663.507751:eff_
1549511236.523356,cobot_dynamixel_driver/goal|-:J3:-673.507751:eff_
1549511237.145219,cobot_dynamixel_driver/goal|-:J3:-683.507751:eff_
1549511237.740120,cobot_dynamixel_driver/goal|-:J3:-693.507751:eff_
1549511238.333901,cobot_dynamixel_driver/goal|-:J3:-703.507751:eff_
1549511238.929770,cobot_dynamixel_driver/goal|-:J3:-713.507751:eff_
1549511239.550533,cobot_dynamixel_driver/goal|-:J3:-723.507751:eff_
1549511240.145450,cobot_dynamixel_driver/goal|-:J3:-733.507751:eff_
1549511240.740276,cobot_dynamixel_driver/goal|-:J3:-743.507751:eff_
1549511241.335345,cobot_dynamixel_driver/goal|-:J3:-753.507751:eff_
1549511241.957043,cobot_dynamixel_driver/goal|-:J3:-763.507751:eff_
1549511242.552866,cobot_dynamixel_driver/goal|-:J3:-773.507751:eff_
1549511243.146957,cobot_dynamixel_driver/goal|-:J3:-783.507751:eff_
1549511243.741606,cobot_dynamixel_driver/goal|-:J3:-793.507751:eff_
1549511244.336726,cobot_dynamixel_driver/goal|-:J3:-803.507751:eff_
1549511244.957276,cobot_dynamixel_driver/goal|-:J3:-813.507751:eff_
1549511245.551215,cobot_dynamixel_driver/goal|-:J3:-823.507751:eff_
1549511246.146080,cobot_dynamixel_driver/goal|-:J3:-833.507751:eff_
1549511246.739893,cobot_dynamixel_driver/goal|-:J3:-843.507751:eff_
1549511247.361642,cobot_dynamixel_driver/goal|-:J3:-853.507751:eff_
1549511247.956500,cobot_dynamixel_driver/goal|-:J3:-863.507751:eff_
1549511248.550371,cobot_dynamixel_driver/goal|-:J3:-873.507751:eff_
1549511249.145212,cobot_dynamixel_driver/goal|-:J3:-883.507751:eff_
1549511249.767036,cobot_dynamixel_driver/goal|-:J3:-893.507751:eff_
1549511250.549877,cobot_dynamixel_driver/goal|-:J3:0.000000:eff_
1549511250.630862,cobot_dynamixel_driver/goal|-:J1,J2,J3,J4,J5,J6:0.000000,0.000000,-0.174533,0.000000,0.000000,0.000000:0.250000,0.250000,0.250000,0.250000,0.250000,0.250000:pos_vel_
1549511252.450298,cobot_dynamixel_driver/goal|-:J3:0.000000:eff_
1549511252.568650,cobot_dynamixel_driver/goal|-:J1,J2,J3,J4,J5,J6:0.000000,0.000000,-0.174533,0.000000,0.000000,0.000000:0.250000,0.250000,0.250000,0.250000,0.250000,0.250000:pos_vel_
1549511255.385604,cobot_dynamixel_driver/goal|-:J3:-450.919124:eff_
1549511255.989563,cobot_dynamixel_driver/goal|-:J3:-440.919124:eff_
1549511256.584486,cobot_dynamixel_driver/goal|-:J3:-430.919124:eff_
1549511257.206546,cobot_dynamixel_driver/goal|-:J3:-420.919124:eff_
1549511257.801372,cobot_dynamixel_driver/goal|-:J3:-410.919124:eff_
1549511258.395932,cobot_dynamixel_driver/goal|-:J3:-400.919124:eff_
1549511258.990821,cobot_dynamixel_driver/goal|-:J3:-390.919124:eff_
1549511259.611742,cobot_dynamixel_driver/goal|-:J3:-380.919124:eff_
1549511260.205436,cobot_dynamixel_driver/goal|-:J3:-370.919124:eff_
1549511260.801560,cobot_dynamixel_driver/goal|-:J3:-360.919124:eff_
1549511261.397046,cobot_dynamixel_driver/goal|-:J3:-350.919124:eff_
1549511262.017919,cobot_dynamixel_driver/goal|-:J3:-340.919124:eff_
1549511262.611771,cobot_dynamixel_driver/goal|-:J3:-330.919124:eff_
1549511263.205801,cobot_dynamixel_driver/goal|-:J3:-320.919124:eff_
1549511263.800520,cobot_dynamixel_driver/goal|-:J3:-310.919124:eff_
1549511264.395497,cobot_dynamixel_driver/goal|-:J3:-300.919124:eff_
1549511265.016337,cobot_dynamixel_driver/goal|-:J3:-290.919124:eff_
1549511265.610273,cobot_dynamixel_driver/goal|-:J3:-280.919124:eff_
1549511266.204222,cobot_dynamixel_driver/goal|-:J3:-270.919124:eff_
1549511266.797956,cobot_dynamixel_driver/goal|-:J3:-260.919124:eff_
1549511267.419664,cobot_dynamixel_driver/goal|-:J3:-250.919124:eff_
1549511268.014738,cobot_dynamixel_driver/goal|-:J3:-240.919124:eff_
1549511268.608653,cobot_dynamixel_driver/goal|-:J3:-230.919124:eff_
1549511269.203197,cobot_dynamixel_driver/goal|-:J3:-220.919124:eff_
1549511269.824012,cobot_dynamixel_driver/goal|-:J3:-210.919124:eff_
1549511270.419138,cobot_dynamixel_driver/goal|-:J3:-200.919124:eff_
1549511271.148605,cobot_dynamixel_driver/goal|-:J3:0.000000:eff_
1549511271.229780,cobot_dynamixel_driver/goal|-:J1,J2,J3,J4,J5,J6:0.000000,0.000000,-0.174533,0.000000,0.000000,0.000000:0.250000,0.250000,0.250000,0.250000,0.250000,0.250000:pos_vel_
1549511273.346152,cobot_dynamixel_driver/goal|-:J3:0.000000:eff_
1549511273.464415,cobot_dynamixel_driver/goal|-:J1,J2,J3,J4,J5,J6:0.000000,0.000000,-0.261799,0.000000,0.000000,0.000000:0.250000,0.250000,0.250000,0.250000,0.250000,0.250000:pos_vel_
1549511276.794199,cobot_dynamixel_driver/goal|-:J3:-453.206911:eff_
1549511277.371252,cobot_dynamixel_driver/goal|-:J3:-463.206911:eff_
1549511277.993922,cobot_dynamixel_driver/goal|-:J3:-473.206911:eff_
1549511278.588822,cobot_dynamixel_driver/goal|-:J3:-483.206911:eff_
1549511279.183759,cobot_dynamixel_driver/goal|-:J3:-493.206911:eff_
1549511279.779505,cobot_dynamixel_driver/goal|-:J3:-503.206911:eff_
1549511280.375621,cobot_dynamixel_driver/goal|-:J3:-513.206911:eff_
1549511280.997396,cobot_dynamixel_driver/goal|-:J3:-523.206911:eff_
1549511281.592002,cobot_dynamixel_driver/goal|-:J3:-533.206911:eff_
1549511282.185871,cobot_dynamixel_driver/goal|-:J3:-543.206911:eff_
1549511282.780779,cobot_dynamixel_driver/goal|-:J3:-553.206911:eff_
1549511283.402517,cobot_dynamixel_driver/goal|-:J3:-563.206911:eff_
1549511283.996677,cobot_dynamixel_driver/goal|-:J3:-573.206911:eff_
1549511284.591289,cobot_dynamixel_driver/goal|-:J3:-583.206911:eff_
1549511285.185115,cobot_dynamixel_driver/goal|-:J3:-593.206911:eff_
1549511285.807174,cobot_dynamixel_driver/goal|-:J3:-603.206911:eff_
1549511286.402827,cobot_dynamixel_driver/goal|-:J3:-613.206911:eff_
1549511286.997795,cobot_dynamixel_driver/goal|-:J3:-623.206911:eff_
1549511287.592536,cobot_dynamixel_driver/goal|-:J3:-633.206911:eff_
1549511288.186460,cobot_dynamixel_driver/goal|-:J3:-643.206911:eff_
1549511288.808423,cobot_dynamixel_driver/goal|-:J3:-653.206911:eff_
1549511289.404342,cobot_dynamixel_driver/goal|-:J3:-663.206911:eff_
1549511290.001191,cobot_dynamixel_driver/goal|-:J3:-673.206911:eff_
1549511290.594793,cobot_dynamixel_driver/goal|-:J3:-683.206911:eff_
1549511291.215991,cobot_dynamixel_driver/goal|-:J3:-693.206911:eff_
1549511291.809735,cobot_dynamixel_driver/goal|-:J3:-703.206911:eff_
1549511292.403392,cobot_dynamixel_driver/goal|-:J3:-713.206911:eff_
1549511292.998256,cobot_dynamixel_driver/goal|-:J3:-723.206911:eff_
1549511293.596407,cobot_dynamixel_driver/goal|-:J3:-733.206911:eff_
1549511294.218889,cobot_dynamixel_driver/goal|-:J3:-743.206911:eff_
1549511294.813967,cobot_dynamixel_driver/goal|-:J3:-753.206911:eff_
1549511295.407642,cobot_dynamixel_driver/goal|-:J3:-763.206911:eff_
1549511296.001652,cobot_dynamixel_driver/goal|-:J3:-773.206911:eff_
1549511296.623484,cobot_dynamixel_driver/goal|-:J3:-783.206911:eff_
1549511297.219314,cobot_dynamixel_driver/goal|-:J3:-793.206911:eff_
1549511297.814270,cobot_dynamixel_driver/goal|-:J3:-803.206911:eff_
1549511298.408817,cobot_dynamixel_driver/goal|-:J3:-813.206911:eff_
1549511299.004097,cobot_dynamixel_driver/goal|-:J3:-823.206911:eff_
1549511299.628517,cobot_dynamixel_driver/goal|-:J3:-833.206911:eff_
1549511300.223394,cobot_dynamixel_driver/goal|-:J3:-843.206911:eff_
1549511300.819147,cobot_dynamixel_driver/goal|-:J3:-853.206911:eff_
1549511301.414093,cobot_dynamixel_driver/goal|-:J3:-863.206911:eff_
1549511302.009204,cobot_dynamixel_driver/goal|-:J3:-873.206911:eff_
1549511302.629799,cobot_dynamixel_driver/goal|-:J3:-883.206911:eff_
1549511303.224747,cobot_dynamixel_driver/goal|-:J3:-893.206911:eff_
1549511303.820468,cobot_dynamixel_driver/goal|-:J3:-903.206911:eff_
1549511304.414570,cobot_dynamixel_driver/goal|-:J3:-913.206911:eff_
1549511305.036238,cobot_dynamixel_driver/goal|-:J3:-923.206911:eff_
1549511305.631213,cobot_dynamixel_driver/goal|-:J3:-933.206911:eff_
1549511306.225780,cobot_dynamixel_driver/goal|-:J3:-943.206911:eff_
1549511306.821700,cobot_dynamixel_driver/goal|-:J3:-953.206911:eff_
1549511307.415708,cobot_dynamixel_driver/goal|-:J3:-963.206911:eff_
1549511308.036589,cobot_dynamixel_driver/goal|-:J3:-973.206911:eff_
1549511308.631317,cobot_dynamixel_driver/goal|-:J3:-983.206911:eff_
1549511309.225968,cobot_dynamixel_driver/goal|-:J3:-993.206911:eff_
1549511309.819968,cobot_dynamixel_driver/goal|-:J3:-1003.206911:eff_
1549511310.441606,cobot_dynamixel_driver/goal|-:J3:-1013.206911:eff_
1549511311.035819,cobot_dynamixel_driver/goal|-:J3:-1023.206911:eff_
1549511311.630303,cobot_dynamixel_driver/goal|-:J3:-1033.206911:eff_
1549511312.224381,cobot_dynamixel_driver/goal|-:J3:0.000000:eff_
1549511312.333183,cobot_dynamixel_driver/goal|-:J1,J2,J3,J4,J5,J6:0.000000,0.000000,-0.261799,0.000000,0.000000,0.000000:0.250000,0.250000,0.250000,0.250000,0.250000,0.250000:pos_vel_
1549511314.666609,cobot_dynamixel_driver/goal|-:J3:0.000000:eff_
1549511314.757578,cobot_dynamixel_driver/goal|-:J1,J2,J3,J4,J5,J6:0.000000,0.000000,-0.261799,0.000000,0.000000,0.000000:0.250000,0.250000,0.250000,0.250000,0.250000,0.250000:pos_vel_
1549511317.494837,cobot_dynamixel_driver/goal|-:J3:-809.143433:eff_
1549511318.099844,cobot_dynamixel_driver/goal|-:J3:-799.143433:eff_
1549511318.695734,cobot_dynamixel_driver/goal|-:J3:-789.143433:eff_
1549511319.289798,cobot_dynamixel_driver/goal|-:J3:-779.143433:eff_
1549511319.910414,cobot_dynamixel_driver/goal|-:J3:-769.143433:eff_
1549511320.504317,cobot_dynamixel_driver/goal|-:J3:-759.143433:eff_
1549511321.099055,cobot_dynamixel_driver/goal|-:J3:-749.143433:eff_
1549511321.693203,cobot_dynamixel_driver/goal|-:J3:-739.143433:eff_
1549511322.314669,cobot_dynamixel_driver/goal|-:J3:-729.143433:eff_
1549511322.908865,cobot_dynamixel_driver/goal|-:J3:-719.143433:eff_
1549511323.502579,cobot_dynamixel_driver/goal|-:J3:-709.143433:eff_
1549511324.097664,cobot_dynamixel_driver/goal|-:J3:-699.143433:eff_
1549511324.719233,cobot_dynamixel_driver/goal|-:J3:-689.143433:eff_
1549511325.315408,cobot_dynamixel_driver/goal|-:J3:-679.143433:eff_
1549511325.909874,cobot_dynamixel_driver/goal|-:J3:-669.143433:eff_
1549511326.506693,cobot_dynamixel_driver/goal|-:J3:-659.143433:eff_
1549511327.101625,cobot_dynamixel_driver/goal|-:J3:-649.143433:eff_
1549511327.723644,cobot_dynamixel_driver/goal|-:J3:-639.143433:eff_
1549511328.318416,cobot_dynamixel_driver/goal|-:J3:-629.143433:eff_
1549511328.913184,cobot_dynamixel_driver/goal|-:J3:-619.143433:eff_
1549511329.508058,cobot_dynamixel_driver/goal|-:J3:-609.143433:eff_
1549511330.103974,cobot_dynamixel_driver/goal|-:J3:-599.143433:eff_
1549511330.725955,cobot_dynamixel_driver/goal|-:J3:-589.143433:eff_
1549511331.320568,cobot_dynamixel_driver/goal|-:J3:-579.143433:eff_
1549511331.914340,cobot_dynamixel_driver/goal|-:J3:-569.143433:eff_
1549511332.508354,cobot_dynamixel_driver/goal|-:J3:-559.143433:eff_
1549511333.130350,cobot_dynamixel_driver/goal|-:J3:-549.143433:eff_
1549511333.725223,cobot_dynamixel_driver/goal|-:J3:-539.143433:eff_
1549511334.320749,cobot_dynamixel_driver/goal|-:J3:-529.143433:eff_
1549511334.914670,cobot_dynamixel_driver/goal|-:J3:-519.143433:eff_
1549511335.535718,cobot_dynamixel_driver/goal|-:J3:-509.143433:eff_
1549511336.130337,cobot_dynamixel_driver/goal|-:J3:-499.143433:eff_
1549511336.726301,cobot_dynamixel_driver/goal|-:J3:-489.143433:eff_
1549511337.321335,cobot_dynamixel_driver/goal|-:J3:-479.143433:eff_
1549511337.941889,cobot_dynamixel_driver/goal|-:J3:-469.143433:eff_
1549511339.534464,cobot_dynamixel_driver/goal|-:J3:0.000000:eff_
1549511339.642632,cobot_dynamixel_driver/goal|-:J1,J2,J3,J4,J5,J6:0.000000,0.000000,-0.261799,0.000000,0.000000,0.000000:0.250000,0.250000,0.250000,0.250000,0.250000,0.250000:pos_vel_
1549511340.219652,cobot_dynamixel_driver/goal|-:J3:-459.143433:eff_
1549511340.823241,cobot_dynamixel_driver/goal|-:J3:-449.143433:eff_
1549511341.446052,cobot_dynamixel_driver/goal|-:J3:-439.143433:eff_
1549511342.039907,cobot_dynamixel_driver/goal|-:J3:-429.143433:eff_
1549511342.633939,cobot_dynamixel_driver/goal|-:J3:-419.143433:eff_
1549511343.227664,cobot_dynamixel_driver/goal|-:J3:-409.143433:eff_
1549511343.849837,cobot_dynamixel_driver/goal|-:J3:-399.143433:eff_
1549511344.444721,cobot_dynamixel_driver/goal|-:J3:-389.143433:eff_
1549511345.038216,cobot_dynamixel_driver/goal|-:J3:-379.143433:eff_
1549511345.632008,cobot_dynamixel_driver/goal|-:J3:-369.143433:eff_
1549511346.254178,cobot_dynamixel_driver/goal|-:J3:-359.143433:eff_
1549511346.848713,cobot_dynamixel_driver/goal|-:J3:-349.143433:eff_
1549511347.442523,cobot_dynamixel_driver/goal|-:J3:-339.143433:eff_
1549511348.036436,cobot_dynamixel_driver/goal|-:J3:-329.143433:eff_
1549511348.631485,cobot_dynamixel_driver/goal|-:J3:-319.143433:eff_
1549511349.253061,cobot_dynamixel_driver/goal|-:J3:-309.143433:eff_
1549511349.847040,cobot_dynamixel_driver/goal|-:J3:-299.143433:eff_
1549511350.440817,cobot_dynamixel_driver/goal|-:J3:-289.143433:eff_
1549511351.034694,cobot_dynamixel_driver/goal|-:J3:-279.143433:eff_
1549511351.656567,cobot_dynamixel_driver/goal|-:J3:-269.143433:eff_
1549511352.252365,cobot_dynamixel_driver/goal|-:J3:-259.143433:eff_
1549511352.847163,cobot_dynamixel_driver/goal|-:J3:-249.143433:eff_
1549511354.439784,cobot_dynamixel_driver/goal|-:J3:0.000000:eff_
1549511354.547827,cobot_dynamixel_driver/goal|-:J1,J2,J3,J4,J5,J6:0.000000,0.000000,-0.261799,0.000000,0.000000,0.000000:0.250000,0.250000,0.250000,0.250000,0.250000,0.250000:pos_vel_
1549511355.259604,cobot_dynamixel_driver/goal|-:J3:-239.143433:eff_
1549511355.864461,cobot_dynamixel_driver/goal|-:J3:0.000000:eff_
1549511355.946413,cobot_dynamixel_driver/goal|-:J1,J2,J3,J4,J5,J6:0.000000,0.000000,-0.261799,0.000000,0.000000,0.000000:0.250000,0.250000,0.250000,0.250000,0.250000,0.250000:pos_vel_
1549511358.090162,cobot_dynamixel_driver/goal|-:J3:0.000000:eff_
1549511358.180866,cobot_dynamixel_driver/goal|-:J1,J2,J3,J4,J5,J6:0.000000,0.000000,-0.349066,0.000000,0.000000,0.000000:0.250000,0.250000,0.250000,0.250000,0.250000,0.250000:pos_vel_
1549511361.511975,cobot_dynamixel_driver/goal|-:J3:-605.833965:eff_
1549511362.115932,cobot_dynamixel_driver/goal|-:J3:-615.833965:eff_
1549511362.710670,cobot_dynamixel_driver/goal|-:J3:-625.833965:eff_
1549511363.331640,cobot_dynamixel_driver/goal|-:J3:-635.833965:eff_
1549511363.925416,cobot_dynamixel_driver/goal|-:J3:-645.833965:eff_
1549511364.521171,cobot_dynamixel_driver/goal|-:J3:-655.833965:eff_
1549511365.115482,cobot_dynamixel_driver/goal|-:J3:-665.833965:eff_
1549511365.736907,cobot_dynamixel_driver/goal|-:J3:-675.833965:eff_
1549511366.332822,cobot_dynamixel_driver/goal|-:J3:-685.833965:eff_
1549511366.926804,cobot_dynamixel_driver/goal|-:J3:-695.833965:eff_
1549511367.520755,cobot_dynamixel_driver/goal|-:J3:-705.833965:eff_
1549511368.115584,cobot_dynamixel_driver/goal|-:J3:-715.833965:eff_
1549511368.738476,cobot_dynamixel_driver/goal|-:J3:-725.833965:eff_
1549511369.333329,cobot_dynamixel_driver/goal|-:J3:-735.833965:eff_
1549511369.928911,cobot_dynamixel_driver/goal|-:J3:-745.833965:eff_
1549511370.524860,cobot_dynamixel_driver/goal|-:J3:-755.833965:eff_
1549511371.145636,cobot_dynamixel_driver/goal|-:J3:-765.833965:eff_
1549511371.739512,cobot_dynamixel_driver/goal|-:J3:-775.833965:eff_
1549511372.334353,cobot_dynamixel_driver/goal|-:J3:-785.833965:eff_
1549511372.930104,cobot_dynamixel_driver/goal|-:J3:-795.833965:eff_
1549511373.525339,cobot_dynamixel_driver/goal|-:J3:-805.833965:eff_
1549511374.146004,cobot_dynamixel_driver/goal|-:J3:-815.833965:eff_
1549511374.740680,cobot_dynamixel_driver/goal|-:J3:-825.833965:eff_
1549511375.334511,cobot_dynamixel_driver/goal|-:J3:-835.833965:eff_
1549511375.930679,cobot_dynamixel_driver/goal|-:J3:-845.833965:eff_
1549511376.552464,cobot_dynamixel_driver/goal|-:J3:-855.833965:eff_
1549511377.149070,cobot_dynamixel_driver/goal|-:J3:-865.833965:eff_
1549511377.743912,cobot_dynamixel_driver/goal|-:J3:-875.833965:eff_
1549511378.338763,cobot_dynamixel_driver/goal|-:J3:-885.833965:eff_
1549511378.933680,cobot_dynamixel_driver/goal|-:J3:-895.833965:eff_
1549511379.554332,cobot_dynamixel_driver/goal|-:J3:-905.833965:eff_
1549511380.149064,cobot_dynamixel_driver/goal|-:J3:-915.833965:eff_
1549511380.743910,cobot_dynamixel_driver/goal|-:J3:-925.833965:eff_
1549511381.338827,cobot_dynamixel_driver/goal|-:J3:-935.833965:eff_
1549511381.959433,cobot_dynamixel_driver/goal|-:J3:0.000000:eff_
1549511382.040430,cobot_dynamixel_driver/goal|-:J1,J2,J3,J4,J5,J6:0.000000,0.000000,-0.349066,0.000000,0.000000,0.000000:0.250000,0.250000,0.250000,0.250000,0.250000,0.250000:pos_vel_
1549511383.966961,cobot_dynamixel_driver/goal|-:J3:0.000000:eff_
1549511384.084909,cobot_dynamixel_driver/goal|-:J1,J2,J3,J4,J5,J6:0.000000,0.000000,-0.349066,0.000000,0.000000,0.000000:0.250000,0.250000,0.250000,0.250000,0.250000,0.250000:pos_vel_
1549511386.929695,cobot_dynamixel_driver/goal|-:J3:-496.763049:eff_
1549511387.506605,cobot_dynamixel_driver/goal|-:J3:-486.763049:eff_
1549511388.128654,cobot_dynamixel_driver/goal|-:J3:-476.763049:eff_
1549511388.723403,cobot_dynamixel_driver/goal|-:J3:-466.763049:eff_
1549511389.317924,cobot_dynamixel_driver/goal|-:J3:-456.763049:eff_
1549511389.911678,cobot_dynamixel_driver/goal|-:J3:-446.763049:eff_
1549511390.532528,cobot_dynamixel_driver/goal|-:J3:-436.763049:eff_
1549511391.126619,cobot_dynamixel_driver/goal|-:J3:-426.763049:eff_
1549511391.721348,cobot_dynamixel_driver/goal|-:J3:-416.763049:eff_
1549511392.314901,cobot_dynamixel_driver/goal|-:J3:-406.763049:eff_
1549511392.935973,cobot_dynamixel_driver/goal|-:J3:-396.763049:eff_
1549511393.531030,cobot_dynamixel_driver/goal|-:J3:-386.763049:eff_
1549511394.124345,cobot_dynamixel_driver/goal|-:J3:-376.763049:eff_
1549511394.720490,cobot_dynamixel_driver/goal|-:J3:-366.763049:eff_
1549511395.341992,cobot_dynamixel_driver/goal|-:J3:-356.763049:eff_
1549511395.936705,cobot_dynamixel_driver/goal|-:J3:-346.763049:eff_
1549511396.531629,cobot_dynamixel_driver/goal|-:J3:-336.763049:eff_
1549511397.125621,cobot_dynamixel_driver/goal|-:J3:-326.763049:eff_
1549511397.720220,cobot_dynamixel_driver/goal|-:J3:-316.763049:eff_
1549511398.341940,cobot_dynamixel_driver/goal|-:J3:-306.763049:eff_
1549511398.936046,cobot_dynamixel_driver/goal|-:J3:-296.763049:eff_
1549511399.530691,cobot_dynamixel_driver/goal|-:J3:-286.763049:eff_
1549511400.125562,cobot_dynamixel_driver/goal|-:J3:-276.763049:eff_
1549511400.746959,cobot_dynamixel_driver/goal|-:J3:-266.763049:eff_
1549511401.341719,cobot_dynamixel_driver/goal|-:J3:-256.763049:eff_
1549511401.935533,cobot_dynamixel_driver/goal|-:J3:-246.763049:eff_
1549511402.529635,cobot_dynamixel_driver/goal|-:J3:-236.763049:eff_
1549511403.151154,cobot_dynamixel_driver/goal|-:J3:-226.763049:eff_
1549511403.744986,cobot_dynamixel_driver/goal|-:J3:-216.763049:eff_
1549511404.339685,cobot_dynamixel_driver/goal|-:J3:-206.763049:eff_
1549511404.934552,cobot_dynamixel_driver/goal|-:J3:-196.763049:eff_
1549511405.556407,cobot_dynamixel_driver/goal|-:J3:-186.763049:eff_
1549511406.150129,cobot_dynamixel_driver/goal|-:J3:0.000000:eff_
1549511406.259412,cobot_dynamixel_driver/goal|-:J1,J2,J3,J4,J5,J6:0.000000,0.000000,-0.349066,0.000000,0.000000,0.000000:0.250000,0.250000,0.250000,0.250000,0.250000,0.250000:pos_vel_
1549511408.375609,cobot_dynamixel_driver/goal|-:J3:0.000000:eff_
1549511408.466382,cobot_dynamixel_driver/goal|-:J1,J2,J3,J4,J5,J6:0.000000,0.000000,-0.436332,0.000000,0.000000,0.000000:0.250000,0.250000,0.250000,0.250000,0.250000,0.250000:pos_vel_
1549511411.797233,cobot_dynamixel_driver/goal|-:J3:-457.046300:eff_
1549511412.402224,cobot_dynamixel_driver/goal|-:J3:-467.046300:eff_
1549511412.996013,cobot_dynamixel_driver/goal|-:J3:-477.046300:eff_
1549511413.590865,cobot_dynamixel_driver/goal|-:J3:-487.046300:eff_
1549511414.212792,cobot_dynamixel_driver/goal|-:J3:-497.046300:eff_
1549511414.807781,cobot_dynamixel_driver/goal|-:J3:-507.046300:eff_
1549511415.403086,cobot_dynamixel_driver/goal|-:J3:-517.046300:eff_
1549511415.996927,cobot_dynamixel_driver/goal|-:J3:-527.046300:eff_
1549511416.590637,cobot_dynamixel_driver/goal|-:J3:-537.046300:eff_
1549511417.212453,cobot_dynamixel_driver/goal|-:J3:-547.046300:eff_
1549511417.809676,cobot_dynamixel_driver/goal|-:J3:-557.046300:eff_
1549511418.404188,cobot_dynamixel_driver/goal|-:J3:-567.046300:eff_
1549511418.998920,cobot_dynamixel_driver/goal|-:J3:-577.046300:eff_
1549511419.620697,cobot_dynamixel_driver/goal|-:J3:-587.046300:eff_
1549511420.214736,cobot_dynamixel_driver/goal|-:J3:-597.046300:eff_
1549511420.809288,cobot_dynamixel_driver/goal|-:J3:-607.046300:eff_
1549511421.404409,cobot_dynamixel_driver/goal|-:J3:-617.046300:eff_
1549511422.000140,cobot_dynamixel_driver/goal|-:J3:-627.046300:eff_
1549511422.621715,cobot_dynamixel_driver/goal|-:J3:-637.046300:eff_
1549511423.217474,cobot_dynamixel_driver/goal|-:J3:-647.046300:eff_
1549511423.811605,cobot_dynamixel_driver/goal|-:J3:-657.046300:eff_
1549511424.407104,cobot_dynamixel_driver/goal|-:J3:-667.046300:eff_
1549511425.027863,cobot_dynamixel_driver/goal|-:J3:-677.046300:eff_
1549511425.622737,cobot_dynamixel_driver/goal|-:J3:-687.046300:eff_
1549511426.216810,cobot_dynamixel_driver/goal|-:J3:-697.046300:eff_
1549511426.811475,cobot_dynamixel_driver/goal|-:J3:-707.046300:eff_
1549511427.433125,cobot_dynamixel_driver/goal|-:J3:-717.046300:eff_
1549511428.027809,cobot_dynamixel_driver/goal|-:J3:-727.046300:eff_
1549511428.621582,cobot_dynamixel_driver/goal|-:J3:-737.046300:eff_
1549511429.215358,cobot_dynamixel_driver/goal|-:J3:-747.046300:eff_
1549511429.836256,cobot_dynamixel_driver/goal|-:J3:-757.046300:eff_
1549511430.431256,cobot_dynamixel_driver/goal|-:J3:-767.046300:eff_
1549511431.025897,cobot_dynamixel_driver/goal|-:J3:-777.046300:eff_
1549511431.621732,cobot_dynamixel_driver/goal|-:J3:-787.046300:eff_
1549511432.216310,cobot_dynamixel_driver/goal|-:J3:-797.046300:eff_
1549511432.838209,cobot_dynamixel_driver/goal|-:J3:-807.046300:eff_
1549511433.431880,cobot_dynamixel_driver/goal|-:J3:-817.046300:eff_
1549511434.026574,cobot_dynamixel_driver/goal|-:J3:-827.046300:eff_
1549511434.620494,cobot_dynamixel_driver/goal|-:J3:-837.046300:eff_
1549511435.242516,cobot_dynamixel_driver/goal|-:J3:-847.046300:eff_
1549511436.835659,cobot_dynamixel_driver/goal|-:J3:0.000000:eff_
1549511436.943959,cobot_dynamixel_driver/goal|-:J1,J2,J3,J4,J5,J6:0.000000,0.000000,-0.436332,0.000000,0.000000,0.000000:0.250000,0.250000,0.250000,0.250000,0.250000,0.250000:pos_vel_
1549511437.520564,cobot_dynamixel_driver/goal|-:J3:-857.046300:eff_
1549511438.124463,cobot_dynamixel_driver/goal|-:J3:0.000000:eff_
1549511438.233280,cobot_dynamixel_driver/goal|-:J1,J2,J3,J4,J5,J6:0.000000,0.000000,-0.436332,0.000000,0.000000,0.000000:0.250000,0.250000,0.250000,0.250000,0.250000,0.250000:pos_vel_
1549511439.971857,cobot_dynamixel_driver/goal|-:J3:0.000000:eff_
1549511440.062678,cobot_dynamixel_driver/goal|-:J1,J2,J3,J4,J5,J6:0.000000,0.000000,-0.436332,0.000000,0.000000,0.000000:0.250000,0.250000,0.250000,0.250000,0.250000,0.250000:pos_vel_
1549511442.879769,cobot_dynamixel_driver/goal|-:J3:-505.134758:eff_
1549511443.483649,cobot_dynamixel_driver/goal|-:J3:-495.134758:eff_
1549511444.078480,cobot_dynamixel_driver/goal|-:J3:-485.134758:eff_
1549511444.699448,cobot_dynamixel_driver/goal|-:J3:-475.134758:eff_
1549511445.293341,cobot_dynamixel_driver/goal|-:J3:-465.134758:eff_
1549511445.887002,cobot_dynamixel_driver/goal|-:J3:-455.134758:eff_
1549511446.482700,cobot_dynamixel_driver/goal|-:J3:-445.134758:eff_
1549511447.104311,cobot_dynamixel_driver/goal|-:J3:-435.134758:eff_
1549511447.699343,cobot_dynamixel_driver/goal|-:J3:-425.134758:eff_
1549511448.293277,cobot_dynamixel_driver/goal|-:J3:-415.134758:eff_
1549511448.887095,cobot_dynamixel_driver/goal|-:J3:-405.134758:eff_
1549511449.482718,cobot_dynamixel_driver/goal|-:J3:-395.134758:eff_
1549511450.105467,cobot_dynamixel_driver/goal|-:J3:-385.134758:eff_
1549511450.700143,cobot_dynamixel_driver/goal|-:J3:-375.134758:eff_
1549511451.295174,cobot_dynamixel_driver/goal|-:J3:-365.134758:eff_
1549511451.888767,cobot_dynamixel_driver/goal|-:J3:-355.134758:eff_
1549511452.509905,cobot_dynamixel_driver/goal|-:J3:-345.134758:eff_
1549511453.104449,cobot_dynamixel_driver/goal|-:J3:-335.134758:eff_
1549511453.698471,cobot_dynamixel_driver/goal|-:J3:-325.134758:eff_
1549511454.293219,cobot_dynamixel_driver/goal|-:J3:-315.134758:eff_
1549511454.913936,cobot_dynamixel_driver/goal|-:J3:-305.134758:eff_
1549511455.509559,cobot_dynamixel_driver/goal|-:J3:-295.134758:eff_
1549511456.104550,cobot_dynamixel_driver/goal|-:J3:-285.134758:eff_
1549511456.699138,cobot_dynamixel_driver/goal|-:J3:-275.134758:eff_
1549511457.319987,cobot_dynamixel_driver/goal|-:J3:-265.134758:eff_
1549511457.913854,cobot_dynamixel_driver/goal|-:J3:-255.134758:eff_
1549511458.508544,cobot_dynamixel_driver/goal|-:J3:-245.134758:eff_
1549511459.102710,cobot_dynamixel_driver/goal|-:J3:-235.134758:eff_
1549511460.723790,cobot_dynamixel_driver/goal|-:J3:0.000000:eff_
1549511460.804803,cobot_dynamixel_driver/goal|-:J1,J2,J3,J4,J5,J6:0.000000,0.000000,-0.436332,0.000000,0.000000,0.000000:0.250000,0.250000,0.250000,0.250000,0.250000,0.250000:pos_vel_
1549511461.516598,cobot_dynamixel_driver/goal|-:J3:-225.134758:eff_
1549511462.120466,cobot_dynamixel_driver/goal|-:J3:0.000000:eff_
1549511462.201511,cobot_dynamixel_driver/goal|-:J1,J2,J3,J4,J5,J6:0.000000,0.000000,-0.436332,0.000000,0.000000,0.000000:0.250000,0.250000,0.250000,0.250000,0.250000,0.250000:pos_vel_
1549511464.343639,cobot_dynamixel_driver/goal|-:J3:0.000000:eff_
1549511464.434588,cobot_dynamixel_driver/goal|-:J1,J2,J3,J4,J5,J6:0.000000,0.000000,-0.523599,0.000000,0.000000,0.000000:0.250000,0.250000,0.250000,0.250000,0.250000,0.250000:pos_vel_
1549511467.872480,cobot_dynamixel_driver/goal|-:J3:-850.823672:eff_
1549511468.476418,cobot_dynamixel_driver/goal|-:J1,J2,J3,J4,J5,J6:0.000000,0.000000,-0.523599,0.000000,0.000000,0.000000:0.250000,0.250000,0.250000,0.250000,0.250000,0.250000:pos_vel_
1549511469.081162,cobot_dynamixel_driver/goal|-:J3:-840.823672:eff_
1549511469.658187,cobot_dynamixel_driver/goal|-:J1,J2,J3,J4,J5,J6:0.000000,0.000000,-0.523599,0.000000,0.000000,0.000000:0.250000,0.250000,0.250000,0.250000,0.250000,0.250000:pos_vel_
1549511470.478743,cobot_dynamixel_driver/goal|-:J3:-830.823672:eff_
1549511471.082512,cobot_dynamixel_driver/goal|-:J1,J2,J3,J4,J5,J6:0.000000,0.000000,-0.523599,0.000000,0.000000,0.000000:0.250000,0.250000,0.250000,0.250000,0.250000,0.250000:pos_vel_
1549511471.767281,cobot_dynamixel_driver/goal|-:J3:-820.823672:eff_
1549511472.452076,cobot_dynamixel_driver/goal|-:J3:0.000000:eff_
1549511472.533517,cobot_dynamixel_driver/goal|-:J1,J2,J3,J4,J5,J6:0.000000,0.000000,-0.523599,0.000000,0.000000,0.000000:0.250000,0.250000,0.250000,0.250000,0.250000,0.250000:pos_vel_
1549511474.270480,cobot_dynamixel_driver/goal|-:J3:0.000000:eff_
1549511474.388908,cobot_dynamixel_driver/goal|-:J1,J2,J3,J4,J5,J6:0.000000,0.000000,-0.523599,0.000000,0.000000,0.000000:0.250000,0.250000,0.250000,0.250000,0.250000,0.250000:pos_vel_
1549511477.206543,cobot_dynamixel_driver/goal|-:J3:-692.871094:eff_
1549511477.810435,cobot_dynamixel_driver/goal|-:J3:-682.871094:eff_
1549511478.405281,cobot_dynamixel_driver/goal|-:J3:-672.871094:eff_
1549511478.998998,cobot_dynamixel_driver/goal|-:J3:-662.871094:eff_
1549511479.620018,cobot_dynamixel_driver/goal|-:J3:-652.871094:eff_
1549511480.214792,cobot_dynamixel_driver/goal|-:J3:-642.871094:eff_
1549511480.810503,cobot_dynamixel_driver/goal|-:J3:-632.871094:eff_
1549511481.404538,cobot_dynamixel_driver/goal|-:J3:-622.871094:eff_
1549511482.026317,cobot_dynamixel_driver/goal|-:J3:-612.871094:eff_
1549511482.620198,cobot_dynamixel_driver/goal|-:J3:-602.871094:eff_
1549511483.214677,cobot_dynamixel_driver/goal|-:J3:-592.871094:eff_
1549511483.808440,cobot_dynamixel_driver/goal|-:J3:-582.871094:eff_
1549511484.430322,cobot_dynamixel_driver/goal|-:J3:-572.871094:eff_
1549511485.026017,cobot_dynamixel_driver/goal|-:J3:-562.871094:eff_
1549511485.620913,cobot_dynamixel_driver/goal|-:J3:-552.871094:eff_
1549511486.215685,cobot_dynamixel_driver/goal|-:J3:-542.871094:eff_
1549511486.837429,cobot_dynamixel_driver/goal|-:J3:-532.871094:eff_
1549511487.432138,cobot_dynamixel_driver/goal|-:J3:-522.871094:eff_
1549511488.026134,cobot_dynamixel_driver/goal|-:J3:-512.871094:eff_
1549511488.621094,cobot_dynamixel_driver/goal|-:J3:-502.871094:eff_
1549511489.215654,cobot_dynamixel_driver/goal|-:J3:-492.871094:eff_
1549511489.837718,cobot_dynamixel_driver/goal|-:J3:-482.871094:eff_
1549511490.432163,cobot_dynamixel_driver/goal|-:J3:-472.871094:eff_
1549511491.025966,cobot_dynamixel_driver/goal|-:J3:-462.871094:eff_
1549511491.620913,cobot_dynamixel_driver/goal|-:J3:-452.871094:eff_
1549511492.244745,cobot_dynamixel_driver/goal|-:J3:-442.871094:eff_
1549511492.838582,cobot_dynamixel_driver/goal|-:J3:-432.871094:eff_
1549511493.432200,cobot_dynamixel_driver/goal|-:J3:-422.871094:eff_
1549511494.026181,cobot_dynamixel_driver/goal|-:J3:-412.871094:eff_
1549511494.647217,cobot_dynamixel_driver/goal|-:J3:-402.871094:eff_
1549511495.241725,cobot_dynamixel_driver/goal|-:J3:-392.871094:eff_
1549511495.836548,cobot_dynamixel_driver/goal|-:J3:-382.871094:eff_
1549511496.430314,cobot_dynamixel_driver/goal|-:J3:-372.871094:eff_
1549511497.052430,cobot_dynamixel_driver/goal|-:J3:-362.871094:eff_
1549511497.647131,cobot_dynamixel_driver/goal|-:J3:-352.871094:eff_
1549511498.241780,cobot_dynamixel_driver/goal|-:J3:-342.871094:eff_
1549511498.835733,cobot_dynamixel_driver/goal|-:J3:-332.871094:eff_
1549511499.430386,cobot_dynamixel_driver/goal|-:J3:-322.871094:eff_
1549511500.052168,cobot_dynamixel_driver/goal|-:J3:-312.871094:eff_
1549511500.645957,cobot_dynamixel_driver/goal|-:J3:-302.871094:eff_
1549511501.239673,cobot_dynamixel_driver/goal|-:J3:-292.871094:eff_
1549511501.835481,cobot_dynamixel_driver/goal|-:J3:-282.871094:eff_
1549511502.456665,cobot_dynamixel_driver/goal|-:J3:-272.871094:eff_
1549511503.050290,cobot_dynamixel_driver/goal|-:J3:-262.871094:eff_
1549511503.644325,cobot_dynamixel_driver/goal|-:J3:-252.871094:eff_
1549511504.237814,cobot_dynamixel_driver/goal|-:J3:-242.871094:eff_
1549511504.858662,cobot_dynamixel_driver/goal|-:J3:-232.871094:eff_
1549511505.453508,cobot_dynamixel_driver/goal|-:J3:-222.871094:eff_
1549511506.749933,cobot_dynamixel_driver/goal|-:J3:0.000000:eff_
1549511506.831104,cobot_dynamixel_driver/goal|-:J1,J2,J3,J4,J5,J6:0.000000,0.000000,-0.523599,0.000000,0.000000,0.000000:0.250000,0.250000,0.250000,0.250000,0.250000,0.250000:pos_vel_
1549511548.645597,cobot_dynamixel_driver/goal|-:J1,J2,J3,J4,J5,J6:0.000000,0.000000,0.000000,0.000000,0.000000,0.000000:0.500000,0.500000,0.500000,0.500000,0.500000,0.500000:pos_vel_
1549511568.549301,cobot_dynamixel_driver/goal|-:J3:0.000000:eff_
1549511568.640223,cobot_dynamixel_driver/goal|-:J1,J2,J3,J4,J5,J6:0.000000,0.000000,0.523599,0.000000,0.000000,0.000000:0.250000,0.250000,0.250000,0.250000,0.250000,0.250000:pos_vel_
1549511573.670488,cobot_dynamixel_driver/goal|-:J3:-222.411460:eff_
1549511574.274309,cobot_dynamixel_driver/goal|-:J1,J2,J3,J4,J5,J6:0.000000,0.000000,0.523599,0.000000,0.000000,0.000000:0.250000,0.250000,0.250000,0.250000,0.250000,0.250000:pos_vel_
1549511575.067081,cobot_dynamixel_driver/goal|-:J3:-212.411460:eff_
1549511575.670890,cobot_dynamixel_driver/goal|-:J3:-222.411460:eff_
1549511576.265720,cobot_dynamixel_driver/goal|-:J3:-232.411460:eff_
1549511576.886522,cobot_dynamixel_driver/goal|-:J3:-242.411460:eff_
1549511577.480257,cobot_dynamixel_driver/goal|-:J3:-252.411460:eff_
1549511578.074009,cobot_dynamixel_driver/goal|-:J3:-262.411460:eff_
1549511578.694916,cobot_dynamixel_driver/goal|-:J3:-272.411460:eff_
1549511579.289881,cobot_dynamixel_driver/goal|-:J3:-282.411460:eff_
1549511579.884579,cobot_dynamixel_driver/goal|-:J3:-292.411460:eff_
1549511580.478303,cobot_dynamixel_driver/goal|-:J3:-302.411460:eff_
1549511581.072173,cobot_dynamixel_driver/goal|-:J3:-312.411460:eff_
1549511581.695273,cobot_dynamixel_driver/goal|-:J3:-322.411460:eff_
1549511582.288805,cobot_dynamixel_driver/goal|-:J3:-332.411460:eff_
1549511582.883610,cobot_dynamixel_driver/goal|-:J3:-342.411460:eff_
1549511583.477342,cobot_dynamixel_driver/goal|-:J3:-352.411460:eff_
1549511584.099412,cobot_dynamixel_driver/goal|-:J3:-362.411460:eff_
1549511584.692967,cobot_dynamixel_driver/goal|-:J3:-372.411460:eff_
1549511585.287858,cobot_dynamixel_driver/goal|-:J3:-382.411460:eff_
1549511585.882015,cobot_dynamixel_driver/goal|-:J3:-392.411460:eff_
1549511586.503684,cobot_dynamixel_driver/goal|-:J3:-402.411460:eff_
1549511587.098497,cobot_dynamixel_driver/goal|-:J3:-412.411460:eff_
1549511587.694005,cobot_dynamixel_driver/goal|-:J3:-422.411460:eff_
1549511588.288861,cobot_dynamixel_driver/goal|-:J3:-432.411460:eff_
1549511588.909729,cobot_dynamixel_driver/goal|-:J3:-442.411460:eff_
1549511589.504452,cobot_dynamixel_driver/goal|-:J3:-452.411460:eff_
1549511590.099258,cobot_dynamixel_driver/goal|-:J3:-462.411460:eff_
1549511590.694101,cobot_dynamixel_driver/goal|-:J3:-472.411460:eff_
1549511591.287948,cobot_dynamixel_driver/goal|-:J3:-482.411460:eff_
1549511591.909672,cobot_dynamixel_driver/goal|-:J3:-492.411460:eff_
1549511592.505541,cobot_dynamixel_driver/goal|-:J3:-502.411460:eff_
1549511593.099433,cobot_dynamixel_driver/goal|-:J3:-512.411460:eff_
1549511593.693060,cobot_dynamixel_driver/goal|-:J3:-522.411460:eff_
1549511594.314908,cobot_dynamixel_driver/goal|-:J3:-532.411460:eff_
1549511594.908684,cobot_dynamixel_driver/goal|-:J3:-542.411460:eff_
1549511595.503590,cobot_dynamixel_driver/goal|-:J3:-552.411460:eff_
1549511596.098343,cobot_dynamixel_driver/goal|-:J3:-562.411460:eff_
1549511596.719561,cobot_dynamixel_driver/goal|-:J3:-572.411460:eff_
1549511597.315059,cobot_dynamixel_driver/goal|-:J3:-582.411460:eff_
1549511597.908699,cobot_dynamixel_driver/goal|-:J3:-592.411460:eff_
1549511598.503598,cobot_dynamixel_driver/goal|-:J3:-602.411460:eff_
1549511599.124279,cobot_dynamixel_driver/goal|-:J3:-612.411460:eff_
1549511599.718097,cobot_dynamixel_driver/goal|-:J3:-622.411460:eff_
1549511600.313993,cobot_dynamixel_driver/goal|-:J3:-632.411460:eff_
1549511600.907779,cobot_dynamixel_driver/goal|-:J3:-642.411460:eff_
1549511601.528582,cobot_dynamixel_driver/goal|-:J3:-652.411460:eff_
1549511602.123460,cobot_dynamixel_driver/goal|-:J3:-662.411460:eff_
1549511602.717175,cobot_dynamixel_driver/goal|-:J3:-672.411460:eff_
1549511603.310985,cobot_dynamixel_driver/goal|-:J3:-682.411460:eff_
1549511603.932144,cobot_dynamixel_driver/goal|-:J3:-692.411460:eff_
1549511604.526624,cobot_dynamixel_driver/goal|-:J3:-702.411460:eff_
1549511605.121424,cobot_dynamixel_driver/goal|-:J3:-712.411460:eff_
1549511605.715204,cobot_dynamixel_driver/goal|-:J3:-722.411460:eff_
1549511606.309127,cobot_dynamixel_driver/goal|-:J3:-732.411460:eff_
1549511606.931802,cobot_dynamixel_driver/goal|-:J3:-742.411460:eff_
1549511607.525629,cobot_dynamixel_driver/goal|-:J3:-752.411460:eff_
1549511608.119489,cobot_dynamixel_driver/goal|-:J3:-762.411460:eff_
1549511608.713248,cobot_dynamixel_driver/goal|-:J3:-772.411460:eff_
1549511609.334064,cobot_dynamixel_driver/goal|-:J3:-782.411460:eff_
1549511609.927917,cobot_dynamixel_driver/goal|-:J3:-792.411460:eff_
1549511610.656658,cobot_dynamixel_driver/goal|-:J3:0.000000:eff_
1549511610.737714,cobot_dynamixel_driver/goal|-:J1,J2,J3,J4,J5,J6:0.000000,0.000000,0.523599,0.000000,0.000000,0.000000:0.250000,0.250000,0.250000,0.250000,0.250000,0.250000:pos_vel_
1549511612.666965,cobot_dynamixel_driver/goal|-:J3:0.000000:eff_
1549511612.758203,cobot_dynamixel_driver/goal|-:J1,J2,J3,J4,J5,J6:0.000000,0.000000,0.523599,0.000000,0.000000,0.000000:0.250000,0.250000,0.250000,0.250000,0.250000,0.250000:pos_vel_
1549511615.629103,cobot_dynamixel_driver/goal|-:J3:-442.181877:eff_
1549511616.232824,cobot_dynamixel_driver/goal|-:J3:-432.181877:eff_
1549511616.826633,cobot_dynamixel_driver/goal|-:J3:-422.181877:eff_
1549511617.420457,cobot_dynamixel_driver/goal|-:J3:-412.181877:eff_
1549511618.014282,cobot_dynamixel_driver/goal|-:J3:-402.181877:eff_
1549511618.635096,cobot_dynamixel_driver/goal|-:J3:-392.181877:eff_
1549511619.228896,cobot_dynamixel_driver/goal|-:J3:-382.181877:eff_
1549511619.822806,cobot_dynamixel_driver/goal|-:J3:-372.181877:eff_
1549511620.416573,cobot_dynamixel_driver/goal|-:J3:-362.181877:eff_
1549511621.037475,cobot_dynamixel_driver/goal|-:J3:-352.181877:eff_
1549511621.631190,cobot_dynamixel_driver/goal|-:J3:-342.181877:eff_
1549511622.225026,cobot_dynamixel_driver/goal|-:J3:-332.181877:eff_
1549511622.818860,cobot_dynamixel_driver/goal|-:J3:-322.181877:eff_
1549511623.439630,cobot_dynamixel_driver/goal|-:J3:-312.181877:eff_
1549511624.033409,cobot_dynamixel_driver/goal|-:J3:-302.181877:eff_
1549511624.627317,cobot_dynamixel_driver/goal|-:J3:-292.181877:eff_
1549511625.222138,cobot_dynamixel_driver/goal|-:J3:-282.181877:eff_
1549511625.843019,cobot_dynamixel_driver/goal|-:J3:-272.181877:eff_
1549511626.436775,cobot_dynamixel_driver/goal|-:J3:-262.181877:eff_
1549511627.030537,cobot_dynamixel_driver/goal|-:J3:-252.181877:eff_
1549511627.626360,cobot_dynamixel_driver/goal|-:J3:-242.181877:eff_
1549511628.247121,cobot_dynamixel_driver/goal|-:J3:-232.181877:eff_
1549511628.840907,cobot_dynamixel_driver/goal|-:J3:-222.181877:eff_
1549511630.433389,cobot_dynamixel_driver/goal|-:J3:0.000000:eff_
1549511630.541606,cobot_dynamixel_driver/goal|-:J1,J2,J3,J4,J5,J6:0.000000,0.000000,0.523599,0.000000,0.000000,0.000000:0.250000,0.250000,0.250000,0.250000,0.250000,0.250000:pos_vel_
1549511631.253124,cobot_dynamixel_driver/goal|-:J3:-212.181877:eff_
1549511631.830996,cobot_dynamixel_driver/goal|-:J3:-202.181877:eff_
1549511632.430789,cobot_dynamixel_driver/goal|-:J3:-192.181877:eff_
1549511633.051604,cobot_dynamixel_driver/goal|-:J3:-182.181877:eff_
1549511633.645391,cobot_dynamixel_driver/goal|-:J3:-172.181877:eff_
1549511635.237875,cobot_dynamixel_driver/goal|-:J3:0.000000:eff_
1549511635.345895,cobot_dynamixel_driver/goal|-:J1,J2,J3,J4,J5,J6:0.000000,0.000000,0.523599,0.000000,0.000000,0.000000:0.250000,0.250000,0.250000,0.250000,0.250000,0.250000:pos_vel_
1549511635.949755,cobot_dynamixel_driver/goal|-:J3:-162.181877:eff_
1549511636.554546,cobot_dynamixel_driver/goal|-:J3:0.000000:eff_
1549511636.635519,cobot_dynamixel_driver/goal|-:J1,J2,J3,J4,J5,J6:0.000000,0.000000,0.523599,0.000000,0.000000,0.000000:0.250000,0.250000,0.250000,0.250000,0.250000,0.250000:pos_vel_
1549511638.780052,cobot_dynamixel_driver/goal|-:J3:0.000000:eff_
1549511638.870707,cobot_dynamixel_driver/goal|-:J1,J2,J3,J4,J5,J6:0.000000,0.000000,0.436332,0.000000,0.000000,0.000000:0.250000,0.250000,0.250000,0.250000,0.250000,0.250000:pos_vel_
1549511642.092781,cobot_dynamixel_driver/goal|-:J3:-752.830353:eff_
1549511642.696506,cobot_dynamixel_driver/goal|-:J3:-762.830353:eff_
1549511643.317380,cobot_dynamixel_driver/goal|-:J3:-772.830353:eff_
1549511643.911393,cobot_dynamixel_driver/goal|-:J3:-782.830353:eff_
1549511644.506004,cobot_dynamixel_driver/goal|-:J3:-792.830353:eff_
1549511645.102176,cobot_dynamixel_driver/goal|-:J3:-802.830353:eff_
1549511645.722957,cobot_dynamixel_driver/goal|-:J3:-812.830353:eff_
1549511646.317522,cobot_dynamixel_driver/goal|-:J3:-822.830353:eff_
1549511646.912173,cobot_dynamixel_driver/goal|-:J3:-832.830353:eff_
1549511647.506145,cobot_dynamixel_driver/goal|-:J3:-842.830353:eff_
1549511648.262793,cobot_dynamixel_driver/goal|-:J3:0.000000:eff_
1549511648.343901,cobot_dynamixel_driver/goal|-:J1,J2,J3,J4,J5,J6:0.000000,0.000000,0.436332,0.000000,0.000000,0.000000:0.250000,0.250000,0.250000,0.250000,0.250000,0.250000:pos_vel_
1549511650.055699,cobot_dynamixel_driver/goal|-:J3:0.000000:eff_
1549511650.173646,cobot_dynamixel_driver/goal|-:J1,J2,J3,J4,J5,J6:0.000000,0.000000,0.436332,0.000000,0.000000,0.000000:0.250000,0.250000,0.250000,0.250000,0.250000,0.250000:pos_vel_
1549511653.017425,cobot_dynamixel_driver/goal|-:J3:-425.782586:eff_
1549511653.621277,cobot_dynamixel_driver/goal|-:J3:-415.782586:eff_
1549511654.215082,cobot_dynamixel_driver/goal|-:J3:-405.782586:eff_
1549511654.810241,cobot_dynamixel_driver/goal|-:J3:-395.782586:eff_
1549511655.403674,cobot_dynamixel_driver/goal|-:J3:-385.782586:eff_
1549511656.025456,cobot_dynamixel_driver/goal|-:J3:-375.782586:eff_
1549511656.621340,cobot_dynamixel_driver/goal|-:J3:-365.782586:eff_
1549511657.215127,cobot_dynamixel_driver/goal|-:J3:-355.782586:eff_
1549511657.808988,cobot_dynamixel_driver/goal|-:J3:-345.782586:eff_
1549511658.404920,cobot_dynamixel_driver/goal|-:J3:-335.782586:eff_
1549511659.026717,cobot_dynamixel_driver/goal|-:J3:-325.782586:eff_
1549511659.621456,cobot_dynamixel_driver/goal|-:J3:-315.782586:eff_
1549511660.216308,cobot_dynamixel_driver/goal|-:J3:-305.782586:eff_
1549511660.811126,cobot_dynamixel_driver/goal|-:J3:-295.782586:eff_
1549511661.431992,cobot_dynamixel_driver/goal|-:J3:-285.782586:eff_
1549511662.025796,cobot_dynamixel_driver/goal|-:J3:-275.782586:eff_
1549511662.620784,cobot_dynamixel_driver/goal|-:J3:-265.782586:eff_
1549511663.214804,cobot_dynamixel_driver/goal|-:J3:-255.782586:eff_
1549511663.835313,cobot_dynamixel_driver/goal|-:J3:-245.782586:eff_
1549511664.431039,cobot_dynamixel_driver/goal|-:J3:-235.782586:eff_
1549511665.026065,cobot_dynamixel_driver/goal|-:J3:-225.782586:eff_
1549511665.620788,cobot_dynamixel_driver/goal|-:J3:-215.782586:eff_
1549511666.215633,cobot_dynamixel_driver/goal|-:J3:-205.782586:eff_
1549511666.837362,cobot_dynamixel_driver/goal|-:J3:-195.782586:eff_
1549511667.432068,cobot_dynamixel_driver/goal|-:J3:-185.782586:eff_
1549511668.026889,cobot_dynamixel_driver/goal|-:J3:-175.782586:eff_
1549511668.621750,cobot_dynamixel_driver/goal|-:J3:-165.782586:eff_
1549511669.242509,cobot_dynamixel_driver/goal|-:J3:-155.782586:eff_
1549511669.836474,cobot_dynamixel_driver/goal|-:J3:-145.782586:eff_
1549511670.430274,cobot_dynamixel_driver/goal|-:J3:-135.782586:eff_
1549511671.024970,cobot_dynamixel_driver/goal|-:J3:0.000000:eff_
1549511671.134338,cobot_dynamixel_driver/goal|-:J1,J2,J3,J4,J5,J6:0.000000,0.000000,0.436332,0.000000,0.000000,0.000000:0.250000,0.250000,0.250000,0.250000,0.250000,0.250000:pos_vel_
1549511673.250380,cobot_dynamixel_driver/goal|-:J3:0.000000:eff_
1549511673.368786,cobot_dynamixel_driver/goal|-:J1,J2,J3,J4,J5,J6:0.000000,0.000000,0.349066,0.000000,0.000000,0.000000:0.250000,0.250000,0.250000,0.250000,0.250000,0.250000:pos_vel_
1549511676.726271,cobot_dynamixel_driver/goal|-:J3:-444.276972:eff_
1549511677.330040,cobot_dynamixel_driver/goal|-:J3:-454.276972:eff_
1549511677.923924,cobot_dynamixel_driver/goal|-:J3:-464.276972:eff_
1549511678.517747,cobot_dynamixel_driver/goal|-:J3:-474.276972:eff_
1549511679.113948,cobot_dynamixel_driver/goal|-:J3:-484.276972:eff_
1549511679.734670,cobot_dynamixel_driver/goal|-:J3:-494.276972:eff_
1549511680.328194,cobot_dynamixel_driver/goal|-:J3:-504.276972:eff_
1549511680.923012,cobot_dynamixel_driver/goal|-:J3:-514.276972:eff_
1549511681.516854,cobot_dynamixel_driver/goal|-:J3:-524.276972:eff_
1549511682.137968,cobot_dynamixel_driver/goal|-:J3:-534.276972:eff_
1549511682.731577,cobot_dynamixel_driver/goal|-:J3:-544.276972:eff_
1549511683.325363,cobot_dynamixel_driver/goal|-:J3:-554.276972:eff_
1549511683.919206,cobot_dynamixel_driver/goal|-:J3:-564.276972:eff_
1549511684.540207,cobot_dynamixel_driver/goal|-:J3:-574.276972:eff_
1549511685.135063,cobot_dynamixel_driver/goal|-:J3:-584.276972:eff_
1549511685.728637,cobot_dynamixel_driver/goal|-:J3:-594.276972:eff_
1549511686.322368,cobot_dynamixel_driver/goal|-:J3:-604.276972:eff_
1549511686.943161,cobot_dynamixel_driver/goal|-:J3:-614.276972:eff_
1549511687.536930,cobot_dynamixel_driver/goal|-:J3:-624.276972:eff_
1549511688.131759,cobot_dynamixel_driver/goal|-:J3:-634.276972:eff_
1549511688.725883,cobot_dynamixel_driver/goal|-:J3:-644.276972:eff_
1549511689.347269,cobot_dynamixel_driver/goal|-:J3:-654.276972:eff_
1549511689.941120,cobot_dynamixel_driver/goal|-:J3:-664.276972:eff_
1549511690.536252,cobot_dynamixel_driver/goal|-:J3:-674.276972:eff_
1549511691.130064,cobot_dynamixel_driver/goal|-:J3:-684.276972:eff_
1549511691.750607,cobot_dynamixel_driver/goal|-:J3:-694.276972:eff_
1549511692.345341,cobot_dynamixel_driver/goal|-:J3:-704.276972:eff_
1549511692.940231,cobot_dynamixel_driver/goal|-:J3:-714.276972:eff_
1549511693.536201,cobot_dynamixel_driver/goal|-:J3:-724.276972:eff_
1549511694.156900,cobot_dynamixel_driver/goal|-:J3:-734.276972:eff_
1549511694.750525,cobot_dynamixel_driver/goal|-:J3:-744.276972:eff_
1549511695.345434,cobot_dynamixel_driver/goal|-:J3:-754.276972:eff_
1549511695.939404,cobot_dynamixel_driver/goal|-:J3:-764.276972:eff_
1549511696.560080,cobot_dynamixel_driver/goal|-:J3:-774.276972:eff_
1549511697.154917,cobot_dynamixel_driver/goal|-:J3:-784.276972:eff_
1549511697.748739,cobot_dynamixel_driver/goal|-:J3:-794.276972:eff_
1549511698.343622,cobot_dynamixel_driver/goal|-:J3:-804.276972:eff_
1549511698.964385,cobot_dynamixel_driver/goal|-:J3:-814.276972:eff_
1549511699.559176,cobot_dynamixel_driver/goal|-:J3:-824.276972:eff_
1549511700.152992,cobot_dynamixel_driver/goal|-:J3:-834.276972:eff_
1549511700.747814,cobot_dynamixel_driver/goal|-:J3:-844.276972:eff_
1549511701.342806,cobot_dynamixel_driver/goal|-:J3:-854.276972:eff_
1549511701.963434,cobot_dynamixel_driver/goal|-:J3:-864.276972:eff_
1549511702.557292,cobot_dynamixel_driver/goal|-:J3:-874.276972:eff_
1549511703.151122,cobot_dynamixel_driver/goal|-:J3:-884.276972:eff_
1549511703.744925,cobot_dynamixel_driver/goal|-:J3:-894.276972:eff_
1549511704.368958,cobot_dynamixel_driver/goal|-:J3:0.000000:eff_
1549511704.449704,cobot_dynamixel_driver/goal|-:J1,J2,J3,J4,J5,J6:0.000000,0.000000,0.349066,0.000000,0.000000,0.000000:0.250000,0.250000,0.250000,0.250000,0.250000,0.250000:pos_vel_
1549511706.295364,cobot_dynamixel_driver/goal|-:J3:0.000000:eff_
1549511706.386024,cobot_dynamixel_driver/goal|-:J1,J2,J3,J4,J5,J6:0.000000,0.000000,0.349066,0.000000,0.000000,0.000000:0.250000,0.250000,0.250000,0.250000,0.250000,0.250000:pos_vel_
1549511709.123207,cobot_dynamixel_driver/goal|-:J3:-703.897696:eff_
1549511709.727113,cobot_dynamixel_driver/goal|-:J3:-693.897696:eff_
1549511710.321948,cobot_dynamixel_driver/goal|-:J3:-683.897696:eff_
1549511710.915737,cobot_dynamixel_driver/goal|-:J3:-673.897696:eff_
