surachairobotic/cobot/cobot_dynamixel_driver/log/2019-02-06T08:57:23.129474_driver_cmd.txt
1549443463.934997,cobot_dynamixel_driver/goal|-:J1,J2,J3,J4,J5,J6:0.000000,0.000000,0.000000,0.000000,0.000000,0.000000:0.500000,0.500000,0.500000,0.500000,0.500000,0.500000:pos_vel_
1549443495.800571,cobot_dynamixel_driver/goal|-:J1,J2,J3,J4,J5,J6:-0.000032,-0.050015,-0.000019,-0.000019,0.000003,-0.000021:0.500000,0.500000,0.500000,0.500000,0.500000,0.500000:pos_vel_
1549443496.745914,cobot_dynamixel_driver/goal|-:J1,J2,J3,J4,J5,J6:-0.000032,-0.050015,-0.000019,-0.000019,0.000003,-0.000021:0.500000,0.500000,0.500000,0.500000,0.500000,0.500000:pos_vel_
1549443498.006013,cobot_dynamixel_driver/goal|-:J1,J2,J3,J4,J5,J6:-0.000032,-0.099900,-0.000019,-0.000019,0.000003,-0.000021:0.500000,0.500000,0.500000,0.500000,0.500000,0.500000:pos_vel_
1549443498.636576,cobot_dynamixel_driver/goal|-:J1,J2,J3,J4,J5,J6:-0.000032,-0.100000,-0.000019,-0.000019,0.000003,-0.000021:0.500000,0.500000,0.500000,0.500000,0.500000,0.500000:pos_vel_
1549443499.267099,cobot_dynamixel_driver/goal|-:J1,J2,J3,J4,J5,J6:-0.000032,-0.148796,-0.000019,-0.000019,0.000003,-0.000021:0.500000,0.500000,0.500000,0.500000,0.500000,0.500000:pos_vel_
1549443499.897643,cobot_dynamixel_driver/goal|-:J1,J2,J3,J4,J5,J6:-0.000032,-0.149960,-0.000019,-0.000019,0.000003,-0.000021:0.500000,0.500000,0.500000,0.500000,0.500000,0.500000:pos_vel_
1549443500.528339,cobot_dynamixel_driver/goal|-:J1,J2,J3,J4,J5,J6:-0.000032,-0.197755,-0.000019,-0.000019,0.000044,-0.000021:0.500000,0.500000,0.500000,0.500000,0.500000,0.500000:pos_vel_
1549443500.844123,cobot_dynamixel_driver/goal|-:J1,J2,J3,J4,J5,J6:-0.000032,-0.197755,-0.000019,-0.000019,0.000044,-0.000021:0.500000,0.500000,0.500000,0.500000,0.500000,0.500000:pos_vel_
1549443502.419407,cobot_dynamixel_driver/goal|-:J1,J2,J3,J4,J5,J6:0.000000,0.000000,0.000000,0.000000,0.000000,0.000000:0.500000,0.500000,0.500000,0.500000,0.500000,0.500000:pos_vel_
