surachairobotic/cobot/cobot_dynamixel_driver/log/2019-06-06T09:05:39.877611_driver_cmd.txt
1559811943.129997,cobot_dynamixel_driver/goal|-:J1,J2,J3,J4,J5,J6:0.000000,0.000000,0.000000,0.000000,0.000000,0.000000:0.500000,0.500000,0.500000,0.500000,0.500000,0.500000:pos_vel_
1559812953.492109,cobot_dynamixel_driver/goal|-:J1,J2,J3,J4,J5,J6:0.097461,0.054738,0.072732,-0.052236,-0.055358,0.062490:vel_
1559812953.926001,cobot_dynamixel_driver/goal|-:J1,J2,J3,J4,J5,J6:0.101163,0.049202,0.059884,-0.054132,-0.055663,0.062943:vel_
1559812953.956025,cobot_dynamixel_driver/goal|-:J1,J2,J3,J4,J5,J6:0.102850,0.048552,0.057721,-0.055036,-0.054628,0.061390:vel_
1559812953.988017,cobot_dynamixel_driver/goal|-:J1,J2,J3,J4,J5,J6:0.105250,0.048052,0.056742,-0.056213,-0.055400,0.062198:vel_
1559812954.019861,cobot_dynamixel_driver/goal|-:J1,J2,J3,J4,J5,J6:0.106791,0.047190,0.055947,-0.057205,-0.056657,0.063260:vel_
1559812954.051848,cobot_dynamixel_driver/goal|-:J1,J2,J3,J4,J5,J6:0.162683,0.092533,0.104130,-0.085591,-0.090748,0.103372:vel_
1559812954.083988,cobot_dynamixel_driver/goal|-:J1,J2,J3,J4,J5,J6:0.171360,0.099000,0.111691,-0.090079,-0.095974,0.109255:vel_
1559812954.115944,cobot_dynamixel_driver/goal|-:J1,J2,J3,J4,J5,J6:0.174822,0.100905,0.113207,-0.091098,-0.096269,0.108610:vel_
1559812954.147821,cobot_dynamixel_driver/goal|-:J1,J2,J3,J4,J5,J6:0.175425,0.101259,0.112710,-0.090916,-0.095690,0.107631:vel_
1559812954.180019,cobot_dynamixel_driver/goal|-:J1,J2,J3,J4,J5,J6:0.175594,0.099524,0.111670,-0.090133,-0.095227,0.107873:vel_
1559812954.212042,cobot_dynamixel_driver/goal|-:J1,J2,J3,J4,J5,J6:0.186106,0.105374,0.118769,-0.094759,-0.102991,0.115116:vel_
1559812954.243845,cobot_dynamixel_driver/goal|-:J1,J2,J3,J4,J5,J6:0.229528,0.155790,0.151827,-0.115249,-0.129784,0.150588:vel_
1559812954.275844,cobot_dynamixel_driver/goal|-:J1,J2,J3,J4,J5,J6:0.242079,0.168676,0.160993,-0.120336,-0.136689,0.159370:vel_
1559812954.307933,cobot_dynamixel_driver/goal|-:J1,J2,J3,J4,J5,J6:0.247624,0.176535,0.164434,-0.122045,-0.136579,0.160024:vel_
1559812954.339856,cobot_dynamixel_driver/goal|-:J1,J2,J3,J4,J5,J6:0.253833,0.181902,0.166256,-0.123687,-0.138923,0.161347:vel_
1559812954.371825,cobot_dynamixel_driver/goal|-:J1,J2,J3,J4,J5,J6:0.257730,0.202508,0.161124,-0.124440,-0.143416,0.173541:vel_
1559812954.403762,cobot_dynamixel_driver/goal|-:J1,J2,J3,J4,J5,J6:0.258620,0.208880,0.160189,-0.124797,-0.147511,0.177243:vel_
1559812954.435767,cobot_dynamixel_driver/goal|-:J1,J2,J3,J4,J5,J6:0.264935,0.215133,0.163496,-0.127533,-0.150666,0.181579:vel_
1559812954.467757,cobot_dynamixel_driver/goal|-:J1,J2,J3,J4,J5,J6:0.255795,0.224905,0.149354,-0.120282,-0.143017,0.177062:vel_
1559812954.499804,cobot_dynamixel_driver/goal|-:J1,J2,J3,J4,J5,J6:0.256265,0.229873,0.146727,-0.119473,-0.143832,0.178198:vel_
1559812954.531840,cobot_dynamixel_driver/goal|-:J1,J2,J3,J4,J5,J6:0.254336,0.231341,0.146208,-0.117707,-0.142492,0.178526:vel_
1559812954.563836,cobot_dynamixel_driver/goal|-:J1,J2,J3,J4,J5,J6:0.250031,0.242959,0.133120,-0.112140,-0.139643,0.174669:vel_
1559812954.595872,cobot_dynamixel_driver/goal|-:J1,J2,J3,J4,J5,J6:0.249996,0.246911,0.130804,-0.111063,-0.138723,0.174068:vel_
1559812954.627822,cobot_dynamixel_driver/goal|-:J1,J2,J3,J4,J5,J6:0.256215,0.252577,0.133198,-0.113582,-0.143343,0.177055:vel_
1559812954.659840,cobot_dynamixel_driver/goal|-:J1,J2,J3,J4,J5,J6:0.243135,0.260486,0.116149,-0.105209,-0.135115,0.171298:vel_
1559812954.691871,cobot_dynamixel_driver/goal|-:J1,J2,J3,J4,J5,J6:0.240771,0.263104,0.112136,-0.103931,-0.132365,0.170216:vel_
1559812954.723814,cobot_dynamixel_driver/goal|-:J1,J2,J3,J4,J5,J6:0.245475,0.267629,0.112713,-0.105883,-0.134444,0.173030:vel_
1559812954.755794,cobot_dynamixel_driver/goal|-:J1,J2,J3,J4,J5,J6:0.235346,0.275483,0.097243,-0.097887,-0.128195,0.167616:vel_
1559812954.787809,cobot_dynamixel_driver/goal|-:J1,J2,J3,J4,J5,J6:0.234535,0.278799,0.094181,-0.096229,-0.126909,0.167476:vel_
1559812954.819765,cobot_dynamixel_driver/goal|-:J1,J2,J3,J4,J5,J6:0.239228,0.285994,0.094746,-0.098095,-0.127662,0.171857:vel_
1559812954.851794,cobot_dynamixel_driver/goal|-:J1,J2,J3,J4,J5,J6:0.228943,0.293110,0.078284,-0.091043,-0.121646,0.164415:vel_
1559812954.883844,cobot_dynamixel_driver/goal|-:J1,J2,J3,J4,J5,J6:0.229088,0.297999,0.074575,-0.090138,-0.121652,0.163728:vel_
1559812954.915886,cobot_dynamixel_driver/goal|-:J1,J2,J3,J4,J5,J6:0.230725,0.301939,0.073125,-0.088924,-0.124862,0.166481:vel_
1559812954.947821,cobot_dynamixel_driver/goal|-:J1,J2,J3,J4,J5,J6:0.220869,0.307488,0.058621,-0.083133,-0.115709,0.159475:vel_
1559812954.979846,cobot_dynamixel_driver/goal|-:J1,J2,J3,J4,J5,J6:0.221142,0.311778,0.055672,-0.082514,-0.112327,0.159771:vel_
1559812955.011795,cobot_dynamixel_driver/goal|-:J1,J2,J3,J4,J5,J6:0.222554,0.312517,0.056021,-0.083121,-0.112052,0.160680:vel_
1559812955.043797,cobot_dynamixel_driver/goal|-:J1,J2,J3,J4,J5,J6:0.215817,0.322864,0.040570,-0.077625,-0.106719,0.153303:vel_
1559812955.075778,cobot_dynamixel_driver/goal|-:J1,J2,J3,J4,J5,J6:0.214610,0.325889,0.036989,-0.076210,-0.106525,0.151591:vel_
1559812955.107859,cobot_dynamixel_driver/goal|-:J1,J2,J3,J4,J5,J6:0.216569,0.328511,0.036833,-0.076177,-0.108159,0.152223:vel_
1559812955.139823,cobot_dynamixel_driver/goal|-:J1,J2,J3,J4,J5,J6:0.210287,0.337537,0.020539,-0.071200,-0.099990,0.147719:vel_
1559812955.171771,cobot_dynamixel_driver/goal|-:J1,J2,J3,J4,J5,J6:0.210098,0.342289,0.017566,-0.070226,-0.097753,0.147146:vel_
1559812955.204818,cobot_dynamixel_driver/goal|-:J1,J2,J3,J4,J5,J6:0.210188,0.345401,0.016877,-0.070785,-0.098704,0.150861:vel_
1559812955.235755,cobot_dynamixel_driver/goal|-:J1,J2,J3,J4,J5,J6:0.201940,0.349375,-0.000563,-0.065702,-0.090037,0.141242:vel_
1559812955.267818,cobot_dynamixel_driver/goal|-:J1,J2,J3,J4,J5,J6:0.202069,0.353191,-0.005182,-0.065083,-0.089245,0.139979:vel_
1559812955.299774,cobot_dynamixel_driver/goal|-:J1,J2,J3,J4,J5,J6:0.205043,0.360328,-0.008027,-0.066141,-0.090768,0.142030:vel_
1559812955.333154,cobot_dynamixel_driver/goal|-:J1,J2,J3,J4,J5,J6:0.197343,0.364208,-0.024456,-0.060127,-0.081242,0.134068:vel_
1559812955.363784,cobot_dynamixel_driver/goal|-:J1,J2,J3,J4,J5,J6:0.197144,0.366683,-0.030813,-0.058660,-0.078464,0.133037:vel_
1559812955.411772,cobot_dynamixel_driver/goal|-:J1,J2,J3,J4,J5,J6:0.232406,0.432232,-0.050931,-0.067277,-0.090636,0.160059:vel_
1559812955.443908,cobot_dynamixel_driver/goal|-:J1,J2,J3,J4,J5,J6:0.191879,0.376134,-0.057278,-0.053294,-0.067393,0.127896:vel_
1559812955.475913,cobot_dynamixel_driver/goal|-:J1,J2,J3,J4,J5,J6:0.182069,0.364025,-0.058311,-0.049741,-0.060257,0.117155:vel_
1559812955.507776,cobot_dynamixel_driver/goal|-:J1,J2,J3,J4,J5,J6:0.175078,0.352133,-0.060135,-0.048481,-0.060505,0.115983:vel_
1559812955.539779,cobot_dynamixel_driver/goal|-:J1,J2,J3,J4,J5,J6:0.156821,0.330475,-0.061623,-0.041924,-0.048845,0.103502:vel_
1559812955.571714,cobot_dynamixel_driver/goal|-:J1,J2,J3,J4,J5,J6:0.153519,0.324715,-0.061518,-0.040100,-0.045349,0.100744:vel_
1559812955.603870,cobot_dynamixel_driver/goal|-:J1,J2,J3,J4,J5,J6:0.155275,0.329132,-0.061542,-0.040310,-0.047695,0.102663:vel_
1559812955.635728,cobot_dynamixel_driver/goal|-:J1,J2,J3,J4,J5,J6:0.076334,0.168912,-0.037478,-0.018776,-0.019634,0.048365:vel_
1559812955.667727,cobot_dynamixel_driver/goal|-:J1,J2,J3,J4,J5,J6:0.068520,0.152782,-0.035155,-0.016738,-0.016862,0.042675:vel_
1559812955.699780,cobot_dynamixel_driver/goal|-:J1,J2,J3,J4,J5,J6:0.065302,0.138781,-0.035342,-0.016849,-0.017236,0.043013:vel_
1559812955.731830,cobot_dynamixel_driver/goal|-:J1,J2,J3,J4,J5,J6:0.064978,0.134884,-0.036540,-0.017040,-0.017323,0.044014:vel_
1559812955.763721,cobot_dynamixel_driver/goal|-:J1,J2,J3,J4,J5,J6:0.066042,0.137437,-0.036795,-0.017063,-0.017455,0.044664:vel_
1559812955.795869,cobot_dynamixel_driver/goal|-:J1,J2,J3,J4,J5,J6:0.067146,0.138492,-0.036311,-0.017018,-0.017605,0.044196:vel_
1559812955.827888,cobot_dynamixel_driver/goal|-:J1,J2,J3,J4,J5,J6:0.067635,0.142654,-0.036892,-0.017808,-0.017603,0.044385:vel_
1559812955.875727,cobot_dynamixel_driver/goal|-:J1,J2,J3,J4,J5,J6:0.076649,0.164117,-0.041066,-0.020462,-0.020389,0.050404:vel_
1559812955.907914,cobot_dynamixel_driver/goal|-:J1,J2,J3,J4,J5,J6:0.001129,0.046773,0.080067,-0.011174,-0.109957,0.014516:vel_
1559812955.939759,cobot_dynamixel_driver/goal|-:J1,J2,J3,J4,J5,J6:-0.007045,0.034595,0.093360,-0.010201,-0.119817,0.010386:vel_
1559812955.973764,cobot_dynamixel_driver/goal|-:J1,J2,J3,J4,J5,J6:-0.011133,0.025630,0.103293,-0.010042,-0.122634,0.010939:vel_
1559812956.003941,cobot_dynamixel_driver/goal|-:J1,J2,J3,J4,J5,J6:-0.012366,0.025121,0.108246,-0.010165,-0.121313,0.012536:vel_
1559812956.035964,cobot_dynamixel_driver/goal|-:J1,J2,J3,J4,J5,J6:-0.013386,0.026965,0.110588,-0.010231,-0.121613,0.014628:vel_
1559812956.067835,cobot_dynamixel_driver/goal|-:J1,J2,J3,J4,J5,J6:-0.014294,0.028036,0.110571,-0.009739,-0.122112,0.016722:vel_
1559812956.099685,cobot_dynamixel_driver/goal|-:J1,J2,J3,J4,J5,J6:-0.024717,0.047527,0.173076,-0.017048,-0.211181,0.018875:vel_
1559812956.131719,cobot_dynamixel_driver/goal|-:J1,J2,J3,J4,J5,J6:-0.026962,0.051233,0.182634,-0.018226,-0.225565,0.018977:vel_
1559812956.163678,cobot_dynamixel_driver/goal|-:J1,J2,J3,J4,J5,J6:-0.028329,0.053017,0.188056,-0.018215,-0.232947,0.018996:vel_
1559812956.195682,cobot_dynamixel_driver/goal|-:J1,J2,J3,J4,J5,J6:-0.029167,0.053163,0.187524,-0.018653,-0.232262,0.018845:vel_
1559812956.227910,cobot_dynamixel_driver/goal|-:J1,J2,J3,J4,J5,J6:-0.030136,0.054019,0.185870,-0.018793,-0.231746,0.018554:vel_
1559812956.259750,cobot_dynamixel_driver/goal|-:J1,J2,J3,J4,J5,J6:-0.039023,0.077956,0.245265,-0.028121,-0.318875,0.022784:vel_
1559812956.291707,cobot_dynamixel_driver/goal|-:J1,J2,J3,J4,J5,J6:-0.041778,0.084591,0.261610,-0.030259,-0.345021,0.024518:vel_
1559812956.323701,cobot_dynamixel_driver/goal|-:J1,J2,J3,J4,J5,J6:-0.042850,0.087192,0.271305,-0.031159,-0.356325,0.024480:vel_
1559812956.355705,cobot_dynamixel_driver/goal|-:J1,J2,J3,J4,J5,J6:-0.045199,0.087209,0.273709,-0.030975,-0.361476,0.024040:vel_
1559812956.387730,cobot_dynamixel_driver/goal|-:J1,J2,J3,J4,J5,J6:-0.047308,0.105047,0.285978,-0.037034,-0.389743,0.028449:vel_
1559812956.419689,cobot_dynamixel_driver/goal|-:J1,J2,J3,J4,J5,J6:-0.048943,0.110470,0.290939,-0.039791,-0.404240,0.029502:vel_
1559812956.451768,cobot_dynamixel_driver/goal|-:J1,J2,J3,J4,J5,J6:-0.050039,0.115461,0.296455,-0.041278,-0.412865,0.029233:vel_
1559812956.483701,cobot_dynamixel_driver/goal|-:J1,J2,J3,J4,J5,J6:-0.048590,0.122495,0.283687,-0.043137,-0.407066,0.030855:vel_
1559812956.515698,cobot_dynamixel_driver/goal|-:J1,J2,J3,J4,J5,J6:-0.048988,0.124200,0.283920,-0.042950,-0.405860,0.031909:vel_
1559812956.547725,cobot_dynamixel_driver/goal|-:J1,J2,J3,J4,J5,J6:-0.042455,0.114324,0.233484,-0.038867,-0.349290,0.028982:vel_
1559812956.579773,cobot_dynamixel_driver/goal|-:J1,J2,J3,J4,J5,J6:-0.041194,0.112249,0.222928,-0.038301,-0.337169,0.028216:vel_
1559812956.611767,cobot_dynamixel_driver/goal|-:J1,J2,J3,J4,J5,J6:-0.040270,0.112350,0.219228,-0.038277,-0.335789,0.028476:vel_
1559812956.643667,cobot_dynamixel_driver/goal|-:J1,J2,J3,J4,J5,J6:-0.040780,0.115548,0.224756,-0.039579,-0.346444,0.029743:vel_
1559812956.675710,cobot_dynamixel_driver/goal|-:J1,J2,J3,J4,J5,J6:-0.019185,0.056605,0.098657,-0.018998,-0.155426,0.014095:vel_
1559812956.707659,cobot_dynamixel_driver/goal|-:J1,J2,J3,J4,J5,J6:-0.016816,0.050156,0.084495,-0.016898,-0.133385,0.012516:vel_
1559812956.739646,cobot_dynamixel_driver/goal|-:J1,J2,J3,J4,J5,J6:-0.015956,0.047256,0.074003,-0.016601,-0.115088,0.013074:vel_
1559812956.771686,cobot_dynamixel_driver/goal|-:J1,J2,J3,J4,J5,J6:-0.015324,0.047830,0.074340,-0.016779,-0.108964,0.013171:vel_
1559812956.803650,cobot_dynamixel_driver/goal|-:J1,J2,J3,J4,J5,J6:-0.015169,0.049206,0.077351,-0.016841,-0.112931,0.012892:vel_
1559812956.835714,cobot_dynamixel_driver/goal|-:J1,J2,J3,J4,J5,J6:-0.015383,0.050739,0.079165,-0.016884,-0.115026,0.012838:vel_
1559812956.867759,cobot_dynamixel_driver/goal|-:J1,J2,J3,J4,J5,J6:0.008978,-0.025685,-0.046452,0.008973,0.076508,-0.006718:vel_
1559812956.899663,cobot_dynamixel_driver/goal|-:J1,J2,J3,J4,J5,J6:0.010870,-0.032252,-0.057417,0.011116,0.093598,-0.008455:vel_
1559812956.932074,cobot_dynamixel_driver/goal|-:J1,J2,J3,J4,J5,J6:0.011868,-0.035802,-0.064974,0.012178,0.106868,-0.009257:vel_
1559812956.963677,cobot_dynamixel_driver/goal|-:J1,J2,J3,J4,J5,J6:0.012917,-0.038576,-0.066937,0.013394,0.112668,-0.010281:vel_
1559812956.995685,cobot_dynamixel_driver/goal|-:J1,J2,J3,J4,J5,J6:0.013636,-0.042587,-0.068009,0.014517,0.112820,-0.011561:vel_
1559812957.027674,cobot_dynamixel_driver/goal|-:J1,J2,J3,J4,J5,J6:0.014343,-0.046428,-0.069084,0.015411,0.114006,-0.013265:vel_
1559812957.059650,cobot_dynamixel_driver/goal|-:J1,J2,J3,J4,J5,J6:0.015092,-0.050438,-0.070144,0.016538,0.114749,-0.014613:vel_
1559812957.091891,cobot_dynamixel_driver/goal|-:J1,J2,J3,J4,J5,J6:0.026967,-0.079834,-0.137972,0.026835,0.213168,-0.021255:vel_
1559812957.123662,cobot_dynamixel_driver/goal|-:J1,J2,J3,J4,J5,J6:0.028942,-0.084436,-0.146868,0.028227,0.226104,-0.022327:vel_
1559812957.155715,cobot_dynamixel_driver/goal|-:J1,J2,J3,J4,J5,J6:0.029849,-0.086550,-0.151201,0.028607,0.231191,-0.022438:vel_
1559812957.187624,cobot_dynamixel_driver/goal|-:J1,J2,J3,J4,J5,J6:0.030353,-0.086482,-0.150845,0.029032,0.231129,-0.022347:vel_
1559812957.219735,cobot_dynamixel_driver/goal|-:J1,J2,J3,J4,J5,J6:0.030944,-0.086725,-0.151287,0.029842,0.232916,-0.022370:vel_
1559812957.251684,cobot_dynamixel_driver/goal|-:J1,J2,J3,J4,J5,J6:0.031271,-0.085592,-0.150998,0.030738,0.233871,-0.022752:vel_
1559812957.283832,cobot_dynamixel_driver/goal|-:J1,J2,J3,J4,J5,J6:0.041031,-0.104248,-0.224084,0.037020,0.328370,-0.027551:vel_
1559812957.315681,cobot_dynamixel_driver/goal|-:J1,J2,J3,J4,J5,J6:0.043846,-0.106484,-0.239984,0.038409,0.347196,-0.028404:vel_
1559812957.350029,cobot_dynamixel_driver/goal|-:J1,J2,J3,J4,J5,J6:0.045997,-0.111630,-0.255403,0.040777,0.366188,-0.029725:vel_
1559812957.379672,cobot_dynamixel_driver/goal|-:J1,J2,J3,J4,J5,J6:0.047163,-0.109547,-0.252136,0.041308,0.364594,-0.029161:vel_
1559812957.411724,cobot_dynamixel_driver/goal|-:J1,J2,J3,J4,J5,J6:0.046945,-0.106204,-0.279661,0.039355,0.388350,-0.028775:vel_
1559812957.443596,cobot_dynamixel_driver/goal|-:J1,J2,J3,J4,J5,J6:0.046887,-0.105687,-0.286526,0.038875,0.394547,-0.028932:vel_
1559812957.475630,cobot_dynamixel_driver/goal|-:J1,J2,J3,J4,J5,J6:0.047649,-0.108023,-0.291858,0.038565,0.399530,-0.028333:vel_
1559812957.507687,cobot_dynamixel_driver/goal|-:J1,J2,J3,J4,J5,J6:0.049779,-0.113808,-0.298923,0.039268,0.409359,-0.027470:vel_
1559812957.539645,cobot_dynamixel_driver/goal|-:J1,J2,J3,J4,J5,J6:0.041135,-0.085333,-0.271849,0.030716,0.357283,-0.023102:vel_
1559812957.571629,cobot_dynamixel_driver/goal|-:J1,J2,J3,J4,J5,J6:0.038895,-0.078369,-0.267361,0.028941,0.347550,-0.022369:vel_
1559812957.603841,cobot_dynamixel_driver/goal|-:J1,J2,J3,J4,J5,J6:0.037498,-0.072663,-0.266151,0.029567,0.344554,-0.022406:vel_
1559812957.635609,cobot_dynamixel_driver/goal|-:J1,J2,J3,J4,J5,J6:0.018778,-0.033036,-0.136671,0.013234,0.171075,-0.010392:vel_
1559812957.667578,cobot_dynamixel_driver/goal|-:J1,J2,J3,J4,J5,J6:0.017351,-0.029310,-0.124194,0.011494,0.154029,-0.009103:vel_
1559812957.699651,cobot_dynamixel_driver/goal|-:J1,J2,J3,J4,J5,J6:0.017105,-0.028086,-0.115428,0.011540,0.141008,-0.009793:vel_
1559812957.731633,cobot_dynamixel_driver/goal|-:J1,J2,J3,J4,J5,J6:0.016807,-0.028296,-0.116642,0.011538,0.139735,-0.011151:vel_
1559812957.763671,cobot_dynamixel_driver/goal|-:J1,J2,J3,J4,J5,J6:0.016949,-0.029605,-0.119455,0.011726,0.142472,-0.012884:vel_
1559812957.795562,cobot_dynamixel_driver/goal|-:J1,J2,J3,J4,J5,J6:0.016951,-0.031142,-0.121609,0.011833,0.144533,-0.015223:vel_
1559812957.827642,cobot_dynamixel_driver/goal|-:J1,J2,J3,J4,J5,J6:0.017276,-0.032159,-0.122388,0.011359,0.145402,-0.014798:vel_
1559812957.859596,cobot_dynamixel_driver/goal|-:J1,J2,J3,J4,J5,J6:0.017998,-0.033810,-0.124119,0.012028,0.146149,-0.015459:vel_
1559812957.891668,cobot_dynamixel_driver/goal|-:J1,J2,J3,J4,J5,J6:-0.186142,-0.050293,0.017695,0.007178,-0.012057,0.137209:vel_
1559812957.923658,cobot_dynamixel_driver/goal|-:J1,J2,J3,J4,J5,J6:-0.199371,-0.051392,0.026358,0.006920,-0.021861,0.146893:vel_
1559812957.955564,cobot_dynamixel_driver/goal|-:J1,J2,J3,J4,J5,J6:-0.210519,-0.051351,0.031980,0.006932,-0.027836,0.153248:vel_
1559812957.987599,cobot_dynamixel_driver/goal|-:J1,J2,J3,J4,J5,J6:-0.216613,-0.051005,0.033553,0.006947,-0.028859,0.153421:vel_
1559812958.019572,cobot_dynamixel_driver/goal|-:J1,J2,J3,J4,J5,J6:-0.219216,-0.051085,0.035418,0.006763,-0.029494,0.153848:vel_
1559812958.051572,cobot_dynamixel_driver/goal|-:J1,J2,J3,J4,J5,J6:-0.219521,-0.050660,0.035441,0.006667,-0.029671,0.153612:vel_
1559812958.083597,cobot_dynamixel_driver/goal|-:J1,J2,J3,J4,J5,J6:-0.219326,-0.050677,0.035106,0.006700,-0.029704,0.153960:vel_
1559812958.115641,cobot_dynamixel_driver/goal|-:J1,J2,J3,J4,J5,J6:-0.220264,-0.050644,0.034967,0.006679,-0.030032,0.155037:vel_
1559812958.147624,cobot_dynamixel_driver/goal|-:J1,J2,J3,J4,J5,J6:-0.221259,-0.050501,0.034707,0.006310,-0.030097,0.155398:vel_
1559812958.179616,cobot_dynamixel_driver/goal|-:J1,J2,J3,J4,J5,J6:-0.221162,-0.050276,0.034743,0.005898,-0.030353,0.155874:vel_
1559812958.211767,cobot_dynamixel_driver/goal|-:J1,J2,J3,J4,J5,J6:-0.222599,-0.050442,0.034884,0.005801,-0.030917,0.156888:vel_
1559812958.243567,cobot_dynamixel_driver/goal|-:J1,J2,J3,J4,J5,J6:-0.224053,-0.050544,0.034734,0.006201,-0.031335,0.157212:vel_
1559812958.275669,cobot_dynamixel_driver/goal|-:J1,J2,J3,J4,J5,J6:-0.224372,-0.050280,0.034555,0.006848,-0.031748,0.156472:vel_
1559812958.307631,cobot_dynamixel_driver/goal|-:J1,J2,J3,J4,J5,J6:-0.227111,-0.050193,0.034572,0.007049,-0.031950,0.160045:vel_
1559812958.339535,cobot_dynamixel_driver/goal|-:J1,J2,J3,J4,J5,J6:-0.351203,-0.083273,0.063648,0.009823,-0.059294,0.257451:vel_
1559812958.371600,cobot_dynamixel_driver/goal|-:J1,J2,J3,J4,J5,J6:-0.365114,-0.087041,0.066915,0.010013,-0.062168,0.268487:vel_
1559812958.403807,cobot_dynamixel_driver/goal|-:J1,J2,J3,J4,J5,J6:-0.374908,-0.088340,0.067093,0.010207,-0.061420,0.271713:vel_
1559812958.435592,cobot_dynamixel_driver/goal|-:J1,J2,J3,J4,J5,J6:-0.377680,-0.088411,0.066655,0.010152,-0.061624,0.270336:vel_
1559812958.467571,cobot_dynamixel_driver/goal|-:J1,J2,J3,J4,J5,J6:-0.378544,-0.088088,0.066918,0.010015,-0.062038,0.271069:vel_
1559812958.499587,cobot_dynamixel_driver/goal|-:J1,J2,J3,J4,J5,J6:-0.380854,-0.088019,0.067176,0.010164,-0.062727,0.273507:vel_
1559812958.531528,cobot_dynamixel_driver/goal|-:J1,J2,J3,J4,J5,J6:-0.381168,-0.087713,0.066584,0.010295,-0.063068,0.274232:vel_
1559812958.563662,cobot_dynamixel_driver/goal|-:J1,J2,J3,J4,J5,J6:-0.382537,-0.087504,0.067068,0.009344,-0.063351,0.272493:vel_
1559812958.595700,cobot_dynamixel_driver/goal|-:J1,J2,J3,J4,J5,J6:-0.377552,-0.086013,0.066132,0.008658,-0.061610,0.270160:vel_
1559812958.643539,cobot_dynamixel_driver/goal|-:J1,J2,J3,J4,J5,J6:-0.532493,-0.122609,0.091886,0.014781,-0.087155,0.385707:vel_
1559812958.675501,cobot_dynamixel_driver/goal|-:J1,J2,J3,J4,J5,J6:-0.398081,-0.095550,0.073812,0.011570,-0.069450,0.294842:vel_
1559812958.707563,cobot_dynamixel_driver/goal|-:J1,J2,J3,J4,J5,J6:-0.396206,-0.092745,0.071345,0.011364,-0.066904,0.290088:vel_
1559812958.756230,cobot_dynamixel_driver/goal|-:J1,J2,J3,J4,J5,J6:-0.421394,-0.097551,0.076693,0.012589,-0.072239,0.306757:vel_
1559812958.787683,cobot_dynamixel_driver/goal|-:J1,J2,J3,J4,J5,J6:-0.391192,-0.090988,0.072553,0.011789,-0.067838,0.289002:vel_
1559812958.819563,cobot_dynamixel_driver/goal|-:J1,J2,J3,J4,J5,J6:-0.390862,-0.090054,0.071524,0.011855,-0.066882,0.284956:vel_
1559812958.851518,cobot_dynamixel_driver/goal|-:J1,J2,J3,J4,J5,J6:-0.393323,-0.088009,0.072118,0.011141,-0.067859,0.287114:vel_
1559812958.883577,cobot_dynamixel_driver/goal|-:J1,J2,J3,J4,J5,J6:-0.409302,-0.092557,0.076737,0.012353,-0.071659,0.309406:vel_
1559812958.915504,cobot_dynamixel_driver/goal|-:J1,J2,J3,J4,J5,J6:-0.398043,-0.095189,0.074388,0.011631,-0.069610,0.295159:vel_
1559812958.947628,cobot_dynamixel_driver/goal|-:J1,J2,J3,J4,J5,J6:-0.398598,-0.095491,0.074009,0.011279,-0.069073,0.292025:vel_
1559812958.979539,cobot_dynamixel_driver/goal|-:J1,J2,J3,J4,J5,J6:-0.398142,-0.095671,0.073926,0.011492,-0.069460,0.294076:vel_
1559812959.011580,cobot_dynamixel_driver/goal|-:J1,J2,J3,J4,J5,J6:-0.420180,-0.100526,0.079065,0.012640,-0.073536,0.311610:vel_
1559812959.043603,cobot_dynamixel_driver/goal|-:J1,J2,J3,J4,J5,J6:-0.401402,-0.095211,0.074737,0.011806,-0.069415,0.295185:vel_
1559812959.075719,cobot_dynamixel_driver/goal|-:J1,J2,J3,J4,J5,J6:-0.397479,-0.092611,0.073539,0.011659,-0.068884,0.292795:vel_
1559812959.107591,cobot_dynamixel_driver/goal|-:J1,J2,J3,J4,J5,J6:-0.402695,-0.092969,0.075610,0.012530,-0.070233,0.299105:vel_
1559812959.139582,cobot_dynamixel_driver/goal|-:J1,J2,J3,J4,J5,J6:-0.408070,-0.094647,0.076393,0.011924,-0.070604,0.298841:vel_
1559812959.171618,cobot_dynamixel_driver/goal|-:J1,J2,J3,J4,J5,J6:-0.402089,-0.096880,0.075339,0.011524,-0.070055,0.296965:vel_
1559812959.203530,cobot_dynamixel_driver/goal|-:J1,J2,J3,J4,J5,J6:-0.402666,-0.097719,0.075355,0.011695,-0.070285,0.297342:vel_
1559812959.235543,cobot_dynamixel_driver/goal|-:J1,J2,J3,J4,J5,J6:-0.403633,-0.098375,0.074818,0.011465,-0.070401,0.297853:vel_
1559812959.267574,cobot_dynamixel_driver/goal|-:J1,J2,J3,J4,J5,J6:-0.405702,-0.099249,0.075164,0.012064,-0.070783,0.299527:vel_
1559812959.299492,cobot_dynamixel_driver/goal|-:J1,J2,J3,J4,J5,J6:-0.407571,-0.100013,0.075398,0.012595,-0.071559,0.301703:vel_
1559812959.331517,cobot_dynamixel_driver/goal|-:J1,J2,J3,J4,J5,J6:-0.409984,-0.100666,0.076280,0.012619,-0.072259,0.303932:vel_
1559812959.363526,cobot_dynamixel_driver/goal|-:J1,J2,J3,J4,J5,J6:-0.410425,-0.101385,0.075835,0.013370,-0.071782,0.305059:vel_
1559812959.395578,cobot_dynamixel_driver/goal|-:J1,J2,J3,J4,J5,J6:-0.401918,-0.096869,0.074585,0.011733,-0.070179,0.296721:vel_
1559812959.427707,cobot_dynamixel_driver/goal|-:J1,J2,J3,J4,J5,J6:-0.403731,-0.096424,0.074886,0.011057,-0.070234,0.298509:vel_
1559812959.459703,cobot_dynamixel_driver/goal|-:J1,J2,J3,J4,J5,J6:-0.406065,-0.096416,0.075445,0.010973,-0.070609,0.298980:vel_
1559812959.491460,cobot_dynamixel_driver/goal|-:J1,J2,J3,J4,J5,J6:-0.406333,-0.096797,0.075757,0.010959,-0.070427,0.299511:vel_
1559812959.523559,cobot_dynamixel_driver/goal|-:J1,J2,J3,J4,J5,J6:-0.406311,-0.097204,0.075934,0.011083,-0.071114,0.300233:vel_
1559812959.555500,cobot_dynamixel_driver/goal|-:J1,J2,J3,J4,J5,J6:-0.411767,-0.098105,0.076532,0.011249,-0.072158,0.305283:vel_
1559812959.587470,cobot_dynamixel_driver/goal|-:J1,J2,J3,J4,J5,J6:-0.413704,-0.098102,0.076493,0.011170,-0.072916,0.308771:vel_
1559812959.619559,cobot_dynamixel_driver/goal|-:J1,J2,J3,J4,J5,J6:-0.420367,-0.098573,0.078413,0.011862,-0.074873,0.314655:vel_
1559812959.651513,cobot_dynamixel_driver/goal|-:J1,J2,J3,J4,J5,J6:-0.405940,-0.097032,0.075478,0.011715,-0.071050,0.299116:vel_
1559812959.683496,cobot_dynamixel_driver/goal|-:J1,J2,J3,J4,J5,J6:-0.404896,-0.096639,0.075882,0.011598,-0.070377,0.298697:vel_
1559812959.715683,cobot_dynamixel_driver/goal|-:J1,J2,J3,J4,J5,J6:-0.406207,-0.096956,0.076139,0.011829,-0.071097,0.300865:vel_
1559812959.747439,cobot_dynamixel_driver/goal|-:J1,J2,J3,J4,J5,J6:-0.408166,-0.097786,0.075772,0.012275,-0.071747,0.300137:vel_
1559812959.779487,cobot_dynamixel_driver/goal|-:J1,J2,J3,J4,J5,J6:-0.409886,-0.098443,0.076163,0.012273,-0.071814,0.302791:vel_
1559812959.811513,cobot_dynamixel_driver/goal|-:J1,J2,J3,J4,J5,J6:-0.413241,-0.100109,0.076899,0.012732,-0.071640,0.306672:vel_
1559812959.843486,cobot_dynamixel_driver/goal|-:J1,J2,J3,J4,J5,J6:-0.416554,-0.100651,0.077625,0.013855,-0.071702,0.308487:vel_
1559812959.875521,cobot_dynamixel_driver/goal|-:J1,J2,J3,J4,J5,J6:-0.426794,-0.102658,0.079682,0.012935,-0.073066,0.314849:vel_
1559812959.907462,cobot_dynamixel_driver/goal|-:J1,J2,J3,J4,J5,J6:-0.408147,-0.098300,0.076291,0.011850,-0.071082,0.301238:vel_
1559812959.939466,cobot_dynamixel_driver/goal|-:J1,J2,J3,J4,J5,J6:-0.407923,-0.098036,0.076410,0.011545,-0.071153,0.301166:vel_
1559812959.971449,cobot_dynamixel_driver/goal|-:J1,J2,J3,J4,J5,J6:-0.408291,-0.097891,0.076119,0.011327,-0.071589,0.302190:vel_
1559812960.003601,cobot_dynamixel_driver/goal|-:J1,J2,J3,J4,J5,J6:-0.409769,-0.098268,0.076387,0.011821,-0.072433,0.304904:vel_
1559812960.035502,cobot_dynamixel_driver/goal|-:J1,J2,J3,J4,J5,J6:-0.411312,-0.098312,0.077039,0.011416,-0.072416,0.306047:vel_
1559812960.067464,cobot_dynamixel_driver/goal|-:J1,J2,J3,J4,J5,J6:-0.414751,-0.098091,0.076360,0.011294,-0.072326,0.304535:vel_
1559812960.099468,cobot_dynamixel_driver/goal|-:J1,J2,J3,J4,J5,J6:-0.421022,-0.098749,0.078828,0.012947,-0.073376,0.311380:vel_
1559812960.131487,cobot_dynamixel_driver/goal|-:J1,J2,J3,J4,J5,J6:-0.425461,-0.098906,0.080324,0.013503,-0.074486,0.316609:vel_
1559812960.163491,cobot_dynamixel_driver/goal|-:J1,J2,J3,J4,J5,J6:-0.411030,-0.098130,0.076269,0.011569,-0.071482,0.302295:vel_
1559812960.195409,cobot_dynamixel_driver/goal|-:J1,J2,J3,J4,J5,J6:-0.412153,-0.098509,0.076284,0.011479,-0.071484,0.303478:vel_
1559812960.227437,cobot_dynamixel_driver/goal|-:J1,J2,J3,J4,J5,J6:-0.413036,-0.098782,0.076498,0.011269,-0.071965,0.305231:vel_
1559812960.259470,cobot_dynamixel_driver/goal|-:J1,J2,J3,J4,J5,J6:-0.414947,-0.098905,0.076928,0.011449,-0.072145,0.306484:vel_
1559812960.291566,cobot_dynamixel_driver/goal|-:J1,J2,J3,J4,J5,J6:-0.417090,-0.098858,0.076677,0.011859,-0.071744,0.305065:vel_
1559812960.323424,cobot_dynamixel_driver/goal|-:J1,J2,J3,J4,J5,J6:-0.422380,-0.099741,0.077699,0.011951,-0.072271,0.310101:vel_
1559812960.355520,cobot_dynamixel_driver/goal|-:J1,J2,J3,J4,J5,J6:-0.428155,-0.099878,0.077851,0.013030,-0.072248,0.310073:vel_
1559812960.387555,cobot_dynamixel_driver/goal|-:J1,J2,J3,J4,J5,J6:-0.443875,-0.101904,0.080493,0.015428,-0.073839,0.324485:vel_
1559812960.419445,cobot_dynamixel_driver/goal|-:J1,J2,J3,J4,J5,J6:-0.412828,-0.099427,0.076891,0.011948,-0.071641,0.305548:vel_
1559812960.451477,cobot_dynamixel_driver/goal|-:J1,J2,J3,J4,J5,J6:-0.411897,-0.099990,0.077143,0.011851,-0.071921,0.303222:vel_
1559812960.483590,cobot_dynamixel_driver/goal|-:J1,J2,J3,J4,J5,J6:-0.412812,-0.100433,0.077115,0.011535,-0.072408,0.303915:vel_
1559812960.515429,cobot_dynamixel_driver/goal|-:J1,J2,J3,J4,J5,J6:-0.414725,-0.102241,0.078739,0.011529,-0.072491,0.308434:vel_
1559812960.547426,cobot_dynamixel_driver/goal|-:J1,J2,J3,J4,J5,J6:-0.417934,-0.103142,0.079300,0.012101,-0.072572,0.310914:vel_
1559812960.579449,cobot_dynamixel_driver/goal|-:J1,J2,J3,J4,J5,J6:-0.421255,-0.103780,0.078858,0.011579,-0.072940,0.312097:vel_
1559812960.611418,cobot_dynamixel_driver/goal|-:J1,J2,J3,J4,J5,J6:-0.429204,-0.106571,0.079795,0.012117,-0.074632,0.318048:vel_
1559812960.643451,cobot_dynamixel_driver/goal|-:J1,J2,J3,J4,J5,J6:-0.415643,-0.100092,0.077352,0.012149,-0.072486,0.307079:vel_
1559812960.675452,cobot_dynamixel_driver/goal|-:J1,J2,J3,J4,J5,J6:-0.416697,-0.099336,0.077669,0.012032,-0.072587,0.307155:vel_
1559812960.707479,cobot_dynamixel_driver/goal|-:J1,J2,J3,J4,J5,J6:-0.417273,-0.099324,0.077887,0.012342,-0.072712,0.308753:vel_
1559812960.739484,cobot_dynamixel_driver/goal|-:J1,J2,J3,J4,J5,J6:-0.417563,-0.099551,0.077769,0.013015,-0.073190,0.308324:vel_
1559812960.771414,cobot_dynamixel_driver/goal|-:J1,J2,J3,J4,J5,J6:-0.422673,-0.100425,0.079302,0.012925,-0.073746,0.312317:vel_
1559812960.803388,cobot_dynamixel_driver/goal|-:J1,J2,J3,J4,J5,J6:-0.424470,-0.100461,0.079033,0.012379,-0.074098,0.313619:vel_
1559812960.835388,cobot_dynamixel_driver/goal|-:J1,J2,J3,J4,J5,J6:-0.425391,-0.099640,0.080331,0.012135,-0.075148,0.315259:vel_
1559812960.867393,cobot_dynamixel_driver/goal|-:J1,J2,J3,J4,J5,J6:-0.435485,-0.099178,0.081844,0.012636,-0.077486,0.320329:vel_
1559812960.899394,cobot_dynamixel_driver/goal|-:J1,J2,J3,J4,J5,J6:-0.418414,-0.099636,0.078083,0.012432,-0.073023,0.308725:vel_
1559812960.931420,cobot_dynamixel_driver/goal|-:J1,J2,J3,J4,J5,J6:-0.417891,-0.100121,0.078003,0.012496,-0.072902,0.308678:vel_
1559812960.963498,cobot_dynamixel_driver/goal|-:J1,J2,J3,J4,J5,J6:-0.418970,-0.100362,0.078011,0.012710,-0.073345,0.309870:vel_
1559812960.995400,cobot_dynamixel_driver/goal|-:J1,J2,J3,J4,J5,J6:-0.422016,-0.101290,0.078857,0.013423,-0.074103,0.312664:vel_
1559812961.027421,cobot_dynamixel_driver/goal|-:J1,J2,J3,J4,J5,J6:-0.426300,-0.102517,0.080321,0.013325,-0.075323,0.315757:vel_
1559812961.059452,cobot_dynamixel_driver/goal|-:J1,J2,J3,J4,J5,J6:-0.429438,-0.103278,0.079880,0.012272,-0.075810,0.317159:vel_
1559812961.091495,cobot_dynamixel_driver/goal|-:J1,J2,J3,J4,J5,J6:-0.433204,-0.104438,0.079922,0.011821,-0.075853,0.315886:vel_
1559812961.123477,cobot_dynamixel_driver/goal|-:J1,J2,J3,J4,J5,J6:-0.446996,-0.108894,0.083307,0.012319,-0.077601,0.330898:vel_
1559812961.155371,cobot_dynamixel_driver/goal|-:J1,J2,J3,J4,J5,J6:-0.420712,-0.101259,0.078676,0.012261,-0.073144,0.311265:vel_
1559812961.187536,cobot_dynamixel_driver/goal|-:J1,J2,J3,J4,J5,J6:-0.420165,-0.100735,0.078207,0.012651,-0.072837,0.309078:vel_
1559812961.219806,cobot_dynamixel_driver/goal|-:J1,J2,J3,J4,J5,J6:-0.416789,-0.099665,0.077703,0.012688,-0.072943,0.309268:vel_
1559812961.251348,cobot_dynamixel_driver/goal|-:J1,J2,J3,J4,J5,J6:-0.422956,-0.100429,0.079529,0.012849,-0.073851,0.314509:vel_
1559812961.283377,cobot_dynamixel_driver/goal|-:J1,J2,J3,J4,J5,J6:-0.425627,-0.100650,0.080354,0.012888,-0.074124,0.316900:vel_
1559812961.315364,cobot_dynamixel_driver/goal|-:J1,J2,J3,J4,J5,J6:-0.430397,-0.101910,0.081768,0.012315,-0.075965,0.320689:vel_
1559812961.350693,cobot_dynamixel_driver/goal|-:J1,J2,J3,J4,J5,J6:-0.458007,-0.106710,0.087175,0.012954,-0.081464,0.338175:vel_
1559812961.395385,cobot_dynamixel_driver/goal|-:J1,J2,J3,J4,J5,J6:-0.423969,-0.101182,0.078957,0.012126,-0.073776,0.312124:vel_
1559812961.427445,cobot_dynamixel_driver/goal|-:J1,J2,J3,J4,J5,J6:-0.422242,-0.101195,0.078479,0.012212,-0.072871,0.309955:vel_
1559812961.459430,cobot_dynamixel_driver/goal|-:J1,J2,J3,J4,J5,J6:-0.421952,-0.100879,0.078275,0.012327,-0.073638,0.311013:vel_
1559812961.491429,cobot_dynamixel_driver/goal|-:J1,J2,J3,J4,J5,J6:-0.422928,-0.101034,0.078806,0.012804,-0.074105,0.312518:vel_
1559812961.523376,cobot_dynamixel_driver/goal|-:J1,J2,J3,J4,J5,J6:-0.427401,-0.101843,0.079254,0.013408,-0.074657,0.315414:vel_
1559812961.555773,cobot_dynamixel_driver/goal|-:J1,J2,J3,J4,J5,J6:-0.431301,-0.101833,0.079346,0.012121,-0.075169,0.318044:vel_
1559812961.587402,cobot_dynamixel_driver/goal|-:J1,J2,J3,J4,J5,J6:-0.437943,-0.102096,0.079325,0.011166,-0.076846,0.322187:vel_
1559812961.619339,cobot_dynamixel_driver/goal|-:J1,J2,J3,J4,J5,J6:-0.426365,-0.102020,0.078786,0.011994,-0.074398,0.313561:vel_
1559812961.651340,cobot_dynamixel_driver/goal|-:J1,J2,J3,J4,J5,J6:-0.426558,-0.102364,0.079554,0.011963,-0.074322,0.314854:vel_
1559812961.683435,cobot_dynamixel_driver/goal|-:J1,J2,J3,J4,J5,J6:-0.431056,-0.103796,0.080199,0.012690,-0.075246,0.318793:vel_
1559812961.715441,cobot_dynamixel_driver/goal|-:J1,J2,J3,J4,J5,J6:-0.432194,-0.104528,0.080671,0.013053,-0.075487,0.320018:vel_
1559812961.747375,cobot_dynamixel_driver/goal|-:J1,J2,J3,J4,J5,J6:-0.432755,-0.105036,0.081046,0.012928,-0.075196,0.320198:vel_
1559812961.779768,cobot_dynamixel_driver/goal|-:J1,J2,J3,J4,J5,J6:-0.438553,-0.106314,0.081772,0.013254,-0.075808,0.324475:vel_
1559812961.811329,cobot_dynamixel_driver/goal|-:J1,J2,J3,J4,J5,J6:-0.441094,-0.107958,0.083107,0.012217,-0.076019,0.327273:vel_
1559812961.843538,cobot_dynamixel_driver/goal|-:J1,J2,J3,J4,J5,J6:-0.459219,-0.112605,0.082820,0.011140,-0.077204,0.333729:vel_
1559812961.875338,cobot_dynamixel_driver/goal|-:J1,J2,J3,J4,J5,J6:-0.428082,-0.102888,0.079751,0.012191,-0.074855,0.315670:vel_
1559812961.907411,cobot_dynamixel_driver/goal|-:J1,J2,J3,J4,J5,J6:-0.426895,-0.102215,0.079433,0.012477,-0.075229,0.314225:vel_
1559812961.939342,cobot_dynamixel_driver/goal|-:J1,J2,J3,J4,J5,J6:-0.426865,-0.101802,0.079671,0.012901,-0.075051,0.316734:vel_
1559812961.971385,cobot_dynamixel_driver/goal|-:J1,J2,J3,J4,J5,J6:-0.427963,-0.101944,0.079908,0.013505,-0.075125,0.317592:vel_
1559812962.006016,cobot_dynamixel_driver/goal|-:J1,J2,J3,J4,J5,J6:-0.443580,-0.105371,0.082536,0.013341,-0.077584,0.328871:vel_
1559812962.035311,cobot_dynamixel_driver/goal|-:J1,J2,J3,J4,J5,J6:-0.438395,-0.103414,0.082081,0.013201,-0.076009,0.324616:vel_
1559812962.067350,cobot_dynamixel_driver/goal|-:J1,J2,J3,J4,J5,J6:-0.440621,-0.102623,0.082108,0.011415,-0.075883,0.324315:vel_
1559812962.099588,cobot_dynamixel_driver/goal|-:J1,J2,J3,J4,J5,J6:-0.431098,-0.103015,0.079876,0.011825,-0.075051,0.318214:vel_
1559812962.131334,cobot_dynamixel_driver/goal|-:J1,J2,J3,J4,J5,J6:-0.435119,-0.103972,0.080968,0.011933,-0.075755,0.321074:vel_
1559812962.163542,cobot_dynamixel_driver/goal|-:J1,J2,J3,J4,J5,J6:-0.433732,-0.103600,0.079978,0.011739,-0.075459,0.318897:vel_
1559812962.195491,cobot_dynamixel_driver/goal|-:J1,J2,J3,J4,J5,J6:-0.432239,-0.103089,0.080653,0.012336,-0.075392,0.319665:vel_
1559812962.227395,cobot_dynamixel_driver/goal|-:J1,J2,J3,J4,J5,J6:-0.437264,-0.103570,0.081056,0.012639,-0.076251,0.321678:vel_
1559812962.259263,cobot_dynamixel_driver/goal|-:J1,J2,J3,J4,J5,J6:-0.444648,-0.105664,0.082940,0.012879,-0.076925,0.329507:vel_
1559812962.291307,cobot_dynamixel_driver/goal|-:J1,J2,J3,J4,J5,J6:-0.449990,-0.107157,0.085092,0.014028,-0.077914,0.334426:vel_
1559812962.323303,cobot_dynamixel_driver/goal|-:J1,J2,J3,J4,J5,J6:-0.436622,-0.104956,0.081611,0.012444,-0.076365,0.322487:vel_
1559812962.355347,cobot_dynamixel_driver/goal|-:J1,J2,J3,J4,J5,J6:-0.436185,-0.104746,0.081485,0.012112,-0.076067,0.322438:vel_
1559812962.387298,cobot_dynamixel_driver/goal|-:J1,J2,J3,J4,J5,J6:-0.436314,-0.104849,0.081192,0.012383,-0.076156,0.323260:vel_
1559812962.419401,cobot_dynamixel_driver/goal|-:J1,J2,J3,J4,J5,J6:-0.439510,-0.104989,0.081449,0.012392,-0.077283,0.325436:vel_
1559812962.451334,cobot_dynamixel_driver/goal|-:J1,J2,J3,J4,J5,J6:-0.440816,-0.104637,0.082562,0.013189,-0.077368,0.326465:vel_
1559812962.483306,cobot_dynamixel_driver/goal|-:J1,J2,J3,J4,J5,J6:-0.446041,-0.105777,0.083093,0.014236,-0.078626,0.330708:vel_
1559812962.515319,cobot_dynamixel_driver/goal|-:J1,J2,J3,J4,J5,J6:-0.450620,-0.105868,0.083630,0.013588,-0.079125,0.332627:vel_
1559812962.547306,cobot_dynamixel_driver/goal|-:J1,J2,J3,J4,J5,J6:-0.458464,-0.106410,0.083567,0.013172,-0.078800,0.335523:vel_
1559812962.579394,cobot_dynamixel_driver/goal|-:J1,J2,J3,J4,J5,J6:-0.242756,-0.058244,0.045278,0.006610,-0.042122,0.178564:vel_
1559812962.611311,cobot_dynamixel_driver/goal|-:J1,J2,J3,J4,J5,J6:-0.226869,-0.054824,0.042526,0.006090,-0.039561,0.167046:vel_
1559812962.643366,cobot_dynamixel_driver/goal|-:J1,J2,J3,J4,J5,J6:-0.213426,-0.054141,0.042142,0.005985,-0.040159,0.160238:vel_
1559812962.675333,cobot_dynamixel_driver/goal|-:J1,J2,J3,J4,J5,J6:-0.205942,-0.054668,0.042765,0.006096,-0.040419,0.160826:vel_
1559812962.707282,cobot_dynamixel_driver/goal|-:J1,J2,J3,J4,J5,J6:-0.205410,-0.055066,0.043160,0.006229,-0.040406,0.162119:vel_
1559812962.739287,cobot_dynamixel_driver/goal|-:J1,J2,J3,J4,J5,J6:-0.207267,-0.055647,0.043348,0.006413,-0.040596,0.163223:vel_
1559812962.771322,cobot_dynamixel_driver/goal|-:J1,J2,J3,J4,J5,J6:-0.208073,-0.055843,0.043400,0.006763,-0.040743,0.163183:vel_
1559812962.803293,cobot_dynamixel_driver/goal|-:J1,J2,J3,J4,J5,J6:-0.208896,-0.056315,0.043495,0.007169,-0.040454,0.163726:vel_
1559812962.835322,cobot_dynamixel_driver/goal|-:J1,J2,J3,J4,J5,J6:-0.211211,-0.056905,0.044448,0.006756,-0.041095,0.165095:vel_
1559812962.867351,cobot_dynamixel_driver/goal|-:J1,J2,J3,J4,J5,J6:-0.212458,-0.057364,0.045105,0.006133,-0.040946,0.166075:vel_
1559812962.899257,cobot_dynamixel_driver/goal|-:J1,J2,J3,J4,J5,J6:-0.213514,-0.057508,0.044552,0.005793,-0.040594,0.166213:vel_
1559812962.931316,cobot_dynamixel_driver/goal|-:J1,J2,J3,J4,J5,J6:-0.208227,-0.066380,0.053096,-0.006611,-0.048562,0.186497:vel_
1559812962.963302,cobot_dynamixel_driver/goal|-:J1,J2,J3,J4,J5,J6:-0.049304,0.044691,0.075310,-0.008753,-0.132431,0.040964:vel_
1559812962.995273,cobot_dynamixel_driver/goal|-:J1,J2,J3,J4,J5,J6:-0.033008,0.056374,0.078221,-0.009702,-0.141414,0.025631:vel_
1559812963.027237,cobot_dynamixel_driver/goal|-:J1,J2,J3,J4,J5,J6:-0.019498,0.064412,0.078475,-0.010744,-0.144027,0.015777:vel_
1559812963.059305,cobot_dynamixel_driver/goal|-:J1,J2,J3,J4,J5,J6:-0.015350,0.068474,0.078594,-0.011855,-0.143576,0.016377:vel_
1559812963.091256,cobot_dynamixel_driver/goal|-:J1,J2,J3,J4,J5,J6:-0.014901,0.070824,0.078589,-0.012702,-0.143353,0.018899:vel_
1559812963.123291,cobot_dynamixel_driver/goal|-:J1,J2,J3,J4,J5,J6:-0.015821,0.073083,0.078145,-0.013871,-0.143656,0.022360:vel_
1559812963.155282,cobot_dynamixel_driver/goal|-:J1,J2,J3,J4,J5,J6:-0.022601,0.124473,0.124066,-0.018316,-0.244166,0.021070:vel_
1559812963.187305,cobot_dynamixel_driver/goal|-:J1,J2,J3,J4,J5,J6:-0.023685,0.131652,0.130959,-0.019297,-0.258263,0.020714:vel_
1559812963.219431,cobot_dynamixel_driver/goal|-:J1,J2,J3,J4,J5,J6:-0.024031,0.134962,0.134015,-0.019875,-0.265243,0.021366:vel_
1559812963.251306,cobot_dynamixel_driver/goal|-:J1,J2,J3,J4,J5,J6:-0.024564,0.135290,0.133995,-0.020142,-0.264524,0.021776:vel_
1559812963.283239,cobot_dynamixel_driver/goal|-:J1,J2,J3,J4,J5,J6:-0.025178,0.135180,0.134858,-0.020197,-0.266458,0.022840:vel_
1559812963.315286,cobot_dynamixel_driver/goal|-:J1,J2,J3,J4,J5,J6:-0.026059,0.134496,0.135826,-0.020325,-0.268187,0.022810:vel_
1559812963.347266,cobot_dynamixel_driver/goal|-:J1,J2,J3,J4,J5,J6:-0.032807,0.200449,0.180715,-0.027296,-0.381991,0.020755:vel_
1559812963.379287,cobot_dynamixel_driver/goal|-:J1,J2,J3,J4,J5,J6:-0.034227,0.219473,0.192739,-0.029846,-0.414498,0.020647:vel_
1559812963.427379,cobot_dynamixel_driver/goal|-:J1,J2,J3,J4,J5,J6:-0.040789,0.279488,0.238447,-0.038167,-0.523308,0.024911:vel_
1559812963.459321,cobot_dynamixel_driver/goal|-:J1,J2,J3,J4,J5,J6:-0.036522,0.259227,0.201010,-0.035962,-0.463144,0.023281:vel_
1559812963.491474,cobot_dynamixel_driver/goal|-:J1,J2,J3,J4,J5,J6:-0.035596,0.256818,0.191531,-0.036124,-0.457999,0.022393:vel_
1559812963.523611,cobot_dynamixel_driver/goal|-:J1,J2,J3,J4,J5,J6:-0.036869,0.256431,0.187157,-0.037657,-0.460490,0.023426:vel_
1559812963.555356,cobot_dynamixel_driver/goal|-:J1,J2,J3,J4,J5,J6:-0.036876,0.275243,0.186166,-0.040815,-0.469161,0.027106:vel_
1559812963.587374,cobot_dynamixel_driver/goal|-:J1,J2,J3,J4,J5,J6:-0.036659,0.278252,0.183396,-0.041620,-0.463830,0.028033:vel_
1559812963.619310,cobot_dynamixel_driver/goal|-:J1,J2,J3,J4,J5,J6:-0.037415,0.286167,0.189669,-0.043152,-0.476005,0.029994:vel_
1559812963.651301,cobot_dynamixel_driver/goal|-:J1,J2,J3,J4,J5,J6:-0.037822,0.299218,0.179148,-0.046489,-0.480344,0.033396:vel_
1559812963.683279,cobot_dynamixel_driver/goal|-:J1,J2,J3,J4,J5,J6:-0.039135,0.310319,0.179985,-0.048955,-0.492062,0.035668:vel_
1559812963.715531,cobot_dynamixel_driver/goal|-:J1,J2,J3,J4,J5,J6:-0.039080,0.306621,0.175783,-0.048571,-0.484090,0.035193:vel_
1559812963.747516,cobot_dynamixel_driver/goal|-:J1,J2,J3,J4,J5,J6:-0.036134,0.310460,0.157733,-0.052009,-0.470393,0.038919:vel_
1559812963.779226,cobot_dynamixel_driver/goal|-:J1,J2,J3,J4,J5,J6:-0.035398,0.314830,0.152832,-0.053518,-0.467794,0.040087:vel_
1559812963.811253,cobot_dynamixel_driver/goal|-:J1,J2,J3,J4,J5,J6:-0.035387,0.320463,0.155857,-0.054984,-0.483293,0.040753:vel_
1559812963.843318,cobot_dynamixel_driver/goal|-:J1,J2,J3,J4,J5,J6:-0.036031,0.328818,0.145653,-0.059722,-0.477330,0.046958:vel_
1559812963.875257,cobot_dynamixel_driver/goal|-:J1,J2,J3,J4,J5,J6:-0.036179,0.329958,0.139819,-0.061435,-0.469362,0.047508:vel_
1559812963.907458,cobot_dynamixel_driver/goal|-:J1,J2,J3,J4,J5,J6:-0.036465,0.343566,0.131484,-0.067637,-0.473577,0.052735:vel_
1559812963.939493,cobot_dynamixel_driver/goal|-:J1,J2,J3,J4,J5,J6:-0.036570,0.349568,0.131307,-0.069672,-0.480615,0.054141:vel_
1559812963.971523,cobot_dynamixel_driver/goal|-:J1,J2,J3,J4,J5,J6:-0.037179,0.355618,0.133693,-0.070401,-0.488290,0.054377:vel_
1559812964.005421,cobot_dynamixel_driver/goal|-:J1,J2,J3,J4,J5,J6:-0.032287,0.314898,0.105293,-0.067222,-0.417555,0.055054:vel_
1559812964.035532,cobot_dynamixel_driver/goal|-:J1,J2,J3,J4,J5,J6:-0.031280,0.300903,0.096103,-0.065346,-0.394464,0.053810:vel_
1559812964.068427,cobot_dynamixel_driver/goal|-:J1,J2,J3,J4,J5,J6:-0.031466,0.300677,0.096665,-0.066063,-0.394885,0.055626:vel_
1559812964.099503,cobot_dynamixel_driver/goal|-:J1,J2,J3,J4,J5,J6:-0.015433,0.155898,0.043466,-0.037425,-0.198822,0.031475:vel_
1559812964.131220,cobot_dynamixel_driver/goal|-:J1,J2,J3,J4,J5,J6:-0.013742,0.140813,0.038555,-0.034494,-0.178645,0.029183:vel_
1559812964.163429,cobot_dynamixel_driver/goal|-:J1,J2,J3,J4,J5,J6:-0.013579,0.130029,0.037547,-0.034462,-0.162740,0.029555:vel_
1559812964.195206,cobot_dynamixel_driver/goal|-:J1,J2,J3,J4,J5,J6:-0.013647,0.128350,0.038344,-0.034675,-0.156784,0.029655:vel_
1559812964.227218,cobot_dynamixel_driver/goal|-:J1,J2,J3,J4,J5,J6:-0.013918,0.130932,0.039426,-0.034782,-0.160054,0.029595:vel_
1559812964.259293,cobot_dynamixel_driver/goal|-:J1,J2,J3,J4,J5,J6:-0.013919,0.132900,0.039887,-0.034668,-0.161613,0.029848:vel_
1559812964.291198,cobot_dynamixel_driver/goal|-:J1,J2,J3,J4,J5,J6:-0.013943,0.135986,0.040156,-0.034511,-0.163422,0.030163:vel_
1559812964.323256,cobot_dynamixel_driver/goal|-:J1,J2,J3,J4,J5,J6:-0.013945,0.138358,0.040019,-0.033988,-0.164107,0.030534:vel_
1559812964.355148,cobot_dynamixel_driver/goal|-:J1,J2,J3,J4,J5,J6:0.007090,-0.076515,-0.018562,0.018922,0.097655,-0.015677:vel_
1559812964.387204,cobot_dynamixel_driver/goal|-:J1,J2,J3,J4,J5,J6:0.009067,-0.097411,-0.023876,0.023845,0.122945,-0.019716:vel_
1559812964.419152,cobot_dynamixel_driver/goal|-:J1,J2,J3,J4,J5,J6:0.009883,-0.116563,-0.026134,0.025841,0.145250,-0.020939:vel_
1559812964.451167,cobot_dynamixel_driver/goal|-:J1,J2,J3,J4,J5,J6:0.010981,-0.129291,-0.027918,0.027443,0.161604,-0.021730:vel_
1559812964.483196,cobot_dynamixel_driver/goal|-:J1,J2,J3,J4,J5,J6:0.012292,-0.135003,-0.029990,0.028618,0.168167,-0.022204:vel_
1559812964.515136,cobot_dynamixel_driver/goal|-:J1,J2,J3,J4,J5,J6:0.012999,-0.137585,-0.031279,0.029871,0.168549,-0.022517:vel_
1559812964.547136,cobot_dynamixel_driver/goal|-:J1,J2,J3,J4,J5,J6:0.014304,-0.138917,-0.032219,0.030690,0.169082,-0.022325:vel_
1559812964.579182,cobot_dynamixel_driver/goal|-:J1,J2,J3,J4,J5,J6:0.022524,-0.217905,-0.062929,0.048390,0.278879,-0.038099:vel_
1559812964.611197,cobot_dynamixel_driver/goal|-:J1,J2,J3,J4,J5,J6:0.024027,-0.229525,-0.067394,0.050780,0.295104,-0.040038:vel_
1559812964.643183,cobot_dynamixel_driver/goal|-:J1,J2,J3,J4,J5,J6:0.025090,-0.237967,-0.068720,0.051611,0.306390,-0.040269:vel_
1559812964.675161,cobot_dynamixel_driver/goal|-:J1,J2,J3,J4,J5,J6:0.026031,-0.236296,-0.067768,0.052217,0.305179,-0.041163:vel_
1559812964.707124,cobot_dynamixel_driver/goal|-:J1,J2,J3,J4,J5,J6:0.026847,-0.234216,-0.068005,0.053366,0.303920,-0.042021:vel_
1559812964.739200,cobot_dynamixel_driver/goal|-:J1,J2,J3,J4,J5,J6:0.028128,-0.235036,-0.068874,0.055373,0.307440,-0.042783:vel_
1559812964.771199,cobot_dynamixel_driver/goal|-:J1,J2,J3,J4,J5,J6:0.033832,-0.303251,-0.107673,0.063397,0.411755,-0.049943:vel_
1559812964.803133,cobot_dynamixel_driver/goal|-:J1,J2,J3,J4,J5,J6:0.036423,-0.324713,-0.119034,0.066422,0.443129,-0.052298:vel_
1559812964.835229,cobot_dynamixel_driver/goal|-:J1,J2,J3,J4,J5,J6:0.037324,-0.335736,-0.123734,0.067379,0.463579,-0.051971:vel_
1559812964.867213,cobot_dynamixel_driver/goal|-:J1,J2,J3,J4,J5,J6:0.037828,-0.340382,-0.125822,0.067254,0.468276,-0.052507:vel_
1559812964.899136,cobot_dynamixel_driver/goal|-:J1,J2,J3,J4,J5,J6:0.037216,-0.328177,-0.141865,0.060405,0.472455,-0.047232:vel_
1559812964.931434,cobot_dynamixel_driver/goal|-:J1,J2,J3,J4,J5,J6:0.037114,-0.327837,-0.148321,0.059452,0.480573,-0.046505:vel_
1559812964.963258,cobot_dynamixel_driver/goal|-:J1,J2,J3,J4,J5,J6:0.038424,-0.327141,-0.151896,0.058632,0.485585,-0.045501:vel_
1559812964.995272,cobot_dynamixel_driver/goal|-:J1,J2,J3,J4,J5,J6:0.037270,-0.311146,-0.158464,0.052317,0.473797,-0.039644:vel_
1559812965.027102,cobot_dynamixel_driver/goal|-:J1,J2,J3,J4,J5,J6:0.036271,-0.306894,-0.161842,0.051062,0.472666,-0.038302:vel_
1559812965.059190,cobot_dynamixel_driver/goal|-:J1,J2,J3,J4,J5,J6:0.036987,-0.310317,-0.166725,0.052651,0.481878,-0.039415:vel_
1559812965.091144,cobot_dynamixel_driver/goal|-:J1,J2,J3,J4,J5,J6:0.036707,-0.295209,-0.175818,0.046075,0.473291,-0.033751:vel_
1559812965.123242,cobot_dynamixel_driver/goal|-:J1,J2,J3,J4,J5,J6:0.037322,-0.291782,-0.176892,0.044606,0.473167,-0.032512:vel_
1559812965.155109,cobot_dynamixel_driver/goal|-:J1,J2,J3,J4,J5,J6:0.039247,-0.294899,-0.182065,0.045457,0.481782,-0.033704:vel_
1559812965.187133,cobot_dynamixel_driver/goal|-:J1,J2,J3,J4,J5,J6:0.037623,-0.278047,-0.190847,0.040188,0.470679,-0.028125:vel_
1559812965.219160,cobot_dynamixel_driver/goal|-:J1,J2,J3,J4,J5,J6:0.037437,-0.274561,-0.194098,0.038548,0.468617,-0.027194:vel_
1559812965.251201,cobot_dynamixel_driver/goal|-:J1,J2,J3,J4,J5,J6:0.038685,-0.281353,-0.202457,0.039961,0.484654,-0.028627:vel_
1559812965.283193,cobot_dynamixel_driver/goal|-:J1,J2,J3,J4,J5,J6:0.037680,-0.260297,-0.206503,0.034794,0.467466,-0.022839:vel_
1559812965.315127,cobot_dynamixel_driver/goal|-:J1,J2,J3,J4,J5,J6:0.038247,-0.257605,-0.209801,0.034626,0.465590,-0.021339:vel_
1559812965.347118,cobot_dynamixel_driver/goal|-:J1,J2,J3,J4,J5,J6:0.038405,-0.259550,-0.212342,0.034280,0.469658,-0.021273:vel_
1559812965.379172,cobot_dynamixel_driver/goal|-:J1,J2,J3,J4,J5,J6:0.032915,-0.215107,-0.196383,0.026650,0.413502,-0.016685:vel_
1559812965.411226,cobot_dynamixel_driver/goal|-:J1,J2,J3,J4,J5,J6:0.032083,-0.208233,-0.195201,0.025494,0.405290,-0.015816:vel_
1559812965.443189,cobot_dynamixel_driver/goal|-:J1,J2,J3,J4,J5,J6:0.031666,-0.203747,-0.194646,0.025529,0.402789,-0.015766:vel_
1559812965.475185,cobot_dynamixel_driver/goal|-:J1,J2,J3,J4,J5,J6:0.032086,-0.206772,-0.199754,0.025225,0.412025,-0.015704:vel_
1559812965.507085,cobot_dynamixel_driver/goal|-:J1,J2,J3,J4,J5,J6:0.015331,-0.091061,-0.097543,0.010466,0.189703,-0.006048:vel_
1559812965.539078,cobot_dynamixel_driver/goal|-:J1,J2,J3,J4,J5,J6:0.013365,-0.079031,-0.087299,0.009125,0.166354,-0.005294:vel_
1559812965.571160,cobot_dynamixel_driver/goal|-:J1,J2,J3,J4,J5,J6:0.012960,-0.071304,-0.081430,0.009078,0.146259,-0.005869:vel_
1559812965.604185,cobot_dynamixel_driver/goal|-:J1,J2,J3,J4,J5,J6:0.012672,-0.070657,-0.083850,0.009064,0.136631,-0.006733:vel_
1559812965.635412,cobot_dynamixel_driver/goal|-:J1,J2,J3,J4,J5,J6:0.012784,-0.073133,-0.086000,0.008846,0.137810,-0.007837:vel_
1559812965.667153,cobot_dynamixel_driver/goal|-:J1,J2,J3,J4,J5,J6:0.012718,-0.075248,-0.086417,0.009258,0.140504,-0.009384:vel_
1559812965.715062,cobot_dynamixel_driver/goal|-:J1,J2,J3,J4,J5,J6:0.014220,-0.085822,-0.097252,0.011051,0.158336,-0.011437:vel_
1559812971.250730,cobot_dynamixel_driver/goal|-:J1,J2,J3,J4,J5,J6:0.000000,0.000000,0.000000,0.000000,0.000000,0.000000:0.500000,0.500000,0.500000,0.500000,0.500000,0.500000:pos_vel_
1559813122.889211,cobot_dynamixel_driver/goal|-:J1,J2,J3,J4,J5,J6:0.101056,0.049165,0.077930,-0.056170,-0.061321,0.065897:vel_
1559813123.320906,cobot_dynamixel_driver/goal|-:J1,J2,J3,J4,J5,J6:0.104884,0.040000,0.064524,-0.056799,-0.061932,0.066205:vel_
1559813123.352862,cobot_dynamixel_driver/goal|-:J1,J2,J3,J4,J5,J6:0.108558,0.040331,0.063335,-0.058142,-0.061715,0.065785:vel_
1559813123.384904,cobot_dynamixel_driver/goal|-:J1,J2,J3,J4,J5,J6:0.110006,0.040049,0.062109,-0.058598,-0.062643,0.066630:vel_
1559813123.416922,cobot_dynamixel_driver/goal|-:J1,J2,J3,J4,J5,J6:0.110254,0.039851,0.062046,-0.060028,-0.063982,0.067247:vel_
1559813123.449029,cobot_dynamixel_driver/goal|-:J1,J2,J3,J4,J5,J6:0.169321,0.083774,0.114216,-0.092649,-0.101536,0.110070:vel_
1559813123.480925,cobot_dynamixel_driver/goal|-:J1,J2,J3,J4,J5,J6:0.177841,0.089901,0.121724,-0.097551,-0.106797,0.116095:vel_
1559813123.512887,cobot_dynamixel_driver/goal|-:J1,J2,J3,J4,J5,J6:0.181488,0.092289,0.124665,-0.098494,-0.107247,0.115796:vel_
1559813123.544955,cobot_dynamixel_driver/goal|-:J1,J2,J3,J4,J5,J6:0.183375,0.093556,0.124812,-0.099207,-0.107459,0.115801:vel_
1559813123.576883,cobot_dynamixel_driver/goal|-:J1,J2,J3,J4,J5,J6:0.184191,0.091561,0.124427,-0.098957,-0.106995,0.115629:vel_
1559813123.608894,cobot_dynamixel_driver/goal|-:J1,J2,J3,J4,J5,J6:0.186514,0.091571,0.126832,-0.099823,-0.108664,0.116978:vel_
1559813123.640884,cobot_dynamixel_driver/goal|-:J1,J2,J3,J4,J5,J6:0.242805,0.144590,0.167643,-0.127415,-0.144599,0.162271:vel_
1559813123.672901,cobot_dynamixel_driver/goal|-:J1,J2,J3,J4,J5,J6:0.259478,0.158256,0.179299,-0.135666,-0.154912,0.174891:vel_
1559813123.704909,cobot_dynamixel_driver/goal|-:J1,J2,J3,J4,J5,J6:0.268758,0.164968,0.184798,-0.138205,-0.156963,0.177045:vel_
1559813123.736866,cobot_dynamixel_driver/goal|-:J1,J2,J3,J4,J5,J6:0.276361,0.170185,0.185130,-0.138967,-0.156747,0.176407:vel_
1559813123.768877,cobot_dynamixel_driver/goal|-:J1,J2,J3,J4,J5,J6:0.275882,0.189183,0.177298,-0.137969,-0.161285,0.187404:vel_
1559813123.800897,cobot_dynamixel_driver/goal|-:J1,J2,J3,J4,J5,J6:0.275282,0.197246,0.177199,-0.137544,-0.163886,0.193752:vel_
1559813123.832875,cobot_dynamixel_driver/goal|-:J1,J2,J3,J4,J5,J6:0.276614,0.201514,0.178693,-0.137353,-0.166547,0.196993:vel_
1559813123.864875,cobot_dynamixel_driver/goal|-:J1,J2,J3,J4,J5,J6:0.269055,0.212628,0.164830,-0.132606,-0.160450,0.192587:vel_
1559813123.896878,cobot_dynamixel_driver/goal|-:J1,J2,J3,J4,J5,J6:0.267184,0.216489,0.160404,-0.132085,-0.158780,0.190948:vel_
1559813123.928815,cobot_dynamixel_driver/goal|-:J1,J2,J3,J4,J5,J6:0.272148,0.221692,0.162628,-0.133980,-0.161715,0.194420:vel_
1559813123.960867,cobot_dynamixel_driver/goal|-:J1,J2,J3,J4,J5,J6:0.261471,0.227649,0.147168,-0.124563,-0.154132,0.189549:vel_
1559813123.992899,cobot_dynamixel_driver/goal|-:J1,J2,J3,J4,J5,J6:0.260721,0.232625,0.144687,-0.123048,-0.152553,0.189613:vel_
1559813124.024905,cobot_dynamixel_driver/goal|-:J1,J2,J3,J4,J5,J6:0.264835,0.237739,0.146584,-0.125503,-0.156034,0.194147:vel_
1559813124.056865,cobot_dynamixel_driver/goal|-:J1,J2,J3,J4,J5,J6:0.253712,0.247013,0.130101,-0.118183,-0.148710,0.187783:vel_
1559813124.088925,cobot_dynamixel_driver/goal|-:J1,J2,J3,J4,J5,J6:0.254976,0.253167,0.127797,-0.117442,-0.148067,0.188319:vel_
1559813124.120872,cobot_dynamixel_driver/goal|-:J1,J2,J3,J4,J5,J6:0.258153,0.253705,0.126236,-0.118746,-0.150362,0.190534:vel_
1559813124.152831,cobot_dynamixel_driver/goal|-:J1,J2,J3,J4,J5,J6:0.247233,0.264938,0.111652,-0.110884,-0.142799,0.184561:vel_
1559813124.184888,cobot_dynamixel_driver/goal|-:J1,J2,J3,J4,J5,J6:0.247802,0.270808,0.108434,-0.110372,-0.142214,0.185652:vel_
1559813124.216985,cobot_dynamixel_driver/goal|-:J1,J2,J3,J4,J5,J6:0.249160,0.275075,0.108703,-0.111388,-0.145309,0.187649:vel_
1559813124.248950,cobot_dynamixel_driver/goal|-:J1,J2,J3,J4,J5,J6:0.239091,0.280891,0.093082,-0.103282,-0.137201,0.181113:vel_
1559813124.280863,cobot_dynamixel_driver/goal|-:J1,J2,J3,J4,J5,J6:0.240375,0.286144,0.090014,-0.102081,-0.136510,0.182185:vel_
1559813124.312867,cobot_dynamixel_driver/goal|-:J1,J2,J3,J4,J5,J6:0.243624,0.291767,0.091574,-0.102644,-0.137883,0.185557:vel_
1559813124.344869,cobot_dynamixel_driver/goal|-:J1,J2,J3,J4,J5,J6:0.233900,0.295195,0.073393,-0.096822,-0.129153,0.176948:vel_
1559813124.377039,cobot_dynamixel_driver/goal|-:J1,J2,J3,J4,J5,J6:0.233014,0.299927,0.068309,-0.095646,-0.126558,0.174575:vel_
1559813124.410754,cobot_dynamixel_driver/goal|-:J1,J2,J3,J4,J5,J6:0.238231,0.309572,0.068334,-0.098343,-0.131124,0.178123:vel_
1559813124.440936,cobot_dynamixel_driver/goal|-:J1,J2,J3,J4,J5,J6:0.226845,0.313267,0.053111,-0.090577,-0.122224,0.170939:vel_
1559813124.472831,cobot_dynamixel_driver/goal|-:J1,J2,J3,J4,J5,J6:0.230790,0.319219,0.051115,-0.089816,-0.121004,0.171747:vel_
1559813124.520853,cobot_dynamixel_driver/goal|-:J1,J2,J3,J4,J5,J6:0.282879,0.396136,0.062880,-0.112559,-0.150027,0.215071:vel_
1559813124.552792,cobot_dynamixel_driver/goal|-:J1,J2,J3,J4,J5,J6:0.218631,0.328345,0.030105,-0.084503,-0.111561,0.165660:vel_
1559813124.584874,cobot_dynamixel_driver/goal|-:J1,J2,J3,J4,J5,J6:0.203015,0.317219,0.019621,-0.074986,-0.098047,0.147183:vel_
1559813124.616833,cobot_dynamixel_driver/goal|-:J1,J2,J3,J4,J5,J6:0.201581,0.325930,0.008696,-0.073497,-0.097637,0.150183:vel_
1559813124.648860,cobot_dynamixel_driver/goal|-:J1,J2,J3,J4,J5,J6:0.201845,0.328113,0.007015,-0.074116,-0.098899,0.153515:vel_
1559813124.680860,cobot_dynamixel_driver/goal|-:J1,J2,J3,J4,J5,J6:0.204098,0.334141,0.006733,-0.075825,-0.100830,0.156663:vel_
1559813124.712986,cobot_dynamixel_driver/goal|-:J1,J2,J3,J4,J5,J6:0.211262,0.334623,0.008117,-0.077380,-0.103231,0.158859:vel_
1559813124.744819,cobot_dynamixel_driver/goal|-:J1,J2,J3,J4,J5,J6:0.208295,0.353747,-0.009554,-0.071268,-0.092908,0.152052:vel_
1559813124.776823,cobot_dynamixel_driver/goal|-:J1,J2,J3,J4,J5,J6:0.206312,0.365170,-0.015371,-0.070427,-0.090842,0.151515:vel_
1559813124.808836,cobot_dynamixel_driver/goal|-:J1,J2,J3,J4,J5,J6:0.209407,0.376281,-0.023533,-0.070610,-0.092465,0.154903:vel_
1559813124.840771,cobot_dynamixel_driver/goal|-:J1,J2,J3,J4,J5,J6:0.202799,0.371285,-0.038163,-0.065857,-0.082426,0.147118:vel_
1559813124.872828,cobot_dynamixel_driver/goal|-:J1,J2,J3,J4,J5,J6:0.202192,0.373265,-0.047281,-0.066105,-0.080687,0.146059:vel_
1559813124.904823,cobot_dynamixel_driver/goal|-:J1,J2,J3,J4,J5,J6:0.204369,0.372265,-0.059388,-0.065747,-0.081013,0.146957:vel_
1559813124.936808,cobot_dynamixel_driver/goal|-:J1,J2,J3,J4,J5,J6:0.170782,0.327801,-0.052635,-0.052543,-0.061830,0.120565:vel_
1559813124.968809,cobot_dynamixel_driver/goal|-:J1,J2,J3,J4,J5,J6:0.160314,0.310870,-0.050338,-0.048947,-0.055921,0.112985:vel_
1559813125.000957,cobot_dynamixel_driver/goal|-:J1,J2,J3,J4,J5,J6:0.160983,0.318711,-0.053466,-0.050114,-0.059115,0.117675:vel_
1559813125.032976,cobot_dynamixel_driver/goal|-:J1,J2,J3,J4,J5,J6:0.077986,0.160295,-0.031296,-0.023132,-0.025105,0.055038:vel_
1559813125.066066,cobot_dynamixel_driver/goal|-:J1,J2,J3,J4,J5,J6:0.069940,0.145392,-0.028272,-0.020554,-0.021768,0.048991:vel_
1559813125.097021,cobot_dynamixel_driver/goal|-:J1,J2,J3,J4,J5,J6:0.065628,0.130597,-0.028130,-0.020371,-0.021943,0.048786:vel_
1559813125.128795,cobot_dynamixel_driver/goal|-:J1,J2,J3,J4,J5,J6:0.065310,0.127992,-0.029106,-0.020642,-0.022476,0.049993:vel_
1559813125.160791,cobot_dynamixel_driver/goal|-:J1,J2,J3,J4,J5,J6:0.066183,0.131362,-0.029500,-0.020531,-0.022594,0.050428:vel_
1559813125.194010,cobot_dynamixel_driver/goal|-:J1,J2,J3,J4,J5,J6:0.068867,0.135750,-0.029067,-0.020444,-0.022578,0.050693:vel_
1559813125.224841,cobot_dynamixel_driver/goal|-:J1,J2,J3,J4,J5,J6:0.069496,0.138546,-0.029516,-0.020618,-0.022200,0.050653:vel_
1559813125.257488,cobot_dynamixel_driver/goal|-:J1,J2,J3,J4,J5,J6:0.007003,0.058295,0.067073,-0.014071,-0.101097,0.020207:vel_
1559813125.288822,cobot_dynamixel_driver/goal|-:J1,J2,J3,J4,J5,J6:0.001077,0.050618,0.076590,-0.013660,-0.108472,0.017460:vel_
1559813125.320788,cobot_dynamixel_driver/goal|-:J1,J2,J3,J4,J5,J6:-0.001007,0.046323,0.082487,-0.013484,-0.108995,0.018168:vel_
1559813125.352806,cobot_dynamixel_driver/goal|-:J1,J2,J3,J4,J5,J6:-0.001411,0.047191,0.085134,-0.013586,-0.109080,0.018391:vel_
1559813125.384776,cobot_dynamixel_driver/goal|-:J1,J2,J3,J4,J5,J6:-0.001603,0.048396,0.085696,-0.013499,-0.109175,0.018584:vel_
1559813125.416782,cobot_dynamixel_driver/goal|-:J1,J2,J3,J4,J5,J6:-0.001863,0.049433,0.086221,-0.013626,-0.109946,0.018913:vel_
1559813125.448764,cobot_dynamixel_driver/goal|-:J1,J2,J3,J4,J5,J6:-0.002212,0.050002,0.086181,-0.013801,-0.110046,0.019387:vel_
1559813125.480802,cobot_dynamixel_driver/goal|-:J1,J2,J3,J4,J5,J6:-0.019706,0.061774,0.154355,-0.021154,-0.201756,0.021247:vel_
1559813125.512782,cobot_dynamixel_driver/goal|-:J1,J2,J3,J4,J5,J6:-0.022619,0.064096,0.164726,-0.021933,-0.215089,0.021090:vel_
1559813125.544827,cobot_dynamixel_driver/goal|-:J1,J2,J3,J4,J5,J6:-0.024349,0.065488,0.170024,-0.022223,-0.221426,0.021465:vel_
1559813125.576720,cobot_dynamixel_driver/goal|-:J1,J2,J3,J4,J5,J6:-0.025964,0.065715,0.169318,-0.022130,-0.219624,0.021974:vel_
1559813125.608896,cobot_dynamixel_driver/goal|-:J1,J2,J3,J4,J5,J6:-0.028290,0.066386,0.169450,-0.021879,-0.222881,0.022268:vel_
1559813125.640796,cobot_dynamixel_driver/goal|-:J1,J2,J3,J4,J5,J6:-0.030176,0.067334,0.169287,-0.021659,-0.223417,0.022558:vel_
1559813125.672786,cobot_dynamixel_driver/goal|-:J1,J2,J3,J4,J5,J6:-0.045238,0.092063,0.243284,-0.034363,-0.331208,0.027503:vel_
1559813125.704749,cobot_dynamixel_driver/goal|-:J1,J2,J3,J4,J5,J6:-0.051428,0.099094,0.267542,-0.038759,-0.365544,0.029130:vel_
1559813125.736763,cobot_dynamixel_driver/goal|-:J1,J2,J3,J4,J5,J6:-0.055313,0.103127,0.285371,-0.040798,-0.393224,0.029598:vel_
1559813125.768733,cobot_dynamixel_driver/goal|-:J1,J2,J3,J4,J5,J6:-0.055782,0.115477,0.284135,-0.044538,-0.402126,0.031972:vel_
1559813125.800767,cobot_dynamixel_driver/goal|-:J1,J2,J3,J4,J5,J6:-0.056361,0.120529,0.285307,-0.045204,-0.407180,0.033349:vel_
1559813125.832706,cobot_dynamixel_driver/goal|-:J1,J2,J3,J4,J5,J6:-0.057515,0.122583,0.286269,-0.045190,-0.409079,0.032990:vel_
1559813125.864827,cobot_dynamixel_driver/goal|-:J1,J2,J3,J4,J5,J6:-0.055892,0.129401,0.272475,-0.048266,-0.402664,0.035539:vel_
1559813125.896760,cobot_dynamixel_driver/goal|-:J1,J2,J3,J4,J5,J6:-0.055405,0.132245,0.272852,-0.049929,-0.407043,0.036715:vel_
1559813125.928825,cobot_dynamixel_driver/goal|-:J1,J2,J3,J4,J5,J6:-0.056286,0.134483,0.275804,-0.049960,-0.420340,0.037497:vel_
1559813125.960728,cobot_dynamixel_driver/goal|-:J1,J2,J3,J4,J5,J6:-0.047199,0.120881,0.218625,-0.044641,-0.340198,0.033269:vel_
1559813125.992768,cobot_dynamixel_driver/goal|-:J1,J2,J3,J4,J5,J6:-0.045048,0.118548,0.203623,-0.044398,-0.318873,0.032516:vel_
1559813126.024779,cobot_dynamixel_driver/goal|-:J1,J2,J3,J4,J5,J6:-0.043172,0.117106,0.194141,-0.044941,-0.308334,0.033007:vel_
1559813126.056708,cobot_dynamixel_driver/goal|-:J1,J2,J3,J4,J5,J6:-0.021786,0.061122,0.095130,-0.022796,-0.156478,0.016841:vel_
1559813126.088726,cobot_dynamixel_driver/goal|-:J1,J2,J3,J4,J5,J6:-0.019719,0.054841,0.084333,-0.020145,-0.139637,0.015190:vel_
1559813126.120705,cobot_dynamixel_driver/goal|-:J1,J2,J3,J4,J5,J6:-0.019304,0.052531,0.079045,-0.020000,-0.128121,0.015490:vel_
1559813126.152717,cobot_dynamixel_driver/goal|-:J1,J2,J3,J4,J5,J6:-0.019268,0.053595,0.081238,-0.020077,-0.128785,0.015846:vel_
1559813126.184945,cobot_dynamixel_driver/goal|-:J1,J2,J3,J4,J5,J6:-0.019517,0.055020,0.083314,-0.020184,-0.131795,0.016281:vel_
1559813126.216711,cobot_dynamixel_driver/goal|-:J1,J2,J3,J4,J5,J6:-0.019042,0.056402,0.084708,-0.020316,-0.133042,0.016448:vel_
1559813126.248982,cobot_dynamixel_driver/goal|-:J1,J2,J3,J4,J5,J6:0.009545,-0.025036,-0.039957,0.009630,0.067813,-0.006870:vel_
1559813126.280727,cobot_dynamixel_driver/goal|-:J1,J2,J3,J4,J5,J6:0.012032,-0.031794,-0.050761,0.012089,0.085130,-0.008748:vel_
1559813126.312738,cobot_dynamixel_driver/goal|-:J1,J2,J3,J4,J5,J6:0.012988,-0.035698,-0.057803,0.013204,0.098605,-0.009611:vel_
1559813126.344733,cobot_dynamixel_driver/goal|-:J1,J2,J3,J4,J5,J6:0.013877,-0.038611,-0.059481,0.014458,0.104243,-0.010647:vel_
1559813126.376722,cobot_dynamixel_driver/goal|-:J1,J2,J3,J4,J5,J6:0.014329,-0.042177,-0.060914,0.015076,0.104338,-0.011946:vel_
1559813126.408744,cobot_dynamixel_driver/goal|-:J1,J2,J3,J4,J5,J6:0.015276,-0.045284,-0.061503,0.016184,0.106647,-0.013645:vel_
1559813126.440799,cobot_dynamixel_driver/goal|-:J1,J2,J3,J4,J5,J6:0.016223,-0.047848,-0.062189,0.017088,0.107858,-0.015536:vel_
1559813126.472647,cobot_dynamixel_driver/goal|-:J1,J2,J3,J4,J5,J6:0.029861,-0.080289,-0.128779,0.029292,0.206376,-0.023375:vel_
1559813126.504770,cobot_dynamixel_driver/goal|-:J1,J2,J3,J4,J5,J6:0.031706,-0.085512,-0.137626,0.031063,0.219331,-0.024606:vel_
1559813126.536709,cobot_dynamixel_driver/goal|-:J1,J2,J3,J4,J5,J6:0.032558,-0.087597,-0.141102,0.031307,0.223626,-0.024655:vel_
1559813126.568783,cobot_dynamixel_driver/goal|-:J1,J2,J3,J4,J5,J6:0.032876,-0.088133,-0.140848,0.031742,0.222649,-0.025080:vel_
1559813126.600676,cobot_dynamixel_driver/goal|-:J1,J2,J3,J4,J5,J6:0.032874,-0.088008,-0.139918,0.032319,0.223732,-0.025790:vel_
1559813126.632720,cobot_dynamixel_driver/goal|-:J1,J2,J3,J4,J5,J6:0.032947,-0.088054,-0.139927,0.032860,0.222339,-0.025836:vel_
1559813126.664733,cobot_dynamixel_driver/goal|-:J1,J2,J3,J4,J5,J6:0.035110,-0.090633,-0.143386,0.034011,0.229571,-0.026988:vel_
1559813126.696691,cobot_dynamixel_driver/goal|-:J1,J2,J3,J4,J5,J6:0.047950,-0.114281,-0.225236,0.043199,0.339593,-0.032907:vel_
1559813126.728733,cobot_dynamixel_driver/goal|-:J1,J2,J3,J4,J5,J6:0.051047,-0.121333,-0.248077,0.046364,0.367183,-0.034481:vel_
1559813126.760692,cobot_dynamixel_driver/goal|-:J1,J2,J3,J4,J5,J6:0.053019,-0.124828,-0.265038,0.048358,0.387079,-0.035073:vel_
1559813126.792772,cobot_dynamixel_driver/goal|-:J1,J2,J3,J4,J5,J6:0.054534,-0.127209,-0.271783,0.051456,0.401239,-0.035427:vel_
1559813126.824646,cobot_dynamixel_driver/goal|-:J1,J2,J3,J4,J5,J6:0.054174,-0.116264,-0.284009,0.046300,0.404339,-0.033252:vel_
1559813126.856804,cobot_dynamixel_driver/goal|-:J1,J2,J3,J4,J5,J6:0.054937,-0.112904,-0.290777,0.045219,0.405571,-0.033330:vel_
1559813126.888723,cobot_dynamixel_driver/goal|-:J1,J2,J3,J4,J5,J6:0.054425,-0.109562,-0.294487,0.044995,0.406721,-0.034186:vel_
1559813126.920783,cobot_dynamixel_driver/goal|-:J1,J2,J3,J4,J5,J6:0.046829,-0.089609,-0.268361,0.036345,0.359946,-0.028192:vel_
1559813126.952717,cobot_dynamixel_driver/goal|-:J1,J2,J3,J4,J5,J6:0.045644,-0.084897,-0.262690,0.034448,0.354012,-0.026392:vel_
1559813126.984674,cobot_dynamixel_driver/goal|-:J1,J2,J3,J4,J5,J6:0.046421,-0.082436,-0.261901,0.033754,0.355641,-0.026958:vel_
1559813127.016703,cobot_dynamixel_driver/goal|-:J1,J2,J3,J4,J5,J6:0.022633,-0.038363,-0.137270,0.016107,0.177222,-0.012595:vel_
1559813127.048652,cobot_dynamixel_driver/goal|-:J1,J2,J3,J4,J5,J6:0.020596,-0.034477,-0.125488,0.014501,0.160603,-0.011397:vel_
1559813127.080681,cobot_dynamixel_driver/goal|-:J1,J2,J3,J4,J5,J6:0.020058,-0.033037,-0.117653,0.014398,0.146624,-0.011960:vel_
1559813127.112675,cobot_dynamixel_driver/goal|-:J1,J2,J3,J4,J5,J6:0.019930,-0.033612,-0.118746,0.014565,0.145213,-0.011979:vel_
1559813127.144637,cobot_dynamixel_driver/goal|-:J1,J2,J3,J4,J5,J6:0.020331,-0.035827,-0.121265,0.014793,0.148672,-0.012257:vel_
1559813127.176660,cobot_dynamixel_driver/goal|-:J1,J2,J3,J4,J5,J6:0.020854,-0.037694,-0.123080,0.014964,0.149337,-0.012346:vel_
1559813127.208660,cobot_dynamixel_driver/goal|-:J1,J2,J3,J4,J5,J6:0.021044,-0.038893,-0.124540,0.015127,0.150613,-0.012831:vel_
1559813127.240744,cobot_dynamixel_driver/goal|-:J1,J2,J3,J4,J5,J6:0.021312,-0.040398,-0.125343,0.015611,0.151971,-0.013322:vel_
1559813127.272638,cobot_dynamixel_driver/goal|-:J1,J2,J3,J4,J5,J6:-0.185516,-0.049922,0.013706,0.010638,-0.007563,0.130840:vel_
1559813127.305157,cobot_dynamixel_driver/goal|-:J1,J2,J3,J4,J5,J6:-0.198626,-0.050724,0.022312,0.010432,-0.017201,0.140095:vel_
1559813127.336666,cobot_dynamixel_driver/goal|-:J1,J2,J3,J4,J5,J6:-0.209921,-0.050769,0.027726,0.010292,-0.022915,0.146164:vel_
1559813127.369036,cobot_dynamixel_driver/goal|-:J1,J2,J3,J4,J5,J6:-0.216296,-0.050464,0.028772,0.010274,-0.023640,0.146389:vel_
1559813127.400670,cobot_dynamixel_driver/goal|-:J1,J2,J3,J4,J5,J6:-0.218282,-0.050449,0.029612,0.010273,-0.023998,0.146380:vel_
1559813127.432663,cobot_dynamixel_driver/goal|-:J1,J2,J3,J4,J5,J6:-0.218340,-0.050324,0.029949,0.010211,-0.024264,0.146550:vel_
1559813127.464648,cobot_dynamixel_driver/goal|-:J1,J2,J3,J4,J5,J6:-0.219364,-0.050469,0.030307,0.010268,-0.024635,0.146902:vel_
1559813127.496641,cobot_dynamixel_driver/goal|-:J1,J2,J3,J4,J5,J6:-0.219011,-0.050238,0.030662,0.010429,-0.024887,0.146952:vel_
1559813127.528622,cobot_dynamixel_driver/goal|-:J1,J2,J3,J4,J5,J6:-0.220616,-0.050311,0.031054,0.010011,-0.025124,0.147458:vel_
1559813127.560770,cobot_dynamixel_driver/goal|-:J1,J2,J3,J4,J5,J6:-0.222071,-0.050359,0.031046,0.009816,-0.025418,0.148796:vel_
1559813127.593351,cobot_dynamixel_driver/goal|-:J1,J2,J3,J4,J5,J6:-0.223048,-0.050516,0.030988,0.009889,-0.025572,0.149925:vel_
1559813127.624623,cobot_dynamixel_driver/goal|-:J1,J2,J3,J4,J5,J6:-0.225977,-0.050709,0.031291,0.009489,-0.025871,0.151549:vel_
1559813127.672623,cobot_dynamixel_driver/goal|-:J1,J2,J3,J4,J5,J6:-0.245687,-0.054213,0.033782,0.010278,-0.027569,0.163616:vel_
1559813127.704645,cobot_dynamixel_driver/goal|-:J1,J2,J3,J4,J5,J6:-0.224818,-0.049272,0.032401,0.010066,-0.025190,0.149384:vel_
1559813127.736757,cobot_dynamixel_driver/goal|-:J1,J2,J3,J4,J5,J6:-0.356900,-0.081679,0.061582,0.015580,-0.056238,0.249075:vel_
1559813127.768658,cobot_dynamixel_driver/goal|-:J1,J2,J3,J4,J5,J6:-0.370732,-0.084873,0.064448,0.016097,-0.059342,0.259769:vel_
1559813127.800601,cobot_dynamixel_driver/goal|-:J1,J2,J3,J4,J5,J6:-0.382539,-0.085885,0.064592,0.016085,-0.058719,0.263824:vel_
1559813127.832596,cobot_dynamixel_driver/goal|-:J1,J2,J3,J4,J5,J6:-0.391430,-0.086598,0.065140,0.015747,-0.059391,0.266128:vel_
1559813127.864609,cobot_dynamixel_driver/goal|-:J1,J2,J3,J4,J5,J6:-0.386481,-0.085198,0.065033,0.015337,-0.059200,0.263644:vel_
1559813127.896704,cobot_dynamixel_driver/goal|-:J1,J2,J3,J4,J5,J6:-0.388007,-0.084977,0.065221,0.015413,-0.058750,0.264393:vel_
1559813127.928582,cobot_dynamixel_driver/goal|-:J1,J2,J3,J4,J5,J6:-0.387815,-0.084485,0.065388,0.015629,-0.059039,0.266358:vel_
1559813127.962633,cobot_dynamixel_driver/goal|-:J1,J2,J3,J4,J5,J6:-0.403491,-0.085827,0.068401,0.016825,-0.062088,0.275161:vel_
1559813127.992919,cobot_dynamixel_driver/goal|-:J1,J2,J3,J4,J5,J6:-0.398555,-0.084655,0.067721,0.018049,-0.061105,0.272338:vel_
1559813128.024798,cobot_dynamixel_driver/goal|-:J1,J2,J3,J4,J5,J6:-0.400692,-0.091280,0.069953,0.017621,-0.065286,0.280012:vel_
1559813128.056628,cobot_dynamixel_driver/goal|-:J1,J2,J3,J4,J5,J6:-0.401989,-0.092272,0.070821,0.017760,-0.066067,0.282194:vel_
1559813128.088726,cobot_dynamixel_driver/goal|-:J1,J2,J3,J4,J5,J6:-0.404117,-0.092374,0.070638,0.017868,-0.066361,0.282716:vel_
1559813128.124281,cobot_dynamixel_driver/goal|-:J1,J2,J3,J4,J5,J6:-0.427527,-0.096871,0.074567,0.019371,-0.070210,0.299173:vel_
1559813128.168563,cobot_dynamixel_driver/goal|-:J1,J2,J3,J4,J5,J6:-0.408867,-0.091192,0.071870,0.018924,-0.066576,0.286327:vel_
1559813128.200604,cobot_dynamixel_driver/goal|-:J1,J2,J3,J4,J5,J6:-0.401324,-0.089547,0.071018,0.017924,-0.065338,0.283125:vel_
1559813128.232618,cobot_dynamixel_driver/goal|-:J1,J2,J3,J4,J5,J6:-0.404627,-0.089998,0.072769,0.017504,-0.066022,0.286089:vel_
1559813128.264622,cobot_dynamixel_driver/goal|-:J1,J2,J3,J4,J5,J6:-0.420576,-0.094375,0.075350,0.017776,-0.068238,0.293382:vel_
1559813128.296624,cobot_dynamixel_driver/goal|-:J1,J2,J3,J4,J5,J6:-0.406065,-0.094219,0.071235,0.018106,-0.066846,0.285295:vel_
1559813128.328592,cobot_dynamixel_driver/goal|-:J1,J2,J3,J4,J5,J6:-0.405116,-0.094634,0.070843,0.018196,-0.066872,0.285186:vel_
1559813128.360570,cobot_dynamixel_driver/goal|-:J1,J2,J3,J4,J5,J6:-0.404476,-0.094795,0.070973,0.018156,-0.066870,0.286242:vel_
1559813128.392561,cobot_dynamixel_driver/goal|-:J1,J2,J3,J4,J5,J6:-0.406481,-0.094875,0.071230,0.018223,-0.067152,0.286900:vel_
1559813128.424585,cobot_dynamixel_driver/goal|-:J1,J2,J3,J4,J5,J6:-0.407764,-0.094948,0.071910,0.018745,-0.067656,0.287413:vel_
1559813128.456601,cobot_dynamixel_driver/goal|-:J1,J2,J3,J4,J5,J6:-0.416881,-0.096146,0.072996,0.019249,-0.068810,0.293140:vel_
1559813128.488592,cobot_dynamixel_driver/goal|-:J1,J2,J3,J4,J5,J6:-0.419223,-0.095427,0.073840,0.020223,-0.069469,0.294403:vel_
1559813128.520769,cobot_dynamixel_driver/goal|-:J1,J2,J3,J4,J5,J6:-0.413837,-0.092687,0.074537,0.020145,-0.067828,0.296111:vel_
1559813128.552603,cobot_dynamixel_driver/goal|-:J1,J2,J3,J4,J5,J6:-0.407924,-0.093388,0.071414,0.017864,-0.066929,0.286533:vel_
1559813128.584576,cobot_dynamixel_driver/goal|-:J1,J2,J3,J4,J5,J6:-0.407750,-0.093574,0.071693,0.017441,-0.067139,0.286463:vel_
1559813128.616547,cobot_dynamixel_driver/goal|-:J1,J2,J3,J4,J5,J6:-0.408358,-0.094349,0.072227,0.017588,-0.067435,0.288638:vel_
1559813128.648598,cobot_dynamixel_driver/goal|-:J1,J2,J3,J4,J5,J6:-0.413433,-0.095197,0.072695,0.018120,-0.068243,0.290591:vel_
1559813128.680650,cobot_dynamixel_driver/goal|-:J1,J2,J3,J4,J5,J6:-0.414542,-0.094473,0.072603,0.018169,-0.068466,0.289735:vel_
1559813128.712555,cobot_dynamixel_driver/goal|-:J1,J2,J3,J4,J5,J6:-0.418183,-0.094402,0.073187,0.018822,-0.069617,0.293281:vel_
1559813128.744548,cobot_dynamixel_driver/goal|-:J1,J2,J3,J4,J5,J6:-0.423035,-0.094225,0.073203,0.018909,-0.069988,0.295639:vel_
1559813128.776640,cobot_dynamixel_driver/goal|-:J1,J2,J3,J4,J5,J6:-0.436884,-0.094336,0.075902,0.019891,-0.072783,0.304818:vel_
1559813128.808555,cobot_dynamixel_driver/goal|-:J1,J2,J3,J4,J5,J6:-0.410580,-0.093739,0.072011,0.018323,-0.067691,0.288570:vel_
1559813128.840608,cobot_dynamixel_driver/goal|-:J1,J2,J3,J4,J5,J6:-0.406852,-0.093708,0.071669,0.018137,-0.066901,0.286631:vel_
1559813128.872585,cobot_dynamixel_driver/goal|-:J1,J2,J3,J4,J5,J6:-0.410720,-0.094651,0.072338,0.018458,-0.068061,0.289010:vel_
1559813128.904590,cobot_dynamixel_driver/goal|-:J1,J2,J3,J4,J5,J6:-0.411482,-0.095826,0.072440,0.018426,-0.068396,0.290300:vel_
1559813128.936530,cobot_dynamixel_driver/goal|-:J1,J2,J3,J4,J5,J6:-0.413405,-0.096300,0.072726,0.018823,-0.068362,0.291665:vel_
1559813128.968592,cobot_dynamixel_driver/goal|-:J1,J2,J3,J4,J5,J6:-0.419466,-0.097785,0.073213,0.018798,-0.068760,0.293905:vel_
1559813129.000510,cobot_dynamixel_driver/goal|-:J1,J2,J3,J4,J5,J6:-0.421152,-0.098422,0.072655,0.019456,-0.069455,0.295112:vel_
1559813129.032604,cobot_dynamixel_driver/goal|-:J1,J2,J3,J4,J5,J6:-0.430552,-0.100816,0.074823,0.019836,-0.071168,0.303694:vel_
1559813129.064548,cobot_dynamixel_driver/goal|-:J1,J2,J3,J4,J5,J6:-0.412498,-0.095134,0.071998,0.018164,-0.067796,0.289852:vel_
1559813129.096564,cobot_dynamixel_driver/goal|-:J1,J2,J3,J4,J5,J6:-0.412727,-0.094618,0.071954,0.017910,-0.067941,0.289675:vel_
1559813129.128602,cobot_dynamixel_driver/goal|-:J1,J2,J3,J4,J5,J6:-0.412937,-0.094192,0.072632,0.018037,-0.068392,0.290290:vel_
1559813129.160540,cobot_dynamixel_driver/goal|-:J1,J2,J3,J4,J5,J6:-0.416120,-0.094386,0.073337,0.018683,-0.069178,0.292741:vel_
1559813129.192543,cobot_dynamixel_driver/goal|-:J1,J2,J3,J4,J5,J6:-0.417856,-0.094059,0.073643,0.019129,-0.069218,0.293702:vel_
1559813129.224631,cobot_dynamixel_driver/goal|-:J1,J2,J3,J4,J5,J6:-0.422583,-0.094630,0.074687,0.019783,-0.068953,0.297535:vel_
1559813129.256572,cobot_dynamixel_driver/goal|-:J1,J2,J3,J4,J5,J6:-0.427938,-0.094727,0.074903,0.017781,-0.070100,0.298892:vel_
1559813129.288573,cobot_dynamixel_driver/goal|-:J1,J2,J3,J4,J5,J6:-0.416391,-0.095262,0.073255,0.017704,-0.068270,0.292212:vel_
1559813129.320504,cobot_dynamixel_driver/goal|-:J1,J2,J3,J4,J5,J6:-0.415843,-0.095423,0.073213,0.017908,-0.068073,0.292269:vel_
1559813129.352574,cobot_dynamixel_driver/goal|-:J1,J2,J3,J4,J5,J6:-0.416209,-0.095458,0.073027,0.018026,-0.068608,0.292908:vel_
1559813129.384597,cobot_dynamixel_driver/goal|-:J1,J2,J3,J4,J5,J6:-0.419001,-0.096074,0.073631,0.018395,-0.069211,0.295002:vel_
1559813129.416540,cobot_dynamixel_driver/goal|-:J1,J2,J3,J4,J5,J6:-0.420856,-0.096410,0.073636,0.018624,-0.069335,0.296520:vel_
1559813129.448552,cobot_dynamixel_driver/goal|-:J1,J2,J3,J4,J5,J6:-0.421171,-0.095961,0.073786,0.019021,-0.068756,0.297722:vel_
1559813129.480508,cobot_dynamixel_driver/goal|-:J1,J2,J3,J4,J5,J6:-0.427911,-0.095957,0.074292,0.019640,-0.067915,0.298612:vel_
1559813129.512470,cobot_dynamixel_driver/goal|-:J1,J2,J3,J4,J5,J6:-0.436058,-0.097382,0.074396,0.020731,-0.069601,0.306358:vel_
1559813129.544597,cobot_dynamixel_driver/goal|-:J1,J2,J3,J4,J5,J6:-0.419325,-0.096619,0.073546,0.018634,-0.068957,0.294783:vel_
1559813129.576562,cobot_dynamixel_driver/goal|-:J1,J2,J3,J4,J5,J6:-0.417637,-0.096545,0.073523,0.018335,-0.068546,0.292757:vel_
1559813129.608464,cobot_dynamixel_driver/goal|-:J1,J2,J3,J4,J5,J6:-0.419156,-0.097330,0.073748,0.018427,-0.068709,0.294466:vel_
1559813129.640469,cobot_dynamixel_driver/goal|-:J1,J2,J3,J4,J5,J6:-0.420135,-0.098235,0.074403,0.018673,-0.068965,0.295611:vel_
1559813129.672606,cobot_dynamixel_driver/goal|-:J1,J2,J3,J4,J5,J6:-0.424696,-0.099420,0.074858,0.018883,-0.069984,0.298359:vel_
1559813129.704461,cobot_dynamixel_driver/goal|-:J1,J2,J3,J4,J5,J6:-0.425801,-0.099747,0.074899,0.019649,-0.069915,0.298766:vel_
1559813129.736479,cobot_dynamixel_driver/goal|-:J1,J2,J3,J4,J5,J6:-0.432449,-0.101242,0.077264,0.020366,-0.070647,0.302864:vel_
1559813129.768501,cobot_dynamixel_driver/goal|-:J1,J2,J3,J4,J5,J6:-0.439240,-0.102454,0.078832,0.019565,-0.071897,0.305710:vel_
1559813129.800475,cobot_dynamixel_driver/goal|-:J1,J2,J3,J4,J5,J6:-0.419333,-0.096642,0.074071,0.018442,-0.069189,0.294850:vel_
1559813129.832553,cobot_dynamixel_driver/goal|-:J1,J2,J3,J4,J5,J6:-0.418890,-0.095998,0.073659,0.018485,-0.068982,0.294743:vel_
1559813129.864519,cobot_dynamixel_driver/goal|-:J1,J2,J3,J4,J5,J6:-0.420101,-0.095941,0.073583,0.018942,-0.069106,0.295610:vel_
1559813129.896564,cobot_dynamixel_driver/goal|-:J1,J2,J3,J4,J5,J6:-0.423770,-0.096705,0.074617,0.019319,-0.069443,0.297924:vel_
1559813129.928484,cobot_dynamixel_driver/goal|-:J1,J2,J3,J4,J5,J6:-0.425379,-0.096885,0.074906,0.019212,-0.069310,0.299220:vel_
1559813129.960484,cobot_dynamixel_driver/goal|-:J1,J2,J3,J4,J5,J6:-0.431301,-0.097991,0.075884,0.018423,-0.070428,0.303248:vel_
1559813129.992483,cobot_dynamixel_driver/goal|-:J1,J2,J3,J4,J5,J6:-0.436310,-0.098811,0.078076,0.017619,-0.070792,0.306809:vel_
1559813130.024569,cobot_dynamixel_driver/goal|-:J1,J2,J3,J4,J5,J6:-0.441412,-0.097738,0.078236,0.018231,-0.072877,0.310470:vel_
1559813130.056472,cobot_dynamixel_driver/goal|-:J1,J2,J3,J4,J5,J6:-0.423434,-0.096972,0.074470,0.018467,-0.069918,0.297214:vel_
1559813130.088544,cobot_dynamixel_driver/goal|-:J1,J2,J3,J4,J5,J6:-0.423358,-0.097149,0.074659,0.018975,-0.069415,0.297819:vel_
1559813130.120491,cobot_dynamixel_driver/goal|-:J1,J2,J3,J4,J5,J6:-0.421473,-0.096863,0.074233,0.019076,-0.069745,0.297872:vel_
1559813130.152497,cobot_dynamixel_driver/goal|-:J1,J2,J3,J4,J5,J6:-0.424816,-0.097878,0.075558,0.019205,-0.070368,0.300335:vel_
1559813130.184538,cobot_dynamixel_driver/goal|-:J1,J2,J3,J4,J5,J6:-0.425311,-0.098765,0.076173,0.019008,-0.070287,0.302063:vel_
1559813130.216462,cobot_dynamixel_driver/goal|-:J1,J2,J3,J4,J5,J6:-0.431281,-0.100212,0.075362,0.019013,-0.071008,0.304531:vel_
1559813130.248538,cobot_dynamixel_driver/goal|-:J1,J2,J3,J4,J5,J6:-0.443086,-0.102869,0.076759,0.019121,-0.074088,0.309926:vel_
1559813130.280465,cobot_dynamixel_driver/goal|-:J1,J2,J3,J4,J5,J6:-0.425881,-0.098345,0.074315,0.018249,-0.070607,0.298718:vel_
1559813130.312434,cobot_dynamixel_driver/goal|-:J1,J2,J3,J4,J5,J6:-0.424428,-0.098085,0.074280,0.018045,-0.070330,0.297763:vel_
1559813130.344545,cobot_dynamixel_driver/goal|-:J1,J2,J3,J4,J5,J6:-0.425410,-0.098486,0.074998,0.018188,-0.070513,0.300249:vel_
1559813130.376508,cobot_dynamixel_driver/goal|-:J1,J2,J3,J4,J5,J6:-0.429183,-0.098502,0.075174,0.018615,-0.071129,0.302257:vel_
1559813130.408435,cobot_dynamixel_driver/goal|-:J1,J2,J3,J4,J5,J6:-0.430958,-0.098613,0.076028,0.019124,-0.071535,0.302945:vel_
1559813130.440439,cobot_dynamixel_driver/goal|-:J1,J2,J3,J4,J5,J6:-0.430662,-0.097575,0.076224,0.019178,-0.071851,0.301561:vel_
1559813130.472506,cobot_dynamixel_driver/goal|-:J1,J2,J3,J4,J5,J6:-0.437555,-0.098604,0.076731,0.019024,-0.072627,0.309055:vel_
1559813130.506086,cobot_dynamixel_driver/goal|-:J1,J2,J3,J4,J5,J6:-0.468789,-0.104464,0.082423,0.019512,-0.076933,0.327117:vel_
1559813130.536557,cobot_dynamixel_driver/goal|-:J1,J2,J3,J4,J5,J6:-0.428743,-0.098420,0.075031,0.018719,-0.070380,0.300190:vel_
1559813130.568491,cobot_dynamixel_driver/goal|-:J1,J2,J3,J4,J5,J6:-0.426487,-0.097976,0.074544,0.018592,-0.069995,0.297968:vel_
1559813130.600584,cobot_dynamixel_driver/goal|-:J1,J2,J3,J4,J5,J6:-0.428063,-0.098538,0.075282,0.019005,-0.070687,0.300572:vel_
1559813130.632453,cobot_dynamixel_driver/goal|-:J1,J2,J3,J4,J5,J6:-0.428015,-0.098211,0.075441,0.018706,-0.070658,0.301032:vel_
1559813130.664434,cobot_dynamixel_driver/goal|-:J1,J2,J3,J4,J5,J6:-0.432295,-0.098731,0.076718,0.017994,-0.071640,0.304309:vel_
1559813130.696476,cobot_dynamixel_driver/goal|-:J1,J2,J3,J4,J5,J6:-0.436846,-0.099674,0.076835,0.019504,-0.073018,0.308561:vel_
1559813130.728471,cobot_dynamixel_driver/goal|-:J1,J2,J3,J4,J5,J6:-0.444082,-0.101303,0.077633,0.020763,-0.074358,0.312946:vel_
1559813130.760490,cobot_dynamixel_driver/goal|-:J1,J2,J3,J4,J5,J6:-0.431001,-0.099125,0.075541,0.019209,-0.071112,0.302654:vel_
1559813130.808444,cobot_dynamixel_driver/goal|-:J1,J2,J3,J4,J5,J6:-0.453673,-0.104276,0.079337,0.019778,-0.074818,0.318606:vel_
1559813130.840381,cobot_dynamixel_driver/goal|-:J1,J2,J3,J4,J5,J6:-0.428850,-0.098746,0.075229,0.018601,-0.070983,0.302719:vel_
1559813130.872455,cobot_dynamixel_driver/goal|-:J1,J2,J3,J4,J5,J6:-0.428870,-0.099546,0.075308,0.018880,-0.070427,0.302202:vel_
1559813130.904682,cobot_dynamixel_driver/goal|-:J1,J2,J3,J4,J5,J6:-0.433342,-0.100364,0.076167,0.019432,-0.071537,0.304267:vel_
1559813130.936447,cobot_dynamixel_driver/goal|-:J1,J2,J3,J4,J5,J6:-0.434207,-0.100750,0.076339,0.019262,-0.071438,0.304067:vel_
1559813130.968431,cobot_dynamixel_driver/goal|-:J1,J2,J3,J4,J5,J6:-0.432271,-0.100644,0.075683,0.017856,-0.070570,0.306191:vel_
1559813131.016447,cobot_dynamixel_driver/goal|-:J1,J2,J3,J4,J5,J6:-0.454363,-0.104938,0.079479,0.019256,-0.074727,0.318985:vel_
1559813131.051797,cobot_dynamixel_driver/goal|-:J1,J2,J3,J4,J5,J6:-0.436260,-0.099994,0.075604,0.018750,-0.072057,0.305662:vel_
1559813131.096388,cobot_dynamixel_driver/goal|-:J1,J2,J3,J4,J5,J6:-0.434552,-0.098525,0.075201,0.018539,-0.071755,0.304283:vel_
1559813131.128473,cobot_dynamixel_driver/goal|-:J1,J2,J3,J4,J5,J6:-0.433330,-0.098170,0.074374,0.018655,-0.071472,0.304499:vel_
1559813131.160435,cobot_dynamixel_driver/goal|-:J1,J2,J3,J4,J5,J6:-0.438836,-0.099370,0.075505,0.019355,-0.072753,0.309038:vel_
1559813131.192350,cobot_dynamixel_driver/goal|-:J1,J2,J3,J4,J5,J6:-0.442933,-0.099906,0.076012,0.020208,-0.073252,0.311159:vel_
1559813131.224400,cobot_dynamixel_driver/goal|-:J1,J2,J3,J4,J5,J6:-0.457043,-0.102032,0.077385,0.020347,-0.074565,0.320943:vel_
1559813131.256420,cobot_dynamixel_driver/goal|-:J1,J2,J3,J4,J5,J6:-0.435987,-0.100300,0.076459,0.019224,-0.071863,0.306875:vel_
1559813131.288403,cobot_dynamixel_driver/goal|-:J1,J2,J3,J4,J5,J6:-0.435663,-0.100381,0.076600,0.018719,-0.071765,0.306255:vel_
1559813131.320589,cobot_dynamixel_driver/goal|-:J1,J2,J3,J4,J5,J6:-0.433937,-0.099992,0.077106,0.018225,-0.071539,0.307639:vel_
1559813131.352424,cobot_dynamixel_driver/goal|-:J1,J2,J3,J4,J5,J6:-0.436735,-0.099735,0.077344,0.018834,-0.071662,0.308609:vel_
1559813131.384386,cobot_dynamixel_driver/goal|-:J1,J2,J3,J4,J5,J6:-0.441800,-0.100373,0.077686,0.019301,-0.072533,0.311044:vel_
1559813131.416390,cobot_dynamixel_driver/goal|-:J1,J2,J3,J4,J5,J6:-0.445267,-0.101126,0.078546,0.019382,-0.073080,0.312156:vel_
1559813131.448357,cobot_dynamixel_driver/goal|-:J1,J2,J3,J4,J5,J6:-0.452845,-0.103230,0.080172,0.018659,-0.074213,0.317035:vel_
1559813131.480573,cobot_dynamixel_driver/goal|-:J1,J2,J3,J4,J5,J6:-0.436643,-0.100853,0.076966,0.018846,-0.072071,0.308113:vel_
1559813131.512392,cobot_dynamixel_driver/goal|-:J1,J2,J3,J4,J5,J6:-0.438738,-0.101609,0.077088,0.019340,-0.072467,0.308487:vel_
1559813131.544428,cobot_dynamixel_driver/goal|-:J1,J2,J3,J4,J5,J6:-0.439506,-0.101701,0.077186,0.019696,-0.072640,0.309222:vel_
1559813131.576383,cobot_dynamixel_driver/goal|-:J1,J2,J3,J4,J5,J6:-0.442914,-0.102372,0.078242,0.019926,-0.073266,0.311528:vel_
1559813131.608430,cobot_dynamixel_driver/goal|-:J1,J2,J3,J4,J5,J6:-0.448601,-0.102943,0.079280,0.019465,-0.073765,0.315311:vel_
1559813131.640413,cobot_dynamixel_driver/goal|-:J1,J2,J3,J4,J5,J6:-0.451354,-0.102884,0.079841,0.019009,-0.074821,0.317031:vel_
1559813131.672391,cobot_dynamixel_driver/goal|-:J1,J2,J3,J4,J5,J6:-0.454974,-0.103632,0.080693,0.018379,-0.075816,0.318900:vel_
1559813131.704368,cobot_dynamixel_driver/goal|-:J1,J2,J3,J4,J5,J6:-0.444232,-0.102470,0.077890,0.019203,-0.073177,0.311849:vel_
1559813131.736310,cobot_dynamixel_driver/goal|-:J1,J2,J3,J4,J5,J6:-0.441836,-0.101865,0.077770,0.019471,-0.072669,0.310951:vel_
1559813131.768396,cobot_dynamixel_driver/goal|-:J1,J2,J3,J4,J5,J6:-0.442165,-0.101837,0.077994,0.018946,-0.072644,0.311519:vel_
1559813131.800437,cobot_dynamixel_driver/goal|-:J1,J2,J3,J4,J5,J6:-0.443220,-0.101755,0.078162,0.019081,-0.072790,0.312455:vel_
1559813131.832354,cobot_dynamixel_driver/goal|-:J1,J2,J3,J4,J5,J6:-0.447107,-0.102781,0.079564,0.019394,-0.073321,0.314937:vel_
1559813131.864413,cobot_dynamixel_driver/goal|-:J1,J2,J3,J4,J5,J6:-0.450091,-0.103396,0.079683,0.019291,-0.073524,0.316296:vel_
1559813131.896338,cobot_dynamixel_driver/goal|-:J1,J2,J3,J4,J5,J6:-0.459261,-0.105220,0.080838,0.019011,-0.074862,0.321618:vel_
1559813131.928360,cobot_dynamixel_driver/goal|-:J1,J2,J3,J4,J5,J6:-0.466700,-0.106582,0.082112,0.016895,-0.075645,0.327726:vel_
1559813131.960416,cobot_dynamixel_driver/goal|-:J1,J2,J3,J4,J5,J6:-0.249073,-0.057488,0.043734,0.010508,-0.040785,0.175031:vel_
1559813131.992327,cobot_dynamixel_driver/goal|-:J1,J2,J3,J4,J5,J6:-0.233344,-0.053857,0.041087,0.009963,-0.038261,0.163867:vel_
1559813132.024366,cobot_dynamixel_driver/goal|-:J1,J2,J3,J4,J5,J6:-0.219281,-0.052817,0.040869,0.010067,-0.038565,0.157319:vel_
1559813132.056467,cobot_dynamixel_driver/goal|-:J1,J2,J3,J4,J5,J6:-0.212437,-0.053200,0.041218,0.009966,-0.038826,0.158524:vel_
1559813132.088452,cobot_dynamixel_driver/goal|-:J1,J2,J3,J4,J5,J6:-0.213726,-0.054423,0.041976,0.010061,-0.039193,0.161169:vel_
1559813132.120330,cobot_dynamixel_driver/goal|-:J1,J2,J3,J4,J5,J6:-0.213558,-0.054780,0.041924,0.010015,-0.039079,0.160594:vel_
1559813132.152379,cobot_dynamixel_driver/goal|-:J1,J2,J3,J4,J5,J6:-0.214343,-0.055097,0.041832,0.009697,-0.039067,0.160668:vel_
1559813132.184338,cobot_dynamixel_driver/goal|-:J1,J2,J3,J4,J5,J6:-0.215182,-0.055487,0.041705,0.009288,-0.038952,0.160992:vel_
1559813132.216414,cobot_dynamixel_driver/goal|-:J1,J2,J3,J4,J5,J6:-0.217104,-0.056009,0.041604,0.009424,-0.039399,0.162274:vel_
1559813132.248388,cobot_dynamixel_driver/goal|-:J1,J2,J3,J4,J5,J6:-0.217917,-0.056843,0.042116,0.009705,-0.039405,0.163063:vel_
1559813132.280333,cobot_dynamixel_driver/goal|-:J1,J2,J3,J4,J5,J6:-0.219152,-0.057780,0.042557,0.009854,-0.039164,0.163229:vel_
1559813132.314058,cobot_dynamixel_driver/goal|-:J1,J2,J3,J4,J5,J6:-0.226428,-0.059845,0.043524,0.010484,-0.041235,0.168597:vel_
1559813132.344728,cobot_dynamixel_driver/goal|-:J1,J2,J3,J4,J5,J6:-0.217305,-0.065199,0.047947,0.004884,-0.042753,0.184534:vel_
1559813132.376563,cobot_dynamixel_driver/goal|-:J1,J2,J3,J4,J5,J6:-0.037301,0.056148,0.076682,-0.006485,-0.140664,0.028158:vel_
1559813132.408353,cobot_dynamixel_driver/goal|-:J1,J2,J3,J4,J5,J6:-0.016380,0.069170,0.079046,-0.007407,-0.149794,0.009819:vel_
1559813132.440340,cobot_dynamixel_driver/goal|-:J1,J2,J3,J4,J5,J6:0.001609,0.079965,0.079631,-0.008403,-0.155041,-0.001968:vel_
1559813132.475772,cobot_dynamixel_driver/goal|-:J1,J2,J3,J4,J5,J6:0.010128,0.085936,0.080007,-0.009761,-0.154351,-0.002898:vel_
1559813132.520376,cobot_dynamixel_driver/goal|-:J1,J2,J3,J4,J5,J6:0.012809,0.090182,0.079192,-0.011270,-0.153844,-0.003560:vel_
1559813132.552292,cobot_dynamixel_driver/goal|-:J1,J2,J3,J4,J5,J6:0.014456,0.092812,0.078523,-0.012357,-0.154482,-0.004413:vel_
1559813132.586121,cobot_dynamixel_driver/goal|-:J1,J2,J3,J4,J5,J6:-0.006401,0.147424,0.134119,-0.017630,-0.273030,0.003494:vel_
1559813132.616307,cobot_dynamixel_driver/goal|-:J1,J2,J3,J4,J5,J6:-0.009144,0.155471,0.142265,-0.019020,-0.290869,0.004075:vel_
1559813132.648253,cobot_dynamixel_driver/goal|-:J1,J2,J3,J4,J5,J6:-0.010346,0.157616,0.145397,-0.019539,-0.301863,0.004952:vel_
1559813132.683582,cobot_dynamixel_driver/goal|-:J1,J2,J3,J4,J5,J6:-0.012509,0.164936,0.150856,-0.020697,-0.316361,0.006338:vel_
1559813132.728296,cobot_dynamixel_driver/goal|-:J1,J2,J3,J4,J5,J6:-0.025867,0.212147,0.181734,-0.024839,-0.395395,0.013295:vel_
1559813132.760271,cobot_dynamixel_driver/goal|-:J1,J2,J3,J4,J5,J6:-0.030221,0.222834,0.188318,-0.026571,-0.415554,0.014805:vel_
1559813132.793454,cobot_dynamixel_driver/goal|-:J1,J2,J3,J4,J5,J6:-0.035627,0.251763,0.208426,-0.031450,-0.467290,0.016144:vel_
1559813132.824204,cobot_dynamixel_driver/goal|-:J1,J2,J3,J4,J5,J6:-0.036397,0.238046,0.193830,-0.031730,-0.441784,0.015704:vel_
1559813132.856312,cobot_dynamixel_driver/goal|-:J1,J2,J3,J4,J5,J6:-0.033859,0.256588,0.190801,-0.032370,-0.451481,0.019236:vel_
1559813132.888247,cobot_dynamixel_driver/goal|-:J1,J2,J3,J4,J5,J6:-0.033797,0.261523,0.190404,-0.032620,-0.456649,0.020253:vel_
1559813132.920274,cobot_dynamixel_driver/goal|-:J1,J2,J3,J4,J5,J6:-0.035085,0.268612,0.195555,-0.033902,-0.468053,0.020441:vel_
1559813132.952301,cobot_dynamixel_driver/goal|-:J1,J2,J3,J4,J5,J6:-0.033737,0.283077,0.187196,-0.036845,-0.472332,0.024341:vel_
1559813132.986209,cobot_dynamixel_driver/goal|-:J1,J2,J3,J4,J5,J6:-0.032658,0.289775,0.185359,-0.038862,-0.476795,0.025914:vel_
1559813133.016291,cobot_dynamixel_driver/goal|-:J1,J2,J3,J4,J5,J6:-0.033433,0.299459,0.190587,-0.042099,-0.489917,0.027878:vel_
1559813133.048241,cobot_dynamixel_driver/goal|-:J1,J2,J3,J4,J5,J6:-0.032268,0.302841,0.172971,-0.042349,-0.475451,0.029788:vel_
1559813133.080767,cobot_dynamixel_driver/goal|-:J1,J2,J3,J4,J5,J6:-0.033495,0.309208,0.170116,-0.042376,-0.479483,0.031714:vel_
1559813133.112270,cobot_dynamixel_driver/goal|-:J1,J2,J3,J4,J5,J6:-0.032527,0.314456,0.157115,-0.045805,-0.473794,0.034533:vel_
1559813133.144246,cobot_dynamixel_driver/goal|-:J1,J2,J3,J4,J5,J6:-0.032240,0.313693,0.153397,-0.045932,-0.466281,0.034014:vel_
1559813133.176250,cobot_dynamixel_driver/goal|-:J1,J2,J3,J4,J5,J6:-0.031731,0.316318,0.156084,-0.046988,-0.477579,0.034570:vel_
1559813133.208229,cobot_dynamixel_driver/goal|-:J1,J2,J3,J4,J5,J6:-0.031936,0.333804,0.146207,-0.053373,-0.484624,0.041360:vel_
1559813133.240303,cobot_dynamixel_driver/goal|-:J1,J2,J3,J4,J5,J6:-0.032287,0.342352,0.146479,-0.055540,-0.491330,0.042987:vel_
1559813133.272284,cobot_dynamixel_driver/goal|-:J1,J2,J3,J4,J5,J6:-0.032232,0.348208,0.148411,-0.057089,-0.495937,0.042335:vel_
1559813133.304256,cobot_dynamixel_driver/goal|-:J1,J2,J3,J4,J5,J6:-0.032001,0.349841,0.130976,-0.061569,-0.478763,0.048308:vel_
1559813133.336443,cobot_dynamixel_driver/goal|-:J1,J2,J3,J4,J5,J6:-0.031764,0.354322,0.127777,-0.063008,-0.479870,0.050892:vel_
1559813133.368233,cobot_dynamixel_driver/goal|-:J1,J2,J3,J4,J5,J6:-0.031364,0.355821,0.127308,-0.063702,-0.484313,0.052017:vel_
1559813133.400285,cobot_dynamixel_driver/goal|-:J1,J2,J3,J4,J5,J6:-0.026549,0.311756,0.097608,-0.060155,-0.410179,0.049975:vel_
1559813133.432251,cobot_dynamixel_driver/goal|-:J1,J2,J3,J4,J5,J6:-0.025296,0.300264,0.090744,-0.059181,-0.389395,0.050905:vel_
1559813133.464227,cobot_dynamixel_driver/goal|-:J1,J2,J3,J4,J5,J6:-0.025432,0.297257,0.090004,-0.059197,-0.384363,0.052000:vel_
1559813133.496291,cobot_dynamixel_driver/goal|-:J1,J2,J3,J4,J5,J6:-0.012732,0.153324,0.040269,-0.033162,-0.192900,0.028384:vel_
1559813133.528299,cobot_dynamixel_driver/goal|-:J1,J2,J3,J4,J5,J6:-0.011251,0.138281,0.035136,-0.030700,-0.173292,0.026170:vel_
1559813133.560271,cobot_dynamixel_driver/goal|-:J1,J2,J3,J4,J5,J6:-0.010872,0.127147,0.034376,-0.030506,-0.158149,0.026684:vel_
1559813133.592224,cobot_dynamixel_driver/goal|-:J1,J2,J3,J4,J5,J6:-0.010740,0.125699,0.035248,-0.031047,-0.153427,0.027344:vel_
1559813133.624288,cobot_dynamixel_driver/goal|-:J1,J2,J3,J4,J5,J6:-0.010811,0.128196,0.035964,-0.031460,-0.156485,0.027204:vel_
1559813133.656268,cobot_dynamixel_driver/goal|-:J1,J2,J3,J4,J5,J6:-0.010529,0.130049,0.035908,-0.031766,-0.158627,0.027831:vel_
1559813133.688208,cobot_dynamixel_driver/goal|-:J1,J2,J3,J4,J5,J6:-0.010384,0.133161,0.036201,-0.032474,-0.161120,0.028500:vel_
1559813133.720244,cobot_dynamixel_driver/goal|-:J1,J2,J3,J4,J5,J6:0.005770,-0.066060,-0.015061,0.014078,0.083507,-0.011626:vel_
1559813133.752194,cobot_dynamixel_driver/goal|-:J1,J2,J3,J4,J5,J6:0.007170,-0.084060,-0.019491,0.018382,0.105561,-0.015271:vel_
1559813133.784189,cobot_dynamixel_driver/goal|-:J1,J2,J3,J4,J5,J6:0.007838,-0.100039,-0.021243,0.020179,0.124317,-0.016864:vel_
1559813133.816277,cobot_dynamixel_driver/goal|-:J1,J2,J3,J4,J5,J6:0.008497,-0.108535,-0.022609,0.021515,0.136393,-0.018762:vel_
1559813133.848302,cobot_dynamixel_driver/goal|-:J1,J2,J3,J4,J5,J6:0.009528,-0.112398,-0.024130,0.022644,0.139304,-0.019904:vel_
1559813133.880298,cobot_dynamixel_driver/goal|-:J1,J2,J3,J4,J5,J6:0.010441,-0.114394,-0.024696,0.023508,0.139725,-0.020892:vel_
1559813133.912240,cobot_dynamixel_driver/goal|-:J1,J2,J3,J4,J5,J6:0.011283,-0.116270,-0.025748,0.023815,0.140972,-0.021118:vel_
1559813133.944345,cobot_dynamixel_driver/goal|-:J1,J2,J3,J4,J5,J6:0.018602,-0.199714,-0.055272,0.039887,0.253472,-0.033978:vel_
1559813133.976241,cobot_dynamixel_driver/goal|-:J1,J2,J3,J4,J5,J6:0.020098,-0.211392,-0.059371,0.042142,0.269414,-0.035677:vel_
1559813134.008321,cobot_dynamixel_driver/goal|-:J1,J2,J3,J4,J5,J6:0.021099,-0.218603,-0.060457,0.043050,0.279205,-0.035807:vel_
1559813134.040266,cobot_dynamixel_driver/goal|-:J1,J2,J3,J4,J5,J6:0.021924,-0.218366,-0.060107,0.043702,0.278728,-0.036152:vel_
1559813134.072291,cobot_dynamixel_driver/goal|-:J1,J2,J3,J4,J5,J6:0.022547,-0.217703,-0.059664,0.045092,0.278535,-0.036727:vel_
1559813134.104223,cobot_dynamixel_driver/goal|-:J1,J2,J3,J4,J5,J6:0.022258,-0.217564,-0.060123,0.045990,0.277698,-0.037223:vel_
1559813134.136189,cobot_dynamixel_driver/goal|-:J1,J2,J3,J4,J5,J6:0.027524,-0.290715,-0.098123,0.055247,0.389833,-0.044620:vel_
1559813134.168215,cobot_dynamixel_driver/goal|-:J1,J2,J3,J4,J5,J6:0.028290,-0.306469,-0.105788,0.057509,0.414846,-0.046123:vel_
1559813134.200257,cobot_dynamixel_driver/goal|-:J1,J2,J3,J4,J5,J6:0.029424,-0.317860,-0.110042,0.058389,0.432808,-0.046193:vel_
1559813134.232236,cobot_dynamixel_driver/goal|-:J1,J2,J3,J4,J5,J6:0.030911,-0.324058,-0.110928,0.059028,0.439808,-0.046663:vel_
1559813134.264202,cobot_dynamixel_driver/goal|-:J1,J2,J3,J4,J5,J6:0.031817,-0.326988,-0.131293,0.054792,0.461104,-0.043154:vel_
1559813134.296496,cobot_dynamixel_driver/goal|-:J1,J2,J3,J4,J5,J6:0.033347,-0.332135,-0.138683,0.055089,0.475406,-0.042967:vel_
1559813134.328204,cobot_dynamixel_driver/goal|-:J1,J2,J3,J4,J5,J6:0.035493,-0.351140,-0.150842,0.058759,0.504668,-0.046541:vel_
1559813134.360205,cobot_dynamixel_driver/goal|-:J1,J2,J3,J4,J5,J6:0.032487,-0.328730,-0.142077,0.055026,0.477619,-0.045529:vel_
1559813134.392183,cobot_dynamixel_driver/goal|-:J1,J2,J3,J4,J5,J6:0.031171,-0.308355,-0.154362,0.046035,0.464637,-0.035469:vel_
1559813134.425117,cobot_dynamixel_driver/goal|-:J1,J2,J3,J4,J5,J6:0.030601,-0.301409,-0.157400,0.042672,0.461167,-0.032557:vel_
1559813134.456211,cobot_dynamixel_driver/goal|-:J1,J2,J3,J4,J5,J6:0.031630,-0.302738,-0.162124,0.042684,0.478705,-0.033066:vel_
1559813134.488178,cobot_dynamixel_driver/goal|-:J1,J2,J3,J4,J5,J6:0.032721,-0.295820,-0.172745,0.039784,0.475621,-0.029849:vel_
1559813134.520226,cobot_dynamixel_driver/goal|-:J1,J2,J3,J4,J5,J6:0.033270,-0.297893,-0.178215,0.039556,0.477831,-0.028848:vel_
1559813134.552181,cobot_dynamixel_driver/goal|-:J1,J2,J3,J4,J5,J6:0.032974,-0.304772,-0.183205,0.040144,0.488967,-0.029658:vel_
1559813134.584244,cobot_dynamixel_driver/goal|-:J1,J2,J3,J4,J5,J6:0.032199,-0.283236,-0.189723,0.035987,0.473304,-0.024324:vel_
1559813134.616133,cobot_dynamixel_driver/goal|-:J1,J2,J3,J4,J5,J6:0.032377,-0.277761,-0.192345,0.035474,0.470373,-0.023106:vel_
1559813134.648339,cobot_dynamixel_driver/goal|-:J1,J2,J3,J4,J5,J6:0.032360,-0.277548,-0.197001,0.035273,0.480027,-0.023496:vel_
1559813134.680170,cobot_dynamixel_driver/goal|-:J1,J2,J3,J4,J5,J6:0.032509,-0.261761,-0.204599,0.030836,0.469582,-0.020136:vel_
1559813134.712186,cobot_dynamixel_driver/goal|-:J1,J2,J3,J4,J5,J6:0.033094,-0.261437,-0.210313,0.029651,0.473412,-0.019477:vel_
1559813134.744160,cobot_dynamixel_driver/goal|-:J1,J2,J3,J4,J5,J6:0.032604,-0.263539,-0.213999,0.030280,0.480984,-0.019481:vel_
1559813134.776232,cobot_dynamixel_driver/goal|-:J1,J2,J3,J4,J5,J6:0.028787,-0.217930,-0.194304,0.023969,0.414341,-0.014347:vel_
1559813134.808168,cobot_dynamixel_driver/goal|-:J1,J2,J3,J4,J5,J6:0.028348,-0.208385,-0.190849,0.022458,0.402471,-0.013088:vel_
1559813134.840134,cobot_dynamixel_driver/goal|-:J1,J2,J3,J4,J5,J6:0.027976,-0.202217,-0.189746,0.021563,0.399416,-0.013296:vel_
1559813134.872181,cobot_dynamixel_driver/goal|-:J1,J2,J3,J4,J5,J6:0.028312,-0.206178,-0.195976,0.021550,0.412112,-0.012547:vel_
1559813134.904160,cobot_dynamixel_driver/goal|-:J1,J2,J3,J4,J5,J6:0.013300,-0.089054,-0.093298,0.009058,0.183349,-0.004758:vel_
1559813134.936219,cobot_dynamixel_driver/goal|-:J1,J2,J3,J4,J5,J6:0.011765,-0.076537,-0.082572,0.007981,0.158187,-0.004039:vel_
1559813134.968243,cobot_dynamixel_driver/goal|-:J1,J2,J3,J4,J5,J6:0.011129,-0.067795,-0.076668,0.007914,0.136313,-0.004573:vel_
1559813135.000191,cobot_dynamixel_driver/goal|-:J1,J2,J3,J4,J5,J6:0.011073,-0.066969,-0.077909,0.008028,0.123644,-0.005247:vel_
1559813135.032174,cobot_dynamixel_driver/goal|-:J1,J2,J3,J4,J5,J6:0.011071,-0.069655,-0.080158,0.008528,0.123416,-0.006156:vel_
1559813135.064155,cobot_dynamixel_driver/goal|-:J1,J2,J3,J4,J5,J6:0.011222,-0.072516,-0.082378,0.008543,0.128019,-0.007494:vel_
1559813135.096124,cobot_dynamixel_driver/goal|-:J1,J2,J3,J4,J5,J6:0.012018,-0.074768,-0.083894,0.008830,0.129918,-0.009513:vel_
1559813137.496164,cobot_dynamixel_driver/goal|-:J1,J2,J3,J4,J5,J6:0.000000,0.000000,0.000000,0.000000,0.000000,0.000000:0.500000,0.500000,0.500000,0.500000,0.500000,0.500000:pos_vel_
