surachairobotic/cobot/cobot_dynamixel_driver/log/2019-03-28T04:01:52.996336_driver_cmd.txt
1553745720.026431,cobot_dynamixel_driver/goal|-:J1,J2,J3,J4,J5,J6:0.000000,0.000000,0.000000,0.000000,0.000000,0.000000:0.500000,0.500000,0.500000,0.500000,0.500000,0.500000:pos_vel_
1553747053.937639,cobot_dynamixel_driver/goal|-:J1,J2,J3,J4,J5,J6:-0.000026,0.000010,-0.000025,-0.000002,0.000063,-0.000017:0.100000,0.100000,0.100000,0.100000,0.100000,0.100000:pos_vel_
1553747053.965817,cobot_dynamixel_driver/goal|-:J1,J2,J3,J4,J5,J6:-0.000026,0.000010,-0.000025,-0.000002,0.000063,-0.000017:0.100000,0.100000,0.100000,0.100000,0.100000,0.100000:pos_vel_
1553747054.074770,cobot_dynamixel_driver/goal|-:J1,J2,J3,J4,J5,J6:-0.000011,0.001619,-0.001499,0.000014,0.002173,0.000055:0.100000,0.100000,0.100000,0.100000,0.100000,0.100000:pos_vel_
1553747054.877707,cobot_dynamixel_driver/goal|-:J1,J2,J3,J4,J5,J6:-0.000026,0.000010,-0.000025,-0.000002,0.000063,-0.000017:0.100000,0.100000,0.100000,0.100000,0.100000,0.100000:pos_vel_
1553747054.877707,cobot_dynamixel_driver/goal|-:J1,J2,J3,J4,J5,J6:-0.000026,0.000010,-0.000025,-0.000002,0.000063,-0.000017:0.100000,0.100000,0.100000,0.100000,0.100000,0.100000:pos_vel_
1553747055.289724,cobot_dynamixel_driver/goal|-:J1,J2,J3,J4,J5,J6:-0.028592,-0.025159,0.024800,-0.000005,0.000407,-0.072345:0.100000,0.100000,0.100000,0.100000,0.100000,0.100000:pos_vel_
1553747055.371515,cobot_dynamixel_driver/goal|-:J1,J2,J3,J4,J5,J6:-0.058782,-0.049568,0.048220,-0.000009,0.001394,-0.146304:0.100000,0.100000,0.100000,0.100000,0.100000,0.100000:pos_vel_
1553747055.480452,cobot_dynamixel_driver/goal|-:J1,J2,J3,J4,J5,J6:-0.058782,-0.049568,0.048220,-0.000009,0.001394,-0.146304:0.100000,0.100000,0.100000,0.100000,0.100000,0.100000:pos_vel_
1553747055.563332,cobot_dynamixel_driver/goal|-:J1,J2,J3,J4,J5,J6:-0.058782,-0.049568,0.048220,-0.000009,0.001394,-0.146304:0.100000,0.100000,0.100000,0.100000,0.100000,0.100000:pos_vel_
1553747055.672348,cobot_dynamixel_driver/goal|-:J1,J2,J3,J4,J5,J6:-0.058782,-0.049568,0.048220,-0.000009,0.001394,-0.146304:0.100000,0.100000,0.100000,0.100000,0.100000,0.100000:pos_vel_
1553747055.754332,cobot_dynamixel_driver/goal|-:J1,J2,J3,J4,J5,J6:-0.090683,-0.073164,0.070245,-0.000013,0.002963,-0.221976:0.100000,0.100000,0.100000,0.100000,0.100000,0.100000:pos_vel_
1553747055.864146,cobot_dynamixel_driver/goal|-:J1,J2,J3,J4,J5,J6:-0.090683,-0.073164,0.070245,-0.000013,0.002963,-0.221976:0.100000,0.100000,0.100000,0.100000,0.100000,0.100000:pos_vel_
1553747055.973141,cobot_dynamixel_driver/goal|-:J1,J2,J3,J4,J5,J6:-0.090683,-0.073164,0.070245,-0.000013,0.002963,-0.221976:0.100000,0.100000,0.100000,0.100000,0.100000,0.100000:pos_vel_
1553747056.081810,cobot_dynamixel_driver/goal|-:J1,J2,J3,J4,J5,J6:-0.124376,-0.095883,0.090881,-0.000016,0.005044,-0.299438:0.100000,0.100000,0.100000,0.100000,0.100000,0.100000:pos_vel_
1553747056.164043,cobot_dynamixel_driver/goal|-:J1,J2,J3,J4,J5,J6:-0.124376,-0.095883,0.090881,-0.000016,0.005044,-0.299438:0.100000,0.100000,0.100000,0.100000,0.100000,0.100000:pos_vel_
1553747056.274762,cobot_dynamixel_driver/goal|-:J1,J2,J3,J4,J5,J6:-0.124376,-0.095883,0.090881,-0.000016,0.005044,-0.299438:0.100000,0.100000,0.100000,0.100000,0.100000,0.100000:pos_vel_
1553747056.357690,cobot_dynamixel_driver/goal|-:J1,J2,J3,J4,J5,J6:-0.159931,-0.117650,0.110128,-0.000019,0.007562,-0.378764:0.100000,0.100000,0.100000,0.100000,0.100000,0.100000:pos_vel_
1553747056.467555,cobot_dynamixel_driver/goal|-:J1,J2,J3,J4,J5,J6:-0.159931,-0.117650,0.110128,-0.000019,0.007562,-0.378764:0.100000,0.100000,0.100000,0.100000,0.100000,0.100000:pos_vel_
1553747056.576493,cobot_dynamixel_driver/goal|-:J1,J2,J3,J4,J5,J6:-0.159931,-0.117650,0.110128,-0.000019,0.007562,-0.378764:0.100000,0.100000,0.100000,0.100000,0.100000,0.100000:pos_vel_
1553747056.659393,cobot_dynamixel_driver/goal|-:J1,J2,J3,J4,J5,J6:-0.197411,-0.138386,0.127987,-0.000023,0.010436,-0.460014:0.100000,0.100000,0.100000,0.100000,0.100000,0.100000:pos_vel_
1553747056.768353,cobot_dynamixel_driver/goal|-:J1,J2,J3,J4,J5,J6:-0.197411,-0.138386,0.127987,-0.000023,0.010436,-0.460014:0.100000,0.100000,0.100000,0.100000,0.100000,0.100000:pos_vel_
1553747056.878270,cobot_dynamixel_driver/goal|-:J1,J2,J3,J4,J5,J6:-0.197411,-0.138386,0.127987,-0.000023,0.010436,-0.460014:0.100000,0.100000,0.100000,0.100000,0.100000,0.100000:pos_vel_
1553747056.960296,cobot_dynamixel_driver/goal|-:J1,J2,J3,J4,J5,J6:-0.236862,-0.158000,0.144454,-0.000026,0.013581,-0.543234:0.100000,0.100000,0.100000,0.100000,0.100000,0.100000:pos_vel_
1553747057.070953,cobot_dynamixel_driver/goal|-:J1,J2,J3,J4,J5,J6:-0.236862,-0.158000,0.144454,-0.000026,0.013581,-0.543234:0.100000,0.100000,0.100000,0.100000,0.100000,0.100000:pos_vel_
1553747057.179944,cobot_dynamixel_driver/goal|-:J1,J2,J3,J4,J5,J6:-0.236862,-0.158000,0.144454,-0.000026,0.013581,-0.543234:0.100000,0.100000,0.100000,0.100000,0.100000,0.100000:pos_vel_
1553747057.261863,cobot_dynamixel_driver/goal|-:J1,J2,J3,J4,J5,J6:-0.236862,-0.158000,0.144454,-0.000026,0.013581,-0.543234:0.100000,0.100000,0.100000,0.100000,0.100000,0.100000:pos_vel_
1553747057.371843,cobot_dynamixel_driver/goal|-:J1,J2,J3,J4,J5,J6:-0.278310,-0.176398,0.159524,-0.000029,0.016906,-0.628452:0.100000,0.100000,0.100000,0.100000,0.100000,0.100000:pos_vel_
1553747057.455609,cobot_dynamixel_driver/goal|-:J1,J2,J3,J4,J5,J6:-0.278310,-0.176398,0.159524,-0.000029,0.016906,-0.628452:0.100000,0.100000,0.100000,0.100000,0.100000,0.100000:pos_vel_
1553747057.564585,cobot_dynamixel_driver/goal|-:J1,J2,J3,J4,J5,J6:-0.278310,-0.176398,0.159524,-0.000029,0.016906,-0.628452:0.100000,0.100000,0.100000,0.100000,0.100000,0.100000:pos_vel_
1553747057.674502,cobot_dynamixel_driver/goal|-:J1,J2,J3,J4,J5,J6:-0.278310,-0.176398,0.159524,-0.000029,0.016906,-0.628452:0.100000,0.100000,0.100000,0.100000,0.100000,0.100000:pos_vel_
1553747057.756481,cobot_dynamixel_driver/goal|-:J1,J2,J3,J4,J5,J6:-0.321758,-0.193479,0.173190,-0.000031,0.020317,-0.715670:0.100000,0.100000,0.100000,0.100000,0.100000,0.100000:pos_vel_
1553747057.865365,cobot_dynamixel_driver/goal|-:J1,J2,J3,J4,J5,J6:-0.321758,-0.193479,0.173190,-0.000031,0.020317,-0.715670:0.100000,0.100000,0.100000,0.100000,0.100000,0.100000:pos_vel_
1553747057.974249,cobot_dynamixel_driver/goal|-:J1,J2,J3,J4,J5,J6:-0.321758,-0.193479,0.173190,-0.000031,0.020317,-0.715670:0.100000,0.100000,0.100000,0.100000,0.100000,0.100000:pos_vel_
1553747058.056244,cobot_dynamixel_driver/goal|-:J1,J2,J3,J4,J5,J6:-0.321758,-0.193479,0.173190,-0.000031,0.020317,-0.715670:0.100000,0.100000,0.100000,0.100000,0.100000,0.100000:pos_vel_
1553747058.166123,cobot_dynamixel_driver/goal|-:J1,J2,J3,J4,J5,J6:-0.321758,-0.193479,0.173190,-0.000031,0.020317,-0.715670:0.100000,0.100000,0.100000,0.100000,0.100000,0.100000:pos_vel_
1553747058.275085,cobot_dynamixel_driver/goal|-:J1,J2,J3,J4,J5,J6:-0.367178,-0.209139,0.185446,-0.000033,0.023717,-0.804860:0.100000,0.100000,0.100000,0.100000,0.100000,0.100000:pos_vel_
1553747058.358896,cobot_dynamixel_driver/goal|-:J1,J2,J3,J4,J5,J6:-0.367178,-0.209139,0.185446,-0.000033,0.023717,-0.804860:0.100000,0.100000,0.100000,0.100000,0.100000,0.100000:pos_vel_
1553747058.467833,cobot_dynamixel_driver/goal|-:J1,J2,J3,J4,J5,J6:-0.367178,-0.209139,0.185446,-0.000033,0.023717,-0.804860:0.100000,0.100000,0.100000,0.100000,0.100000,0.100000:pos_vel_
1553747058.577633,cobot_dynamixel_driver/goal|-:J1,J2,J3,J4,J5,J6:-0.367178,-0.209139,0.185446,-0.000033,0.023717,-0.804860:0.100000,0.100000,0.100000,0.100000,0.100000,0.100000:pos_vel_
1553747058.661570,cobot_dynamixel_driver/goal|-:J1,J2,J3,J4,J5,J6:-0.414509,-0.223275,0.196285,-0.000035,0.027010,-0.895961:0.100000,0.100000,0.100000,0.100000,0.100000,0.100000:pos_vel_
1553747058.771571,cobot_dynamixel_driver/goal|-:J1,J2,J3,J4,J5,J6:-0.414509,-0.223275,0.196285,-0.000035,0.027010,-0.895961:0.100000,0.100000,0.100000,0.100000,0.100000,0.100000:pos_vel_
1553747058.880387,cobot_dynamixel_driver/goal|-:J1,J2,J3,J4,J5,J6:-0.414509,-0.223275,0.196285,-0.000035,0.027010,-0.895961:0.100000,0.100000,0.100000,0.100000,0.100000,0.100000:pos_vel_
1553747058.963340,cobot_dynamixel_driver/goal|-:J1,J2,J3,J4,J5,J6:-0.414509,-0.223275,0.196285,-0.000035,0.027010,-0.895961:0.100000,0.100000,0.100000,0.100000,0.100000,0.100000:pos_vel_
1553747059.073201,cobot_dynamixel_driver/goal|-:J1,J2,J3,J4,J5,J6:-0.414509,-0.223275,0.196285,-0.000035,0.027010,-0.895961:0.100000,0.100000,0.100000,0.100000,0.100000,0.100000:pos_vel_
1553747059.155249,cobot_dynamixel_driver/goal|-:J1,J2,J3,J4,J5,J6:-0.463647,-0.235781,0.205698,-0.000037,0.030100,-0.988869:0.100000,0.100000,0.100000,0.100000,0.100000,0.100000:pos_vel_
1553747059.264128,cobot_dynamixel_driver/goal|-:J1,J2,J3,J4,J5,J6:-0.463647,-0.235781,0.205698,-0.000037,0.030100,-0.988869:0.100000,0.100000,0.100000,0.100000,0.100000,0.100000:pos_vel_
1553747059.374060,cobot_dynamixel_driver/goal|-:J1,J2,J3,J4,J5,J6:-0.463647,-0.235781,0.205698,-0.000037,0.030100,-0.988869:0.100000,0.100000,0.100000,0.100000,0.100000,0.100000:pos_vel_
1553747059.456872,cobot_dynamixel_driver/goal|-:J1,J2,J3,J4,J5,J6:-0.463647,-0.235781,0.205698,-0.000037,0.030100,-0.988869:0.100000,0.100000,0.100000,0.100000,0.100000,0.100000:pos_vel_
1553747059.566847,cobot_dynamixel_driver/goal|-:J1,J2,J3,J4,J5,J6:-0.463647,-0.235781,0.205698,-0.000037,0.030100,-0.988869:0.100000,0.100000,0.100000,0.100000,0.100000,0.100000:pos_vel_
1553747059.677765,cobot_dynamixel_driver/goal|-:J1,J2,J3,J4,J5,J6:-0.514448,-0.246560,0.213678,-0.000038,0.032894,-1.083440:0.100000,0.100000,0.100000,0.100000,0.100000,0.100000:pos_vel_
1553747059.760556,cobot_dynamixel_driver/goal|-:J1,J2,J3,J4,J5,J6:-0.514448,-0.246560,0.213678,-0.000038,0.032894,-1.083440:0.100000,0.100000,0.100000,0.100000,0.100000,0.100000:pos_vel_
1553747059.870605,cobot_dynamixel_driver/goal|-:J1,J2,J3,J4,J5,J6:-0.514448,-0.246560,0.213678,-0.000038,0.032894,-1.083440:0.100000,0.100000,0.100000,0.100000,0.100000,0.100000:pos_vel_
1553747059.979376,cobot_dynamixel_driver/goal|-:J1,J2,J3,J4,J5,J6:-0.514448,-0.246560,0.213678,-0.000038,0.032894,-1.083440:0.100000,0.100000,0.100000,0.100000,0.100000,0.100000:pos_vel_
1553747060.063400,cobot_dynamixel_driver/goal|-:J1,J2,J3,J4,J5,J6:-0.514448,-0.246560,0.213678,-0.000038,0.032894,-1.083440:0.100000,0.100000,0.100000,0.100000,0.100000,0.100000:pos_vel_
1553747060.172073,cobot_dynamixel_driver/goal|-:J1,J2,J3,J4,J5,J6:-0.566724,-0.255520,0.220218,-0.000039,0.035309,-1.179486:0.100000,0.100000,0.100000,0.100000,0.100000,0.100000:pos_vel_
1553747060.281165,cobot_dynamixel_driver/goal|-:J1,J2,J3,J4,J5,J6:-0.566724,-0.255520,0.220218,-0.000039,0.035309,-1.179486:0.100000,0.100000,0.100000,0.100000,0.100000,0.100000:pos_vel_
1553747060.363041,cobot_dynamixel_driver/goal|-:J1,J2,J3,J4,J5,J6:-0.566724,-0.255520,0.220218,-0.000039,0.035309,-1.179486:0.100000,0.100000,0.100000,0.100000,0.100000,0.100000:pos_vel_
1553747060.472928,cobot_dynamixel_driver/goal|-:J1,J2,J3,J4,J5,J6:-0.566724,-0.255520,0.220218,-0.000039,0.035309,-1.179486:0.100000,0.100000,0.100000,0.100000,0.100000,0.100000:pos_vel_
1553747060.555859,cobot_dynamixel_driver/goal|-:J1,J2,J3,J4,J5,J6:-0.566724,-0.255520,0.220218,-0.000039,0.035309,-1.179486:0.100000,0.100000,0.100000,0.100000,0.100000,0.100000:pos_vel_
1553747060.665717,cobot_dynamixel_driver/goal|-:J1,J2,J3,J4,J5,J6:-0.566724,-0.255520,0.220218,-0.000039,0.035309,-1.179486:0.100000,0.100000,0.100000,0.100000,0.100000,0.100000:pos_vel_
1553747060.775655,cobot_dynamixel_driver/goal|-:J1,J2,J3,J4,J5,J6:-0.620243,-0.262580,0.225313,-0.000039,0.037270,-1.276775:0.100000,0.100000,0.100000,0.100000,0.100000,0.100000:pos_vel_
1553747060.858541,cobot_dynamixel_driver/goal|-:J1,J2,J3,J4,J5,J6:-0.620243,-0.262580,0.225313,-0.000039,0.037270,-1.276775:0.100000,0.100000,0.100000,0.100000,0.100000,0.100000:pos_vel_
1553747060.968414,cobot_dynamixel_driver/goal|-:J1,J2,J3,J4,J5,J6:-0.620243,-0.262580,0.225313,-0.000039,0.037270,-1.276775:0.100000,0.100000,0.100000,0.100000,0.100000,0.100000:pos_vel_
1553747061.077167,cobot_dynamixel_driver/goal|-:J1,J2,J3,J4,J5,J6:-0.620243,-0.262580,0.225313,-0.000039,0.037270,-1.276775:0.100000,0.100000,0.100000,0.100000,0.100000,0.100000:pos_vel_
1553747061.159054,cobot_dynamixel_driver/goal|-:J1,J2,J3,J4,J5,J6:-0.620243,-0.262580,0.225313,-0.000039,0.037270,-1.276775:0.100000,0.100000,0.100000,0.100000,0.100000,0.100000:pos_vel_
1553747061.270152,cobot_dynamixel_driver/goal|-:J1,J2,J3,J4,J5,J6:-0.674733,-0.267674,0.228958,-0.000039,0.038715,-1.375035:0.100000,0.100000,0.100000,0.100000,0.100000,0.100000:pos_vel_
1553747061.379127,cobot_dynamixel_driver/goal|-:J1,J2,J3,J4,J5,J6:-0.674733,-0.267674,0.228958,-0.000039,0.038715,-1.375035:0.100000,0.100000,0.100000,0.100000,0.100000,0.100000:pos_vel_
1553747061.460798,cobot_dynamixel_driver/goal|-:J1,J2,J3,J4,J5,J6:-0.674733,-0.267674,0.228958,-0.000039,0.038715,-1.375035:0.100000,0.100000,0.100000,0.100000,0.100000,0.100000:pos_vel_
1553747061.569973,cobot_dynamixel_driver/goal|-:J1,J2,J3,J4,J5,J6:-0.674733,-0.267674,0.228958,-0.000039,0.038715,-1.375035:0.100000,0.100000,0.100000,0.100000,0.100000,0.100000:pos_vel_
1553747061.678852,cobot_dynamixel_driver/goal|-:J1,J2,J3,J4,J5,J6:-0.674733,-0.267674,0.228958,-0.000039,0.038715,-1.375035:0.100000,0.100000,0.100000,0.100000,0.100000,0.100000:pos_vel_
1553747061.760737,cobot_dynamixel_driver/goal|-:J1,J2,J3,J4,J5,J6:-0.729891,-0.270752,0.231148,-0.000038,0.039598,-1.473962:0.100000,0.100000,0.100000,0.100000,0.100000,0.100000:pos_vel_
1553747061.870520,cobot_dynamixel_driver/goal|-:J1,J2,J3,J4,J5,J6:-0.729891,-0.270752,0.231148,-0.000038,0.039598,-1.473962:0.100000,0.100000,0.100000,0.100000,0.100000,0.100000:pos_vel_
1553747061.979541,cobot_dynamixel_driver/goal|-:J1,J2,J3,J4,J5,J6:-0.729891,-0.270752,0.231148,-0.000038,0.039598,-1.473962:0.100000,0.100000,0.100000,0.100000,0.100000,0.100000:pos_vel_
1553747062.061440,cobot_dynamixel_driver/goal|-:J1,J2,J3,J4,J5,J6:-0.729891,-0.270752,0.231148,-0.000038,0.039598,-1.473962:0.100000,0.100000,0.100000,0.100000,0.100000,0.100000:pos_vel_
1553747062.171271,cobot_dynamixel_driver/goal|-:J1,J2,J3,J4,J5,J6:-0.729891,-0.270752,0.231148,-0.000038,0.039598,-1.473962:0.100000,0.100000,0.100000,0.100000,0.100000,0.100000:pos_vel_
1553747062.253993,cobot_dynamixel_driver/goal|-:J1,J2,J3,J4,J5,J6:-0.729891,-0.270752,0.231148,-0.000038,0.039598,-1.473962:0.100000,0.100000,0.100000,0.100000,0.100000,0.100000:pos_vel_
1553747062.362948,cobot_dynamixel_driver/goal|-:J1,J2,J3,J4,J5,J6:-0.785389,-0.271783,0.231882,-0.000037,0.039890,-1.573230:0.100000,0.100000,0.100000,0.100000,0.100000,0.100000:pos_vel_
1553747062.471981,cobot_dynamixel_driver/goal|-:J1,J2,J3,J4,J5,J6:-0.785389,-0.271783,0.231882,-0.000037,0.039890,-1.573230:0.100000,0.100000,0.100000,0.100000,0.100000,0.100000:pos_vel_
1553747062.554051,cobot_dynamixel_driver/goal|-:J1,J2,J3,J4,J5,J6:-0.785389,-0.271783,0.231882,-0.000037,0.039890,-1.573230:0.100000,0.100000,0.100000,0.100000,0.100000,0.100000:pos_vel_
1553747062.663857,cobot_dynamixel_driver/goal|-:J1,J2,J3,J4,J5,J6:-0.785389,-0.271783,0.231882,-0.000037,0.039890,-1.573230:0.100000,0.100000,0.100000,0.100000,0.100000,0.100000:pos_vel_
1553747062.772734,cobot_dynamixel_driver/goal|-:J1,J2,J3,J4,J5,J6:-0.785389,-0.271783,0.231882,-0.000037,0.039890,-1.573230:0.100000,0.100000,0.100000,0.100000,0.100000,0.100000:pos_vel_
1553747062.855716,cobot_dynamixel_driver/goal|-:J1,J2,J3,J4,J5,J6:-0.785389,-0.271783,0.231882,-0.000037,0.039890,-1.573230:0.100000,0.100000,0.100000,0.100000,0.100000,0.100000:pos_vel_
1553747062.964568,cobot_dynamixel_driver/goal|-:J1,J2,J3,J4,J5,J6:-0.840887,-0.270756,0.231159,-0.000035,0.039583,-1.672498:0.100000,0.100000,0.100000,0.100000,0.100000,0.100000:pos_vel_
1553747063.073555,cobot_dynamixel_driver/goal|-:J1,J2,J3,J4,J5,J6:-0.840887,-0.270756,0.231159,-0.000035,0.039583,-1.672498:0.100000,0.100000,0.100000,0.100000,0.100000,0.100000:pos_vel_
1553747063.156399,cobot_dynamixel_driver/goal|-:J1,J2,J3,J4,J5,J6:-0.840887,-0.270756,0.231159,-0.000035,0.039583,-1.672498:0.100000,0.100000,0.100000,0.100000,0.100000,0.100000:pos_vel_
1553747063.265441,cobot_dynamixel_driver/goal|-:J1,J2,J3,J4,J5,J6:-0.840887,-0.270756,0.231159,-0.000035,0.039583,-1.672498:0.100000,0.100000,0.100000,0.100000,0.100000,0.100000:pos_vel_
1553747063.374190,cobot_dynamixel_driver/goal|-:J1,J2,J3,J4,J5,J6:-0.840887,-0.270756,0.231159,-0.000035,0.039583,-1.672498:0.100000,0.100000,0.100000,0.100000,0.100000,0.100000:pos_vel_
1553747063.456167,cobot_dynamixel_driver/goal|-:J1,J2,J3,J4,J5,J6:-0.840887,-0.270756,0.231159,-0.000035,0.039583,-1.672498:0.100000,0.100000,0.100000,0.100000,0.100000,0.100000:pos_vel_
1553747063.565140,cobot_dynamixel_driver/goal|-:J1,J2,J3,J4,J5,J6:-0.896046,-0.267683,0.228979,-0.000033,0.038685,-1.771427:0.100000,0.100000,0.100000,0.100000,0.100000,0.100000:pos_vel_
1553747063.675041,cobot_dynamixel_driver/goal|-:J1,J2,J3,J4,J5,J6:-0.896046,-0.267683,0.228979,-0.000033,0.038685,-1.771427:0.100000,0.100000,0.100000,0.100000,0.100000,0.100000:pos_vel_
1553747063.758056,cobot_dynamixel_driver/goal|-:J1,J2,J3,J4,J5,J6:-0.896046,-0.267683,0.228979,-0.000033,0.038685,-1.771427:0.100000,0.100000,0.100000,0.100000,0.100000,0.100000:pos_vel_
1553747063.868849,cobot_dynamixel_driver/goal|-:J1,J2,J3,J4,J5,J6:-0.896046,-0.267683,0.228979,-0.000033,0.038685,-1.771427:0.100000,0.100000,0.100000,0.100000,0.100000,0.100000:pos_vel_
1553747063.979784,cobot_dynamixel_driver/goal|-:J1,J2,J3,J4,J5,J6:-0.896046,-0.267683,0.228979,-0.000033,0.038685,-1.771427:0.100000,0.100000,0.100000,0.100000,0.100000,0.100000:pos_vel_
1553747064.062677,cobot_dynamixel_driver/goal|-:J1,J2,J3,J4,J5,J6:-0.896046,-0.267683,0.228979,-0.000033,0.038685,-1.771427:0.100000,0.100000,0.100000,0.100000,0.100000,0.100000:pos_vel_
1553747064.171429,cobot_dynamixel_driver/goal|-:J1,J2,J3,J4,J5,J6:-0.950539,-0.262593,0.225346,-0.000031,0.037225,-1.869689:0.100000,0.100000,0.100000,0.100000,0.100000,0.100000:pos_vel_
1553747064.280512,cobot_dynamixel_driver/goal|-:J1,J2,J3,J4,J5,J6:-0.950539,-0.262593,0.225346,-0.000031,0.037225,-1.869689:0.100000,0.100000,0.100000,0.100000,0.100000,0.100000:pos_vel_
1553747064.363337,cobot_dynamixel_driver/goal|-:J1,J2,J3,J4,J5,J6:-0.950539,-0.262593,0.225346,-0.000031,0.037225,-1.869689:0.100000,0.100000,0.100000,0.100000,0.100000,0.100000:pos_vel_
1553747064.472275,cobot_dynamixel_driver/goal|-:J1,J2,J3,J4,J5,J6:-0.950539,-0.262593,0.225346,-0.000031,0.037225,-1.869689:0.100000,0.100000,0.100000,0.100000,0.100000,0.100000:pos_vel_
1553747064.581146,cobot_dynamixel_driver/goal|-:J1,J2,J3,J4,J5,J6:-0.950539,-0.262593,0.225346,-0.000031,0.037225,-1.869689:0.100000,0.100000,0.100000,0.100000,0.100000,0.100000:pos_vel_
1553747064.663187,cobot_dynamixel_driver/goal|-:J1,J2,J3,J4,J5,J6:-0.950539,-0.262593,0.225346,-0.000031,0.037225,-1.869689:0.100000,0.100000,0.100000,0.100000,0.100000,0.100000:pos_vel_
1553747064.771944,cobot_dynamixel_driver/goal|-:J1,J2,J3,J4,J5,J6:-1.004060,-0.255536,0.220261,-0.000028,0.035249,-1.966980:0.100000,0.100000,0.100000,0.100000,0.100000,0.100000:pos_vel_
1553747064.854072,cobot_dynamixel_driver/goal|-:J1,J2,J3,J4,J5,J6:-1.004060,-0.255536,0.220261,-0.000028,0.035249,-1.966980:0.100000,0.100000,0.100000,0.100000,0.100000,0.100000:pos_vel_
1553747064.963949,cobot_dynamixel_driver/goal|-:J1,J2,J3,J4,J5,J6:-1.004060,-0.255536,0.220261,-0.000028,0.035249,-1.966980:0.100000,0.100000,0.100000,0.100000,0.100000,0.100000:pos_vel_
1553747065.073872,cobot_dynamixel_driver/goal|-:J1,J2,J3,J4,J5,J6:-1.004060,-0.255536,0.220261,-0.000028,0.035249,-1.966980:0.100000,0.100000,0.100000,0.100000,0.100000,0.100000:pos_vel_
1553747065.155726,cobot_dynamixel_driver/goal|-:J1,J2,J3,J4,J5,J6:-1.004060,-0.255536,0.220261,-0.000028,0.035249,-1.966980:0.100000,0.100000,0.100000,0.100000,0.100000,0.100000:pos_vel_
1553747065.264596,cobot_dynamixel_driver/goal|-:J1,J2,J3,J4,J5,J6:-1.056340,-0.246580,0.213731,-0.000025,0.032820,-2.063029:0.100000,0.100000,0.100000,0.100000,0.100000,0.100000:pos_vel_
1553747065.373475,cobot_dynamixel_driver/goal|-:J1,J2,J3,J4,J5,J6:-1.056340,-0.246580,0.213731,-0.000025,0.032820,-2.063029:0.100000,0.100000,0.100000,0.100000,0.100000,0.100000:pos_vel_
1553747065.456461,cobot_dynamixel_driver/goal|-:J1,J2,J3,J4,J5,J6:-1.056340,-0.246580,0.213731,-0.000025,0.032820,-2.063029:0.100000,0.100000,0.100000,0.100000,0.100000,0.100000:pos_vel_
1553747065.565314,cobot_dynamixel_driver/goal|-:J1,J2,J3,J4,J5,J6:-1.056340,-0.246580,0.213731,-0.000025,0.032820,-2.063029:0.100000,0.100000,0.100000,0.100000,0.100000,0.100000:pos_vel_
1553747065.676134,cobot_dynamixel_driver/goal|-:J1,J2,J3,J4,J5,J6:-1.056340,-0.246580,0.213731,-0.000025,0.032820,-2.063029:0.100000,0.100000,0.100000,0.100000,0.100000,0.100000:pos_vel_
1553747065.761156,cobot_dynamixel_driver/goal|-:J1,J2,J3,J4,J5,J6:-1.056340,-0.246580,0.213731,-0.000025,0.032820,-2.063029:0.100000,0.100000,0.100000,0.100000,0.100000,0.100000:pos_vel_
1553747065.872073,cobot_dynamixel_driver/goal|-:J1,J2,J3,J4,J5,J6:-1.107145,-0.235804,0.205762,-0.000021,0.030011,-2.157605:0.100000,0.100000,0.100000,0.100000,0.100000,0.100000:pos_vel_
1553747065.954024,cobot_dynamixel_driver/goal|-:J1,J2,J3,J4,J5,J6:-1.107145,-0.235804,0.205762,-0.000021,0.030011,-2.157605:0.100000,0.100000,0.100000,0.100000,0.100000,0.100000:pos_vel_
1553747066.063735,cobot_dynamixel_driver/goal|-:J1,J2,J3,J4,J5,J6:-1.107145,-0.235804,0.205762,-0.000021,0.030011,-2.157605:0.100000,0.100000,0.100000,0.100000,0.100000,0.100000:pos_vel_
1553747066.172801,cobot_dynamixel_driver/goal|-:J1,J2,J3,J4,J5,J6:-1.107145,-0.235804,0.205762,-0.000021,0.030011,-2.157605:0.100000,0.100000,0.100000,0.100000,0.100000,0.100000:pos_vel_
1553747066.281698,cobot_dynamixel_driver/goal|-:J1,J2,J3,J4,J5,J6:-1.107145,-0.235804,0.205762,-0.000021,0.030011,-2.157605:0.100000,0.100000,0.100000,0.100000,0.100000,0.100000:pos_vel_
1553747066.364578,cobot_dynamixel_driver/goal|-:J1,J2,J3,J4,J5,J6:-1.156288,-0.223301,0.196359,-0.000018,0.026908,-2.250517:0.100000,0.100000,0.100000,0.100000,0.100000,0.100000:pos_vel_
1553747066.473490,cobot_dynamixel_driver/goal|-:J1,J2,J3,J4,J5,J6:-1.156288,-0.223301,0.196359,-0.000018,0.026908,-2.250517:0.100000,0.100000,0.100000,0.100000,0.100000,0.100000:pos_vel_
1553747066.556445,cobot_dynamixel_driver/goal|-:J1,J2,J3,J4,J5,J6:-1.156288,-0.223301,0.196359,-0.000018,0.026908,-2.250517:0.100000,0.100000,0.100000,0.100000,0.100000,0.100000:pos_vel_
1553747066.665428,cobot_dynamixel_driver/goal|-:J1,J2,J3,J4,J5,J6:-1.156288,-0.223301,0.196359,-0.000018,0.026908,-2.250517:0.100000,0.100000,0.100000,0.100000,0.100000,0.100000:pos_vel_
1553747066.773975,cobot_dynamixel_driver/goal|-:J1,J2,J3,J4,J5,J6:-1.156288,-0.223301,0.196359,-0.000018,0.026908,-2.250517:0.100000,0.100000,0.100000,0.100000,0.100000,0.100000:pos_vel_
1553747066.856146,cobot_dynamixel_driver/goal|-:J1,J2,J3,J4,J5,J6:-1.156288,-0.223301,0.196359,-0.000018,0.026908,-2.250517:0.100000,0.100000,0.100000,0.100000,0.100000,0.100000:pos_vel_
1553747066.965153,cobot_dynamixel_driver/goal|-:J1,J2,J3,J4,J5,J6:-1.203623,-0.209168,0.185530,-0.000014,0.023602,-2.341622:0.100000,0.100000,0.100000,0.100000,0.100000,0.100000:pos_vel_
1553747067.074963,cobot_dynamixel_driver/goal|-:J1,J2,J3,J4,J5,J6:-1.203623,-0.209168,0.185530,-0.000014,0.023602,-2.341622:0.100000,0.100000,0.100000,0.100000,0.100000,0.100000:pos_vel_
1553747067.157134,cobot_dynamixel_driver/goal|-:J1,J2,J3,J4,J5,J6:-1.203623,-0.209168,0.185530,-0.000014,0.023602,-2.341622:0.100000,0.100000,0.100000,0.100000,0.100000,0.100000:pos_vel_
1553747067.267893,cobot_dynamixel_driver/goal|-:J1,J2,J3,J4,J5,J6:-1.203623,-0.209168,0.185530,-0.000014,0.023602,-2.341622:0.100000,0.100000,0.100000,0.100000,0.100000,0.100000:pos_vel_
1553747067.376806,cobot_dynamixel_driver/goal|-:J1,J2,J3,J4,J5,J6:-1.203623,-0.209168,0.185530,-0.000014,0.023602,-2.341622:0.100000,0.100000,0.100000,0.100000,0.100000,0.100000:pos_vel_
1553747067.458775,cobot_dynamixel_driver/goal|-:J1,J2,J3,J4,J5,J6:-1.249048,-0.193509,0.173284,-0.000010,0.020188,-2.430817:0.100000,0.100000,0.100000,0.100000,0.100000,0.100000:pos_vel_
1553747067.568479,cobot_dynamixel_driver/goal|-:J1,J2,J3,J4,J5,J6:-1.249048,-0.193509,0.173284,-0.000010,0.020188,-2.430817:0.100000,0.100000,0.100000,0.100000,0.100000,0.100000:pos_vel_
1553747067.677543,cobot_dynamixel_driver/goal|-:J1,J2,J3,J4,J5,J6:-1.249048,-0.193509,0.173284,-0.000010,0.020188,-2.430817:0.100000,0.100000,0.100000,0.100000,0.100000,0.100000:pos_vel_
1553747067.760397,cobot_dynamixel_driver/goal|-:J1,J2,J3,J4,J5,J6:-1.249048,-0.193509,0.173284,-0.000010,0.020188,-2.430817:0.100000,0.100000,0.100000,0.100000,0.100000,0.100000:pos_vel_
1553747067.869385,cobot_dynamixel_driver/goal|-:J1,J2,J3,J4,J5,J6:-1.249048,-0.193509,0.173284,-0.000010,0.020188,-2.430817:0.100000,0.100000,0.100000,0.100000,0.100000,0.100000:pos_vel_
1553747067.978148,cobot_dynamixel_driver/goal|-:J1,J2,J3,J4,J5,J6:-1.292501,-0.176430,0.159627,-0.000006,0.016764,-2.518040:0.100000,0.100000,0.100000,0.100000,0.100000,0.100000:pos_vel_
1553747068.061187,cobot_dynamixel_driver/goal|-:J1,J2,J3,J4,J5,J6:-1.292501,-0.176430,0.159627,-0.000006,0.016764,-2.518040:0.100000,0.100000,0.100000,0.100000,0.100000,0.100000:pos_vel_
1553747068.171016,cobot_dynamixel_driver/goal|-:J1,J2,J3,J4,J5,J6:-1.292501,-0.176430,0.159627,-0.000006,0.016764,-2.518040:0.100000,0.100000,0.100000,0.100000,0.100000,0.100000:pos_vel_
1553747068.280927,cobot_dynamixel_driver/goal|-:J1,J2,J3,J4,J5,J6:-1.292501,-0.176430,0.159627,-0.000006,0.016764,-2.518040:0.100000,0.100000,0.100000,0.100000,0.100000,0.100000:pos_vel_
1553747068.362855,cobot_dynamixel_driver/goal|-:J1,J2,J3,J4,J5,J6:-1.292501,-0.176430,0.159627,-0.000006,0.016764,-2.518040:0.100000,0.100000,0.100000,0.100000,0.100000,0.100000:pos_vel_
1553747068.472721,cobot_dynamixel_driver/goal|-:J1,J2,J3,J4,J5,J6:-1.333954,-0.158033,0.144566,-0.000002,0.013427,-2.603262:0.100000,0.100000,0.100000,0.100000,0.100000,0.100000:pos_vel_
1553747068.581799,cobot_dynamixel_driver/goal|-:J1,J2,J3,J4,J5,J6:-1.333954,-0.158033,0.144566,-0.000002,0.013427,-2.603262:0.100000,0.100000,0.100000,0.100000,0.100000,0.100000:pos_vel_
1553747068.664505,cobot_dynamixel_driver/goal|-:J1,J2,J3,J4,J5,J6:-1.333954,-0.158033,0.144566,-0.000002,0.013427,-2.603262:0.100000,0.100000,0.100000,0.100000,0.100000,0.100000:pos_vel_
1553747068.775618,cobot_dynamixel_driver/goal|-:J1,J2,J3,J4,J5,J6:-1.333954,-0.158033,0.144566,-0.000002,0.013427,-2.603262:0.100000,0.100000,0.100000,0.100000,0.100000,0.100000:pos_vel_
1553747068.858444,cobot_dynamixel_driver/goal|-:J1,J2,J3,J4,J5,J6:-1.373410,-0.138420,0.128109,0.000002,0.010271,-2.686487:0.100000,0.100000,0.100000,0.100000,0.100000,0.100000:pos_vel_
1553747068.967396,cobot_dynamixel_driver/goal|-:J1,J2,J3,J4,J5,J6:-1.373410,-0.138420,0.128109,0.000002,0.010271,-2.686487:0.100000,0.100000,0.100000,0.100000,0.100000,0.100000:pos_vel_
1553747069.078213,cobot_dynamixel_driver/goal|-:J1,J2,J3,J4,J5,J6:-1.373410,-0.138420,0.128109,0.000002,0.010271,-2.686487:0.100000,0.100000,0.100000,0.100000,0.100000,0.100000:pos_vel_
1553747069.162248,cobot_dynamixel_driver/goal|-:J1,J2,J3,J4,J5,J6:-1.373410,-0.138420,0.128109,0.000002,0.010271,-2.686487:0.100000,0.100000,0.100000,0.100000,0.100000,0.100000:pos_vel_
1553747069.273057,cobot_dynamixel_driver/goal|-:J1,J2,J3,J4,J5,J6:-1.410894,-0.117684,0.110259,0.000006,0.007386,-2.767741:0.100000,0.100000,0.100000,0.100000,0.100000,0.100000:pos_vel_
1553747069.355012,cobot_dynamixel_driver/goal|-:J1,J2,J3,J4,J5,J6:-1.410894,-0.117684,0.110259,0.000006,0.007386,-2.767741:0.100000,0.100000,0.100000,0.100000,0.100000,0.100000:pos_vel_
1553747069.465936,cobot_dynamixel_driver/goal|-:J1,J2,J3,J4,J5,J6:-1.410894,-0.117684,0.110259,0.000006,0.007386,-2.767741:0.100000,0.100000,0.100000,0.100000,0.100000,0.100000:pos_vel_
1553747069.575842,cobot_dynamixel_driver/goal|-:J1,J2,J3,J4,J5,J6:-1.410894,-0.117684,0.110259,0.000006,0.007386,-2.767741:0.100000,0.100000,0.100000,0.100000,0.100000,0.100000:pos_vel_
1553747069.657476,cobot_dynamixel_driver/goal|-:J1,J2,J3,J4,J5,J6:-1.446454,-0.095917,0.091020,0.000010,0.004858,-2.847071:0.100000,0.100000,0.100000,0.100000,0.100000,0.100000:pos_vel_
1553747069.766561,cobot_dynamixel_driver/goal|-:J1,J2,J3,J4,J5,J6:-1.446454,-0.095917,0.091020,0.000010,0.004858,-2.847071:0.100000,0.100000,0.100000,0.100000,0.100000,0.100000:pos_vel_
1553747069.875342,cobot_dynamixel_driver/goal|-:J1,J2,J3,J4,J5,J6:-1.446454,-0.095917,0.091020,0.000010,0.004858,-2.847071:0.100000,0.100000,0.100000,0.100000,0.100000,0.100000:pos_vel_
1553747069.957401,cobot_dynamixel_driver/goal|-:J1,J2,J3,J4,J5,J6:-1.446454,-0.095917,0.091020,0.000010,0.004858,-2.847071:0.100000,0.100000,0.100000,0.100000,0.100000,0.100000:pos_vel_
1553747070.066099,cobot_dynamixel_driver/goal|-:J1,J2,J3,J4,J5,J6:-1.480151,-0.073198,0.070392,0.000014,0.002767,-2.924538:0.100000,0.100000,0.100000,0.100000,0.100000,0.100000:pos_vel_
1553747070.176293,cobot_dynamixel_driver/goal|-:J1,J2,J3,J4,J5,J6:-1.480151,-0.073198,0.070392,0.000014,0.002767,-2.924538:0.100000,0.100000,0.100000,0.100000,0.100000,0.100000:pos_vel_
1553747070.260061,cobot_dynamixel_driver/goal|-:J1,J2,J3,J4,J5,J6:-1.480151,-0.073198,0.070392,0.000014,0.002767,-2.924538:0.100000,0.100000,0.100000,0.100000,0.100000,0.100000:pos_vel_
1553747070.370043,cobot_dynamixel_driver/goal|-:J1,J2,J3,J4,J5,J6:-1.480151,-0.073198,0.070392,0.000014,0.002767,-2.924538:0.100000,0.100000,0.100000,0.100000,0.100000,0.100000:pos_vel_
1553747070.478912,cobot_dynamixel_driver/goal|-:J1,J2,J3,J4,J5,J6:-1.512056,-0.049601,0.048375,0.000017,0.001188,-3.000213:0.100000,0.100000,0.100000,0.100000,0.100000,0.100000:pos_vel_
1553747070.560948,cobot_dynamixel_driver/goal|-:J1,J2,J3,J4,J5,J6:-1.512056,-0.049601,0.048375,0.000017,0.001188,-3.000213:0.100000,0.100000,0.100000,0.100000,0.100000,0.100000:pos_vel_
1553747070.670839,cobot_dynamixel_driver/goal|-:J1,J2,J3,J4,J5,J6:-1.512056,-0.049601,0.048375,0.000017,0.001188,-3.000213:0.100000,0.100000,0.100000,0.100000,0.100000,0.100000:pos_vel_
1553747070.779741,cobot_dynamixel_driver/goal|-:J1,J2,J3,J4,J5,J6:-1.512056,-0.049601,0.048375,0.000017,0.001188,-3.000213:0.100000,0.100000,0.100000,0.100000,0.100000,0.100000:pos_vel_
1553747070.861617,cobot_dynamixel_driver/goal|-:J1,J2,J3,J4,J5,J6:-1.542250,-0.025191,0.024962,0.000021,0.000192,-3.074177:0.100000,0.100000,0.100000,0.100000,0.100000,0.100000:pos_vel_
1553747070.970448,cobot_dynamixel_driver/goal|-:J1,J2,J3,J4,J5,J6:-1.542250,-0.025191,0.024962,0.000021,0.000192,-3.074177:0.100000,0.100000,0.100000,0.100000,0.100000,0.100000:pos_vel_
1553747071.080218,cobot_dynamixel_driver/goal|-:J1,J2,J3,J4,J5,J6:-1.542250,-0.025191,0.024962,0.000021,0.000192,-3.074177:0.100000,0.100000,0.100000,0.100000,0.100000,0.100000:pos_vel_
1553747071.162254,cobot_dynamixel_driver/goal|-:J1,J2,J3,J4,J5,J6:-1.570815,-0.000025,0.000145,0.000024,-0.000155,-3.146511:0.100000,0.100000,0.100000,0.100000,0.100000,0.100000:pos_vel_
1553747071.271183,cobot_dynamixel_driver/goal|-:J1,J2,J3,J4,J5,J6:-1.570815,-0.000025,0.000145,0.000024,-0.000155,-3.146511:0.100000,0.100000,0.100000,0.100000,0.100000,0.100000:pos_vel_
1553747071.380040,cobot_dynamixel_driver/goal|-:J1,J2,J3,J4,J5,J6:-1.570815,-0.000025,0.000145,0.000024,-0.000155,-3.146511:0.100000,0.100000,0.100000,0.100000,0.100000,0.100000:pos_vel_
1553747071.460773,cobot_dynamixel_driver/goal|-:J1,J2,J3,J4,J5,J6:-1.570815,-0.000025,0.000145,0.000024,-0.000155,-3.146511:0.100000,0.100000,0.100000,0.100000,0.100000,0.100000:pos_vel_
1553747081.277559,cobot_dynamixel_driver/goal|-:J1,J2,J3,J4,J5,J6:-1.530492,-0.023587,0.030144,-0.000027,0.000270,-1.591075:0.100000,0.100000,0.100000,0.100000,0.100000,0.100000:pos_vel_
1553747081.277559,cobot_dynamixel_driver/goal|-:J1,J2,J3,J4,J5,J6:-1.530492,-0.023587,0.030144,-0.000027,0.000270,-1.591075:0.100000,0.100000,0.100000,0.100000,0.100000,0.100000:pos_vel_
1553747081.689197,cobot_dynamixel_driver/goal|-:J1,J2,J3,J4,J5,J6:-1.500330,-0.047741,0.053164,0.000114,0.001210,-1.559173:0.100000,0.100000,0.100000,0.100000,0.100000,0.100000:pos_vel_
1553747081.772349,cobot_dynamixel_driver/goal|-:J1,J2,J3,J4,J5,J6:-1.468477,-0.071080,0.074802,0.000254,0.002714,-1.525588:0.100000,0.100000,0.100000,0.100000,0.100000,0.100000:pos_vel_
1553747081.881196,cobot_dynamixel_driver/goal|-:J1,J2,J3,J4,J5,J6:-1.468477,-0.071080,0.074802,0.000254,0.002714,-1.525588:0.100000,0.100000,0.100000,0.100000,0.100000,0.100000:pos_vel_
1553747081.964110,cobot_dynamixel_driver/goal|-:J1,J2,J3,J4,J5,J6:-1.468477,-0.071080,0.074802,0.000254,0.002714,-1.525588:0.100000,0.100000,0.100000,0.100000,0.100000,0.100000:pos_vel_
1553747082.073997,cobot_dynamixel_driver/goal|-:J1,J2,J3,J4,J5,J6:-1.468477,-0.071080,0.074802,0.000254,0.002714,-1.525588:0.100000,0.100000,0.100000,0.100000,0.100000,0.100000:pos_vel_
1553747082.155844,cobot_dynamixel_driver/goal|-:J1,J2,J3,J4,J5,J6:-1.434861,-0.093544,0.095063,0.000392,0.004717,-1.490238:0.100000,0.100000,0.100000,0.100000,0.100000,0.100000:pos_vel_
1553747082.264750,cobot_dynamixel_driver/goal|-:J1,J2,J3,J4,J5,J6:-1.434861,-0.093544,0.095063,0.000392,0.004717,-1.490238:0.100000,0.100000,0.100000,0.100000,0.100000,0.100000:pos_vel_
1553747082.373910,cobot_dynamixel_driver/goal|-:J1,J2,J3,J4,J5,J6:-1.434861,-0.093544,0.095063,0.000392,0.004717,-1.490238:0.100000,0.100000,0.100000,0.100000,0.100000,0.100000:pos_vel_
1553747082.456536,cobot_dynamixel_driver/goal|-:J1,J2,J3,J4,J5,J6:-1.399414,-0.115059,0.113949,0.000528,0.007145,-1.453057:0.100000,0.100000,0.100000,0.100000,0.100000,0.100000:pos_vel_
1553747082.565457,cobot_dynamixel_driver/goal|-:J1,J2,J3,J4,J5,J6:-1.399414,-0.115059,0.113949,0.000528,0.007145,-1.453057:0.100000,0.100000,0.100000,0.100000,0.100000,0.100000:pos_vel_
1553747082.675500,cobot_dynamixel_driver/goal|-:J1,J2,J3,J4,J5,J6:-1.399414,-0.115059,0.113949,0.000528,0.007145,-1.453057:0.100000,0.100000,0.100000,0.100000,0.100000,0.100000:pos_vel_
1553747082.757360,cobot_dynamixel_driver/goal|-:J1,J2,J3,J4,J5,J6:-1.362079,-0.135545,0.131456,0.000661,0.009920,-1.413987:0.100000,0.100000,0.100000,0.100000,0.100000,0.100000:pos_vel_
1553747082.866287,cobot_dynamixel_driver/goal|-:J1,J2,J3,J4,J5,J6:-1.362079,-0.135545,0.131456,0.000661,0.009920,-1.413987:0.100000,0.100000,0.100000,0.100000,0.100000,0.100000:pos_vel_
1553747082.975201,cobot_dynamixel_driver/goal|-:J1,J2,J3,J4,J5,J6:-1.362079,-0.135545,0.131456,0.000661,0.009920,-1.413987:0.100000,0.100000,0.100000,0.100000,0.100000,0.100000:pos_vel_
1553747083.057168,cobot_dynamixel_driver/goal|-:J1,J2,J3,J4,J5,J6:-1.322813,-0.154915,0.147583,0.000790,0.012955,-1.372985:0.100000,0.100000,0.100000,0.100000,0.100000,0.100000:pos_vel_
1553747083.165983,cobot_dynamixel_driver/goal|-:J1,J2,J3,J4,J5,J6:-1.322813,-0.154915,0.147583,0.000790,0.012955,-1.372985:0.100000,0.100000,0.100000,0.100000,0.100000,0.100000:pos_vel_
1553747083.276806,cobot_dynamixel_driver/goal|-:J1,J2,J3,J4,J5,J6:-1.322813,-0.154915,0.147583,0.000790,0.012955,-1.372985:0.100000,0.100000,0.100000,0.100000,0.100000,0.100000:pos_vel_
1553747083.358934,cobot_dynamixel_driver/goal|-:J1,J2,J3,J4,J5,J6:-1.322813,-0.154915,0.147583,0.000790,0.012955,-1.372985:0.100000,0.100000,0.100000,0.100000,0.100000,0.100000:pos_vel_
1553747083.467753,cobot_dynamixel_driver/goal|-:J1,J2,J3,J4,J5,J6:-1.281594,-0.173075,0.162324,0.000915,0.016165,-1.330029:0.100000,0.100000,0.100000,0.100000,0.100000,0.100000:pos_vel_
1553747083.576576,cobot_dynamixel_driver/goal|-:J1,J2,J3,J4,J5,J6:-1.281594,-0.173075,0.162324,0.000915,0.016165,-1.330029:0.100000,0.100000,0.100000,0.100000,0.100000,0.100000:pos_vel_
1553747083.658547,cobot_dynamixel_driver/goal|-:J1,J2,J3,J4,J5,J6:-1.281594,-0.173075,0.162324,0.000915,0.016165,-1.330029:0.100000,0.100000,0.100000,0.100000,0.100000,0.100000:pos_vel_
1553747083.767495,cobot_dynamixel_driver/goal|-:J1,J2,J3,J4,J5,J6:-1.281594,-0.173075,0.162324,0.000915,0.016165,-1.330029:0.100000,0.100000,0.100000,0.100000,0.100000,0.100000:pos_vel_
1553747083.876367,cobot_dynamixel_driver/goal|-:J1,J2,J3,J4,J5,J6:-1.238422,-0.189925,0.175672,0.001033,0.019455,-1.285119:0.100000,0.100000,0.100000,0.100000,0.100000,0.100000:pos_vel_
1553747083.957895,cobot_dynamixel_driver/goal|-:J1,J2,J3,J4,J5,J6:-1.238422,-0.189925,0.175672,0.001033,0.019455,-1.285119:0.100000,0.100000,0.100000,0.100000,0.100000,0.100000:pos_vel_
1553747084.066323,cobot_dynamixel_driver/goal|-:J1,J2,J3,J4,J5,J6:-1.238422,-0.189925,0.175672,0.001033,0.019455,-1.285119:0.100000,0.100000,0.100000,0.100000,0.100000,0.100000:pos_vel_
1553747084.176059,cobot_dynamixel_driver/goal|-:J1,J2,J3,J4,J5,J6:-1.238422,-0.189925,0.175672,0.001033,0.019455,-1.285119:0.100000,0.100000,0.100000,0.100000,0.100000,0.100000:pos_vel_
1553747084.257861,cobot_dynamixel_driver/goal|-:J1,J2,J3,J4,J5,J6:-1.193329,-0.205366,0.187620,0.001145,0.022734,-1.238287:0.100000,0.100000,0.100000,0.100000,0.100000,0.100000:pos_vel_
1553747084.366844,cobot_dynamixel_driver/goal|-:J1,J2,J3,J4,J5,J6:-1.193329,-0.205366,0.187620,0.001145,0.022734,-1.238287:0.100000,0.100000,0.100000,0.100000,0.100000,0.100000:pos_vel_
1553747084.477828,cobot_dynamixel_driver/goal|-:J1,J2,J3,J4,J5,J6:-1.193329,-0.205366,0.187620,0.001145,0.022734,-1.238287:0.100000,0.100000,0.100000,0.100000,0.100000,0.100000:pos_vel_
1553747084.559805,cobot_dynamixel_driver/goal|-:J1,J2,J3,J4,J5,J6:-1.193329,-0.205366,0.187620,0.001145,0.022734,-1.238287:0.100000,0.100000,0.100000,0.100000,0.100000,0.100000:pos_vel_
1553747084.668801,cobot_dynamixel_driver/goal|-:J1,J2,J3,J4,J5,J6:-1.193329,-0.205366,0.187620,0.001145,0.022734,-1.238287:0.100000,0.100000,0.100000,0.100000,0.100000,0.100000:pos_vel_
1553747084.778585,cobot_dynamixel_driver/goal|-:J1,J2,J3,J4,J5,J6:-1.146377,-0.219294,0.198161,0.001248,0.025906,-1.189597:0.100000,0.100000,0.100000,0.100000,0.100000,0.100000:pos_vel_
1553747084.860413,cobot_dynamixel_driver/goal|-:J1,J2,J3,J4,J5,J6:-1.146377,-0.219294,0.198161,0.001248,0.025906,-1.189597:0.100000,0.100000,0.100000,0.100000,0.100000,0.100000:pos_vel_
1553747084.969352,cobot_dynamixel_driver/goal|-:J1,J2,J3,J4,J5,J6:-1.146377,-0.219294,0.198161,0.001248,0.025906,-1.189597:0.100000,0.100000,0.100000,0.100000,0.100000,0.100000:pos_vel_
1553747085.079316,cobot_dynamixel_driver/goal|-:J1,J2,J3,J4,J5,J6:-1.146377,-0.219294,0.198161,0.001248,0.025906,-1.189597:0.100000,0.100000,0.100000,0.100000,0.100000,0.100000:pos_vel_
1553747085.163230,cobot_dynamixel_driver/goal|-:J1,J2,J3,J4,J5,J6:-1.146377,-0.219294,0.198161,0.001248,0.025906,-1.189597:0.100000,0.100000,0.100000,0.100000,0.100000,0.100000:pos_vel_
1553747085.271836,cobot_dynamixel_driver/goal|-:J1,J2,J3,J4,J5,J6:-1.097670,-0.231610,0.207288,0.001341,0.028880,-1.139150:0.100000,0.100000,0.100000,0.100000,0.100000,0.100000:pos_vel_
1553747085.380943,cobot_dynamixel_driver/goal|-:J1,J2,J3,J4,J5,J6:-1.097670,-0.231610,0.207288,0.001341,0.028880,-1.139150:0.100000,0.100000,0.100000,0.100000,0.100000,0.100000:pos_vel_
1553747085.463886,cobot_dynamixel_driver/goal|-:J1,J2,J3,J4,J5,J6:-1.097670,-0.231610,0.207288,0.001341,0.028880,-1.139150:0.100000,0.100000,0.100000,0.100000,0.100000,0.100000:pos_vel_
1553747085.572849,cobot_dynamixel_driver/goal|-:J1,J2,J3,J4,J5,J6:-1.097670,-0.231610,0.207288,0.001341,0.028880,-1.139150:0.100000,0.100000,0.100000,0.100000,0.100000,0.100000:pos_vel_
1553747085.655840,cobot_dynamixel_driver/goal|-:J1,J2,J3,J4,J5,J6:-1.097670,-0.231610,0.207288,0.001341,0.028880,-1.139150:0.100000,0.100000,0.100000,0.100000,0.100000,0.100000:pos_vel_
1553747085.764778,cobot_dynamixel_driver/goal|-:J1,J2,J3,J4,J5,J6:-1.047350,-0.242217,0.214993,0.001424,0.031568,-1.087092:0.100000,0.100000,0.100000,0.100000,0.100000,0.100000:pos_vel_
1553747085.873633,cobot_dynamixel_driver/goal|-:J1,J2,J3,J4,J5,J6:-1.047350,-0.242217,0.214993,0.001424,0.031568,-1.087092:0.100000,0.100000,0.100000,0.100000,0.100000,0.100000:pos_vel_
1553747085.955376,cobot_dynamixel_driver/goal|-:J1,J2,J3,J4,J5,J6:-1.047350,-0.242217,0.214993,0.001424,0.031568,-1.087092:0.100000,0.100000,0.100000,0.100000,0.100000,0.100000:pos_vel_
1553747086.064382,cobot_dynamixel_driver/goal|-:J1,J2,J3,J4,J5,J6:-1.047350,-0.242217,0.214993,0.001424,0.031568,-1.087092:0.100000,0.100000,0.100000,0.100000,0.100000,0.100000:pos_vel_
1553747086.173412,cobot_dynamixel_driver/goal|-:J1,J2,J3,J4,J5,J6:-1.047350,-0.242217,0.214993,0.001424,0.031568,-1.087092:0.100000,0.100000,0.100000,0.100000,0.100000,0.100000:pos_vel_
1553747086.255272,cobot_dynamixel_driver/goal|-:J1,J2,J3,J4,J5,J6:-0.995603,-0.251027,0.221269,0.001495,0.033889,-1.033607:0.100000,0.100000,0.100000,0.100000,0.100000,0.100000:pos_vel_
1553747086.364204,cobot_dynamixel_driver/goal|-:J1,J2,J3,J4,J5,J6:-0.995603,-0.251027,0.221269,0.001495,0.033889,-1.033607:0.100000,0.100000,0.100000,0.100000,0.100000,0.100000:pos_vel_
1553747086.473171,cobot_dynamixel_driver/goal|-:J1,J2,J3,J4,J5,J6:-0.995603,-0.251027,0.221269,0.001495,0.033889,-1.033607:0.100000,0.100000,0.100000,0.100000,0.100000,0.100000:pos_vel_
1553747086.555934,cobot_dynamixel_driver/goal|-:J1,J2,J3,J4,J5,J6:-0.995603,-0.251027,0.221269,0.001495,0.033889,-1.033607:0.100000,0.100000,0.100000,0.100000,0.100000,0.100000:pos_vel_
1553747086.665948,cobot_dynamixel_driver/goal|-:J1,J2,J3,J4,J5,J6:-0.995603,-0.251027,0.221269,0.001495,0.033889,-1.033607:0.100000,0.100000,0.100000,0.100000,0.100000,0.100000:pos_vel_
1553747086.776814,cobot_dynamixel_driver/goal|-:J1,J2,J3,J4,J5,J6:-0.942655,-0.257963,0.226111,0.001552,0.035772,-0.978921:0.100000,0.100000,0.100000,0.100000,0.100000,0.100000:pos_vel_
1553747086.859682,cobot_dynamixel_driver/goal|-:J1,J2,J3,J4,J5,J6:-0.942655,-0.257963,0.226111,0.001552,0.035772,-0.978921:0.100000,0.100000,0.100000,0.100000,0.100000,0.100000:pos_vel_
1553747086.968622,cobot_dynamixel_driver/goal|-:J1,J2,J3,J4,J5,J6:-0.942655,-0.257963,0.226111,0.001552,0.035772,-0.978921:0.100000,0.100000,0.100000,0.100000,0.100000,0.100000:pos_vel_
1553747087.077627,cobot_dynamixel_driver/goal|-:J1,J2,J3,J4,J5,J6:-0.942655,-0.257963,0.226111,0.001552,0.035772,-0.978921:0.100000,0.100000,0.100000,0.100000,0.100000,0.100000:pos_vel_
1553747087.159492,cobot_dynamixel_driver/goal|-:J1,J2,J3,J4,J5,J6:-0.942655,-0.257963,0.226111,0.001552,0.035772,-0.978921:0.100000,0.100000,0.100000,0.100000,0.100000,0.100000:pos_vel_
1553747087.269384,cobot_dynamixel_driver/goal|-:J1,J2,J3,J4,J5,J6:-0.942655,-0.257963,0.226111,0.001552,0.035772,-0.978921:0.100000,0.100000,0.100000,0.100000,0.100000,0.100000:pos_vel_
1553747087.379184,cobot_dynamixel_driver/goal|-:J1,J2,J3,J4,J5,J6:-0.888769,-0.262959,0.229514,0.001594,0.037161,-0.923299:0.100000,0.100000,0.100000,0.100000,0.100000,0.100000:pos_vel_
1553747087.461178,cobot_dynamixel_driver/goal|-:J1,J2,J3,J4,J5,J6:-0.888769,-0.262959,0.229514,0.001594,0.037161,-0.923299:0.100000,0.100000,0.100000,0.100000,0.100000,0.100000:pos_vel_
1553747087.571084,cobot_dynamixel_driver/goal|-:J1,J2,J3,J4,J5,J6:-0.888769,-0.262959,0.229514,0.001594,0.037161,-0.923299:0.100000,0.100000,0.100000,0.100000,0.100000,0.100000:pos_vel_
1553747087.679989,cobot_dynamixel_driver/goal|-:J1,J2,J3,J4,J5,J6:-0.888769,-0.262959,0.229514,0.001594,0.037161,-0.923299:0.100000,0.100000,0.100000,0.100000,0.100000,0.100000:pos_vel_
1553747087.761868,cobot_dynamixel_driver/goal|-:J1,J2,J3,J4,J5,J6:-0.888769,-0.262959,0.229514,0.001594,0.037161,-0.923299:0.100000,0.100000,0.100000,0.100000,0.100000,0.100000:pos_vel_
1553747087.871848,cobot_dynamixel_driver/goal|-:J1,J2,J3,J4,J5,J6:-0.834240,-0.265970,0.231475,0.001622,0.038011,-0.867035:0.100000,0.100000,0.100000,0.100000,0.100000,0.100000:pos_vel_
1553747087.980655,cobot_dynamixel_driver/goal|-:J1,J2,J3,J4,J5,J6:-0.834240,-0.265970,0.231475,0.001622,0.038011,-0.867035:0.100000,0.100000,0.100000,0.100000,0.100000,0.100000:pos_vel_
1553747088.063561,cobot_dynamixel_driver/goal|-:J1,J2,J3,J4,J5,J6:-0.834240,-0.265970,0.231475,0.001622,0.038011,-0.867035:0.100000,0.100000,0.100000,0.100000,0.100000,0.100000:pos_vel_
1553747088.172556,cobot_dynamixel_driver/goal|-:J1,J2,J3,J4,J5,J6:-0.834240,-0.265970,0.231475,0.001622,0.038011,-0.867035:0.100000,0.100000,0.100000,0.100000,0.100000,0.100000:pos_vel_
1553747088.254454,cobot_dynamixel_driver/goal|-:J1,J2,J3,J4,J5,J6:-0.834240,-0.265970,0.231475,0.001622,0.038011,-0.867035:0.100000,0.100000,0.100000,0.100000,0.100000,0.100000:pos_vel_
1553747088.364367,cobot_dynamixel_driver/goal|-:J1,J2,J3,J4,J5,J6:-0.834240,-0.265970,0.231475,0.001622,0.038011,-0.867035:0.100000,0.100000,0.100000,0.100000,0.100000,0.100000:pos_vel_
1553747088.474255,cobot_dynamixel_driver/goal|-:J1,J2,J3,J4,J5,J6:-0.779385,-0.266964,0.231992,0.001634,0.038298,-0.810446:0.100000,0.100000,0.100000,0.100000,0.100000,0.100000:pos_vel_
1553747088.557209,cobot_dynamixel_driver/goal|-:J1,J2,J3,J4,J5,J6:-0.779385,-0.266964,0.231992,0.001634,0.038298,-0.810446:0.100000,0.100000,0.100000,0.100000,0.100000,0.100000:pos_vel_
1553747088.668103,cobot_dynamixel_driver/goal|-:J1,J2,J3,J4,J5,J6:-0.779385,-0.266964,0.231992,0.001634,0.038298,-0.810446:0.100000,0.100000,0.100000,0.100000,0.100000,0.100000:pos_vel_
1553747088.778939,cobot_dynamixel_driver/goal|-:J1,J2,J3,J4,J5,J6:-0.779385,-0.266964,0.231992,0.001634,0.038298,-0.810446:0.100000,0.100000,0.100000,0.100000,0.100000,0.100000:pos_vel_
1553747088.860780,cobot_dynamixel_driver/goal|-:J1,J2,J3,J4,J5,J6:-0.779385,-0.266964,0.231992,0.001634,0.038298,-0.810446:0.100000,0.100000,0.100000,0.100000,0.100000,0.100000:pos_vel_
1553747088.970665,cobot_dynamixel_driver/goal|-:J1,J2,J3,J4,J5,J6:-0.779385,-0.266964,0.231992,0.001634,0.038298,-0.810446:0.100000,0.100000,0.100000,0.100000,0.100000,0.100000:pos_vel_
1553747089.079695,cobot_dynamixel_driver/goal|-:J1,J2,J3,J4,J5,J6:-0.724532,-0.265933,0.231064,0.001631,0.038014,-0.753861:0.100000,0.100000,0.100000,0.100000,0.100000,0.100000:pos_vel_
1553747089.161612,cobot_dynamixel_driver/goal|-:J1,J2,J3,J4,J5,J6:-0.724532,-0.265933,0.231064,0.001631,0.038014,-0.753861:0.100000,0.100000,0.100000,0.100000,0.100000,0.100000:pos_vel_
1553747089.270618,cobot_dynamixel_driver/goal|-:J1,J2,J3,J4,J5,J6:-0.724532,-0.265933,0.231064,0.001631,0.038014,-0.753861:0.100000,0.100000,0.100000,0.100000,0.100000,0.100000:pos_vel_
1553747089.380259,cobot_dynamixel_driver/goal|-:J1,J2,J3,J4,J5,J6:-0.724532,-0.265933,0.231064,0.001631,0.038014,-0.753861:0.100000,0.100000,0.100000,0.100000,0.100000,0.100000:pos_vel_
1553747089.462297,cobot_dynamixel_driver/goal|-:J1,J2,J3,J4,J5,J6:-0.724532,-0.265933,0.231064,0.001631,0.038014,-0.753861:0.100000,0.100000,0.100000,0.100000,0.100000,0.100000:pos_vel_
1553747089.571162,cobot_dynamixel_driver/goal|-:J1,J2,J3,J4,J5,J6:-0.670008,-0.262887,0.228692,0.001612,0.037171,-0.697607:0.100000,0.100000,0.100000,0.100000,0.100000,0.100000:pos_vel_
1553747089.680085,cobot_dynamixel_driver/goal|-:J1,J2,J3,J4,J5,J6:-0.670008,-0.262887,0.228692,0.001612,0.037171,-0.697607:0.100000,0.100000,0.100000,0.100000,0.100000,0.100000:pos_vel_
1553747089.762037,cobot_dynamixel_driver/goal|-:J1,J2,J3,J4,J5,J6:-0.670008,-0.262887,0.228692,0.001612,0.037171,-0.697607:0.100000,0.100000,0.100000,0.100000,0.100000,0.100000:pos_vel_
1553747089.871869,cobot_dynamixel_driver/goal|-:J1,J2,J3,J4,J5,J6:-0.670008,-0.262887,0.228692,0.001612,0.037171,-0.697607:0.100000,0.100000,0.100000,0.100000,0.100000,0.100000:pos_vel_
1553747089.954956,cobot_dynamixel_driver/goal|-:J1,J2,J3,J4,J5,J6:-0.670008,-0.262887,0.228692,0.001612,0.037171,-0.697607:0.100000,0.100000,0.100000,0.100000,0.100000,0.100000:pos_vel_
1553747090.063691,cobot_dynamixel_driver/goal|-:J1,J2,J3,J4,J5,J6:-0.670008,-0.262887,0.228692,0.001612,0.037171,-0.697607:0.100000,0.100000,0.100000,0.100000,0.100000,0.100000:pos_vel_
1553747090.172611,cobot_dynamixel_driver/goal|-:J1,J2,J3,J4,J5,J6:-0.616131,-0.257856,0.224879,0.001578,0.035797,-0.642000:0.100000,0.100000,0.100000,0.100000,0.100000,0.100000:pos_vel_
1553747090.255702,cobot_dynamixel_driver/goal|-:J1,J2,J3,J4,J5,J6:-0.616131,-0.257856,0.224879,0.001578,0.035797,-0.642000:0.100000,0.100000,0.100000,0.100000,0.100000,0.100000:pos_vel_
1553747090.364541,cobot_dynamixel_driver/goal|-:J1,J2,J3,J4,J5,J6:-0.616131,-0.257856,0.224879,0.001578,0.035797,-0.642000:0.100000,0.100000,0.100000,0.100000,0.100000,0.100000:pos_vel_
1553747090.473544,cobot_dynamixel_driver/goal|-:J1,J2,J3,J4,J5,J6:-0.616131,-0.257856,0.224879,0.001578,0.035797,-0.642000:0.100000,0.100000,0.100000,0.100000,0.100000,0.100000:pos_vel_
1553747090.557318,cobot_dynamixel_driver/goal|-:J1,J2,J3,J4,J5,J6:-0.616131,-0.257856,0.224879,0.001578,0.035797,-0.642000:0.100000,0.100000,0.100000,0.100000,0.100000,0.100000:pos_vel_
1553747090.666237,cobot_dynamixel_driver/goal|-:J1,J2,J3,J4,J5,J6:-0.616131,-0.257856,0.224879,0.001578,0.035797,-0.642000:0.100000,0.100000,0.100000,0.100000,0.100000,0.100000:pos_vel_
1553747090.775132,cobot_dynamixel_driver/goal|-:J1,J2,J3,J4,J5,J6:-0.563195,-0.250889,0.219628,0.001530,0.033938,-0.587336:0.100000,0.100000,0.100000,0.100000,0.100000,0.100000:pos_vel_
1553747090.858083,cobot_dynamixel_driver/goal|-:J1,J2,J3,J4,J5,J6:-0.563195,-0.250889,0.219628,0.001530,0.033938,-0.587336:0.100000,0.100000,0.100000,0.100000,0.100000,0.100000:pos_vel_
1553747090.968017,cobot_dynamixel_driver/goal|-:J1,J2,J3,J4,J5,J6:-0.563195,-0.250889,0.219628,0.001530,0.033938,-0.587336:0.100000,0.100000,0.100000,0.100000,0.100000,0.100000:pos_vel_
1553747091.077943,cobot_dynamixel_driver/goal|-:J1,J2,J3,J4,J5,J6:-0.563195,-0.250889,0.219628,0.001530,0.033938,-0.587336:0.100000,0.100000,0.100000,0.100000,0.100000,0.100000:pos_vel_
1553747091.159804,cobot_dynamixel_driver/goal|-:J1,J2,J3,J4,J5,J6:-0.563195,-0.250889,0.219628,0.001530,0.033938,-0.587336:0.100000,0.100000,0.100000,0.100000,0.100000,0.100000:pos_vel_
1553747091.268820,cobot_dynamixel_driver/goal|-:J1,J2,J3,J4,J5,J6:-0.563195,-0.250889,0.219628,0.001530,0.033938,-0.587336:0.100000,0.100000,0.100000,0.100000,0.100000,0.100000:pos_vel_
1553747091.377709,cobot_dynamixel_driver/goal|-:J1,J2,J3,J4,J5,J6:-0.511462,-0.242050,0.212944,0.001468,0.031656,-0.533876:0.100000,0.100000,0.100000,0.100000,0.100000,0.100000:pos_vel_
1553747091.460586,cobot_dynamixel_driver/goal|-:J1,J2,J3,J4,J5,J6:-0.511462,-0.242050,0.212944,0.001468,0.031656,-0.533876:0.100000,0.100000,0.100000,0.100000,0.100000,0.100000:pos_vel_
1553747091.569634,cobot_dynamixel_driver/goal|-:J1,J2,J3,J4,J5,J6:-0.511462,-0.242050,0.212944,0.001468,0.031656,-0.533876:0.100000,0.100000,0.100000,0.100000,0.100000,0.100000:pos_vel_
1553747091.679358,cobot_dynamixel_driver/goal|-:J1,J2,J3,J4,J5,J6:-0.511462,-0.242050,0.212944,0.001468,0.031656,-0.533876:0.100000,0.100000,0.100000,0.100000,0.100000,0.100000:pos_vel_
1553747091.762308,cobot_dynamixel_driver/goal|-:J1,J2,J3,J4,J5,J6:-0.511462,-0.242050,0.212944,0.001468,0.031656,-0.533876:0.100000,0.100000,0.100000,0.100000,0.100000,0.100000:pos_vel_
1553747091.872427,cobot_dynamixel_driver/goal|-:J1,J2,J3,J4,J5,J6:-0.461159,-0.231417,0.204833,0.001394,0.029023,-0.481846:0.100000,0.100000,0.100000,0.100000,0.100000,0.100000:pos_vel_
1553747091.956220,cobot_dynamixel_driver/goal|-:J1,J2,J3,J4,J5,J6:-0.461159,-0.231417,0.204833,0.001394,0.029023,-0.481846:0.100000,0.100000,0.100000,0.100000,0.100000,0.100000:pos_vel_
1553747092.066099,cobot_dynamixel_driver/goal|-:J1,J2,J3,J4,J5,J6:-0.461159,-0.231417,0.204833,0.001394,0.029023,-0.481846:0.100000,0.100000,0.100000,0.100000,0.100000,0.100000:pos_vel_
1553747092.174980,cobot_dynamixel_driver/goal|-:J1,J2,J3,J4,J5,J6:-0.461159,-0.231417,0.204833,0.001394,0.029023,-0.481846:0.100000,0.100000,0.100000,0.100000,0.100000,0.100000:pos_vel_
1553747092.256799,cobot_dynamixel_driver/goal|-:J1,J2,J3,J4,J5,J6:-0.461159,-0.231417,0.204833,0.001394,0.029023,-0.481846:0.100000,0.100000,0.100000,0.100000,0.100000,0.100000:pos_vel_
1553747092.365676,cobot_dynamixel_driver/goal|-:J1,J2,J3,J4,J5,J6:-0.461159,-0.231417,0.204833,0.001394,0.029023,-0.481846:0.100000,0.100000,0.100000,0.100000,0.100000,0.100000:pos_vel_
1553747092.475679,cobot_dynamixel_driver/goal|-:J1,J2,J3,J4,J5,J6:-0.412470,-0.219079,0.195303,0.001310,0.026122,-0.431430:0.100000,0.100000,0.100000,0.100000,0.100000,0.100000:pos_vel_
1553747092.557671,cobot_dynamixel_driver/goal|-:J1,J2,J3,J4,J5,J6:-0.412470,-0.219079,0.195303,0.001310,0.026122,-0.431430:0.100000,0.100000,0.100000,0.100000,0.100000,0.100000:pos_vel_
1553747092.667627,cobot_dynamixel_driver/goal|-:J1,J2,J3,J4,J5,J6:-0.412470,-0.219079,0.195303,0.001310,0.026122,-0.431430:0.100000,0.100000,0.100000,0.100000,0.100000,0.100000:pos_vel_
1553747092.778554,cobot_dynamixel_driver/goal|-:J1,J2,J3,J4,J5,J6:-0.412470,-0.219079,0.195303,0.001310,0.026122,-0.431430:0.100000,0.100000,0.100000,0.100000,0.100000,0.100000:pos_vel_
1553747092.861398,cobot_dynamixel_driver/goal|-:J1,J2,J3,J4,J5,J6:-0.412470,-0.219079,0.195303,0.001310,0.026122,-0.431430:0.100000,0.100000,0.100000,0.100000,0.100000,0.100000:pos_vel_
1553747092.970381,cobot_dynamixel_driver/goal|-:J1,J2,J3,J4,J5,J6:-0.365538,-0.205132,0.184359,0.001216,0.023040,-0.382771:0.100000,0.100000,0.100000,0.100000,0.100000,0.100000:pos_vel_
1553747093.079129,cobot_dynamixel_driver/goal|-:J1,J2,J3,J4,J5,J6:-0.365538,-0.205132,0.184359,0.001216,0.023040,-0.382771:0.100000,0.100000,0.100000,0.100000,0.100000,0.100000:pos_vel_
1553747093.161961,cobot_dynamixel_driver/goal|-:J1,J2,J3,J4,J5,J6:-0.365538,-0.205132,0.184359,0.001216,0.023040,-0.382771:0.100000,0.100000,0.100000,0.100000,0.100000,0.100000:pos_vel_
1553747093.270873,cobot_dynamixel_driver/goal|-:J1,J2,J3,J4,J5,J6:-0.365538,-0.205132,0.184359,0.001216,0.023040,-0.382771:0.100000,0.100000,0.100000,0.100000,0.100000,0.100000:pos_vel_
1553747093.378966,cobot_dynamixel_driver/goal|-:J1,J2,J3,J4,J5,J6:-0.365538,-0.205132,0.184359,0.001216,0.023040,-0.382771:0.100000,0.100000,0.100000,0.100000,0.100000,0.100000:pos_vel_
1553747093.461750,cobot_dynamixel_driver/goal|-:J1,J2,J3,J4,J5,J6:-0.320465,-0.189677,0.172011,0.001115,0.019872,-0.335971:0.100000,0.100000,0.100000,0.100000,0.100000,0.100000:pos_vel_
1553747093.570702,cobot_dynamixel_driver/goal|-:J1,J2,J3,J4,J5,J6:-0.320465,-0.189677,0.172011,0.001115,0.019872,-0.335971:0.100000,0.100000,0.100000,0.100000,0.100000,0.100000:pos_vel_
1553747093.680655,cobot_dynamixel_driver/goal|-:J1,J2,J3,J4,J5,J6:-0.320465,-0.189677,0.172011,0.001115,0.019872,-0.335971:0.100000,0.100000,0.100000,0.100000,0.100000,0.100000:pos_vel_
1553747093.762702,cobot_dynamixel_driver/goal|-:J1,J2,J3,J4,J5,J6:-0.320465,-0.189677,0.172011,0.001115,0.019872,-0.335971:0.100000,0.100000,0.100000,0.100000,0.100000,0.100000:pos_vel_
1553747093.872321,cobot_dynamixel_driver/goal|-:J1,J2,J3,J4,J5,J6:-0.320465,-0.189677,0.172011,0.001115,0.019872,-0.335971:0.100000,0.100000,0.100000,0.100000,0.100000,0.100000:pos_vel_
1553747093.981388,cobot_dynamixel_driver/goal|-:J1,J2,J3,J4,J5,J6:-0.277314,-0.172815,0.158264,0.001006,0.016711,-0.291093:0.100000,0.100000,0.100000,0.100000,0.100000,0.100000:pos_vel_
1553747094.064179,cobot_dynamixel_driver/goal|-:J1,J2,J3,J4,J5,J6:-0.277314,-0.172815,0.158264,0.001006,0.016711,-0.291093:0.100000,0.100000,0.100000,0.100000,0.100000,0.100000:pos_vel_
1553747094.173067,cobot_dynamixel_driver/goal|-:J1,J2,J3,J4,J5,J6:-0.277314,-0.172815,0.158264,0.001006,0.016711,-0.291093:0.100000,0.100000,0.100000,0.100000,0.100000,0.100000:pos_vel_
1553747094.256058,cobot_dynamixel_driver/goal|-:J1,J2,J3,J4,J5,J6:-0.277314,-0.172815,0.158264,0.001006,0.016711,-0.291093:0.100000,0.100000,0.100000,0.100000,0.100000,0.100000:pos_vel_
1553747094.364922,cobot_dynamixel_driver/goal|-:J1,J2,J3,J4,J5,J6:-0.277314,-0.172815,0.158264,0.001006,0.016711,-0.291093:0.100000,0.100000,0.100000,0.100000,0.100000,0.100000:pos_vel_
1553747094.473766,cobot_dynamixel_driver/goal|-:J1,J2,J3,J4,J5,J6:-0.236116,-0.154647,0.143127,0.000892,0.013651,-0.248167:0.100000,0.100000,0.100000,0.100000,0.100000,0.100000:pos_vel_
1553747094.555738,cobot_dynamixel_driver/goal|-:J1,J2,J3,J4,J5,J6:-0.236116,-0.154647,0.143127,0.000892,0.013651,-0.248167:0.100000,0.100000,0.100000,0.100000,0.100000,0.100000:pos_vel_
1553747094.664704,cobot_dynamixel_driver/goal|-:J1,J2,J3,J4,J5,J6:-0.236116,-0.154647,0.143127,0.000892,0.013651,-0.248167:0.100000,0.100000,0.100000,0.100000,0.100000,0.100000:pos_vel_
1553747094.774605,cobot_dynamixel_driver/goal|-:J1,J2,J3,J4,J5,J6:-0.236116,-0.154647,0.143127,0.000892,0.013651,-0.248167:0.100000,0.100000,0.100000,0.100000,0.100000,0.100000:pos_vel_
1553747094.856587,cobot_dynamixel_driver/goal|-:J1,J2,J3,J4,J5,J6:-0.196871,-0.135271,0.126605,0.000773,0.010782,-0.207193:0.100000,0.100000,0.100000,0.100000,0.100000,0.100000:pos_vel_
1553747094.965380,cobot_dynamixel_driver/goal|-:J1,J2,J3,J4,J5,J6:-0.196871,-0.135271,0.126605,0.000773,0.010782,-0.207193:0.100000,0.100000,0.100000,0.100000,0.100000,0.100000:pos_vel_
1553747095.075202,cobot_dynamixel_driver/goal|-:J1,J2,J3,J4,J5,J6:-0.196871,-0.135271,0.126605,0.000773,0.010782,-0.207193:0.100000,0.100000,0.100000,0.100000,0.100000,0.100000:pos_vel_
1553747095.157211,cobot_dynamixel_driver/goal|-:J1,J2,J3,J4,J5,J6:-0.196871,-0.135271,0.126605,0.000773,0.010782,-0.207193:0.100000,0.100000,0.100000,0.100000,0.100000,0.100000:pos_vel_
1553747095.266113,cobot_dynamixel_driver/goal|-:J1,J2,J3,J4,J5,J6:-0.159557,-0.114781,0.108702,0.000651,0.008193,-0.168149:0.100000,0.100000,0.100000,0.100000,0.100000,0.100000:pos_vel_
1553747095.375906,cobot_dynamixel_driver/goal|-:J1,J2,J3,J4,J5,J6:-0.159557,-0.114781,0.108702,0.000651,0.008193,-0.168149:0.100000,0.100000,0.100000,0.100000,0.100000,0.100000:pos_vel_
1553747095.458957,cobot_dynamixel_driver/goal|-:J1,J2,J3,J4,J5,J6:-0.159557,-0.114781,0.108702,0.000651,0.008193,-0.168149:0.100000,0.100000,0.100000,0.100000,0.100000,0.100000:pos_vel_
1553747095.567770,cobot_dynamixel_driver/goal|-:J1,J2,J3,J4,J5,J6:-0.159557,-0.114781,0.108702,0.000651,0.008193,-0.168149:0.100000,0.100000,0.100000,0.100000,0.100000,0.100000:pos_vel_
1553747095.676530,cobot_dynamixel_driver/goal|-:J1,J2,J3,J4,J5,J6:-0.124130,-0.093262,0.089423,0.000526,0.005966,-0.130992:0.100000,0.100000,0.100000,0.100000,0.100000,0.100000:pos_vel_
1553747095.758609,cobot_dynamixel_driver/goal|-:J1,J2,J3,J4,J5,J6:-0.124130,-0.093262,0.089423,0.000526,0.005966,-0.130992:0.100000,0.100000,0.100000,0.100000,0.100000,0.100000:pos_vel_
1553747095.867320,cobot_dynamixel_driver/goal|-:J1,J2,J3,J4,J5,J6:-0.124130,-0.093262,0.089423,0.000526,0.005966,-0.130992:0.100000,0.100000,0.100000,0.100000,0.100000,0.100000:pos_vel_
1553747095.976152,cobot_dynamixel_driver/goal|-:J1,J2,J3,J4,J5,J6:-0.124130,-0.093262,0.089423,0.000526,0.005966,-0.130992:0.100000,0.100000,0.100000,0.100000,0.100000,0.100000:pos_vel_
1553747096.059320,cobot_dynamixel_driver/goal|-:J1,J2,J3,J4,J5,J6:-0.090533,-0.070795,0.068767,0.000400,0.004180,-0.095664:0.100000,0.100000,0.100000,0.100000,0.100000,0.100000:pos_vel_
1553747096.169309,cobot_dynamixel_driver/goal|-:J1,J2,J3,J4,J5,J6:-0.090533,-0.070795,0.068767,0.000400,0.004180,-0.095664:0.100000,0.100000,0.100000,0.100000,0.100000,0.100000:pos_vel_
1553747096.278188,cobot_dynamixel_driver/goal|-:J1,J2,J3,J4,J5,J6:-0.090533,-0.070795,0.068767,0.000400,0.004180,-0.095664:0.100000,0.100000,0.100000,0.100000,0.100000,0.100000:pos_vel_
1553747096.361062,cobot_dynamixel_driver/goal|-:J1,J2,J3,J4,J5,J6:-0.090533,-0.070795,0.068767,0.000400,0.004180,-0.095664:0.100000,0.100000,0.100000,0.100000,0.100000,0.100000:pos_vel_
1553747096.470789,cobot_dynamixel_driver/goal|-:J1,J2,J3,J4,J5,J6:-0.058699,-0.047451,0.046732,0.000272,0.002908,-0.062098:0.100000,0.100000,0.100000,0.100000,0.100000,0.100000:pos_vel_
1553747096.579863,cobot_dynamixel_driver/goal|-:J1,J2,J3,J4,J5,J6:-0.058699,-0.047451,0.046732,0.000272,0.002908,-0.062098:0.100000,0.100000,0.100000,0.100000,0.100000,0.100000:pos_vel_
1553747096.662740,cobot_dynamixel_driver/goal|-:J1,J2,J3,J4,J5,J6:-0.058699,-0.047451,0.046732,0.000272,0.002908,-0.062098:0.100000,0.100000,0.100000,0.100000,0.100000,0.100000:pos_vel_
1553747096.771842,cobot_dynamixel_driver/goal|-:J1,J2,J3,J4,J5,J6:-0.058699,-0.047451,0.046732,0.000272,0.002908,-0.062098:0.100000,0.100000,0.100000,0.100000,0.100000,0.100000:pos_vel_
1553747096.856567,cobot_dynamixel_driver/goal|-:J1,J2,J3,J4,J5,J6:-0.028551,-0.023295,0.023314,0.000143,0.002218,-0.030218:0.100000,0.100000,0.100000,0.100000,0.100000,0.100000:pos_vel_
1553747096.965378,cobot_dynamixel_driver/goal|-:J1,J2,J3,J4,J5,J6:-0.028551,-0.023295,0.023314,0.000143,0.002218,-0.030218:0.100000,0.100000,0.100000,0.100000,0.100000,0.100000:pos_vel_
1553747097.075359,cobot_dynamixel_driver/goal|-:J1,J2,J3,J4,J5,J6:-0.028551,-0.023295,0.023314,0.000143,0.002218,-0.030218:0.100000,0.100000,0.100000,0.100000,0.100000,0.100000:pos_vel_
1553747097.157410,cobot_dynamixel_driver/goal|-:J1,J2,J3,J4,J5,J6:-0.000011,0.001619,-0.001499,0.000014,0.002173,0.000055:0.100000,0.100000,0.100000,0.100000,0.100000,0.100000:pos_vel_
1553747097.267187,cobot_dynamixel_driver/goal|-:J1,J2,J3,J4,J5,J6:-0.000011,0.001619,-0.001499,0.000014,0.002173,0.000055:0.100000,0.100000,0.100000,0.100000,0.100000,0.100000:pos_vel_
1553747097.377182,cobot_dynamixel_driver/goal|-:J1,J2,J3,J4,J5,J6:-0.000011,0.001619,-0.001499,0.000014,0.002173,0.000055:0.100000,0.100000,0.100000,0.100000,0.100000,0.100000:pos_vel_
1553747098.181069,cobot_dynamixel_driver/goal|-:J1,J2,J3,J4,J5,J6:-0.053629,-0.020257,0.020117,0.000036,0.002484,-0.084662:0.100000,0.100000,0.100000,0.100000,0.100000,0.100000:pos_vel_
1553747098.592214,cobot_dynamixel_driver/goal|-:J1,J2,J3,J4,J5,J6:-0.053629,-0.020257,0.020117,0.000036,0.002484,-0.084662:0.100000,0.100000,0.100000,0.100000,0.100000,0.100000:pos_vel_
1553747098.676007,cobot_dynamixel_driver/goal|-:J1,J2,J3,J4,J5,J6:-0.084470,-0.044834,0.043820,-0.000089,0.003300,-0.160927:0.100000,0.100000,0.100000,0.100000,0.100000,0.100000:pos_vel_
1553747098.757916,cobot_dynamixel_driver/goal|-:J1,J2,J3,J4,J5,J6:-0.117059,-0.068552,0.066078,-0.000211,0.004696,-0.238948:0.100000,0.100000,0.100000,0.100000,0.100000,0.100000:pos_vel_
1553747098.868754,cobot_dynamixel_driver/goal|-:J1,J2,J3,J4,J5,J6:-0.117059,-0.068552,0.066078,-0.000211,0.004696,-0.238948:0.100000,0.100000,0.100000,0.100000,0.100000,0.100000:pos_vel_
1553747098.977758,cobot_dynamixel_driver/goal|-:J1,J2,J3,J4,J5,J6:-0.117059,-0.068552,0.066078,-0.000211,0.004696,-0.238948:0.100000,0.100000,0.100000,0.100000,0.100000,0.100000:pos_vel_
1553747099.059664,cobot_dynamixel_driver/goal|-:J1,J2,J3,J4,J5,J6:-0.117059,-0.068552,0.066078,-0.000211,0.004696,-0.238948:0.100000,0.100000,0.100000,0.100000,0.100000,0.100000:pos_vel_
1553747099.169643,cobot_dynamixel_driver/goal|-:J1,J2,J3,J4,J5,J6:-0.151479,-0.091348,0.086894,-0.000331,0.006604,-0.318800:0.100000,0.100000,0.100000,0.100000,0.100000,0.100000:pos_vel_
1553747099.279491,cobot_dynamixel_driver/goal|-:J1,J2,J3,J4,J5,J6:-0.151479,-0.091348,0.086894,-0.000331,0.006604,-0.318800:0.100000,0.100000,0.100000,0.100000,0.100000,0.100000:pos_vel_
1553747099.361367,cobot_dynamixel_driver/goal|-:J1,J2,J3,J4,J5,J6:-0.151479,-0.091348,0.086894,-0.000331,0.006604,-0.318800:0.100000,0.100000,0.100000,0.100000,0.100000,0.100000:pos_vel_
1553747099.472292,cobot_dynamixel_driver/goal|-:J1,J2,J3,J4,J5,J6:-0.187798,-0.113145,0.106271,-0.000446,0.008942,-0.400553:0.100000,0.100000,0.100000,0.100000,0.100000,0.100000:pos_vel_
1553747099.555069,cobot_dynamixel_driver/goal|-:J1,J2,J3,J4,J5,J6:-0.187798,-0.113145,0.106271,-0.000446,0.008942,-0.400553:0.100000,0.100000,0.100000,0.100000,0.100000,0.100000:pos_vel_
1553747099.664116,cobot_dynamixel_driver/goal|-:J1,J2,J3,J4,J5,J6:-0.187798,-0.113145,0.106271,-0.000446,0.008942,-0.400553:0.100000,0.100000,0.100000,0.100000,0.100000,0.100000:pos_vel_
1553747099.773170,cobot_dynamixel_driver/goal|-:J1,J2,J3,J4,J5,J6:-0.226076,-0.133858,0.124208,-0.000557,0.011629,-0.484265:0.100000,0.100000,0.100000,0.100000,0.100000,0.100000:pos_vel_
1553747099.856920,cobot_dynamixel_driver/goal|-:J1,J2,J3,J4,J5,J6:-0.226076,-0.133858,0.124208,-0.000557,0.011629,-0.484265:0.100000,0.100000,0.100000,0.100000,0.100000,0.100000:pos_vel_
1553747099.965868,cobot_dynamixel_driver/goal|-:J1,J2,J3,J4,J5,J6:-0.226076,-0.133858,0.124208,-0.000557,0.011629,-0.484265:0.100000,0.100000,0.100000,0.100000,0.100000,0.100000:pos_vel_
1553747100.074724,cobot_dynamixel_driver/goal|-:J1,J2,J3,J4,J5,J6:-0.226076,-0.133858,0.124208,-0.000557,0.011629,-0.484265:0.100000,0.100000,0.100000,0.100000,0.100000,0.100000:pos_vel_
1553747100.157516,cobot_dynamixel_driver/goal|-:J1,J2,J3,J4,J5,J6:-0.266353,-0.153392,0.140702,-0.000662,0.014573,-0.569976:0.100000,0.100000,0.100000,0.100000,0.100000,0.100000:pos_vel_
1553747100.266438,cobot_dynamixel_driver/goal|-:J1,J2,J3,J4,J5,J6:-0.266353,-0.153392,0.140702,-0.000662,0.014573,-0.569976:0.100000,0.100000,0.100000,0.100000,0.100000,0.100000:pos_vel_
1553747100.375287,cobot_dynamixel_driver/goal|-:J1,J2,J3,J4,J5,J6:-0.266353,-0.153392,0.140702,-0.000662,0.014573,-0.569976:0.100000,0.100000,0.100000,0.100000,0.100000,0.100000:pos_vel_
1553747100.457428,cobot_dynamixel_driver/goal|-:J1,J2,J3,J4,J5,J6:-0.266353,-0.153392,0.140702,-0.000662,0.014573,-0.569976:0.100000,0.100000,0.100000,0.100000,0.100000,0.100000:pos_vel_
1553747100.567284,cobot_dynamixel_driver/goal|-:J1,J2,J3,J4,J5,J6:-0.308650,-0.171650,0.155745,-0.000760,0.017682,-0.657708:0.100000,0.100000,0.100000,0.100000,0.100000,0.100000:pos_vel_
1553747100.678155,cobot_dynamixel_driver/goal|-:J1,J2,J3,J4,J5,J6:-0.308650,-0.171650,0.155745,-0.000760,0.017682,-0.657708:0.100000,0.100000,0.100000,0.100000,0.100000,0.100000:pos_vel_
1553747100.761092,cobot_dynamixel_driver/goal|-:J1,J2,J3,J4,J5,J6:-0.308650,-0.171650,0.155745,-0.000760,0.017682,-0.657708:0.100000,0.100000,0.100000,0.100000,0.100000,0.100000:pos_vel_
1553747100.869931,cobot_dynamixel_driver/goal|-:J1,J2,J3,J4,J5,J6:-0.308650,-0.171650,0.155745,-0.000760,0.017682,-0.657708:0.100000,0.100000,0.100000,0.100000,0.100000,0.100000:pos_vel_
1553747100.979639,cobot_dynamixel_driver/goal|-:J1,J2,J3,J4,J5,J6:-0.352958,-0.188526,0.169333,-0.000850,0.020859,-0.747452:0.100000,0.100000,0.100000,0.100000,0.100000,0.100000:pos_vel_
1553747101.061566,cobot_dynamixel_driver/goal|-:J1,J2,J3,J4,J5,J6:-0.352958,-0.188526,0.169333,-0.000850,0.020859,-0.747452:0.100000,0.100000,0.100000,0.100000,0.100000,0.100000:pos_vel_
1553747101.170696,cobot_dynamixel_driver/goal|-:J1,J2,J3,J4,J5,J6:-0.352958,-0.188526,0.169333,-0.000850,0.020859,-0.747452:0.100000,0.100000,0.100000,0.100000,0.100000,0.100000:pos_vel_
1553747101.279547,cobot_dynamixel_driver/goal|-:J1,J2,J3,J4,J5,J6:-0.352958,-0.188526,0.169333,-0.000850,0.020859,-0.747452:0.100000,0.100000,0.100000,0.100000,0.100000,0.100000:pos_vel_
1553747101.361506,cobot_dynamixel_driver/goal|-:J1,J2,J3,J4,J5,J6:-0.399239,-0.203914,0.181458,-0.000932,0.024005,-0.839170:0.100000,0.100000,0.100000,0.100000,0.100000,0.100000:pos_vel_
1553747101.471392,cobot_dynamixel_driver/goal|-:J1,J2,J3,J4,J5,J6:-0.399239,-0.203914,0.181458,-0.000932,0.024005,-0.839170:0.100000,0.100000,0.100000,0.100000,0.100000,0.100000:pos_vel_
1553747101.581441,cobot_dynamixel_driver/goal|-:J1,J2,J3,J4,J5,J6:-0.399239,-0.203914,0.181458,-0.000932,0.024005,-0.839170:0.100000,0.100000,0.100000,0.100000,0.100000,0.100000:pos_vel_
1553747101.665205,cobot_dynamixel_driver/goal|-:J1,J2,J3,J4,J5,J6:-0.399239,-0.203914,0.181458,-0.000932,0.024005,-0.839170:0.100000,0.100000,0.100000,0.100000,0.100000,0.100000:pos_vel_
1553747101.776062,cobot_dynamixel_driver/goal|-:J1,J2,J3,J4,J5,J6:-0.399239,-0.203914,0.181458,-0.000932,0.024005,-0.839170:0.100000,0.100000,0.100000,0.100000,0.100000,0.100000:pos_vel_
1553747101.857972,cobot_dynamixel_driver/goal|-:J1,J2,J3,J4,J5,J6:-0.447416,-0.217708,0.192111,-0.001004,0.027022,-0.932783:0.100000,0.100000,0.100000,0.100000,0.100000,0.100000:pos_vel_
1553747101.967868,cobot_dynamixel_driver/goal|-:J1,J2,J3,J4,J5,J6:-0.447416,-0.217708,0.192111,-0.001004,0.027022,-0.932783:0.100000,0.100000,0.100000,0.100000,0.100000,0.100000:pos_vel_
1553747102.076759,cobot_dynamixel_driver/goal|-:J1,J2,J3,J4,J5,J6:-0.447416,-0.217708,0.192111,-0.001004,0.027022,-0.932783:0.100000,0.100000,0.100000,0.100000,0.100000,0.100000:pos_vel_
1553747102.158619,cobot_dynamixel_driver/goal|-:J1,J2,J3,J4,J5,J6:-0.447416,-0.217708,0.192111,-0.001004,0.027022,-0.932783:0.100000,0.100000,0.100000,0.100000,0.100000,0.100000:pos_vel_
1553747102.267550,cobot_dynamixel_driver/goal|-:J1,J2,J3,J4,J5,J6:-0.447416,-0.217708,0.192111,-0.001004,0.027022,-0.932783:0.100000,0.100000,0.100000,0.100000,0.100000,0.100000:pos_vel_
1553747102.376413,cobot_dynamixel_driver/goal|-:J1,J2,J3,J4,J5,J6:-0.497371,-0.229801,0.201284,-0.001065,0.029813,-1.028174:0.100000,0.100000,0.100000,0.100000,0.100000,0.100000:pos_vel_
1553747102.458484,cobot_dynamixel_driver/goal|-:J1,J2,J3,J4,J5,J6:-0.497371,-0.229801,0.201284,-0.001065,0.029813,-1.028174:0.100000,0.100000,0.100000,0.100000,0.100000,0.100000:pos_vel_
1553747102.567322,cobot_dynamixel_driver/goal|-:J1,J2,J3,J4,J5,J6:-0.497371,-0.229801,0.201284,-0.001065,0.029813,-1.028174:0.100000,0.100000,0.100000,0.100000,0.100000,0.100000:pos_vel_
1553747102.676179,cobot_dynamixel_driver/goal|-:J1,J2,J3,J4,J5,J6:-0.497371,-0.229801,0.201284,-0.001065,0.029813,-1.028174:0.100000,0.100000,0.100000,0.100000,0.100000,0.100000:pos_vel_
1553747102.759166,cobot_dynamixel_driver/goal|-:J1,J2,J3,J4,J5,J6:-0.497371,-0.229801,0.201284,-0.001065,0.029813,-1.028174:0.100000,0.100000,0.100000,0.100000,0.100000,0.100000:pos_vel_
1553747102.867872,cobot_dynamixel_driver/goal|-:J1,J2,J3,J4,J5,J6:-0.548941,-0.240094,0.208970,-0.001114,0.032289,-1.125180:0.100000,0.100000,0.100000,0.100000,0.100000,0.100000:pos_vel_
1553747102.977864,cobot_dynamixel_driver/goal|-:J1,J2,J3,J4,J5,J6:-0.548941,-0.240094,0.208970,-0.001114,0.032289,-1.125180:0.100000,0.100000,0.100000,0.100000,0.100000,0.100000:pos_vel_
1553747103.059732,cobot_dynamixel_driver/goal|-:J1,J2,J3,J4,J5,J6:-0.548941,-0.240094,0.208970,-0.001114,0.032289,-1.125180:0.100000,0.100000,0.100000,0.100000,0.100000,0.100000:pos_vel_
1553747103.168752,cobot_dynamixel_driver/goal|-:J1,J2,J3,J4,J5,J6:-0.548941,-0.240094,0.208970,-0.001114,0.032289,-1.125180:0.100000,0.100000,0.100000,0.100000,0.100000,0.100000:pos_vel_
1553747103.277643,cobot_dynamixel_driver/goal|-:J1,J2,J3,J4,J5,J6:-0.548941,-0.240094,0.208970,-0.001114,0.032289,-1.125180:0.100000,0.100000,0.100000,0.100000,0.100000,0.100000:pos_vel_
1553747103.360478,cobot_dynamixel_driver/goal|-:J1,J2,J3,J4,J5,J6:-0.601920,-0.248497,0.215162,-0.001150,0.034366,-1.223594:0.100000,0.100000,0.100000,0.100000,0.100000,0.100000:pos_vel_
1553747103.470494,cobot_dynamixel_driver/goal|-:J1,J2,J3,J4,J5,J6:-0.601920,-0.248497,0.215162,-0.001150,0.034366,-1.223594:0.100000,0.100000,0.100000,0.100000,0.100000,0.100000:pos_vel_
1553747103.580478,cobot_dynamixel_driver/goal|-:J1,J2,J3,J4,J5,J6:-0.601920,-0.248497,0.215162,-0.001150,0.034366,-1.223594:0.100000,0.100000,0.100000,0.100000,0.100000,0.100000:pos_vel_
1553747103.664394,cobot_dynamixel_driver/goal|-:J1,J2,J3,J4,J5,J6:-0.601920,-0.248497,0.215162,-0.001150,0.034366,-1.223594:0.100000,0.100000,0.100000,0.100000,0.100000,0.100000:pos_vel_
1553747103.774121,cobot_dynamixel_driver/goal|-:J1,J2,J3,J4,J5,J6:-0.601920,-0.248497,0.215162,-0.001150,0.034366,-1.223594:0.100000,0.100000,0.100000,0.100000,0.100000,0.100000:pos_vel_
1553747103.856159,cobot_dynamixel_driver/goal|-:J1,J2,J3,J4,J5,J6:-0.656056,-0.254933,0.219853,-0.001173,0.035976,-1.323164:0.100000,0.100000,0.100000,0.100000,0.100000,0.100000:pos_vel_
1553747103.965063,cobot_dynamixel_driver/goal|-:J1,J2,J3,J4,J5,J6:-0.656056,-0.254933,0.219853,-0.001173,0.035976,-1.323164:0.100000,0.100000,0.100000,0.100000,0.100000,0.100000:pos_vel_
1553747104.075946,cobot_dynamixel_driver/goal|-:J1,J2,J3,J4,J5,J6:-0.656056,-0.254933,0.219853,-0.001173,0.035976,-1.323164:0.100000,0.100000,0.100000,0.100000,0.100000,0.100000:pos_vel_
1553747104.158896,cobot_dynamixel_driver/goal|-:J1,J2,J3,J4,J5,J6:-0.656056,-0.254933,0.219853,-0.001173,0.035976,-1.323164:0.100000,0.100000,0.100000,0.100000,0.100000,0.100000:pos_vel_
1553747104.267617,cobot_dynamixel_driver/goal|-:J1,J2,J3,J4,J5,J6:-0.656056,-0.254933,0.219853,-0.001173,0.035976,-1.323164:0.100000,0.100000,0.100000,0.100000,0.100000,0.100000:pos_vel_
1553747104.376636,cobot_dynamixel_driver/goal|-:J1,J2,J3,J4,J5,J6:-0.656056,-0.254933,0.219853,-0.001173,0.035976,-1.323164:0.100000,0.100000,0.100000,0.100000,0.100000,0.100000:pos_vel_
1553747104.458586,cobot_dynamixel_driver/goal|-:J1,J2,J3,J4,J5,J6:-0.711063,-0.259337,0.223039,-0.001183,0.037061,-1.423604:0.100000,0.100000,0.100000,0.100000,0.100000,0.100000:pos_vel_
1553747104.568469,cobot_dynamixel_driver/goal|-:J1,J2,J3,J4,J5,J6:-0.711063,-0.259337,0.223039,-0.001183,0.037061,-1.423604:0.100000,0.100000,0.100000,0.100000,0.100000,0.100000:pos_vel_
1553747104.678414,cobot_dynamixel_driver/goal|-:J1,J2,J3,J4,J5,J6:-0.711063,-0.259337,0.223039,-0.001183,0.037061,-1.423604:0.100000,0.100000,0.100000,0.100000,0.100000,0.100000:pos_vel_
1553747104.761378,cobot_dynamixel_driver/goal|-:J1,J2,J3,J4,J5,J6:-0.711063,-0.259337,0.223039,-0.001183,0.037061,-1.423604:0.100000,0.100000,0.100000,0.100000,0.100000,0.100000:pos_vel_
1553747104.871323,cobot_dynamixel_driver/goal|-:J1,J2,J3,J4,J5,J6:-0.711063,-0.259337,0.223039,-0.001183,0.037061,-1.423604:0.100000,0.100000,0.100000,0.100000,0.100000,0.100000:pos_vel_
1553747104.980191,cobot_dynamixel_driver/goal|-:J1,J2,J3,J4,J5,J6:-0.711063,-0.259337,0.223039,-0.001183,0.037061,-1.423604:0.100000,0.100000,0.100000,0.100000,0.100000,0.100000:pos_vel_
1553747105.063026,cobot_dynamixel_driver/goal|-:J1,J2,J3,J4,J5,J6:-0.766621,-0.261666,0.224717,-0.001179,0.037583,-1.524594:0.100000,0.100000,0.100000,0.100000,0.100000,0.100000:pos_vel_
1553747105.171918,cobot_dynamixel_driver/goal|-:J1,J2,J3,J4,J5,J6:-0.766621,-0.261666,0.224717,-0.001179,0.037583,-1.524594:0.100000,0.100000,0.100000,0.100000,0.100000,0.100000:pos_vel_
1553747105.280910,cobot_dynamixel_driver/goal|-:J1,J2,J3,J4,J5,J6:-0.766621,-0.261666,0.224717,-0.001179,0.037583,-1.524594:0.100000,0.100000,0.100000,0.100000,0.100000,0.100000:pos_vel_
1553747105.363789,cobot_dynamixel_driver/goal|-:J1,J2,J3,J4,J5,J6:-0.766621,-0.261666,0.224717,-0.001179,0.037583,-1.524594:0.100000,0.100000,0.100000,0.100000,0.100000,0.100000:pos_vel_
1553747105.473709,cobot_dynamixel_driver/goal|-:J1,J2,J3,J4,J5,J6:-0.766621,-0.261666,0.224717,-0.001179,0.037583,-1.524594:0.100000,0.100000,0.100000,0.100000,0.100000,0.100000:pos_vel_
1553747105.555684,cobot_dynamixel_driver/goal|-:J1,J2,J3,J4,J5,J6:-0.766621,-0.261666,0.224717,-0.001179,0.037583,-1.524594:0.100000,0.100000,0.100000,0.100000,0.100000,0.100000:pos_vel_
1553747105.664492,cobot_dynamixel_driver/goal|-:J1,J2,J3,J4,J5,J6:-0.822393,-0.261897,0.224883,-0.001162,0.037522,-1.625797:0.100000,0.100000,0.100000,0.100000,0.100000,0.100000:pos_vel_
1553747105.773477,cobot_dynamixel_driver/goal|-:J1,J2,J3,J4,J5,J6:-0.822393,-0.261897,0.224883,-0.001162,0.037522,-1.625797:0.100000,0.100000,0.100000,0.100000,0.100000,0.100000:pos_vel_
1553747105.855237,cobot_dynamixel_driver/goal|-:J1,J2,J3,J4,J5,J6:-0.822393,-0.261897,0.224883,-0.001162,0.037522,-1.625797:0.100000,0.100000,0.100000,0.100000,0.100000,0.100000:pos_vel_
1553747105.964361,cobot_dynamixel_driver/goal|-:J1,J2,J3,J4,J5,J6:-0.822393,-0.261897,0.224883,-0.001162,0.037522,-1.625797:0.100000,0.100000,0.100000,0.100000,0.100000,0.100000:pos_vel_
1553747106.074248,cobot_dynamixel_driver/goal|-:J1,J2,J3,J4,J5,J6:-0.822393,-0.261897,0.224883,-0.001162,0.037522,-1.625797:0.100000,0.100000,0.100000,0.100000,0.100000,0.100000:pos_vel_
1553747106.157009,cobot_dynamixel_driver/goal|-:J1,J2,J3,J4,J5,J6:-0.878033,-0.260025,0.223538,-0.001132,0.036877,-1.726867:0.100000,0.100000,0.100000,0.100000,0.100000,0.100000:pos_vel_
1553747106.265919,cobot_dynamixel_driver/goal|-:J1,J2,J3,J4,J5,J6:-0.878033,-0.260025,0.223538,-0.001132,0.036877,-1.726867:0.100000,0.100000,0.100000,0.100000,0.100000,0.100000:pos_vel_
1553747106.374720,cobot_dynamixel_driver/goal|-:J1,J2,J3,J4,J5,J6:-0.878033,-0.260025,0.223538,-0.001132,0.036877,-1.726867:0.100000,0.100000,0.100000,0.100000,0.100000,0.100000:pos_vel_
1553747106.456734,cobot_dynamixel_driver/goal|-:J1,J2,J3,J4,J5,J6:-0.878033,-0.260025,0.223538,-0.001132,0.036877,-1.726867:0.100000,0.100000,0.100000,0.100000,0.100000,0.100000:pos_vel_
1553747106.565647,cobot_dynamixel_driver/goal|-:J1,J2,J3,J4,J5,J6:-0.878033,-0.260025,0.223538,-0.001132,0.036877,-1.726867:0.100000,0.100000,0.100000,0.100000,0.100000,0.100000:pos_vel_
1553747106.674579,cobot_dynamixel_driver/goal|-:J1,J2,J3,J4,J5,J6:-0.878033,-0.260025,0.223538,-0.001132,0.036877,-1.726867:0.100000,0.100000,0.100000,0.100000,0.100000,0.100000:pos_vel_
1553747106.757493,cobot_dynamixel_driver/goal|-:J1,J2,J3,J4,J5,J6:-0.933198,-0.256070,0.220683,-0.001090,0.035667,-1.827461:0.100000,0.100000,0.100000,0.100000,0.100000,0.100000:pos_vel_
1553747106.868258,cobot_dynamixel_driver/goal|-:J1,J2,J3,J4,J5,J6:-0.933198,-0.256070,0.220683,-0.001090,0.035667,-1.827461:0.100000,0.100000,0.100000,0.100000,0.100000,0.100000:pos_vel_
1553747106.978374,cobot_dynamixel_driver/goal|-:J1,J2,J3,J4,J5,J6:-0.933198,-0.256070,0.220683,-0.001090,0.035667,-1.827461:0.100000,0.100000,0.100000,0.100000,0.100000,0.100000:pos_vel_
1553747107.060323,cobot_dynamixel_driver/goal|-:J1,J2,J3,J4,J5,J6:-0.933198,-0.256070,0.220683,-0.001090,0.035667,-1.827461:0.100000,0.100000,0.100000,0.100000,0.100000,0.100000:pos_vel_
1553747107.169188,cobot_dynamixel_driver/goal|-:J1,J2,J3,J4,J5,J6:-0.933198,-0.256070,0.220683,-0.001090,0.035667,-1.827461:0.100000,0.100000,0.100000,0.100000,0.100000,0.100000:pos_vel_
1553747107.278064,cobot_dynamixel_driver/goal|-:J1,J2,J3,J4,J5,J6:-0.933198,-0.256070,0.220683,-0.001090,0.035667,-1.827461:0.100000,0.100000,0.100000,0.100000,0.100000,0.100000:pos_vel_
1553747107.360942,cobot_dynamixel_driver/goal|-:J1,J2,J3,J4,J5,J6:-0.987566,-0.250071,0.216321,-0.001038,0.033930,-1.927257:0.100000,0.100000,0.100000,0.100000,0.100000,0.100000:pos_vel_
1553747107.470752,cobot_dynamixel_driver/goal|-:J1,J2,J3,J4,J5,J6:-0.987566,-0.250071,0.216321,-0.001038,0.033930,-1.927257:0.100000,0.100000,0.100000,0.100000,0.100000,0.100000:pos_vel_
1553747107.580673,cobot_dynamixel_driver/goal|-:J1,J2,J3,J4,J5,J6:-0.987566,-0.250071,0.216321,-0.001038,0.033930,-1.927257:0.100000,0.100000,0.100000,0.100000,0.100000,0.100000:pos_vel_
1553747107.662547,cobot_dynamixel_driver/goal|-:J1,J2,J3,J4,J5,J6:-0.987566,-0.250071,0.216321,-0.001038,0.033930,-1.927257:0.100000,0.100000,0.100000,0.100000,0.100000,0.100000:pos_vel_
1553747107.773647,cobot_dynamixel_driver/goal|-:J1,J2,J3,J4,J5,J6:-0.987566,-0.250071,0.216321,-0.001038,0.033930,-1.927257:0.100000,0.100000,0.100000,0.100000,0.100000,0.100000:pos_vel_
1553747107.857404,cobot_dynamixel_driver/goal|-:J1,J2,J3,J4,J5,J6:-0.987566,-0.250071,0.216321,-0.001038,0.033930,-1.927257:0.100000,0.100000,0.100000,0.100000,0.100000,0.100000:pos_vel_
1553747107.966315,cobot_dynamixel_driver/goal|-:J1,J2,J3,J4,J5,J6:-1.040841,-0.242086,0.210455,-0.000977,0.031722,-2.025959:0.100000,0.100000,0.100000,0.100000,0.100000,0.100000:pos_vel_
1553747108.076181,cobot_dynamixel_driver/goal|-:J1,J2,J3,J4,J5,J6:-1.040841,-0.242086,0.210455,-0.000977,0.031722,-2.025959:0.100000,0.100000,0.100000,0.100000,0.100000,0.100000:pos_vel_
1553747108.158186,cobot_dynamixel_driver/goal|-:J1,J2,J3,J4,J5,J6:-1.040841,-0.242086,0.210455,-0.000977,0.031722,-2.025959:0.100000,0.100000,0.100000,0.100000,0.100000,0.100000:pos_vel_
1553747108.266969,cobot_dynamixel_driver/goal|-:J1,J2,J3,J4,J5,J6:-1.040841,-0.242086,0.210455,-0.000977,0.031722,-2.025959:0.100000,0.100000,0.100000,0.100000,0.100000,0.100000:pos_vel_
1553747108.375943,cobot_dynamixel_driver/goal|-:J1,J2,J3,J4,J5,J6:-1.040841,-0.242086,0.210455,-0.000977,0.031722,-2.025959:0.100000,0.100000,0.100000,0.100000,0.100000,0.100000:pos_vel_
1553747108.457622,cobot_dynamixel_driver/goal|-:J1,J2,J3,J4,J5,J6:-1.040841,-0.242086,0.210455,-0.000977,0.031722,-2.025959:0.100000,0.100000,0.100000,0.100000,0.100000,0.100000:pos_vel_
1553747108.567739,cobot_dynamixel_driver/goal|-:J1,J2,J3,J4,J5,J6:-1.092761,-0.232189,0.203091,-0.000908,0.029112,-2.123306:0.100000,0.100000,0.100000,0.100000,0.100000,0.100000:pos_vel_
1553747108.676615,cobot_dynamixel_driver/goal|-:J1,J2,J3,J4,J5,J6:-1.092761,-0.232189,0.203091,-0.000908,0.029112,-2.123306:0.100000,0.100000,0.100000,0.100000,0.100000,0.100000:pos_vel_
1553747108.758432,cobot_dynamixel_driver/goal|-:J1,J2,J3,J4,J5,J6:-1.092761,-0.232189,0.203091,-0.000908,0.029112,-2.123306:0.100000,0.100000,0.100000,0.100000,0.100000,0.100000:pos_vel_
1553747108.869450,cobot_dynamixel_driver/goal|-:J1,J2,J3,J4,J5,J6:-1.092761,-0.232189,0.203091,-0.000908,0.029112,-2.123306:0.100000,0.100000,0.100000,0.100000,0.100000,0.100000:pos_vel_
1553747108.978231,cobot_dynamixel_driver/goal|-:J1,J2,J3,J4,J5,J6:-1.092761,-0.232189,0.203091,-0.000908,0.029112,-2.123306:0.100000,0.100000,0.100000,0.100000,0.100000,0.100000:pos_vel_
1553747109.061188,cobot_dynamixel_driver/goal|-:J1,J2,J3,J4,J5,J6:-1.143110,-0.220469,0.194234,-0.000833,0.026183,-2.219082:0.100000,0.100000,0.100000,0.100000,0.100000,0.100000:pos_vel_
1553747109.171126,cobot_dynamixel_driver/goal|-:J1,J2,J3,J4,J5,J6:-1.143110,-0.220469,0.194234,-0.000833,0.026183,-2.219082:0.100000,0.100000,0.100000,0.100000,0.100000,0.100000:pos_vel_
1553747109.281219,cobot_dynamixel_driver/goal|-:J1,J2,J3,J4,J5,J6:-1.143110,-0.220469,0.194234,-0.000833,0.026183,-2.219082:0.100000,0.100000,0.100000,0.100000,0.100000,0.100000:pos_vel_
1553747109.365085,cobot_dynamixel_driver/goal|-:J1,J2,J3,J4,J5,J6:-1.143110,-0.220469,0.194234,-0.000833,0.026183,-2.219082:0.100000,0.100000,0.100000,0.100000,0.100000,0.100000:pos_vel_
1553747109.475034,cobot_dynamixel_driver/goal|-:J1,J2,J3,J4,J5,J6:-1.143110,-0.220469,0.194234,-0.000833,0.026183,-2.219082:0.100000,0.100000,0.100000,0.100000,0.100000,0.100000:pos_vel_
1553747109.558813,cobot_dynamixel_driver/goal|-:J1,J2,J3,J4,J5,J6:-1.191715,-0.207022,0.183893,-0.000753,0.023024,-2.313114:0.100000,0.100000,0.100000,0.100000,0.100000,0.100000:pos_vel_
1553747109.667617,cobot_dynamixel_driver/goal|-:J1,J2,J3,J4,J5,J6:-1.191715,-0.207022,0.183893,-0.000753,0.023024,-2.313114:0.100000,0.100000,0.100000,0.100000,0.100000,0.100000:pos_vel_
1553747109.777519,cobot_dynamixel_driver/goal|-:J1,J2,J3,J4,J5,J6:-1.191715,-0.207022,0.183893,-0.000753,0.023024,-2.313114:0.100000,0.100000,0.100000,0.100000,0.100000,0.100000:pos_vel_
1553747109.859402,cobot_dynamixel_driver/goal|-:J1,J2,J3,J4,J5,J6:-1.191715,-0.207022,0.183893,-0.000753,0.023024,-2.313114:0.100000,0.100000,0.100000,0.100000,0.100000,0.100000:pos_vel_
1553747109.968307,cobot_dynamixel_driver/goal|-:J1,J2,J3,J4,J5,J6:-1.191715,-0.207022,0.183893,-0.000753,0.023024,-2.313114:0.100000,0.100000,0.100000,0.100000,0.100000,0.100000:pos_vel_
1553747110.077373,cobot_dynamixel_driver/goal|-:J1,J2,J3,J4,J5,J6:-1.191715,-0.207022,0.183893,-0.000753,0.023024,-2.313114:0.100000,0.100000,0.100000,0.100000,0.100000,0.100000:pos_vel_
1553747110.161165,cobot_dynamixel_driver/goal|-:J1,J2,J3,J4,J5,J6:-1.238446,-0.191952,0.172074,-0.000670,0.019731,-2.405272:0.100000,0.100000,0.100000,0.100000,0.100000,0.100000:pos_vel_
1553747110.270162,cobot_dynamixel_driver/goal|-:J1,J2,J3,J4,J5,J6:-1.238446,-0.191952,0.172074,-0.000670,0.019731,-2.405272:0.100000,0.100000,0.100000,0.100000,0.100000,0.100000:pos_vel_
1553747110.379568,cobot_dynamixel_driver/goal|-:J1,J2,J3,J4,J5,J6:-1.238446,-0.191952,0.172074,-0.000670,0.019731,-2.405272:0.100000,0.100000,0.100000,0.100000,0.100000,0.100000:pos_vel_
1553747110.460675,cobot_dynamixel_driver/goal|-:J1,J2,J3,J4,J5,J6:-1.238446,-0.191952,0.172074,-0.000670,0.019731,-2.405272:0.100000,0.100000,0.100000,0.100000,0.100000,0.100000:pos_vel_
1553747110.570645,cobot_dynamixel_driver/goal|-:J1,J2,J3,J4,J5,J6:-1.238446,-0.191952,0.172074,-0.000670,0.019731,-2.405272:0.100000,0.100000,0.100000,0.100000,0.100000,0.100000:pos_vel_
1553747110.679557,cobot_dynamixel_driver/goal|-:J1,J2,J3,J4,J5,J6:-1.283218,-0.175365,0.158786,-0.000586,0.016405,-2.495472:0.100000,0.100000,0.100000,0.100000,0.100000,0.100000:pos_vel_
1553747110.761594,cobot_dynamixel_driver/goal|-:J1,J2,J3,J4,J5,J6:-1.283218,-0.175365,0.158786,-0.000586,0.016405,-2.495472:0.100000,0.100000,0.100000,0.100000,0.100000,0.100000:pos_vel_
1553747110.871332,cobot_dynamixel_driver/goal|-:J1,J2,J3,J4,J5,J6:-1.283218,-0.175365,0.158786,-0.000586,0.016405,-2.495472:0.100000,0.100000,0.100000,0.100000,0.100000,0.100000:pos_vel_
1553747110.980047,cobot_dynamixel_driver/goal|-:J1,J2,J3,J4,J5,J6:-1.283218,-0.175365,0.158786,-0.000586,0.016405,-2.495472:0.100000,0.100000,0.100000,0.100000,0.100000,0.100000:pos_vel_
1553747111.061927,cobot_dynamixel_driver/goal|-:J1,J2,J3,J4,J5,J6:-1.283218,-0.175365,0.158786,-0.000586,0.016405,-2.495472:0.100000,0.100000,0.100000,0.100000,0.100000,0.100000:pos_vel_
1553747111.171168,cobot_dynamixel_driver/goal|-:J1,J2,J3,J4,J5,J6:-1.325982,-0.157370,0.144035,-0.000501,0.013144,-2.583664:0.100000,0.100000,0.100000,0.100000,0.100000,0.100000:pos_vel_
1553747111.280735,cobot_dynamixel_driver/goal|-:J1,J2,J3,J4,J5,J6:-1.325982,-0.157370,0.144035,-0.000501,0.013144,-2.583664:0.100000,0.100000,0.100000,0.100000,0.100000,0.100000:pos_vel_
1553747111.361883,cobot_dynamixel_driver/goal|-:J1,J2,J3,J4,J5,J6:-1.325982,-0.157370,0.144035,-0.000501,0.013144,-2.583664:0.100000,0.100000,0.100000,0.100000,0.100000,0.100000:pos_vel_
1553747111.470759,cobot_dynamixel_driver/goal|-:J1,J2,J3,J4,J5,J6:-1.325982,-0.157370,0.144035,-0.000501,0.013144,-2.583664:0.100000,0.100000,0.100000,0.100000,0.100000,0.100000:pos_vel_
1553747111.578506,cobot_dynamixel_driver/goal|-:J1,J2,J3,J4,J5,J6:-1.366724,-0.138070,0.127827,-0.000417,0.010046,-2.669835:0.100000,0.100000,0.100000,0.100000,0.100000,0.100000:pos_vel_
1553747111.659350,cobot_dynamixel_driver/goal|-:J1,J2,J3,J4,J5,J6:-1.366724,-0.138070,0.127827,-0.000417,0.010046,-2.669835:0.100000,0.100000,0.100000,0.100000,0.100000,0.100000:pos_vel_
1553747111.769804,cobot_dynamixel_driver/goal|-:J1,J2,J3,J4,J5,J6:-1.366724,-0.138070,0.127827,-0.000417,0.010046,-2.669835:0.100000,0.100000,0.100000,0.100000,0.100000,0.100000:pos_vel_
1553747111.880653,cobot_dynamixel_driver/goal|-:J1,J2,J3,J4,J5,J6:-1.366724,-0.138070,0.127827,-0.000417,0.010046,-2.669835:0.100000,0.100000,0.100000,0.100000,0.100000,0.100000:pos_vel_
1553747111.962265,cobot_dynamixel_driver/goal|-:J1,J2,J3,J4,J5,J6:-1.366724,-0.138070,0.127827,-0.000417,0.010046,-2.669835:0.100000,0.100000,0.100000,0.100000,0.100000,0.100000:pos_vel_
1553747112.071015,cobot_dynamixel_driver/goal|-:J1,J2,J3,J4,J5,J6:-1.405458,-0.117566,0.110169,-0.000335,0.007205,-2.753999:0.100000,0.100000,0.100000,0.100000,0.100000,0.100000:pos_vel_
1553747112.178864,cobot_dynamixel_driver/goal|-:J1,J2,J3,J4,J5,J6:-1.405458,-0.117566,0.110169,-0.000335,0.007205,-2.753999:0.100000,0.100000,0.100000,0.100000,0.100000,0.100000:pos_vel_
1553747112.261219,cobot_dynamixel_driver/goal|-:J1,J2,J3,J4,J5,J6:-1.405458,-0.117566,0.110169,-0.000335,0.007205,-2.753999:0.100000,0.100000,0.100000,0.100000,0.100000,0.100000:pos_vel_
1553747112.372042,cobot_dynamixel_driver/goal|-:J1,J2,J3,J4,J5,J6:-1.405458,-0.117566,0.110169,-0.000335,0.007205,-2.753999:0.100000,0.100000,0.100000,0.100000,0.100000,0.100000:pos_vel_
1553747112.480556,cobot_dynamixel_driver/goal|-:J1,J2,J3,J4,J5,J6:-1.442220,-0.095953,0.091063,-0.000255,0.004713,-2.836192:0.100000,0.100000,0.100000,0.100000,0.100000,0.100000:pos_vel_
1553747112.562553,cobot_dynamixel_driver/goal|-:J1,J2,J3,J4,J5,J6:-1.442220,-0.095953,0.091063,-0.000255,0.004713,-2.836192:0.100000,0.100000,0.100000,0.100000,0.100000,0.100000:pos_vel_
1553747112.671687,cobot_dynamixel_driver/goal|-:J1,J2,J3,J4,J5,J6:-1.442220,-0.095953,0.091063,-0.000255,0.004713,-2.836192:0.100000,0.100000,0.100000,0.100000,0.100000,0.100000:pos_vel_
1553747112.781639,cobot_dynamixel_driver/goal|-:J1,J2,J3,J4,J5,J6:-1.442220,-0.095953,0.091063,-0.000255,0.004713,-2.836192:0.100000,0.100000,0.100000,0.100000,0.100000,0.100000:pos_vel_
1553747112.863306,cobot_dynamixel_driver/goal|-:J1,J2,J3,J4,J5,J6:-1.477065,-0.073318,0.070511,-0.000179,0.002653,-2.916468:0.100000,0.100000,0.100000,0.100000,0.100000,0.100000:pos_vel_
1553747112.972161,cobot_dynamixel_driver/goal|-:J1,J2,J3,J4,J5,J6:-1.477065,-0.073318,0.070511,-0.000179,0.002653,-2.916468:0.100000,0.100000,0.100000,0.100000,0.100000,0.100000:pos_vel_
1553747113.081163,cobot_dynamixel_driver/goal|-:J1,J2,J3,J4,J5,J6:-1.477065,-0.073318,0.070511,-0.000179,0.002653,-2.916468:0.100000,0.100000,0.100000,0.100000,0.100000,0.100000:pos_vel_
1553747113.163285,cobot_dynamixel_driver/goal|-:J1,J2,J3,J4,J5,J6:-1.477065,-0.073318,0.070511,-0.000179,0.002653,-2.916468:0.100000,0.100000,0.100000,0.100000,0.100000,0.100000:pos_vel_
1553747113.272137,cobot_dynamixel_driver/goal|-:J1,J2,J3,J4,J5,J6:-1.510060,-0.049740,0.048511,-0.000107,0.001107,-2.994894:0.100000,0.100000,0.100000,0.100000,0.100000,0.100000:pos_vel_
1553747113.381174,cobot_dynamixel_driver/goal|-:J1,J2,J3,J4,J5,J6:-1.510060,-0.049740,0.048511,-0.000107,0.001107,-2.994894:0.100000,0.100000,0.100000,0.100000,0.100000,0.100000:pos_vel_
1553747113.464989,cobot_dynamixel_driver/goal|-:J1,J2,J3,J4,J5,J6:-1.510060,-0.049740,0.048511,-0.000107,0.001107,-2.994894:0.100000,0.100000,0.100000,0.100000,0.100000,0.100000:pos_vel_
1553747113.575882,cobot_dynamixel_driver/goal|-:J1,J2,J3,J4,J5,J6:-1.510060,-0.049740,0.048511,-0.000107,0.001107,-2.994894:0.100000,0.100000,0.100000,0.100000,0.100000,0.100000:pos_vel_
1553747113.657749,cobot_dynamixel_driver/goal|-:J1,J2,J3,J4,J5,J6:-1.541283,-0.025288,0.025059,-0.000039,0.000147,-3.071548:0.100000,0.100000,0.100000,0.100000,0.100000,0.100000:pos_vel_
1553747113.767606,cobot_dynamixel_driver/goal|-:J1,J2,J3,J4,J5,J6:-1.541283,-0.025288,0.025059,-0.000039,0.000147,-3.071548:0.100000,0.100000,0.100000,0.100000,0.100000,0.100000:pos_vel_
1553747113.877623,cobot_dynamixel_driver/goal|-:J1,J2,J3,J4,J5,J6:-1.541283,-0.025288,0.025059,-0.000039,0.000147,-3.071548:0.100000,0.100000,0.100000,0.100000,0.100000,0.100000:pos_vel_
1553747113.959540,cobot_dynamixel_driver/goal|-:J1,J2,J3,J4,J5,J6:-1.570815,-0.000025,0.000145,0.000024,-0.000155,-3.146511:0.100000,0.100000,0.100000,0.100000,0.100000,0.100000:pos_vel_
1553747114.068383,cobot_dynamixel_driver/goal|-:J1,J2,J3,J4,J5,J6:-1.570815,-0.000025,0.000145,0.000024,-0.000155,-3.146511:0.100000,0.100000,0.100000,0.100000,0.100000,0.100000:pos_vel_
1553747114.177102,cobot_dynamixel_driver/goal|-:J1,J2,J3,J4,J5,J6:-1.570815,-0.000025,0.000145,0.000024,-0.000155,-3.146511:0.100000,0.100000,0.100000,0.100000,0.100000,0.100000:pos_vel_
1553747114.257968,cobot_dynamixel_driver/goal|-:J1,J2,J3,J4,J5,J6:-1.570815,-0.000025,0.000145,0.000024,-0.000155,-3.146511:0.100000,0.100000,0.100000,0.100000,0.100000,0.100000:pos_vel_
1553747220.776633,cobot_dynamixel_driver/goal|-:J1,J2,J3,J4,J5,J6:0.000000,0.000000,0.000000,0.000000,0.000000,0.000000:0.500000,0.500000,0.500000,0.500000,0.500000,0.500000:pos_vel_
1553747656.539229,cobot_dynamixel_driver/goal|-:J1,J2,J3,J4,J5,J6:0.000011,0.000010,-0.000025,0.000011,0.000063,-0.000017:0.100000,0.100000,0.100000,0.100000,0.100000,0.100000:pos_vel_
1553747656.567758,cobot_dynamixel_driver/goal|-:J1,J2,J3,J4,J5,J6:0.000011,0.000010,-0.000025,0.000011,0.000063,-0.000017:0.100000,0.100000,0.100000,0.100000,0.100000,0.100000:pos_vel_
1553747656.677547,cobot_dynamixel_driver/goal|-:J1,J2,J3,J4,J5,J6:0.000006,0.000696,0.038038,0.000011,-0.038687,-0.000012:0.100000,0.100000,0.100000,0.100000,0.100000,0.100000:pos_vel_
1553747656.760332,cobot_dynamixel_driver/goal|-:J1,J2,J3,J4,J5,J6:0.000005,0.002770,0.074773,0.000012,-0.077496,-0.000011:0.100000,0.100000,0.100000,0.100000,0.100000,0.100000:pos_vel_
1553747656.870284,cobot_dynamixel_driver/goal|-:J1,J2,J3,J4,J5,J6:0.000005,0.002770,0.074773,0.000012,-0.077496,-0.000011:0.100000,0.100000,0.100000,0.100000,0.100000,0.100000:pos_vel_
1553747656.979092,cobot_dynamixel_driver/goal|-:J1,J2,J3,J4,J5,J6:0.000005,0.002770,0.074773,0.000012,-0.077496,-0.000011:0.100000,0.100000,0.100000,0.100000,0.100000,0.100000:pos_vel_
1553747657.060979,cobot_dynamixel_driver/goal|-:J1,J2,J3,J4,J5,J6:0.000005,0.002770,0.074773,0.000012,-0.077496,-0.000011:0.100000,0.100000,0.100000,0.100000,0.100000,0.100000:pos_vel_
1553747657.172094,cobot_dynamixel_driver/goal|-:J1,J2,J3,J4,J5,J6:0.000004,0.006234,0.110221,0.000012,-0.116409,-0.000010:0.100000,0.100000,0.100000,0.100000,0.100000,0.100000:pos_vel_
1553747657.281045,cobot_dynamixel_driver/goal|-:J1,J2,J3,J4,J5,J6:0.000004,0.006234,0.110221,0.000012,-0.116409,-0.000010:0.100000,0.100000,0.100000,0.100000,0.100000,0.100000:pos_vel_
1553747657.363683,cobot_dynamixel_driver/goal|-:J1,J2,J3,J4,J5,J6:0.000004,0.006234,0.110221,0.000012,-0.116409,-0.000010:0.100000,0.100000,0.100000,0.100000,0.100000,0.100000:pos_vel_
1553747657.475756,cobot_dynamixel_driver/goal|-:J1,J2,J3,J4,J5,J6:0.000004,0.006234,0.110221,0.000012,-0.116409,-0.000010:0.100000,0.100000,0.100000,0.100000,0.100000,0.100000:pos_vel_
1553747657.558500,cobot_dynamixel_driver/goal|-:J1,J2,J3,J4,J5,J6:0.000003,0.011101,0.144415,0.000012,-0.155471,-0.000009:0.100000,0.100000,0.100000,0.100000,0.100000,0.100000:pos_vel_
1553747657.667351,cobot_dynamixel_driver/goal|-:J1,J2,J3,J4,J5,J6:0.000003,0.011101,0.144415,0.000012,-0.155471,-0.000009:0.100000,0.100000,0.100000,0.100000,0.100000,0.100000:pos_vel_
1553747657.776437,cobot_dynamixel_driver/goal|-:J1,J2,J3,J4,J5,J6:0.000003,0.011101,0.144415,0.000012,-0.155471,-0.000009:0.100000,0.100000,0.100000,0.100000,0.100000,0.100000:pos_vel_
1553747657.858440,cobot_dynamixel_driver/goal|-:J1,J2,J3,J4,J5,J6:0.000003,0.011101,0.144415,0.000012,-0.155471,-0.000009:0.100000,0.100000,0.100000,0.100000,0.100000,0.100000:pos_vel_
1553747657.968345,cobot_dynamixel_driver/goal|-:J1,J2,J3,J4,J5,J6:0.000002,0.017388,0.177378,0.000013,-0.194721,-0.000007:0.100000,0.100000,0.100000,0.100000,0.100000,0.100000:pos_vel_
1553747658.078242,cobot_dynamixel_driver/goal|-:J1,J2,J3,J4,J5,J6:0.000002,0.017388,0.177378,0.000013,-0.194721,-0.000007:0.100000,0.100000,0.100000,0.100000,0.100000,0.100000:pos_vel_
1553747658.161143,cobot_dynamixel_driver/goal|-:J1,J2,J3,J4,J5,J6:0.000002,0.017388,0.177378,0.000013,-0.194721,-0.000007:0.100000,0.100000,0.100000,0.100000,0.100000,0.100000:pos_vel_
1553747658.271043,cobot_dynamixel_driver/goal|-:J1,J2,J3,J4,J5,J6:0.000001,0.025112,0.209127,0.000013,-0.234195,-0.000006:0.100000,0.100000,0.100000,0.100000,0.100000,0.100000:pos_vel_
1553747658.380044,cobot_dynamixel_driver/goal|-:J1,J2,J3,J4,J5,J6:0.000001,0.025112,0.209127,0.000013,-0.234195,-0.000006:0.100000,0.100000,0.100000,0.100000,0.100000,0.100000:pos_vel_
1553747658.461938,cobot_dynamixel_driver/goal|-:J1,J2,J3,J4,J5,J6:0.000001,0.025112,0.209127,0.000013,-0.234195,-0.000006:0.100000,0.100000,0.100000,0.100000,0.100000,0.100000:pos_vel_
1553747658.571718,cobot_dynamixel_driver/goal|-:J1,J2,J3,J4,J5,J6:0.000001,0.025112,0.209127,0.000013,-0.234195,-0.000006:0.100000,0.100000,0.100000,0.100000,0.100000,0.100000:pos_vel_
1553747658.654832,cobot_dynamixel_driver/goal|-:J1,J2,J3,J4,J5,J6:-0.000000,0.034294,0.239671,0.000014,-0.273921,-0.000005:0.100000,0.100000,0.100000,0.100000,0.100000,0.100000:pos_vel_
1553747658.764741,cobot_dynamixel_driver/goal|-:J1,J2,J3,J4,J5,J6:-0.000000,0.034294,0.239671,0.000014,-0.273921,-0.000005:0.100000,0.100000,0.100000,0.100000,0.100000,0.100000:pos_vel_
1553747658.876611,cobot_dynamixel_driver/goal|-:J1,J2,J3,J4,J5,J6:-0.000000,0.034294,0.239671,0.000014,-0.273921,-0.000005:0.100000,0.100000,0.100000,0.100000,0.100000,0.100000:pos_vel_
1553747658.959443,cobot_dynamixel_driver/goal|-:J1,J2,J3,J4,J5,J6:-0.000001,0.044955,0.269013,0.000014,-0.313925,-0.000005:0.100000,0.100000,0.100000,0.100000,0.100000,0.100000:pos_vel_
1553747659.070333,cobot_dynamixel_driver/goal|-:J1,J2,J3,J4,J5,J6:-0.000001,0.044955,0.269013,0.000014,-0.313925,-0.000005:0.100000,0.100000,0.100000,0.100000,0.100000,0.100000:pos_vel_
1553747659.180226,cobot_dynamixel_driver/goal|-:J1,J2,J3,J4,J5,J6:-0.000001,0.044955,0.269013,0.000014,-0.313925,-0.000005:0.100000,0.100000,0.100000,0.100000,0.100000,0.100000:pos_vel_
1553747659.263054,cobot_dynamixel_driver/goal|-:J1,J2,J3,J4,J5,J6:-0.000003,0.057117,0.297151,0.000015,-0.354226,-0.000004:0.100000,0.100000,0.100000,0.100000,0.100000,0.100000:pos_vel_
1553747659.372009,cobot_dynamixel_driver/goal|-:J1,J2,J3,J4,J5,J6:-0.000003,0.057117,0.297151,0.000015,-0.354226,-0.000004:0.100000,0.100000,0.100000,0.100000,0.100000,0.100000:pos_vel_
1553747659.456971,cobot_dynamixel_driver/goal|-:J1,J2,J3,J4,J5,J6:-0.000003,0.057117,0.297151,0.000015,-0.354226,-0.000004:0.100000,0.100000,0.100000,0.100000,0.100000,0.100000:pos_vel_
1553747659.566954,cobot_dynamixel_driver/goal|-:J1,J2,J3,J4,J5,J6:-0.000003,0.057117,0.297151,0.000015,-0.354226,-0.000004:0.100000,0.100000,0.100000,0.100000,0.100000,0.100000:pos_vel_
1553747659.676640,cobot_dynamixel_driver/goal|-:J1,J2,J3,J4,J5,J6:-0.000004,0.070800,0.324079,0.000016,-0.394837,-0.000003:0.100000,0.100000,0.100000,0.100000,0.100000,0.100000:pos_vel_
1553747659.758542,cobot_dynamixel_driver/goal|-:J1,J2,J3,J4,J5,J6:-0.000004,0.070800,0.324079,0.000016,-0.394837,-0.000003:0.100000,0.100000,0.100000,0.100000,0.100000,0.100000:pos_vel_
1553747659.867718,cobot_dynamixel_driver/goal|-:J1,J2,J3,J4,J5,J6:-0.000004,0.070800,0.324079,0.000016,-0.394837,-0.000003:0.100000,0.100000,0.100000,0.100000,0.100000,0.100000:pos_vel_
1553747659.977588,cobot_dynamixel_driver/goal|-:J1,J2,J3,J4,J5,J6:-0.000005,0.086024,0.349784,0.000016,-0.435767,-0.000002:0.100000,0.100000,0.100000,0.100000,0.100000,0.100000:pos_vel_
1553747660.061456,cobot_dynamixel_driver/goal|-:J1,J2,J3,J4,J5,J6:-0.000005,0.086024,0.349784,0.000016,-0.435767,-0.000002:0.100000,0.100000,0.100000,0.100000,0.100000,0.100000:pos_vel_
1553747660.171071,cobot_dynamixel_driver/goal|-:J1,J2,J3,J4,J5,J6:-0.000005,0.086024,0.349784,0.000016,-0.435767,-0.000002:0.100000,0.100000,0.100000,0.100000,0.100000,0.100000:pos_vel_
1553747660.280118,cobot_dynamixel_driver/goal|-:J1,J2,J3,J4,J5,J6:-0.000005,0.086024,0.349784,0.000016,-0.435767,-0.000002:0.100000,0.100000,0.100000,0.100000,0.100000,0.100000:pos_vel_
1553747660.362053,cobot_dynamixel_driver/goal|-:J1,J2,J3,J4,J5,J6:-0.000006,0.102807,0.374249,0.000017,-0.477015,-0.000001:0.100000,0.100000,0.100000,0.100000,0.100000,0.100000:pos_vel_
1553747660.471908,cobot_dynamixel_driver/goal|-:J1,J2,J3,J4,J5,J6:-0.000006,0.102807,0.374249,0.000017,-0.477015,-0.000001:0.100000,0.100000,0.100000,0.100000,0.100000,0.100000:pos_vel_
1553747660.554784,cobot_dynamixel_driver/goal|-:J1,J2,J3,J4,J5,J6:-0.000006,0.102807,0.374249,0.000017,-0.477015,-0.000001:0.100000,0.100000,0.100000,0.100000,0.100000,0.100000:pos_vel_
1553747660.664790,cobot_dynamixel_driver/goal|-:J1,J2,J3,J4,J5,J6:-0.000006,0.102807,0.374249,0.000017,-0.477015,-0.000001:0.100000,0.100000,0.100000,0.100000,0.100000,0.100000:pos_vel_
1553747660.774675,cobot_dynamixel_driver/goal|-:J1,J2,J3,J4,J5,J6:-0.000006,0.102807,0.374249,0.000017,-0.477015,-0.000001:0.100000,0.100000,0.100000,0.100000,0.100000,0.100000:pos_vel_
1553747660.857540,cobot_dynamixel_driver/goal|-:J1,J2,J3,J4,J5,J6:-0.000006,0.102807,0.374249,0.000017,-0.477015,-0.000001:0.100000,0.100000,0.100000,0.100000,0.100000,0.100000:pos_vel_
1553747660.967471,cobot_dynamixel_driver/goal|-:J1,J2,J3,J4,J5,J6:-0.000006,0.102807,0.374249,0.000017,-0.477015,-0.000001:0.100000,0.100000,0.100000,0.100000,0.100000,0.100000:pos_vel_
1553747661.077418,cobot_dynamixel_driver/goal|-:J1,J2,J3,J4,J5,J6:-0.000007,0.121160,0.397455,0.000018,-0.518576,-0.000001:0.100000,0.100000,0.100000,0.100000,0.100000,0.100000:pos_vel_
