surachairobotic/cobot/cobot_dynamixel_driver/log/2019-02-06T04:49:39.894781_driver_cmd.txt
1549428585.393062,cobot_dynamixel_driver/goal|-:J1,J2,J3,J4,J5,J6:0.000000,0.000000,0.000000,0.000000,0.000000,0.000000:0.500000,0.500000,0.500000,0.500000,0.500000,0.500000:pos_vel_
1549428841.824069,cobot_dynamixel_driver/goal|-:J3:0.000000:eff_
1549428841.942267,cobot_dynamixel_driver/goal|-:J1,J2,J3,J4,J5,J6:0.000000,0.000000,0.523599,0.000000,0.000000,0.000000:0.250000,0.250000,0.250000,0.250000,0.250000,0.250000:pos_vel_
1549428845.325493,cobot_dynamixel_driver/goal|-:J3:-257.812500:eff_
1549428846.037172,cobot_dynamixel_driver/goal|-:J3:-267.812500:eff_
1549428846.631787,cobot_dynamixel_driver/goal|-:J3:-277.812500:eff_
1549428847.225469,cobot_dynamixel_driver/goal|-:J3:-287.812500:eff_
1549428847.822078,cobot_dynamixel_driver/goal|-:J3:-297.812500:eff_
1549428848.444725,cobot_dynamixel_driver/goal|-:J3:-307.812500:eff_
1549428849.040552,cobot_dynamixel_driver/goal|-:J3:-317.812500:eff_
1549428849.633984,cobot_dynamixel_driver/goal|-:J3:-327.812500:eff_
1549428850.227979,cobot_dynamixel_driver/goal|-:J3:-337.812500:eff_
1549428850.849511,cobot_dynamixel_driver/goal|-:J3:-347.812500:eff_
1549428851.443208,cobot_dynamixel_driver/goal|-:J3:-357.812500:eff_
1549428852.039931,cobot_dynamixel_driver/goal|-:J3:-367.812500:eff_
1549428852.633451,cobot_dynamixel_driver/goal|-:J3:-377.812500:eff_
1549428853.227144,cobot_dynamixel_driver/goal|-:J3:-387.812500:eff_
1549428853.848699,cobot_dynamixel_driver/goal|-:J3:-397.812500:eff_
1549428854.444602,cobot_dynamixel_driver/goal|-:J3:-407.812500:eff_
1549428855.039197,cobot_dynamixel_driver/goal|-:J3:-417.812500:eff_
1549428855.633632,cobot_dynamixel_driver/goal|-:J3:-427.812500:eff_
1549428856.256165,cobot_dynamixel_driver/goal|-:J3:-437.812500:eff_
1549428856.850928,cobot_dynamixel_driver/goal|-:J3:-447.812500:eff_
1549428857.445539,cobot_dynamixel_driver/goal|-:J3:-457.812500:eff_
1549428858.041063,cobot_dynamixel_driver/goal|-:J3:-467.812500:eff_
1549428858.636673,cobot_dynamixel_driver/goal|-:J3:-477.812500:eff_
1549428859.258380,cobot_dynamixel_driver/goal|-:J3:-487.812500:eff_
1549428859.852900,cobot_dynamixel_driver/goal|-:J3:-497.812500:eff_
1549428860.448616,cobot_dynamixel_driver/goal|-:J3:-507.812500:eff_
1549428861.043284,cobot_dynamixel_driver/goal|-:J3:-517.812500:eff_
1549428861.664981,cobot_dynamixel_driver/goal|-:J3:-527.812500:eff_
1549428862.259603,cobot_dynamixel_driver/goal|-:J3:-537.812500:eff_
1549428862.855509,cobot_dynamixel_driver/goal|-:J3:-547.812500:eff_
1549428863.449868,cobot_dynamixel_driver/goal|-:J3:-557.812500:eff_
1549428864.044922,cobot_dynamixel_driver/goal|-:J3:-567.812500:eff_
1549428864.667327,cobot_dynamixel_driver/goal|-:J3:-577.812500:eff_
1549428865.262084,cobot_dynamixel_driver/goal|-:J3:-587.812500:eff_
1549428865.856527,cobot_dynamixel_driver/goal|-:J3:-597.812500:eff_
1549428866.450546,cobot_dynamixel_driver/goal|-:J3:-607.812500:eff_
1549428867.072011,cobot_dynamixel_driver/goal|-:J3:-617.812500:eff_
1549428867.666780,cobot_dynamixel_driver/goal|-:J3:-627.812500:eff_
1549428868.261158,cobot_dynamixel_driver/goal|-:J3:-637.812500:eff_
1549428868.854897,cobot_dynamixel_driver/goal|-:J3:-647.812500:eff_
1549428869.477206,cobot_dynamixel_driver/goal|-:J3:-657.812500:eff_
1549428870.071847,cobot_dynamixel_driver/goal|-:J3:-667.812500:eff_
1549428870.667459,cobot_dynamixel_driver/goal|-:J3:-677.812500:eff_
1549428871.263327,cobot_dynamixel_driver/goal|-:J3:-687.812500:eff_
1549428871.856959,cobot_dynamixel_driver/goal|-:J3:-697.812500:eff_
1549428872.479456,cobot_dynamixel_driver/goal|-:J3:-707.812500:eff_
1549428873.073175,cobot_dynamixel_driver/goal|-:J3:-717.812500:eff_
1549428873.667949,cobot_dynamixel_driver/goal|-:J3:-727.812500:eff_
1549428874.264695,cobot_dynamixel_driver/goal|-:J3:-737.812500:eff_
1549428874.859416,cobot_dynamixel_driver/goal|-:J3:-747.812500:eff_
1549428875.480819,cobot_dynamixel_driver/goal|-:J3:-757.812500:eff_
1549428876.238278,cobot_dynamixel_driver/goal|-:J3:0.000000:eff_
1549428876.319288,cobot_dynamixel_driver/goal|-:J1,J2,J3,J4,J5,J6:0.000000,0.000000,0.523599,0.000000,0.000000,0.000000:0.250000,0.250000,0.250000,0.250000,0.250000,0.250000:pos_vel_
1549428878.356165,cobot_dynamixel_driver/goal|-:J3:0.000000:eff_
1549428878.447219,cobot_dynamixel_driver/goal|-:J1,J2,J3,J4,J5,J6:0.000000,0.000000,0.523599,0.000000,0.000000,0.000000:0.250000,0.250000,0.250000,0.250000,0.250000,0.250000:pos_vel_
1549428879.537691,cobot_dynamixel_driver/goal|-:J3:-547.851562:eff_
1549428880.251388,cobot_dynamixel_driver/goal|-:J3:-557.851562:eff_
1549428880.846971,cobot_dynamixel_driver/goal|-:J3:-567.851562:eff_
1549428881.440429,cobot_dynamixel_driver/goal|-:J3:-577.851562:eff_
1549428882.035912,cobot_dynamixel_driver/goal|-:J3:-587.851562:eff_
1549428882.656610,cobot_dynamixel_driver/goal|-:J3:-597.851562:eff_
1549428883.251404,cobot_dynamixel_driver/goal|-:J3:-607.851562:eff_
1549428883.845686,cobot_dynamixel_driver/goal|-:J3:-617.851562:eff_
1549428884.440572,cobot_dynamixel_driver/goal|-:J3:-627.851562:eff_
1549428885.062930,cobot_dynamixel_driver/goal|-:J3:-637.851562:eff_
1549428885.657603,cobot_dynamixel_driver/goal|-:J3:-647.851562:eff_
1549428886.252604,cobot_dynamixel_driver/goal|-:J3:-657.851562:eff_
1549428886.846929,cobot_dynamixel_driver/goal|-:J3:-667.851562:eff_
1549428887.467850,cobot_dynamixel_driver/goal|-:J3:-677.851562:eff_
1549428888.062422,cobot_dynamixel_driver/goal|-:J3:-687.851562:eff_
1549428888.657953,cobot_dynamixel_driver/goal|-:J3:-697.851562:eff_
1549428889.252806,cobot_dynamixel_driver/goal|-:J3:-707.851562:eff_
1549428889.847621,cobot_dynamixel_driver/goal|-:J3:-717.851562:eff_
1549428890.468450,cobot_dynamixel_driver/goal|-:J3:-727.851562:eff_
1549428891.062838,cobot_dynamixel_driver/goal|-:J3:-737.851562:eff_
1549428891.657536,cobot_dynamixel_driver/goal|-:J3:-747.851562:eff_
1549428892.253430,cobot_dynamixel_driver/goal|-:J3:-757.851562:eff_
1549428892.874894,cobot_dynamixel_driver/goal|-:J3:-767.851562:eff_
1549428893.468593,cobot_dynamixel_driver/goal|-:J3:-777.851562:eff_
1549428894.278891,cobot_dynamixel_driver/goal|-:J3:0.000000:eff_
1549428894.359865,cobot_dynamixel_driver/goal|-:J1,J2,J3,J4,J5,J6:0.000000,0.000000,0.523599,0.000000,0.000000,0.000000:0.250000,0.250000,0.250000,0.250000,0.250000,0.250000:pos_vel_
1549428896.178750,cobot_dynamixel_driver/goal|-:J3:0.000000:eff_
1549428896.296937,cobot_dynamixel_driver/goal|-:J1,J2,J3,J4,J5,J6:0.000000,0.000000,0.436332,0.000000,0.000000,0.000000:0.250000,0.250000,0.250000,0.250000,0.250000,0.250000:pos_vel_
1549428897.983230,cobot_dynamixel_driver/goal|-:J3:-580.078125:eff_
1549428898.694906,cobot_dynamixel_driver/goal|-:J3:-590.078125:eff_
1549428899.291705,cobot_dynamixel_driver/goal|-:J3:-600.078125:eff_
1549428899.886516,cobot_dynamixel_driver/goal|-:J3:-610.078125:eff_
1549428900.481298,cobot_dynamixel_driver/goal|-:J3:-620.078125:eff_
1549428901.103680,cobot_dynamixel_driver/goal|-:J3:-630.078125:eff_
1549428901.698344,cobot_dynamixel_driver/goal|-:J3:-640.078125:eff_
1549428902.292188,cobot_dynamixel_driver/goal|-:J3:-650.078125:eff_
1549428902.886689,cobot_dynamixel_driver/goal|-:J3:-660.078125:eff_
1549428903.507708,cobot_dynamixel_driver/goal|-:J3:-670.078125:eff_
1549428904.104112,cobot_dynamixel_driver/goal|-:J3:-680.078125:eff_
1549428904.697973,cobot_dynamixel_driver/goal|-:J3:-690.078125:eff_
1549428905.292414,cobot_dynamixel_driver/goal|-:J3:-700.078125:eff_
1549428905.888086,cobot_dynamixel_driver/goal|-:J3:-710.078125:eff_
1549428906.510680,cobot_dynamixel_driver/goal|-:J3:-720.078125:eff_
1549428907.106280,cobot_dynamixel_driver/goal|-:J3:-730.078125:eff_
1549428907.700865,cobot_dynamixel_driver/goal|-:J3:-740.078125:eff_
1549428908.295324,cobot_dynamixel_driver/goal|-:J3:-750.078125:eff_
1549428908.891085,cobot_dynamixel_driver/goal|-:J3:-760.078125:eff_
1549428909.512482,cobot_dynamixel_driver/goal|-:J3:-770.078125:eff_
1549428910.106633,cobot_dynamixel_driver/goal|-:J3:-780.078125:eff_
1549428910.700652,cobot_dynamixel_driver/goal|-:J3:-790.078125:eff_
1549428911.295558,cobot_dynamixel_driver/goal|-:J3:-800.078125:eff_
1549428911.918117,cobot_dynamixel_driver/goal|-:J3:-810.078125:eff_
1549428912.511838,cobot_dynamixel_driver/goal|-:J3:-820.078125:eff_
1549428913.105530,cobot_dynamixel_driver/goal|-:J3:-830.078125:eff_
1549428913.915972,cobot_dynamixel_driver/goal|-:J3:0.000000:eff_
1549428913.996961,cobot_dynamixel_driver/goal|-:J1,J2,J3,J4,J5,J6:0.000000,0.000000,0.436332,0.000000,0.000000,0.000000:0.250000,0.250000,0.250000,0.250000,0.250000,0.250000:pos_vel_
1549428915.735250,cobot_dynamixel_driver/goal|-:J3:0.000000:eff_
1549428915.826119,cobot_dynamixel_driver/goal|-:J1,J2,J3,J4,J5,J6:0.000000,0.000000,0.436332,0.000000,0.000000,0.000000:0.250000,0.250000,0.250000,0.250000,0.250000,0.250000:pos_vel_
1549428916.916758,cobot_dynamixel_driver/goal|-:J3:-596.191406:eff_
1549428917.628071,cobot_dynamixel_driver/goal|-:J3:-606.191406:eff_
1549428918.222771,cobot_dynamixel_driver/goal|-:J3:-616.191406:eff_
1549428918.818619,cobot_dynamixel_driver/goal|-:J3:-626.191406:eff_
1549428919.440190,cobot_dynamixel_driver/goal|-:J3:-636.191406:eff_
1549428920.034714,cobot_dynamixel_driver/goal|-:J3:-646.191406:eff_
1549428920.629354,cobot_dynamixel_driver/goal|-:J3:-656.191406:eff_
1549428921.224030,cobot_dynamixel_driver/goal|-:J3:-666.191406:eff_
1549428921.845637,cobot_dynamixel_driver/goal|-:J3:-676.191406:eff_
1549428922.439189,cobot_dynamixel_driver/goal|-:J3:-686.191406:eff_
1549428923.032537,cobot_dynamixel_driver/goal|-:J3:-696.191406:eff_
1549428923.628510,cobot_dynamixel_driver/goal|-:J3:-706.191406:eff_
1549428924.250695,cobot_dynamixel_driver/goal|-:J3:-716.191406:eff_
1549428924.845379,cobot_dynamixel_driver/goal|-:J3:-726.191406:eff_
1549428925.439281,cobot_dynamixel_driver/goal|-:J3:-736.191406:eff_
1549428926.033890,cobot_dynamixel_driver/goal|-:J3:-746.191406:eff_
1549428926.628412,cobot_dynamixel_driver/goal|-:J3:-756.191406:eff_
1549428927.249440,cobot_dynamixel_driver/goal|-:J3:-766.191406:eff_
1549428927.843699,cobot_dynamixel_driver/goal|-:J3:-776.191406:eff_
1549428928.437662,cobot_dynamixel_driver/goal|-:J3:-786.191406:eff_
1549428929.034411,cobot_dynamixel_driver/goal|-:J3:-796.191406:eff_
1549428930.060674,cobot_dynamixel_driver/goal|-:J1,J2,J3,J4,J5,J6:0.000000,0.000000,0.000000,0.000000,0.000000,0.000000:0.500000,0.500000,0.500000,0.500000,0.500000,0.500000:pos_vel_
1549428976.075479,cobot_dynamixel_driver/goal|-:J3:0.000000:eff_
1549428976.193275,cobot_dynamixel_driver/goal|-:J1,J2,J3,J4,J5,J6:0.000000,0.000000,0.523599,0.000000,0.000000,0.000000:0.250000,0.250000,0.250000,0.250000,0.250000,0.250000:pos_vel_
1549428979.578203,cobot_dynamixel_driver/goal|-:J3:-209.472656:eff_
1549428980.289957,cobot_dynamixel_driver/goal|-:J3:-219.472656:eff_
1549428980.883923,cobot_dynamixel_driver/goal|-:J3:-229.472656:eff_
1549428981.478496,cobot_dynamixel_driver/goal|-:J3:-239.472656:eff_
1549428982.075036,cobot_dynamixel_driver/goal|-:J3:-249.472656:eff_
1549428982.695810,cobot_dynamixel_driver/goal|-:J3:-259.472656:eff_
1549428983.291361,cobot_dynamixel_driver/goal|-:J3:-269.472656:eff_
1549428983.887153,cobot_dynamixel_driver/goal|-:J3:-279.472656:eff_
1549428984.482069,cobot_dynamixel_driver/goal|-:J3:-289.472656:eff_
1549428985.103368,cobot_dynamixel_driver/goal|-:J3:-299.472656:eff_
1549428985.698041,cobot_dynamixel_driver/goal|-:J3:-309.472656:eff_
1549428986.293967,cobot_dynamixel_driver/goal|-:J3:-319.472656:eff_
1549428986.889214,cobot_dynamixel_driver/goal|-:J3:-329.472656:eff_
1549428987.483159,cobot_dynamixel_driver/goal|-:J3:-339.472656:eff_
1549428988.106466,cobot_dynamixel_driver/goal|-:J3:-349.472656:eff_
1549428988.701962,cobot_dynamixel_driver/goal|-:J3:-359.472656:eff_
1549428989.295658,cobot_dynamixel_driver/goal|-:J3:-369.472656:eff_
1549428989.890248,cobot_dynamixel_driver/goal|-:J3:-379.472656:eff_
1549428990.511882,cobot_dynamixel_driver/goal|-:J3:-389.472656:eff_
1549428991.106693,cobot_dynamixel_driver/goal|-:J3:-399.472656:eff_
1549428991.701453,cobot_dynamixel_driver/goal|-:J3:-409.472656:eff_
1549428992.296210,cobot_dynamixel_driver/goal|-:J3:-419.472656:eff_
1549428992.890786,cobot_dynamixel_driver/goal|-:J3:-429.472656:eff_
1549428993.511348,cobot_dynamixel_driver/goal|-:J3:-439.472656:eff_
1549428994.106096,cobot_dynamixel_driver/goal|-:J3:-449.472656:eff_
1549428994.701644,cobot_dynamixel_driver/goal|-:J3:-459.472656:eff_
1549428995.297372,cobot_dynamixel_driver/goal|-:J3:-469.472656:eff_
1549428995.919374,cobot_dynamixel_driver/goal|-:J3:-479.472656:eff_
1549428996.514013,cobot_dynamixel_driver/goal|-:J3:-489.472656:eff_
1549428997.108436,cobot_dynamixel_driver/goal|-:J3:-499.472656:eff_
1549428997.702123,cobot_dynamixel_driver/goal|-:J3:-509.472656:eff_
1549428998.322891,cobot_dynamixel_driver/goal|-:J3:-519.472656:eff_
1549428998.917222,cobot_dynamixel_driver/goal|-:J3:-529.472656:eff_
1549428999.511002,cobot_dynamixel_driver/goal|-:J3:-539.472656:eff_
1549429000.107589,cobot_dynamixel_driver/goal|-:J3:-549.472656:eff_
1549429000.703246,cobot_dynamixel_driver/goal|-:J3:-559.472656:eff_
1549429001.323969,cobot_dynamixel_driver/goal|-:J3:-569.472656:eff_
1549429001.917715,cobot_dynamixel_driver/goal|-:J3:-579.472656:eff_
1549429002.512227,cobot_dynamixel_driver/goal|-:J3:-589.472656:eff_
1549429003.107058,cobot_dynamixel_driver/goal|-:J3:-599.472656:eff_
1549429003.729883,cobot_dynamixel_driver/goal|-:J3:-609.472656:eff_
1549429004.326579,cobot_dynamixel_driver/goal|-:J3:-619.472656:eff_
1549429004.920696,cobot_dynamixel_driver/goal|-:J3:-629.472656:eff_
1549429005.515147,cobot_dynamixel_driver/goal|-:J3:-639.472656:eff_
1549429006.109772,cobot_dynamixel_driver/goal|-:J3:-649.472656:eff_
1549429006.733120,cobot_dynamixel_driver/goal|-:J3:-659.472656:eff_
1549429007.329369,cobot_dynamixel_driver/goal|-:J3:-669.472656:eff_
1549429007.923220,cobot_dynamixel_driver/goal|-:J3:-679.472656:eff_
1549429008.517097,cobot_dynamixel_driver/goal|-:J3:-689.472656:eff_
1549429009.138686,cobot_dynamixel_driver/goal|-:J3:-699.472656:eff_
1549429009.732394,cobot_dynamixel_driver/goal|-:J3:-709.472656:eff_
1549429010.326471,cobot_dynamixel_driver/goal|-:J3:-719.472656:eff_
1549429010.921052,cobot_dynamixel_driver/goal|-:J3:-729.472656:eff_
1549429011.544867,cobot_dynamixel_driver/goal|-:J3:-739.472656:eff_
1549429012.139551,cobot_dynamixel_driver/goal|-:J3:-749.472656:eff_
1549429012.734177,cobot_dynamixel_driver/goal|-:J3:-759.472656:eff_
1549429013.652604,cobot_dynamixel_driver/goal|-:J3:0.000000:eff_
1549429013.733579,cobot_dynamixel_driver/goal|-:J1,J2,J3,J4,J5,J6:0.000000,0.000000,0.523599,0.000000,0.000000,0.000000:0.250000,0.250000,0.250000,0.250000,0.250000,0.250000:pos_vel_
1549429015.551646,cobot_dynamixel_driver/goal|-:J3:0.000000:eff_
1549429015.642628,cobot_dynamixel_driver/goal|-:J1,J2,J3,J4,J5,J6:0.000000,0.000000,0.523599,0.000000,0.000000,0.000000:0.250000,0.250000,0.250000,0.250000,0.250000,0.250000:pos_vel_
1549429016.760201,cobot_dynamixel_driver/goal|-:J3:-547.851562:eff_
1549429017.445922,cobot_dynamixel_driver/goal|-:J3:-557.851562:eff_
1549429018.066872,cobot_dynamixel_driver/goal|-:J3:-567.851562:eff_
1549429018.662624,cobot_dynamixel_driver/goal|-:J3:-577.851562:eff_
1549429019.256512,cobot_dynamixel_driver/goal|-:J3:-587.851562:eff_
1549429019.851055,cobot_dynamixel_driver/goal|-:J3:-597.851562:eff_
1549429020.473046,cobot_dynamixel_driver/goal|-:J3:-607.851562:eff_
1549429021.067608,cobot_dynamixel_driver/goal|-:J3:-617.851562:eff_
1549429021.662449,cobot_dynamixel_driver/goal|-:J3:-627.851562:eff_
1549429023.256670,cobot_dynamixel_driver/goal|-:J3:0.000000:eff_
1549429023.364755,cobot_dynamixel_driver/goal|-:J1,J2,J3,J4,J5,J6:0.000000,0.000000,0.523599,0.000000,0.000000,0.000000:0.250000,0.250000,0.250000,0.250000,0.250000,0.250000:pos_vel_
1549429024.076564,cobot_dynamixel_driver/goal|-:J3:-637.851562:eff_
1549429024.654555,cobot_dynamixel_driver/goal|-:J3:-647.851562:eff_
1549429025.276068,cobot_dynamixel_driver/goal|-:J3:-657.851562:eff_
1549429025.870673,cobot_dynamixel_driver/goal|-:J3:-667.851562:eff_
1549429026.464382,cobot_dynamixel_driver/goal|-:J3:-677.851562:eff_
1549429027.060335,cobot_dynamixel_driver/goal|-:J3:-687.851562:eff_
1549429027.654747,cobot_dynamixel_driver/goal|-:J3:-697.851562:eff_
1549429028.275445,cobot_dynamixel_driver/goal|-:J3:-707.851562:eff_
1549429028.870168,cobot_dynamixel_driver/goal|-:J3:-717.851562:eff_
1549429029.464739,cobot_dynamixel_driver/goal|-:J3:-727.851562:eff_
1549429030.060997,cobot_dynamixel_driver/goal|-:J3:-737.851562:eff_
1549429030.683414,cobot_dynamixel_driver/goal|-:J3:-747.851562:eff_
1549429031.278282,cobot_dynamixel_driver/goal|-:J3:0.000000:eff_
1549429031.386003,cobot_dynamixel_driver/goal|-:J1,J2,J3,J4,J5,J6:0.000000,0.000000,0.523599,0.000000,0.000000,0.000000:0.250000,0.250000,0.250000,0.250000,0.250000,0.250000:pos_vel_
1549429033.285343,cobot_dynamixel_driver/goal|-:J3:0.000000:eff_
1549429033.403790,cobot_dynamixel_driver/goal|-:J1,J2,J3,J4,J5,J6:0.000000,0.000000,0.436332,0.000000,0.000000,0.000000:0.250000,0.250000,0.250000,0.250000,0.250000,0.250000:pos_vel_
1549429035.088472,cobot_dynamixel_driver/goal|-:J3:-547.851562:eff_
1549429035.801548,cobot_dynamixel_driver/goal|-:J3:-557.851562:eff_
1549429036.396285,cobot_dynamixel_driver/goal|-:J3:-567.851562:eff_
1549429036.989922,cobot_dynamixel_driver/goal|-:J3:-577.851562:eff_
1549429037.584565,cobot_dynamixel_driver/goal|-:J3:-587.851562:eff_
1549429038.207752,cobot_dynamixel_driver/goal|-:J3:-597.851562:eff_
1549429038.803252,cobot_dynamixel_driver/goal|-:J3:-607.851562:eff_
1549429039.396696,cobot_dynamixel_driver/goal|-:J3:-617.851562:eff_
1549429039.990557,cobot_dynamixel_driver/goal|-:J3:-627.851562:eff_
1549429040.613323,cobot_dynamixel_driver/goal|-:J3:-637.851562:eff_
1549429041.207801,cobot_dynamixel_driver/goal|-:J3:-647.851562:eff_
1549429041.801433,cobot_dynamixel_driver/goal|-:J3:-657.851562:eff_
1549429042.397006,cobot_dynamixel_driver/goal|-:J3:-667.851562:eff_
1549429043.017743,cobot_dynamixel_driver/goal|-:J3:-677.851562:eff_
1549429043.611474,cobot_dynamixel_driver/goal|-:J3:-687.851562:eff_
1549429044.207246,cobot_dynamixel_driver/goal|-:J3:-697.851562:eff_
1549429044.800967,cobot_dynamixel_driver/goal|-:J3:-707.851562:eff_
1549429045.421781,cobot_dynamixel_driver/goal|-:J3:-717.851562:eff_
1549429046.015473,cobot_dynamixel_driver/goal|-:J3:-727.851562:eff_
1549429046.610368,cobot_dynamixel_driver/goal|-:J3:-737.851562:eff_
1549429047.204125,cobot_dynamixel_driver/goal|-:J3:-747.851562:eff_
1549429047.826017,cobot_dynamixel_driver/goal|-:J3:-757.851562:eff_
1549429048.420590,cobot_dynamixel_driver/goal|-:J3:-767.851562:eff_
1549429049.017323,cobot_dynamixel_driver/goal|-:J3:-777.851562:eff_
1549429049.611071,cobot_dynamixel_driver/goal|-:J3:-787.851562:eff_
1549429050.204909,cobot_dynamixel_driver/goal|-:J3:-797.851562:eff_
1549429050.826720,cobot_dynamixel_driver/goal|-:J3:-807.851562:eff_
1549429051.420311,cobot_dynamixel_driver/goal|-:J3:-817.851562:eff_
1549429052.016016,cobot_dynamixel_driver/goal|-:J3:-827.851562:eff_
1549429052.611668,cobot_dynamixel_driver/goal|-:J3:-837.851562:eff_
1549429053.232188,cobot_dynamixel_driver/goal|-:J3:-847.851562:eff_
1549429053.825732,cobot_dynamixel_driver/goal|-:J3:-857.851562:eff_
1549429054.419453,cobot_dynamixel_driver/goal|-:J3:-867.851562:eff_
1549429055.014230,cobot_dynamixel_driver/goal|-:J3:-877.851562:eff_
1549429055.636236,cobot_dynamixel_driver/goal|-:J3:-887.851562:eff_
1549429056.230636,cobot_dynamixel_driver/goal|-:J3:0.000000:eff_
1549429056.339603,cobot_dynamixel_driver/goal|-:J1,J2,J3,J4,J5,J6:0.000000,0.000000,0.436332,0.000000,0.000000,0.000000:0.250000,0.250000,0.250000,0.250000,0.250000,0.250000:pos_vel_
1549429058.539580,cobot_dynamixel_driver/goal|-:J3:0.000000:eff_
1549429058.630648,cobot_dynamixel_driver/goal|-:J1,J2,J3,J4,J5,J6:0.000000,0.000000,0.436332,0.000000,0.000000,0.000000:0.250000,0.250000,0.250000,0.250000,0.250000,0.250000:pos_vel_
1549429059.748198,cobot_dynamixel_driver/goal|-:J3:-596.191406:eff_
1549429060.432789,cobot_dynamixel_driver/goal|-:J3:-606.191406:eff_
1549429061.054683,cobot_dynamixel_driver/goal|-:J3:-616.191406:eff_
1549429061.649578,cobot_dynamixel_driver/goal|-:J3:-626.191406:eff_
1549429062.243405,cobot_dynamixel_driver/goal|-:J3:-636.191406:eff_
1549429062.836924,cobot_dynamixel_driver/goal|-:J3:-646.191406:eff_
1549429063.459570,cobot_dynamixel_driver/goal|-:J3:-656.191406:eff_
1549429064.055531,cobot_dynamixel_driver/goal|-:J3:-666.191406:eff_
1549429064.651322,cobot_dynamixel_driver/goal|-:J3:-676.191406:eff_
1549429065.245819,cobot_dynamixel_driver/goal|-:J3:-686.191406:eff_
1549429065.839361,cobot_dynamixel_driver/goal|-:J3:-696.191406:eff_
1549429066.460104,cobot_dynamixel_driver/goal|-:J3:-706.191406:eff_
1549429067.054896,cobot_dynamixel_driver/goal|-:J3:-716.191406:eff_
1549429067.649258,cobot_dynamixel_driver/goal|-:J3:-726.191406:eff_
1549429068.242965,cobot_dynamixel_driver/goal|-:J3:-736.191406:eff_
1549429068.865754,cobot_dynamixel_driver/goal|-:J3:-746.191406:eff_
1549429069.459574,cobot_dynamixel_driver/goal|-:J3:-756.191406:eff_
1549429070.054373,cobot_dynamixel_driver/goal|-:J3:-766.191406:eff_
1549429071.647604,cobot_dynamixel_driver/goal|-:J3:0.000000:eff_
1549429071.755513,cobot_dynamixel_driver/goal|-:J1,J2,J3,J4,J5,J6:0.000000,0.000000,0.436332,0.000000,0.000000,0.000000:0.250000,0.250000,0.250000,0.250000,0.250000,0.250000:pos_vel_
1549429072.062583,cobot_dynamixel_driver/goal|-:J3:-776.191406:eff_
1549429072.668356,cobot_dynamixel_driver/goal|-:J3:0.000000:eff_
1549429072.750237,cobot_dynamixel_driver/goal|-:J1,J2,J3,J4,J5,J6:0.000000,0.000000,0.436332,0.000000,0.000000,0.000000:0.250000,0.250000,0.250000,0.250000,0.250000,0.250000:pos_vel_
1549429074.191798,cobot_dynamixel_driver/goal|-:J3:0.000000:eff_
1549429074.282726,cobot_dynamixel_driver/goal|-:J1,J2,J3,J4,J5,J6:0.000000,0.000000,0.349066,0.000000,0.000000,0.000000:0.250000,0.250000,0.250000,0.250000,0.250000,0.250000:pos_vel_
1549429075.885242,cobot_dynamixel_driver/goal|-:J3:-660.644531:eff_
1549429076.597879,cobot_dynamixel_driver/goal|-:J3:-670.644531:eff_
1549429077.192671,cobot_dynamixel_driver/goal|-:J3:-680.644531:eff_
1549429077.787243,cobot_dynamixel_driver/goal|-:J3:-690.644531:eff_
1549429078.381918,cobot_dynamixel_driver/goal|-:J3:-700.644531:eff_
1549429079.003526,cobot_dynamixel_driver/goal|-:J3:-710.644531:eff_
1549429079.597134,cobot_dynamixel_driver/goal|-:J3:-720.644531:eff_
1549429080.190857,cobot_dynamixel_driver/goal|-:J3:-730.644531:eff_
1549429080.785708,cobot_dynamixel_driver/goal|-:J3:-740.644531:eff_
1549429081.407298,cobot_dynamixel_driver/goal|-:J3:-750.644531:eff_
1549429082.002367,cobot_dynamixel_driver/goal|-:J3:-760.644531:eff_
1549429082.596897,cobot_dynamixel_driver/goal|-:J3:-770.644531:eff_
1549429083.192644,cobot_dynamixel_driver/goal|-:J3:-780.644531:eff_
1549429083.786740,cobot_dynamixel_driver/goal|-:J3:-790.644531:eff_
1549429085.405562,cobot_dynamixel_driver/goal|-:J3:0.000000:eff_
1549429085.486907,cobot_dynamixel_driver/goal|-:J1,J2,J3,J4,J5,J6:0.000000,0.000000,0.349066,0.000000,0.000000,0.000000:0.250000,0.250000,0.250000,0.250000,0.250000,0.250000:pos_vel_
1549429086.090547,cobot_dynamixel_driver/goal|-:J3:-800.644531:eff_
1549429087.693661,cobot_dynamixel_driver/goal|-:J3:0.000000:eff_
1549429087.801686,cobot_dynamixel_driver/goal|-:J1,J2,J3,J4,J5,J6:0.000000,0.000000,0.349066,0.000000,0.000000,0.000000:0.250000,0.250000,0.250000,0.250000,0.250000,0.250000:pos_vel_
1549429088.298504,cobot_dynamixel_driver/goal|-:J3:-810.644531:eff_
1549429089.227069,cobot_dynamixel_driver/goal|-:J3:0.000000:eff_
1549429089.307992,cobot_dynamixel_driver/goal|-:J1,J2,J3,J4,J5,J6:0.000000,0.000000,0.349066,0.000000,0.000000,0.000000:0.250000,0.250000,0.250000,0.250000,0.250000,0.250000:pos_vel_
1549429090.748338,cobot_dynamixel_driver/goal|-:J3:0.000000:eff_
1549429090.839344,cobot_dynamixel_driver/goal|-:J1,J2,J3,J4,J5,J6:0.000000,0.000000,0.349066,0.000000,0.000000,0.000000:0.250000,0.250000,0.250000,0.250000,0.250000,0.250000:pos_vel_
1549429091.928996,cobot_dynamixel_driver/goal|-:J3:-676.757812:eff_
1549429092.642399,cobot_dynamixel_driver/goal|-:J3:-686.757812:eff_
1549429093.235962,cobot_dynamixel_driver/goal|-:J3:-696.757812:eff_
1549429093.830572,cobot_dynamixel_driver/goal|-:J3:-706.757812:eff_
1549429094.451665,cobot_dynamixel_driver/goal|-:J3:-716.757812:eff_
1549429095.046172,cobot_dynamixel_driver/goal|-:J3:-726.757812:eff_
1549429095.640882,cobot_dynamixel_driver/goal|-:J3:-736.757812:eff_
1549429096.234705,cobot_dynamixel_driver/goal|-:J3:-746.757812:eff_
1549429096.855459,cobot_dynamixel_driver/goal|-:J3:-756.757812:eff_
1549429097.449121,cobot_dynamixel_driver/goal|-:J3:-766.757812:eff_
1549429098.042916,cobot_dynamixel_driver/goal|-:J3:-776.757812:eff_
1549429098.663507,cobot_dynamixel_driver/goal|-:J3:-786.757812:eff_
1549429099.259650,cobot_dynamixel_driver/goal|-:J3:-796.757812:eff_
1549429099.853447,cobot_dynamixel_driver/goal|-:J3:-806.757812:eff_
1549429100.446824,cobot_dynamixel_driver/goal|-:J3:-816.757812:eff_
1549429101.067571,cobot_dynamixel_driver/goal|-:J3:-826.757812:eff_
1549429101.664256,cobot_dynamixel_driver/goal|-:J3:-836.757812:eff_
1549429102.259121,cobot_dynamixel_driver/goal|-:J3:-846.757812:eff_
1549429102.853817,cobot_dynamixel_driver/goal|-:J3:-856.757812:eff_
1549429103.449525,cobot_dynamixel_driver/goal|-:J3:-866.757812:eff_
1549429104.070278,cobot_dynamixel_driver/goal|-:J3:-876.757812:eff_
1549429104.664028,cobot_dynamixel_driver/goal|-:J3:-886.757812:eff_
1549429105.258925,cobot_dynamixel_driver/goal|-:J3:0.000000:eff_
1549429105.366624,cobot_dynamixel_driver/goal|-:J1,J2,J3,J4,J5,J6:0.000000,0.000000,0.349066,0.000000,0.000000,0.000000:0.250000,0.250000,0.250000,0.250000,0.250000,0.250000:pos_vel_
1549429107.377402,cobot_dynamixel_driver/goal|-:J3:0.000000:eff_
1549429107.495852,cobot_dynamixel_driver/goal|-:J1,J2,J3,J4,J5,J6:0.000000,0.000000,0.261799,0.000000,0.000000,0.000000:0.250000,0.250000,0.250000,0.250000,0.250000,0.250000:pos_vel_
1549429109.073691,cobot_dynamixel_driver/goal|-:J3:-870.117188:eff_
1549429109.785477,cobot_dynamixel_driver/goal|-:J1,J2,J3,J4,J5,J6:0.000000,0.000000,0.261799,0.000000,0.000000,0.000000:0.250000,0.250000,0.250000,0.250000,0.250000,0.250000:pos_vel_
1549429110.578363,cobot_dynamixel_driver/goal|-:J3:-860.117188:eff_
1549429111.182080,cobot_dynamixel_driver/goal|-:J1,J2,J3,J4,J5,J6:0.000000,0.000000,0.261799,0.000000,0.000000,0.000000:0.250000,0.250000,0.250000,0.250000,0.250000,0.250000:pos_vel_
1549429111.895960,cobot_dynamixel_driver/goal|-:J3:-850.117188:eff_
1549429112.499472,cobot_dynamixel_driver/goal|-:J1,J2,J3,J4,J5,J6:0.000000,0.000000,0.261799,0.000000,0.000000,0.000000:0.250000,0.250000,0.250000,0.250000,0.250000,0.250000:pos_vel_
1549429113.292143,cobot_dynamixel_driver/goal|-:J3:-840.117188:eff_
1549429113.897174,cobot_dynamixel_driver/goal|-:J1,J2,J3,J4,J5,J6:0.000000,0.000000,0.261799,0.000000,0.000000,0.000000:0.250000,0.250000,0.250000,0.250000,0.250000,0.250000:pos_vel_
1549429114.582624,cobot_dynamixel_driver/goal|-:J3:-830.117188:eff_
1549429115.187384,cobot_dynamixel_driver/goal|-:J1,J2,J3,J4,J5,J6:0.000000,0.000000,0.261799,0.000000,0.000000,0.000000:0.250000,0.250000,0.250000,0.250000,0.250000,0.250000:pos_vel_
1549429115.901443,cobot_dynamixel_driver/goal|-:J3:-820.117188:eff_
1549429117.476210,cobot_dynamixel_driver/goal|-:J3:0.000000:eff_
1549429117.584224,cobot_dynamixel_driver/goal|-:J1,J2,J3,J4,J5,J6:0.000000,0.000000,0.261799,0.000000,0.000000,0.000000:0.250000,0.250000,0.250000,0.250000,0.250000,0.250000:pos_vel_
1549429118.080006,cobot_dynamixel_driver/goal|-:J3:-830.117188:eff_
1549429118.872439,cobot_dynamixel_driver/goal|-:J3:0.000000:eff_
1549429118.954565,cobot_dynamixel_driver/goal|-:J1,J2,J3,J4,J5,J6:0.000000,0.000000,0.261799,0.000000,0.000000,0.000000:0.250000,0.250000,0.250000,0.250000,0.250000,0.250000:pos_vel_
1549429120.774462,cobot_dynamixel_driver/goal|-:J3:0.000000:eff_
1549429120.892452,cobot_dynamixel_driver/goal|-:J1,J2,J3,J4,J5,J6:0.000000,0.000000,0.261799,0.000000,0.000000,0.000000:0.250000,0.250000,0.250000,0.250000,0.250000,0.250000:pos_vel_
1549429122.198973,cobot_dynamixel_driver/goal|-:J3:-692.871094:eff_
1549429122.884531,cobot_dynamixel_driver/goal|-:J3:-702.871094:eff_
1549429123.478267,cobot_dynamixel_driver/goal|-:J3:-712.871094:eff_
1549429124.099015,cobot_dynamixel_driver/goal|-:J3:-722.871094:eff_
1549429124.692798,cobot_dynamixel_driver/goal|-:J3:-732.871094:eff_
1549429125.287549,cobot_dynamixel_driver/goal|-:J3:-742.871094:eff_
1549429125.881626,cobot_dynamixel_driver/goal|-:J3:-752.871094:eff_
1549429126.502015,cobot_dynamixel_driver/goal|-:J3:-762.871094:eff_
1549429127.096894,cobot_dynamixel_driver/goal|-:J3:-772.871094:eff_
1549429127.691662,cobot_dynamixel_driver/goal|-:J3:-782.871094:eff_
1549429128.285387,cobot_dynamixel_driver/goal|-:J3:-792.871094:eff_
1549429128.907316,cobot_dynamixel_driver/goal|-:J3:-802.871094:eff_
1549429129.502851,cobot_dynamixel_driver/goal|-:J3:-812.871094:eff_
1549429130.098344,cobot_dynamixel_driver/goal|-:J3:-822.871094:eff_
1549429130.693056,cobot_dynamixel_driver/goal|-:J3:-832.871094:eff_
1549429131.286726,cobot_dynamixel_driver/goal|-:J3:-842.871094:eff_
1549429131.907269,cobot_dynamixel_driver/goal|-:J3:-852.871094:eff_
1549429132.503041,cobot_dynamixel_driver/goal|-:J3:-862.871094:eff_
1549429133.098652,cobot_dynamixel_driver/goal|-:J3:-872.871094:eff_
1549429133.692472,cobot_dynamixel_driver/goal|-:J3:0.000000:eff_
1549429133.800379,cobot_dynamixel_driver/goal|-:J1,J2,J3,J4,J5,J6:0.000000,0.000000,0.261799,0.000000,0.000000,0.000000:0.250000,0.250000,0.250000,0.250000,0.250000,0.250000:pos_vel_
1549429135.835549,cobot_dynamixel_driver/goal|-:J3:0.000000:eff_
1549429135.926569,cobot_dynamixel_driver/goal|-:J1,J2,J3,J4,J5,J6:0.000000,0.000000,0.174533,0.000000,0.000000,0.000000:0.250000,0.250000,0.250000,0.250000,0.250000,0.250000:pos_vel_
1549429137.529781,cobot_dynamixel_driver/goal|-:J3:-886.230469:eff_
1549429138.215709,cobot_dynamixel_driver/goal|-:J1,J2,J3,J4,J5,J6:0.000000,0.000000,0.174533,0.000000,0.000000,0.000000:0.250000,0.250000,0.250000,0.250000,0.250000,0.250000:pos_vel_
1549429138.927267,cobot_dynamixel_driver/goal|-:J3:-876.230469:eff_
1549429139.532185,cobot_dynamixel_driver/goal|-:J1,J2,J3,J4,J5,J6:0.000000,0.000000,0.174533,0.000000,0.000000,0.000000:0.250000,0.250000,0.250000,0.250000,0.250000,0.250000:pos_vel_
1549429140.216874,cobot_dynamixel_driver/goal|-:J3:-866.230469:eff_
1549429141.820042,cobot_dynamixel_driver/goal|-:J3:0.000000:eff_
1549429141.928113,cobot_dynamixel_driver/goal|-:J1,J2,J3,J4,J5,J6:0.000000,0.000000,0.174533,0.000000,0.000000,0.000000:0.250000,0.250000,0.250000,0.250000,0.250000,0.250000:pos_vel_
1549429142.532775,cobot_dynamixel_driver/goal|-:J3:-876.230469:eff_
1549429143.244377,cobot_dynamixel_driver/goal|-:J3:0.000000:eff_
1549429143.325337,cobot_dynamixel_driver/goal|-:J1,J2,J3,J4,J5,J6:0.000000,0.000000,0.174533,0.000000,0.000000,0.000000:0.250000,0.250000,0.250000,0.250000,0.250000,0.250000:pos_vel_
1549429145.333506,cobot_dynamixel_driver/goal|-:J3:0.000000:eff_
1549429145.451378,cobot_dynamixel_driver/goal|-:J1,J2,J3,J4,J5,J6:0.000000,0.000000,0.174533,0.000000,0.000000,0.000000:0.250000,0.250000,0.250000,0.250000,0.250000,0.250000:pos_vel_
1549429146.649482,cobot_dynamixel_driver/goal|-:J3:-821.777344:eff_
1549429147.335231,cobot_dynamixel_driver/goal|-:J3:-831.777344:eff_
1549429147.956876,cobot_dynamixel_driver/goal|-:J3:-841.777344:eff_
1549429148.551627,cobot_dynamixel_driver/goal|-:J3:-851.777344:eff_
1549429149.145492,cobot_dynamixel_driver/goal|-:J3:-861.777344:eff_
1549429149.740338,cobot_dynamixel_driver/goal|-:J3:-871.777344:eff_
1549429150.334912,cobot_dynamixel_driver/goal|-:J3:-881.777344:eff_
1549429150.956529,cobot_dynamixel_driver/goal|-:J3:-891.777344:eff_
1549429151.550359,cobot_dynamixel_driver/goal|-:J3:-901.777344:eff_
1549429152.145094,cobot_dynamixel_driver/goal|-:J3:-911.777344:eff_
1549429152.741774,cobot_dynamixel_driver/goal|-:J3:-921.777344:eff_
1549429153.362586,cobot_dynamixel_driver/goal|-:J3:-931.777344:eff_
1549429153.957333,cobot_dynamixel_driver/goal|-:J3:-941.777344:eff_
1549429154.551104,cobot_dynamixel_driver/goal|-:J3:0.000000:eff_
1549429154.660014,cobot_dynamixel_driver/goal|-:J1,J2,J3,J4,J5,J6:0.000000,0.000000,0.174533,0.000000,0.000000,0.000000:0.250000,0.250000,0.250000,0.250000,0.250000,0.250000:pos_vel_
1549429156.559067,cobot_dynamixel_driver/goal|-:J3:0.000000:eff_
1549429156.677571,cobot_dynamixel_driver/goal|-:J1,J2,J3,J4,J5,J6:0.000000,0.000000,0.087266,0.000000,0.000000,0.000000:0.250000,0.250000,0.250000,0.250000,0.250000,0.250000:pos_vel_
1549429158.577351,cobot_dynamixel_driver/goal|-:J3:-902.343750:eff_
1549429159.261574,cobot_dynamixel_driver/goal|-:J1,J2,J3,J4,J5,J6:0.000000,0.000000,0.087266,0.000000,0.000000,0.000000:0.250000,0.250000,0.250000,0.250000,0.250000,0.250000:pos_vel_
1549429160.163200,cobot_dynamixel_driver/goal|-:J3:-892.343750:eff_
1549429160.767868,cobot_dynamixel_driver/goal|-:J1,J2,J3,J4,J5,J6:0.000000,0.000000,0.087266,0.000000,0.000000,0.000000:0.250000,0.250000,0.250000,0.250000,0.250000,0.250000:pos_vel_
1549429161.561508,cobot_dynamixel_driver/goal|-:J3:-882.343750:eff_
1549429162.167357,cobot_dynamixel_driver/goal|-:J1,J2,J3,J4,J5,J6:0.000000,0.000000,0.087266,0.000000,0.000000,0.000000:0.250000,0.250000,0.250000,0.250000,0.250000,0.250000:pos_vel_
1549429162.880821,cobot_dynamixel_driver/goal|-:J3:-872.343750:eff_
1549429163.485518,cobot_dynamixel_driver/goal|-:J1,J2,J3,J4,J5,J6:0.000000,0.000000,0.087266,0.000000,0.000000,0.000000:0.250000,0.250000,0.250000,0.250000,0.250000,0.250000:pos_vel_
1549429164.279522,cobot_dynamixel_driver/goal|-:J3:-862.343750:eff_
1549429164.883984,cobot_dynamixel_driver/goal|-:J1,J2,J3,J4,J5,J6:0.000000,0.000000,0.087266,0.000000,0.000000,0.000000:0.250000,0.250000,0.250000,0.250000,0.250000,0.250000:pos_vel_
1549429165.569728,cobot_dynamixel_driver/goal|-:J3:-852.343750:eff_
1549429166.364352,cobot_dynamixel_driver/goal|-:J3:0.000000:eff_
1549429166.446294,cobot_dynamixel_driver/goal|-:J1,J2,J3,J4,J5,J6:0.000000,0.000000,0.087266,0.000000,0.000000,0.000000:0.250000,0.250000,0.250000,0.250000,0.250000,0.250000:pos_vel_
1549429168.185632,cobot_dynamixel_driver/goal|-:J3:0.000000:eff_
1549429168.276514,cobot_dynamixel_driver/goal|-:J1,J2,J3,J4,J5,J6:0.000000,0.000000,0.087266,0.000000,0.000000,0.000000:0.250000,0.250000,0.250000,0.250000,0.250000,0.250000:pos_vel_
1549429169.473896,cobot_dynamixel_driver/goal|-:J3:-612.304688:eff_
1549429170.185446,cobot_dynamixel_driver/goal|-:J3:-622.304688:eff_
1549429170.779396,cobot_dynamixel_driver/goal|-:J3:-632.304688:eff_
1549429171.373993,cobot_dynamixel_driver/goal|-:J3:-642.304688:eff_
1549429171.967234,cobot_dynamixel_driver/goal|-:J3:-652.304688:eff_
1549429172.588039,cobot_dynamixel_driver/goal|-:J3:-662.304688:eff_
1549429173.183068,cobot_dynamixel_driver/goal|-:J3:-672.304688:eff_
1549429173.776579,cobot_dynamixel_driver/goal|-:J3:-682.304688:eff_
1549429174.397174,cobot_dynamixel_driver/goal|-:J3:-692.304688:eff_
1549429174.992867,cobot_dynamixel_driver/goal|-:J3:-702.304688:eff_
1549429175.586681,cobot_dynamixel_driver/goal|-:J3:-712.304688:eff_
1549429176.181686,cobot_dynamixel_driver/goal|-:J3:-722.304688:eff_
1549429176.776381,cobot_dynamixel_driver/goal|-:J3:-732.304688:eff_
1549429177.397224,cobot_dynamixel_driver/goal|-:J3:-742.304688:eff_
1549429177.991658,cobot_dynamixel_driver/goal|-:J3:-752.304688:eff_
1549429178.586626,cobot_dynamixel_driver/goal|-:J3:-762.304688:eff_
1549429179.181509,cobot_dynamixel_driver/goal|-:J3:-772.304688:eff_
1549429179.803240,cobot_dynamixel_driver/goal|-:J3:-782.304688:eff_
1549429180.398628,cobot_dynamixel_driver/goal|-:J3:-792.304688:eff_
1549429180.992549,cobot_dynamixel_driver/goal|-:J3:-802.304688:eff_
1549429181.587136,cobot_dynamixel_driver/goal|-:J3:-812.304688:eff_
1549429182.182869,cobot_dynamixel_driver/goal|-:J3:-822.304688:eff_
1549429182.804609,cobot_dynamixel_driver/goal|-:J3:-832.304688:eff_
1549429183.399331,cobot_dynamixel_driver/goal|-:J3:-842.304688:eff_
1549429183.993732,cobot_dynamixel_driver/goal|-:J3:-852.304688:eff_
1549429184.589437,cobot_dynamixel_driver/goal|-:J3:-862.304688:eff_
1549429185.212099,cobot_dynamixel_driver/goal|-:J3:-872.304688:eff_
1549429185.806853,cobot_dynamixel_driver/goal|-:J3:-882.304688:eff_
1549429186.400485,cobot_dynamixel_driver/goal|-:J3:-892.304688:eff_
1549429186.994241,cobot_dynamixel_driver/goal|-:J3:-902.304688:eff_
1549429187.616983,cobot_dynamixel_driver/goal|-:J3:-912.304688:eff_
1549429188.589426,cobot_dynamixel_driver/goal|-:J3:0.000000:eff_
1549429188.670380,cobot_dynamixel_driver/goal|-:J1,J2,J3,J4,J5,J6:0.000000,0.000000,0.087266,0.000000,0.000000,0.000000:0.250000,0.250000,0.250000,0.250000,0.250000,0.250000:pos_vel_
1549429190.489757,cobot_dynamixel_driver/goal|-:J3:0.000000:eff_
1549429190.580722,cobot_dynamixel_driver/goal|-:J1,J2,J3,J4,J5,J6:0.000000,0.000000,0.000000,0.000000,0.000000,0.000000:0.250000,0.250000,0.250000,0.250000,0.250000,0.250000:pos_vel_
1549429192.102106,cobot_dynamixel_driver/goal|-:J3:-805.664062:eff_
1549429192.786721,cobot_dynamixel_driver/goal|-:J3:-815.664062:eff_
1549429193.381543,cobot_dynamixel_driver/goal|-:J3:-825.664062:eff_
1549429194.002594,cobot_dynamixel_driver/goal|-:J3:-835.664062:eff_
1549429194.596019,cobot_dynamixel_driver/goal|-:J3:-845.664062:eff_
1549429195.190977,cobot_dynamixel_driver/goal|-:J3:-855.664062:eff_
1549429195.785542,cobot_dynamixel_driver/goal|-:J3:-865.664062:eff_
1549429196.406996,cobot_dynamixel_driver/goal|-:J3:-875.664062:eff_
1549429197.000680,cobot_dynamixel_driver/goal|-:J3:-885.664062:eff_
1549429197.595568,cobot_dynamixel_driver/goal|-:J3:-895.664062:eff_
1549429198.189893,cobot_dynamixel_driver/goal|-:J3:-905.664062:eff_
1549429198.811626,cobot_dynamixel_driver/goal|-:J3:-915.664062:eff_
1549429199.405390,cobot_dynamixel_driver/goal|-:J3:-925.664062:eff_
1549429200.350850,cobot_dynamixel_driver/goal|-:J3:0.000000:eff_
1549429200.431915,cobot_dynamixel_driver/goal|-:J1,J2,J3,J4,J5,J6:0.000000,0.000000,0.000000,0.000000,0.000000,0.000000:0.250000,0.250000,0.250000,0.250000,0.250000,0.250000:pos_vel_
1549429202.438991,cobot_dynamixel_driver/goal|-:J3:0.000000:eff_
1549429202.557580,cobot_dynamixel_driver/goal|-:J1,J2,J3,J4,J5,J6:0.000000,0.000000,0.000000,0.000000,0.000000,0.000000:0.250000,0.250000,0.250000,0.250000,0.250000,0.250000:pos_vel_
1549429203.757687,cobot_dynamixel_driver/goal|-:J3:-708.984375:eff_
1549429204.442290,cobot_dynamixel_driver/goal|-:J3:-718.984375:eff_
1549429205.037057,cobot_dynamixel_driver/goal|-:J3:-728.984375:eff_
1549429205.657788,cobot_dynamixel_driver/goal|-:J3:-738.984375:eff_
1549429206.251576,cobot_dynamixel_driver/goal|-:J3:-748.984375:eff_
1549429206.845288,cobot_dynamixel_driver/goal|-:J3:-758.984375:eff_
1549429207.441122,cobot_dynamixel_driver/goal|-:J3:-768.984375:eff_
1549429208.061890,cobot_dynamixel_driver/goal|-:J3:-778.984375:eff_
1549429208.655761,cobot_dynamixel_driver/goal|-:J3:-788.984375:eff_
1549429209.251156,cobot_dynamixel_driver/goal|-:J3:-798.984375:eff_
1549429209.846786,cobot_dynamixel_driver/goal|-:J3:-808.984375:eff_
1549429210.467446,cobot_dynamixel_driver/goal|-:J3:-818.984375:eff_
1549429211.062115,cobot_dynamixel_driver/goal|-:J3:-828.984375:eff_
1549429211.655809,cobot_dynamixel_driver/goal|-:J3:-838.984375:eff_
1549429212.249365,cobot_dynamixel_driver/goal|-:J3:-848.984375:eff_
1549429212.870040,cobot_dynamixel_driver/goal|-:J3:-858.984375:eff_
1549429213.466040,cobot_dynamixel_driver/goal|-:J3:-868.984375:eff_
1549429214.060663,cobot_dynamixel_driver/goal|-:J3:-878.984375:eff_
1549429214.654475,cobot_dynamixel_driver/goal|-:J3:-888.984375:eff_
1549429215.275444,cobot_dynamixel_driver/goal|-:J3:-898.984375:eff_
1549429215.868903,cobot_dynamixel_driver/goal|-:J3:-908.984375:eff_
1549429216.463927,cobot_dynamixel_driver/goal|-:J3:-918.984375:eff_
1549429217.058450,cobot_dynamixel_driver/goal|-:J3:-928.984375:eff_
1549429217.680518,cobot_dynamixel_driver/goal|-:J3:-938.984375:eff_
1549429218.276188,cobot_dynamixel_driver/goal|-:J3:-948.984375:eff_
1549429218.871673,cobot_dynamixel_driver/goal|-:J3:-958.984375:eff_
1549429219.467255,cobot_dynamixel_driver/goal|-:J3:0.000000:eff_
1549429219.575257,cobot_dynamixel_driver/goal|-:J1,J2,J3,J4,J5,J6:0.000000,0.000000,0.000000,0.000000,0.000000,0.000000:0.250000,0.250000,0.250000,0.250000,0.250000,0.250000:pos_vel_
1549429221.394446,cobot_dynamixel_driver/goal|-:J3:0.000000:eff_
1549429221.485477,cobot_dynamixel_driver/goal|-:J1,J2,J3,J4,J5,J6:0.000000,0.000000,-0.087266,0.000000,0.000000,0.000000:0.250000,0.250000,0.250000,0.250000,0.250000,0.250000:pos_vel_
1549429223.197353,cobot_dynamixel_driver/goal|-:J3:-886.230469:eff_
1549429223.882166,cobot_dynamixel_driver/goal|-:J3:-896.230469:eff_
1549429224.502700,cobot_dynamixel_driver/goal|-:J3:-906.230469:eff_
1549429225.096253,cobot_dynamixel_driver/goal|-:J3:-916.230469:eff_
1549429225.690114,cobot_dynamixel_driver/goal|-:J3:-926.230469:eff_
1549429226.284774,cobot_dynamixel_driver/goal|-:J3:-936.230469:eff_
1549429226.906717,cobot_dynamixel_driver/goal|-:J3:-946.230469:eff_
1549429227.501197,cobot_dynamixel_driver/goal|-:J3:-956.230469:eff_
1549429228.095975,cobot_dynamixel_driver/goal|-:J3:-966.230469:eff_
1549429228.690672,cobot_dynamixel_driver/goal|-:J3:-976.230469:eff_
1549429229.311398,cobot_dynamixel_driver/goal|-:J3:-986.230469:eff_
1549429229.905036,cobot_dynamixel_driver/goal|-:J3:-996.230469:eff_
1549429230.499805,cobot_dynamixel_driver/goal|-:J3:-1006.230469:eff_
1549429231.094644,cobot_dynamixel_driver/goal|-:J3:-1016.230469:eff_
1549429231.716324,cobot_dynamixel_driver/goal|-:J3:-1026.230469:eff_
1549429232.309982,cobot_dynamixel_driver/goal|-:J3:-1036.230469:eff_
1549429232.904227,cobot_dynamixel_driver/goal|-:J3:-1046.230469:eff_
1549429233.498654,cobot_dynamixel_driver/goal|-:J3:-1056.230469:eff_
1549429234.120259,cobot_dynamixel_driver/goal|-:J3:-1066.230469:eff_
1549429234.714372,cobot_dynamixel_driver/goal|-:J3:-1076.230469:eff_
1549429235.308844,cobot_dynamixel_driver/goal|-:J3:-1086.230469:eff_
1549429235.902576,cobot_dynamixel_driver/goal|-:J3:0.000000:eff_
1549429236.012291,cobot_dynamixel_driver/goal|-:J1,J2,J3,J4,J5,J6:0.000000,0.000000,-0.087266,0.000000,0.000000,0.000000:0.250000,0.250000,0.250000,0.250000,0.250000,0.250000:pos_vel_
1549429238.532934,cobot_dynamixel_driver/goal|-:J3:0.000000:eff_
1549429238.623923,cobot_dynamixel_driver/goal|-:J1,J2,J3,J4,J5,J6:0.000000,0.000000,-0.087266,0.000000,0.000000,0.000000:0.250000,0.250000,0.250000,0.250000,0.250000,0.250000:pos_vel_
1549429239.821418,cobot_dynamixel_driver/goal|-:J3:-660.644531:eff_
1549429240.533507,cobot_dynamixel_driver/goal|-:J3:-670.644531:eff_
1549429241.126888,cobot_dynamixel_driver/goal|-:J3:-680.644531:eff_
1549429241.720810,cobot_dynamixel_driver/goal|-:J3:-690.644531:eff_
1549429242.341350,cobot_dynamixel_driver/goal|-:J3:-700.644531:eff_
1549429242.936108,cobot_dynamixel_driver/goal|-:J3:-710.644531:eff_
1549429243.531114,cobot_dynamixel_driver/goal|-:J3:-720.644531:eff_
1549429244.124534,cobot_dynamixel_driver/goal|-:J3:-730.644531:eff_
1549429244.746244,cobot_dynamixel_driver/goal|-:J3:-740.644531:eff_
1549429245.340194,cobot_dynamixel_driver/goal|-:J3:-750.644531:eff_
1549429245.934779,cobot_dynamixel_driver/goal|-:J3:-760.644531:eff_
1549429246.529742,cobot_dynamixel_driver/goal|-:J3:-770.644531:eff_
1549429247.150131,cobot_dynamixel_driver/goal|-:J3:-780.644531:eff_
1549429247.743886,cobot_dynamixel_driver/goal|-:J3:-790.644531:eff_
1549429248.338778,cobot_dynamixel_driver/goal|-:J3:-800.644531:eff_
1549429248.933111,cobot_dynamixel_driver/goal|-:J3:-810.644531:eff_
1549429249.554764,cobot_dynamixel_driver/goal|-:J3:-820.644531:eff_
1549429250.149445,cobot_dynamixel_driver/goal|-:J3:-830.644531:eff_
1549429250.742988,cobot_dynamixel_driver/goal|-:J3:-840.644531:eff_
1549429251.336661,cobot_dynamixel_driver/goal|-:J3:-850.644531:eff_
1549429251.958720,cobot_dynamixel_driver/goal|-:J3:-860.644531:eff_
1549429252.553084,cobot_dynamixel_driver/goal|-:J3:-870.644531:eff_
1549429253.146891,cobot_dynamixel_driver/goal|-:J3:-880.644531:eff_
1549429253.740718,cobot_dynamixel_driver/goal|-:J3:-890.644531:eff_
1549429254.361277,cobot_dynamixel_driver/goal|-:J3:-900.644531:eff_
1549429254.956236,cobot_dynamixel_driver/goal|-:J3:-910.644531:eff_
1549429255.550735,cobot_dynamixel_driver/goal|-:J3:-920.644531:eff_
1549429256.145492,cobot_dynamixel_driver/goal|-:J3:-930.644531:eff_
1549429256.767607,cobot_dynamixel_driver/goal|-:J3:-940.644531:eff_
1549429257.361167,cobot_dynamixel_driver/goal|-:J3:-950.644531:eff_
1549429257.955801,cobot_dynamixel_driver/goal|-:J3:-960.644531:eff_
1549429258.929302,cobot_dynamixel_driver/goal|-:J3:0.000000:eff_
1549429259.010617,cobot_dynamixel_driver/goal|-:J1,J2,J3,J4,J5,J6:0.000000,0.000000,-0.087266,0.000000,0.000000,0.000000:0.250000,0.250000,0.250000,0.250000,0.250000,0.250000:pos_vel_
1549429260.641000,cobot_dynamixel_driver/goal|-:J3:0.000000:eff_
1549429260.731533,cobot_dynamixel_driver/goal|-:J1,J2,J3,J4,J5,J6:0.000000,0.000000,-0.174533,0.000000,0.000000,0.000000:0.250000,0.250000,0.250000,0.250000,0.250000,0.250000:pos_vel_
1549429262.333579,cobot_dynamixel_driver/goal|-:J3:-837.890625:eff_
1549429263.019583,cobot_dynamixel_driver/goal|-:J3:-847.890625:eff_
1549429263.641934,cobot_dynamixel_driver/goal|-:J3:-857.890625:eff_
1549429264.237322,cobot_dynamixel_driver/goal|-:J3:-867.890625:eff_
1549429264.832030,cobot_dynamixel_driver/goal|-:J3:-877.890625:eff_
1549429265.426665,cobot_dynamixel_driver/goal|-:J3:-887.890625:eff_
1549429266.047466,cobot_dynamixel_driver/goal|-:J3:-897.890625:eff_
1549429266.641366,cobot_dynamixel_driver/goal|-:J3:-907.890625:eff_
1549429267.234898,cobot_dynamixel_driver/goal|-:J3:-917.890625:eff_
1549429267.829708,cobot_dynamixel_driver/goal|-:J3:-927.890625:eff_
1549429268.451341,cobot_dynamixel_driver/goal|-:J3:-937.890625:eff_
1549429269.045196,cobot_dynamixel_driver/goal|-:J3:-947.890625:eff_
1549429269.638788,cobot_dynamixel_driver/goal|-:J3:-957.890625:eff_
1549429270.232527,cobot_dynamixel_driver/goal|-:J3:-967.890625:eff_
1549429270.853480,cobot_dynamixel_driver/goal|-:J3:0.000000:eff_
1549429270.935236,cobot_dynamixel_driver/goal|-:J1,J2,J3,J4,J5,J6:0.000000,0.000000,-0.174533,0.000000,0.000000,0.000000:0.250000,0.250000,0.250000,0.250000,0.250000,0.250000:pos_vel_
1549429273.077250,cobot_dynamixel_driver/goal|-:J3:0.000000:eff_
1549429273.168238,cobot_dynamixel_driver/goal|-:J1,J2,J3,J4,J5,J6:0.000000,0.000000,-0.174533,0.000000,0.000000,0.000000:0.250000,0.250000,0.250000,0.250000,0.250000,0.250000:pos_vel_
1549429274.177030,cobot_dynamixel_driver/goal|-:J3:-612.304688:eff_
1549429274.862364,cobot_dynamixel_driver/goal|-:J3:-622.304688:eff_
1549429275.483098,cobot_dynamixel_driver/goal|-:J3:-632.304688:eff_
1549429276.076581,cobot_dynamixel_driver/goal|-:J3:-642.304688:eff_
1549429276.670355,cobot_dynamixel_driver/goal|-:J3:-652.304688:eff_
1549429277.263953,cobot_dynamixel_driver/goal|-:J3:-662.304688:eff_
1549429277.884526,cobot_dynamixel_driver/goal|-:J3:-672.304688:eff_
1549429278.478260,cobot_dynamixel_driver/goal|-:J3:-682.304688:eff_
1549429279.072949,cobot_dynamixel_driver/goal|-:J3:-692.304688:eff_
1549429279.666667,cobot_dynamixel_driver/goal|-:J3:-702.304688:eff_
1549429280.288258,cobot_dynamixel_driver/goal|-:J3:-712.304688:eff_
1549429280.882159,cobot_dynamixel_driver/goal|-:J3:-722.304688:eff_
1549429281.476900,cobot_dynamixel_driver/goal|-:J3:-732.304688:eff_
1549429282.070563,cobot_dynamixel_driver/goal|-:J3:-742.304688:eff_
1549429282.693454,cobot_dynamixel_driver/goal|-:J3:-752.304688:eff_
1549429283.288066,cobot_dynamixel_driver/goal|-:J3:-762.304688:eff_
1549429283.882175,cobot_dynamixel_driver/goal|-:J3:-772.304688:eff_
1549429284.475593,cobot_dynamixel_driver/goal|-:J3:-782.304688:eff_
1549429285.097321,cobot_dynamixel_driver/goal|-:J3:-792.304688:eff_
1549429285.691010,cobot_dynamixel_driver/goal|-:J3:-802.304688:eff_
1549429286.284713,cobot_dynamixel_driver/goal|-:J3:-812.304688:eff_
1549429286.878350,cobot_dynamixel_driver/goal|-:J3:-822.304688:eff_
1549429287.499075,cobot_dynamixel_driver/goal|-:J3:-832.304688:eff_
1549429288.092894,cobot_dynamixel_driver/goal|-:J3:-842.304688:eff_
1549429288.687239,cobot_dynamixel_driver/goal|-:J3:-852.304688:eff_
1549429289.281156,cobot_dynamixel_driver/goal|-:J3:-862.304688:eff_
1549429289.902518,cobot_dynamixel_driver/goal|-:J3:-872.304688:eff_
1549429290.927936,cobot_dynamixel_driver/goal|-:J3:0.000000:eff_
1549429291.008895,cobot_dynamixel_driver/goal|-:J1,J2,J3,J4,J5,J6:0.000000,0.000000,-0.174533,0.000000,0.000000,0.000000:0.250000,0.250000,0.250000,0.250000,0.250000,0.250000:pos_vel_
1549429292.640234,cobot_dynamixel_driver/goal|-:J3:0.000000:eff_
1549429292.731207,cobot_dynamixel_driver/goal|-:J1,J2,J3,J4,J5,J6:0.000000,0.000000,-0.261799,0.000000,0.000000,0.000000:0.250000,0.250000,0.250000,0.250000,0.250000,0.250000:pos_vel_
1549429294.442466,cobot_dynamixel_driver/goal|-:J3:-982.910156:eff_
1549429295.127094,cobot_dynamixel_driver/goal|-:J1,J2,J3,J4,J5,J6:0.000000,0.000000,-0.261799,0.000000,0.000000,0.000000:0.250000,0.250000,0.250000,0.250000,0.250000,0.250000:pos_vel_
1549429296.245929,cobot_dynamixel_driver/goal|-:J3:-972.910156:eff_
1549429296.850345,cobot_dynamixel_driver/goal|-:J1,J2,J3,J4,J5,J6:0.000000,0.000000,-0.261799,0.000000,0.000000,0.000000:0.250000,0.250000,0.250000,0.250000,0.250000,0.250000:pos_vel_
1549429297.939946,cobot_dynamixel_driver/goal|-:J3:-962.910156:eff_
1549429298.544601,cobot_dynamixel_driver/goal|-:J1,J2,J3,J4,J5,J6:0.000000,0.000000,-0.261799,0.000000,0.000000,0.000000:0.250000,0.250000,0.250000,0.250000,0.250000,0.250000:pos_vel_
1549429299.529224,cobot_dynamixel_driver/goal|-:J3:-952.910156:eff_
1549429300.133858,cobot_dynamixel_driver/goal|-:J1,J2,J3,J4,J5,J6:0.000000,0.000000,-0.261799,0.000000,0.000000,0.000000:0.250000,0.250000,0.250000,0.250000,0.250000,0.250000:pos_vel_
1549429301.143319,cobot_dynamixel_driver/goal|-:J3:-942.910156:eff_
1549429301.747965,cobot_dynamixel_driver/goal|-:J1,J2,J3,J4,J5,J6:0.000000,0.000000,-0.261799,0.000000,0.000000,0.000000:0.250000,0.250000,0.250000,0.250000,0.250000,0.250000:pos_vel_
1549429302.648315,cobot_dynamixel_driver/goal|-:J3:-932.910156:eff_
1549429303.252921,cobot_dynamixel_driver/goal|-:J1,J2,J3,J4,J5,J6:0.000000,0.000000,-0.261799,0.000000,0.000000,0.000000:0.250000,0.250000,0.250000,0.250000,0.250000,0.250000:pos_vel_
1549429304.153708,cobot_dynamixel_driver/goal|-:J3:-922.910156:eff_
1549429304.732191,cobot_dynamixel_driver/goal|-:J1,J2,J3,J4,J5,J6:0.000000,0.000000,-0.261799,0.000000,0.000000,0.000000:0.250000,0.250000,0.250000,0.250000,0.250000,0.250000:pos_vel_
1549429305.553759,cobot_dynamixel_driver/goal|-:J3:-912.910156:eff_
1549429306.158557,cobot_dynamixel_driver/goal|-:J1,J2,J3,J4,J5,J6:0.000000,0.000000,-0.261799,0.000000,0.000000,0.000000:0.250000,0.250000,0.250000,0.250000,0.250000,0.250000:pos_vel_
1549429306.952593,cobot_dynamixel_driver/goal|-:J3:-902.910156:eff_
1549429307.557874,cobot_dynamixel_driver/goal|-:J1,J2,J3,J4,J5,J6:0.000000,0.000000,-0.261799,0.000000,0.000000,0.000000:0.250000,0.250000,0.250000,0.250000,0.250000,0.250000:pos_vel_
1549429308.351602,cobot_dynamixel_driver/goal|-:J3:-892.910156:eff_
1549429308.956408,cobot_dynamixel_driver/goal|-:J1,J2,J3,J4,J5,J6:0.000000,0.000000,-0.261799,0.000000,0.000000,0.000000:0.250000,0.250000,0.250000,0.250000,0.250000,0.250000:pos_vel_
1549429309.857908,cobot_dynamixel_driver/goal|-:J3:-882.910156:eff_
1549429310.489607,cobot_dynamixel_driver/goal|-:J3:0.000000:eff_
1549429310.570892,cobot_dynamixel_driver/goal|-:J1,J2,J3,J4,J5,J6:0.000000,0.000000,-0.261799,0.000000,0.000000,0.000000:0.250000,0.250000,0.250000,0.250000,0.250000,0.250000:pos_vel_
1549429312.307894,cobot_dynamixel_driver/goal|-:J3:0.000000:eff_
1549429312.398986,cobot_dynamixel_driver/goal|-:J1,J2,J3,J4,J5,J6:0.000000,0.000000,-0.261799,0.000000,0.000000,0.000000:0.250000,0.250000,0.250000,0.250000,0.250000,0.250000:pos_vel_
1549429313.517265,cobot_dynamixel_driver/goal|-:J3:-854.003906:eff_
1549429314.202980,cobot_dynamixel_driver/goal|-:J3:-864.003906:eff_
1549429314.796443,cobot_dynamixel_driver/goal|-:J3:-874.003906:eff_
1549429315.417165,cobot_dynamixel_driver/goal|-:J3:-884.003906:eff_
1549429316.013094,cobot_dynamixel_driver/goal|-:J3:-894.003906:eff_
1549429316.606455,cobot_dynamixel_driver/goal|-:J3:-904.003906:eff_
1549429317.200065,cobot_dynamixel_driver/goal|-:J3:-914.003906:eff_
1549429317.821718,cobot_dynamixel_driver/goal|-:J3:0.000000:eff_
1549429317.902801,cobot_dynamixel_driver/goal|-:J1,J2,J3,J4,J5,J6:0.000000,0.000000,-0.261799,0.000000,0.000000,0.000000:0.250000,0.250000,0.250000,0.250000,0.250000,0.250000:pos_vel_
1549429319.720936,cobot_dynamixel_driver/goal|-:J3:0.000000:eff_
1549429319.811783,cobot_dynamixel_driver/goal|-:J1,J2,J3,J4,J5,J6:0.000000,0.000000,-0.349066,0.000000,0.000000,0.000000:0.250000,0.250000,0.250000,0.250000,0.250000,0.250000:pos_vel_
1549429321.522081,cobot_dynamixel_driver/goal|-:J3:-725.097656:eff_
1549429322.234746,cobot_dynamixel_driver/goal|-:J3:-735.097656:eff_
1549429322.828460,cobot_dynamixel_driver/goal|-:J3:-745.097656:eff_
1549429323.422243,cobot_dynamixel_driver/goal|-:J3:-755.097656:eff_
1549429324.016331,cobot_dynamixel_driver/goal|-:J3:-765.097656:eff_
1549429324.636703,cobot_dynamixel_driver/goal|-:J3:-775.097656:eff_
1549429325.232459,cobot_dynamixel_driver/goal|-:J3:-785.097656:eff_
1549429325.826198,cobot_dynamixel_driver/goal|-:J3:-795.097656:eff_
1549429326.420007,cobot_dynamixel_driver/goal|-:J3:-805.097656:eff_
1549429327.041539,cobot_dynamixel_driver/goal|-:J3:-815.097656:eff_
1549429327.636176,cobot_dynamixel_driver/goal|-:J3:-825.097656:eff_
1549429328.230844,cobot_dynamixel_driver/goal|-:J3:-835.097656:eff_
1549429328.825403,cobot_dynamixel_driver/goal|-:J3:-845.097656:eff_
1549429329.447107,cobot_dynamixel_driver/goal|-:J3:-855.097656:eff_
1549429330.040655,cobot_dynamixel_driver/goal|-:J3:-865.097656:eff_
1549429330.634288,cobot_dynamixel_driver/goal|-:J3:-875.097656:eff_
1549429331.229122,cobot_dynamixel_driver/goal|-:J3:-885.097656:eff_
1549429331.849914,cobot_dynamixel_driver/goal|-:J3:-895.097656:eff_
1549429332.444687,cobot_dynamixel_driver/goal|-:J3:-905.097656:eff_
1549429333.227248,cobot_dynamixel_driver/goal|-:J3:0.000000:eff_
1549429333.308113,cobot_dynamixel_driver/goal|-:J1,J2,J3,J4,J5,J6:0.000000,0.000000,-0.349066,0.000000,0.000000,0.000000:0.250000,0.250000,0.250000,0.250000,0.250000,0.250000:pos_vel_
1549429335.236377,cobot_dynamixel_driver/goal|-:J3:0.000000:eff_
1549429335.327291,cobot_dynamixel_driver/goal|-:J1,J2,J3,J4,J5,J6:0.000000,0.000000,-0.349066,0.000000,0.000000,0.000000:0.250000,0.250000,0.250000,0.250000,0.250000,0.250000:pos_vel_
1549429336.445125,cobot_dynamixel_driver/goal|-:J3:-966.796875:eff_
1549429337.130810,cobot_dynamixel_driver/goal|-:J1,J2,J3,J4,J5,J6:0.000000,0.000000,-0.349066,0.000000,0.000000,0.000000:0.250000,0.250000,0.250000,0.250000,0.250000,0.250000:pos_vel_
1549429338.140139,cobot_dynamixel_driver/goal|-:J3:-956.796875:eff_
1549429338.744844,cobot_dynamixel_driver/goal|-:J1,J2,J3,J4,J5,J6:0.000000,0.000000,-0.349066,0.000000,0.000000,0.000000:0.250000,0.250000,0.250000,0.250000,0.250000,0.250000:pos_vel_
1549429339.835333,cobot_dynamixel_driver/goal|-:J3:-946.796875:eff_
1549429340.439785,cobot_dynamixel_driver/goal|-:J1,J2,J3,J4,J5,J6:0.000000,0.000000,-0.349066,0.000000,0.000000,0.000000:0.250000,0.250000,0.250000,0.250000,0.250000,0.250000:pos_vel_
1549429341.449549,cobot_dynamixel_driver/goal|-:J3:-936.796875:eff_
1549429342.025802,cobot_dynamixel_driver/goal|-:J1,J2,J3,J4,J5,J6:0.000000,0.000000,-0.349066,0.000000,0.000000,0.000000:0.250000,0.250000,0.250000,0.250000,0.250000,0.250000:pos_vel_
1549429342.927315,cobot_dynamixel_driver/goal|-:J3:-926.796875:eff_
1549429343.532299,cobot_dynamixel_driver/goal|-:J1,J2,J3,J4,J5,J6:0.000000,0.000000,-0.349066,0.000000,0.000000,0.000000:0.250000,0.250000,0.250000,0.250000,0.250000,0.250000:pos_vel_
1549429344.433543,cobot_dynamixel_driver/goal|-:J3:-916.796875:eff_
1549429345.038324,cobot_dynamixel_driver/goal|-:J1,J2,J3,J4,J5,J6:0.000000,0.000000,-0.349066,0.000000,0.000000,0.000000:0.250000,0.250000,0.250000,0.250000,0.250000,0.250000:pos_vel_
1549429345.939129,cobot_dynamixel_driver/goal|-:J3:-906.796875:eff_
1549429346.543569,cobot_dynamixel_driver/goal|-:J1,J2,J3,J4,J5,J6:0.000000,0.000000,-0.349066,0.000000,0.000000,0.000000:0.250000,0.250000,0.250000,0.250000,0.250000,0.250000:pos_vel_
1549429347.445313,cobot_dynamixel_driver/goal|-:J3:-896.796875:eff_
1549429348.049942,cobot_dynamixel_driver/goal|-:J1,J2,J3,J4,J5,J6:0.000000,0.000000,-0.349066,0.000000,0.000000,0.000000:0.250000,0.250000,0.250000,0.250000,0.250000,0.250000:pos_vel_
1549429348.842638,cobot_dynamixel_driver/goal|-:J3:-886.796875:eff_
1549429349.446301,cobot_dynamixel_driver/goal|-:J1,J2,J3,J4,J5,J6:0.000000,0.000000,-0.349066,0.000000,0.000000,0.000000:0.250000,0.250000,0.250000,0.250000,0.250000,0.250000:pos_vel_
1549429350.348979,cobot_dynamixel_driver/goal|-:J3:-876.796875:eff_
1549429350.952693,cobot_dynamixel_driver/goal|-:J1,J2,J3,J4,J5,J6:0.000000,0.000000,-0.349066,0.000000,0.000000,0.000000:0.250000,0.250000,0.250000,0.250000,0.250000,0.250000:pos_vel_
1549429351.637267,cobot_dynamixel_driver/goal|-:J3:-866.796875:eff_
1549429352.349876,cobot_dynamixel_driver/goal|-:J3:0.000000:eff_
1549429352.430797,cobot_dynamixel_driver/goal|-:J1,J2,J3,J4,J5,J6:0.000000,0.000000,-0.349066,0.000000,0.000000,0.000000:0.250000,0.250000,0.250000,0.250000,0.250000,0.250000:pos_vel_
1549429354.167782,cobot_dynamixel_driver/goal|-:J3:0.000000:eff_
1549429354.258668,cobot_dynamixel_driver/goal|-:J1,J2,J3,J4,J5,J6:0.000000,0.000000,-0.436332,0.000000,0.000000,0.000000:0.250000,0.250000,0.250000,0.250000,0.250000,0.250000:pos_vel_
1549429355.968621,cobot_dynamixel_driver/goal|-:J3:-676.757812:eff_
1549429356.654691,cobot_dynamixel_driver/goal|-:J3:-686.757812:eff_
1549429357.248037,cobot_dynamixel_driver/goal|-:J3:-696.757812:eff_
1549429357.868729,cobot_dynamixel_driver/goal|-:J3:-706.757812:eff_
1549429358.463587,cobot_dynamixel_driver/goal|-:J3:-716.757812:eff_
1549429359.058242,cobot_dynamixel_driver/goal|-:J3:-726.757812:eff_
1549429359.652067,cobot_dynamixel_driver/goal|-:J3:-736.757812:eff_
1549429360.272684,cobot_dynamixel_driver/goal|-:J3:-746.757812:eff_
1549429360.866720,cobot_dynamixel_driver/goal|-:J3:-756.757812:eff_
1549429361.460279,cobot_dynamixel_driver/goal|-:J3:-766.757812:eff_
1549429362.082194,cobot_dynamixel_driver/goal|-:J3:-776.757812:eff_
1549429362.676789,cobot_dynamixel_driver/goal|-:J3:-786.757812:eff_
1549429363.271455,cobot_dynamixel_driver/goal|-:J3:-796.757812:eff_
1549429363.865231,cobot_dynamixel_driver/goal|-:J3:-806.757812:eff_
1549429364.460522,cobot_dynamixel_driver/goal|-:J3:-816.757812:eff_
1549429365.081543,cobot_dynamixel_driver/goal|-:J3:-826.757812:eff_
1549429365.675275,cobot_dynamixel_driver/goal|-:J3:-836.757812:eff_
1549429366.269832,cobot_dynamixel_driver/goal|-:J3:-846.757812:eff_
1549429366.863617,cobot_dynamixel_driver/goal|-:J3:-856.757812:eff_
1549429367.484117,cobot_dynamixel_driver/goal|-:J3:-866.757812:eff_
1549429368.077760,cobot_dynamixel_driver/goal|-:J3:-876.757812:eff_
1549429368.888458,cobot_dynamixel_driver/goal|-:J3:0.000000:eff_
1549429368.969383,cobot_dynamixel_driver/goal|-:J1,J2,J3,J4,J5,J6:0.000000,0.000000,-0.436332,0.000000,0.000000,0.000000:0.250000,0.250000,0.250000,0.250000,0.250000,0.250000:pos_vel_
1549429370.680381,cobot_dynamixel_driver/goal|-:J3:0.000000:eff_
1549429370.799091,cobot_dynamixel_driver/goal|-:J1,J2,J3,J4,J5,J6:0.000000,0.000000,-0.436332,0.000000,0.000000,0.000000:0.250000,0.250000,0.250000,0.250000,0.250000,0.250000:pos_vel_
1549429371.781917,cobot_dynamixel_driver/goal|-:J3:-596.191406:eff_
1549429372.494568,cobot_dynamixel_driver/goal|-:J3:-606.191406:eff_
1549429373.088334,cobot_dynamixel_driver/goal|-:J3:-616.191406:eff_
1549429373.682229,cobot_dynamixel_driver/goal|-:J3:-626.191406:eff_
1549429374.303001,cobot_dynamixel_driver/goal|-:J3:-636.191406:eff_
1549429374.896438,cobot_dynamixel_driver/goal|-:J3:-646.191406:eff_
1549429375.491426,cobot_dynamixel_driver/goal|-:J3:-656.191406:eff_
1549429376.087133,cobot_dynamixel_driver/goal|-:J3:-666.191406:eff_
1549429376.707656,cobot_dynamixel_driver/goal|-:J3:-676.191406:eff_
1549429377.301244,cobot_dynamixel_driver/goal|-:J3:-686.191406:eff_
1549429377.895156,cobot_dynamixel_driver/goal|-:J3:-696.191406:eff_
1549429378.489693,cobot_dynamixel_driver/goal|-:J3:-706.191406:eff_
1549429379.111205,cobot_dynamixel_driver/goal|-:J3:-716.191406:eff_
1549429379.705004,cobot_dynamixel_driver/goal|-:J3:-726.191406:eff_
1549429380.298546,cobot_dynamixel_driver/goal|-:J3:-736.191406:eff_
1549429380.893503,cobot_dynamixel_driver/goal|-:J3:-746.191406:eff_
1549429381.513808,cobot_dynamixel_driver/goal|-:J3:-756.191406:eff_
1549429382.108456,cobot_dynamixel_driver/goal|-:J3:-766.191406:eff_
1549429382.702179,cobot_dynamixel_driver/goal|-:J3:-776.191406:eff_
1549429383.296745,cobot_dynamixel_driver/goal|-:J3:-786.191406:eff_
1549429383.917776,cobot_dynamixel_driver/goal|-:J3:-796.191406:eff_
1549429384.511199,cobot_dynamixel_driver/goal|-:J3:-806.191406:eff_
1549429385.106004,cobot_dynamixel_driver/goal|-:J3:-816.191406:eff_
1549429385.700699,cobot_dynamixel_driver/goal|-:J3:-826.191406:eff_
1549429386.322441,cobot_dynamixel_driver/goal|-:J3:-836.191406:eff_
1549429386.919255,cobot_dynamixel_driver/goal|-:J3:-846.191406:eff_
1549429387.512956,cobot_dynamixel_driver/goal|-:J3:-856.191406:eff_
1549429388.133776,cobot_dynamixel_driver/goal|-:J3:0.000000:eff_
1549429388.215701,cobot_dynamixel_driver/goal|-:J1,J2,J3,J4,J5,J6:0.000000,0.000000,-0.436332,0.000000,0.000000,0.000000:0.250000,0.250000,0.250000,0.250000,0.250000,0.250000:pos_vel_
1549429389.926901,cobot_dynamixel_driver/goal|-:J3:0.000000:eff_
1549429390.045281,cobot_dynamixel_driver/goal|-:J1,J2,J3,J4,J5,J6:0.000000,0.000000,-0.523599,0.000000,0.000000,0.000000:0.250000,0.250000,0.250000,0.250000,0.250000,0.250000:pos_vel_
1549429391.838020,cobot_dynamixel_driver/goal|-:J3:-789.550781:eff_
1549429392.550554,cobot_dynamixel_driver/goal|-:J3:-799.550781:eff_
1549429393.144406,cobot_dynamixel_driver/goal|-:J3:-809.550781:eff_
1549429393.738995,cobot_dynamixel_driver/goal|-:J3:-819.550781:eff_
1549429394.332653,cobot_dynamixel_driver/goal|-:J3:-829.550781:eff_
1549429394.953305,cobot_dynamixel_driver/goal|-:J3:-839.550781:eff_
1549429395.546780,cobot_dynamixel_driver/goal|-:J3:-849.550781:eff_
1549429396.140660,cobot_dynamixel_driver/goal|-:J3:-859.550781:eff_
1549429396.735290,cobot_dynamixel_driver/goal|-:J3:-869.550781:eff_
1549429397.357159,cobot_dynamixel_driver/goal|-:J3:-879.550781:eff_
1549429397.950792,cobot_dynamixel_driver/goal|-:J3:-889.550781:eff_
1549429398.544523,cobot_dynamixel_driver/goal|-:J3:-899.550781:eff_
1549429399.138214,cobot_dynamixel_driver/goal|-:J3:-909.550781:eff_
1549429399.759925,cobot_dynamixel_driver/goal|-:J3:-919.550781:eff_
1549429400.354676,cobot_dynamixel_driver/goal|-:J3:-929.550781:eff_
1549429400.949469,cobot_dynamixel_driver/goal|-:J3:-939.550781:eff_
1549429401.546245,cobot_dynamixel_driver/goal|-:J3:0.000000:eff_
1549429401.654418,cobot_dynamixel_driver/goal|-:J1,J2,J3,J4,J5,J6:0.000000,0.000000,-0.523599,0.000000,0.000000,0.000000:0.250000,0.250000,0.250000,0.250000,0.250000,0.250000:pos_vel_
1549429403.958036,cobot_dynamixel_driver/goal|-:J3:0.000000:eff_
1549429404.076412,cobot_dynamixel_driver/goal|-:J1,J2,J3,J4,J5,J6:0.000000,0.000000,-0.523599,0.000000,0.000000,0.000000:0.250000,0.250000,0.250000,0.250000,0.250000,0.250000:pos_vel_
1549429405.274283,cobot_dynamixel_driver/goal|-:J3:-725.097656:eff_
1549429405.958909,cobot_dynamixel_driver/goal|-:J3:-735.097656:eff_
1549429406.580528,cobot_dynamixel_driver/goal|-:J3:-745.097656:eff_
1549429407.174966,cobot_dynamixel_driver/goal|-:J3:-755.097656:eff_
1549429407.768645,cobot_dynamixel_driver/goal|-:J3:-765.097656:eff_
1549429408.362391,cobot_dynamixel_driver/goal|-:J3:-775.097656:eff_
1549429408.982932,cobot_dynamixel_driver/goal|-:J3:-785.097656:eff_
1549429409.576750,cobot_dynamixel_driver/goal|-:J3:-795.097656:eff_
1549429410.170626,cobot_dynamixel_driver/goal|-:J3:-805.097656:eff_
1549429410.764077,cobot_dynamixel_driver/goal|-:J3:-815.097656:eff_
1549429411.384852,cobot_dynamixel_driver/goal|-:J3:-825.097656:eff_
1549429411.980480,cobot_dynamixel_driver/goal|-:J3:-835.097656:eff_
1549429412.575185,cobot_dynamixel_driver/goal|-:J3:-845.097656:eff_
1549429413.168942,cobot_dynamixel_driver/goal|-:J3:-855.097656:eff_
1549429413.790639,cobot_dynamixel_driver/goal|-:J3:-865.097656:eff_
1549429414.384411,cobot_dynamixel_driver/goal|-:J3:-875.097656:eff_
1549429414.978110,cobot_dynamixel_driver/goal|-:J3:-885.097656:eff_
1549429415.572064,cobot_dynamixel_driver/goal|-:J3:-895.097656:eff_
1549429416.192536,cobot_dynamixel_driver/goal|-:J3:0.000000:eff_
1549429416.273410,cobot_dynamixel_driver/goal|-:J1,J2,J3,J4,J5,J6:0.000000,0.000000,-0.523599,0.000000,0.000000,0.000000:0.250000,0.250000,0.250000,0.250000,0.250000,0.250000:pos_vel_
1549429438.986579,cobot_dynamixel_driver/goal|-:J1,J2,J3,J4,J5,J6:0.000000,0.000000,0.000000,0.000000,0.000000,0.000000:0.500000,0.500000,0.500000,0.500000,0.500000,0.500000:pos_vel_
1549429470.137863,cobot_dynamixel_driver/goal|-:J3:0.000000:eff_
1549429470.256361,cobot_dynamixel_driver/goal|-:J1,J2,J3,J4,J5,J6:0.000000,0.000000,0.523599,0.000000,0.000000,0.000000:0.250000,0.250000,0.250000,0.250000,0.250000,0.250000:pos_vel_
1549429473.642726,cobot_dynamixel_driver/goal|-:J3:-290.039062:eff_
1549429474.355044,cobot_dynamixel_driver/goal|-:J3:-300.039062:eff_
1549429474.948861,cobot_dynamixel_driver/goal|-:J3:-310.039062:eff_
1549429475.542476,cobot_dynamixel_driver/goal|-:J3:-320.039062:eff_
1549429476.165440,cobot_dynamixel_driver/goal|-:J3:-330.039062:eff_
1549429476.759825,cobot_dynamixel_driver/goal|-:J3:-340.039062:eff_
1549429477.354752,cobot_dynamixel_driver/goal|-:J3:-350.039062:eff_
1549429477.948445,cobot_dynamixel_driver/goal|-:J3:-360.039062:eff_
1549429478.569105,cobot_dynamixel_driver/goal|-:J3:-370.039062:eff_
1549429479.162772,cobot_dynamixel_driver/goal|-:J3:-380.039062:eff_
1549429479.757456,cobot_dynamixel_driver/goal|-:J3:-390.039062:eff_
1549429480.352227,cobot_dynamixel_driver/goal|-:J3:-400.039062:eff_
1549429480.946070,cobot_dynamixel_driver/goal|-:J3:-410.039062:eff_
1549429481.567667,cobot_dynamixel_driver/goal|-:J3:-420.039062:eff_
1549429482.161397,cobot_dynamixel_driver/goal|-:J3:-430.039062:eff_
1549429482.755125,cobot_dynamixel_driver/goal|-:J3:-440.039062:eff_
1549429483.348992,cobot_dynamixel_driver/goal|-:J3:-450.039062:eff_
1549429483.969863,cobot_dynamixel_driver/goal|-:J3:-460.039062:eff_
1549429484.563235,cobot_dynamixel_driver/goal|-:J3:-470.039062:eff_
1549429485.157791,cobot_dynamixel_driver/goal|-:J3:-480.039062:eff_
1549429485.778613,cobot_dynamixel_driver/goal|-:J3:-490.039062:eff_
1549429486.372993,cobot_dynamixel_driver/goal|-:J3:-500.039062:eff_
1549429486.967019,cobot_dynamixel_driver/goal|-:J3:-510.039062:eff_
1549429487.560302,cobot_dynamixel_driver/goal|-:J3:-520.039062:eff_
1549429488.182184,cobot_dynamixel_driver/goal|-:J3:-530.039062:eff_
1549429488.775996,cobot_dynamixel_driver/goal|-:J3:-540.039062:eff_
1549429489.370515,cobot_dynamixel_driver/goal|-:J3:-550.039062:eff_
1549429489.965215,cobot_dynamixel_driver/goal|-:J3:-560.039062:eff_
1549429490.585990,cobot_dynamixel_driver/goal|-:J3:-570.039062:eff_
1549429491.180650,cobot_dynamixel_driver/goal|-:J3:-580.039062:eff_
1549429491.774594,cobot_dynamixel_driver/goal|-:J3:-590.039062:eff_
1549429492.368166,cobot_dynamixel_driver/goal|-:J3:-600.039062:eff_
1549429492.963808,cobot_dynamixel_driver/goal|-:J3:-610.039062:eff_
1549429493.584569,cobot_dynamixel_driver/goal|-:J3:-620.039062:eff_
1549429494.179327,cobot_dynamixel_driver/goal|-:J3:-630.039062:eff_
1549429494.774167,cobot_dynamixel_driver/goal|-:J3:-640.039062:eff_
1549429495.367616,cobot_dynamixel_driver/goal|-:J3:-650.039062:eff_
1549429495.989448,cobot_dynamixel_driver/goal|-:J3:-660.039062:eff_
1549429496.584037,cobot_dynamixel_driver/goal|-:J3:-670.039062:eff_
1549429497.178619,cobot_dynamixel_driver/goal|-:J3:-680.039062:eff_
1549429497.773446,cobot_dynamixel_driver/goal|-:J3:-690.039062:eff_
1549429498.393929,cobot_dynamixel_driver/goal|-:J3:-700.039062:eff_
1549429498.987688,cobot_dynamixel_driver/goal|-:J3:-710.039062:eff_
1549429499.581437,cobot_dynamixel_driver/goal|-:J3:-720.039062:eff_
1549429500.175165,cobot_dynamixel_driver/goal|-:J3:-730.039062:eff_
1549429500.796581,cobot_dynamixel_driver/goal|-:J3:-740.039062:eff_
1549429501.391272,cobot_dynamixel_driver/goal|-:J3:-750.039062:eff_
1549429501.985976,cobot_dynamixel_driver/goal|-:J3:-760.039062:eff_
1549429502.580620,cobot_dynamixel_driver/goal|-:J3:-770.039062:eff_
1549429503.201363,cobot_dynamixel_driver/goal|-:J3:-780.039062:eff_
1549429503.796175,cobot_dynamixel_driver/goal|-:J3:-790.039062:eff_
1549429504.391764,cobot_dynamixel_driver/goal|-:J3:-800.039062:eff_
1549429504.985656,cobot_dynamixel_driver/goal|-:J3:-810.039062:eff_
1549429505.606180,cobot_dynamixel_driver/goal|-:J3:-820.039062:eff_
1549429506.200061,cobot_dynamixel_driver/goal|-:J3:-830.039062:eff_
1549429506.794703,cobot_dynamixel_driver/goal|-:J3:-840.039062:eff_
1549429507.388448,cobot_dynamixel_driver/goal|-:J3:0.000000:eff_
1549429507.497354,cobot_dynamixel_driver/goal|-:J1,J2,J3,J4,J5,J6:0.000000,0.000000,0.523599,0.000000,0.000000,0.000000:0.250000,0.250000,0.250000,0.250000,0.250000,0.250000:pos_vel_
1549429509.721333,cobot_dynamixel_driver/goal|-:J3:0.000000:eff_
1549429509.812333,cobot_dynamixel_driver/goal|-:J1,J2,J3,J4,J5,J6:0.000000,0.000000,0.523599,0.000000,0.000000,0.000000:0.250000,0.250000,0.250000,0.250000,0.250000,0.250000:pos_vel_
1549429510.820698,cobot_dynamixel_driver/goal|-:J3:-612.304688:eff_
1549429511.505286,cobot_dynamixel_driver/goal|-:J3:-622.304688:eff_
1549429512.125892,cobot_dynamixel_driver/goal|-:J3:-632.304688:eff_
1549429512.720422,cobot_dynamixel_driver/goal|-:J3:-642.304688:eff_
1549429513.315102,cobot_dynamixel_driver/goal|-:J3:-652.304688:eff_
1549429513.908917,cobot_dynamixel_driver/goal|-:J3:-662.304688:eff_
1549429514.530904,cobot_dynamixel_driver/goal|-:J3:-672.304688:eff_
1549429515.124422,cobot_dynamixel_driver/goal|-:J3:-682.304688:eff_
1549429516.717504,cobot_dynamixel_driver/goal|-:J3:0.000000:eff_
1549429516.825412,cobot_dynamixel_driver/goal|-:J1,J2,J3,J4,J5,J6:0.000000,0.000000,0.523599,0.000000,0.000000,0.000000:0.250000,0.250000,0.250000,0.250000,0.250000,0.250000:pos_vel_
1549429517.510082,cobot_dynamixel_driver/goal|-:J3:-692.304688:eff_
1549429519.113380,cobot_dynamixel_driver/goal|-:J3:0.000000:eff_
1549429519.221346,cobot_dynamixel_driver/goal|-:J1,J2,J3,J4,J5,J6:0.000000,0.000000,0.523599,0.000000,0.000000,0.000000:0.250000,0.250000,0.250000,0.250000,0.250000,0.250000:pos_vel_
1549429519.826172,cobot_dynamixel_driver/goal|-:J3:-702.304688:eff_
1549429521.429344,cobot_dynamixel_driver/goal|-:J3:0.000000:eff_
1549429521.538280,cobot_dynamixel_driver/goal|-:J1,J2,J3,J4,J5,J6:0.000000,0.000000,0.523599,0.000000,0.000000,0.000000:0.250000,0.250000,0.250000,0.250000,0.250000,0.250000:pos_vel_
1549429522.115079,cobot_dynamixel_driver/goal|-:J3:-712.304688:eff_
1549429523.718105,cobot_dynamixel_driver/goal|-:J3:0.000000:eff_
1549429523.826059,cobot_dynamixel_driver/goal|-:J1,J2,J3,J4,J5,J6:0.000000,0.000000,0.523599,0.000000,0.000000,0.000000:0.250000,0.250000,0.250000,0.250000,0.250000,0.250000:pos_vel_
1549429524.214082,cobot_dynamixel_driver/goal|-:J3:-722.304688:eff_
1549429525.815736,cobot_dynamixel_driver/goal|-:J3:0.000000:eff_
1549429525.923683,cobot_dynamixel_driver/goal|-:J1,J2,J3,J4,J5,J6:0.000000,0.000000,0.523599,0.000000,0.000000,0.000000:0.250000,0.250000,0.250000,0.250000,0.250000,0.250000:pos_vel_
1549429526.338501,cobot_dynamixel_driver/goal|-:J3:-732.304688:eff_
1549429526.942139,cobot_dynamixel_driver/goal|-:J3:0.000000:eff_
1549429527.023363,cobot_dynamixel_driver/goal|-:J1,J2,J3,J4,J5,J6:0.000000,0.000000,0.523599,0.000000,0.000000,0.000000:0.250000,0.250000,0.250000,0.250000,0.250000,0.250000:pos_vel_
1549429528.734471,cobot_dynamixel_driver/goal|-:J3:0.000000:eff_
1549429528.825258,cobot_dynamixel_driver/goal|-:J1,J2,J3,J4,J5,J6:0.000000,0.000000,0.436332,0.000000,0.000000,0.000000:0.250000,0.250000,0.250000,0.250000,0.250000,0.250000:pos_vel_
1549429530.535440,cobot_dynamixel_driver/goal|-:J3:-612.304688:eff_
1549429531.247677,cobot_dynamixel_driver/goal|-:J3:-622.304688:eff_
1549429531.841932,cobot_dynamixel_driver/goal|-:J3:-632.304688:eff_
1549429532.435780,cobot_dynamixel_driver/goal|-:J3:-642.304688:eff_
1549429533.029462,cobot_dynamixel_driver/goal|-:J3:-652.304688:eff_
1549429533.650096,cobot_dynamixel_driver/goal|-:J3:-662.304688:eff_
1549429534.243911,cobot_dynamixel_driver/goal|-:J3:-672.304688:eff_
1549429534.837528,cobot_dynamixel_driver/goal|-:J3:-682.304688:eff_
1549429535.431222,cobot_dynamixel_driver/goal|-:J3:-692.304688:eff_
1549429536.051952,cobot_dynamixel_driver/goal|-:J3:-702.304688:eff_
1549429536.646803,cobot_dynamixel_driver/goal|-:J3:-712.304688:eff_
1549429537.240138,cobot_dynamixel_driver/goal|-:J3:-722.304688:eff_
1549429537.860660,cobot_dynamixel_driver/goal|-:J3:-732.304688:eff_
1549429538.455541,cobot_dynamixel_driver/goal|-:J3:-742.304688:eff_
1549429539.049014,cobot_dynamixel_driver/goal|-:J3:-752.304688:eff_
1549429539.642668,cobot_dynamixel_driver/goal|-:J3:-762.304688:eff_
1549429540.264275,cobot_dynamixel_driver/goal|-:J3:-772.304688:eff_
1549429540.857910,cobot_dynamixel_driver/goal|-:J3:-782.304688:eff_
1549429541.451715,cobot_dynamixel_driver/goal|-:J3:-792.304688:eff_
1549429543.043790,cobot_dynamixel_driver/goal|-:J3:0.000000:eff_
1549429543.151734,cobot_dynamixel_driver/goal|-:J1,J2,J3,J4,J5,J6:0.000000,0.000000,0.436332,0.000000,0.000000,0.000000:0.250000,0.250000,0.250000,0.250000,0.250000,0.250000:pos_vel_
1549429543.458666,cobot_dynamixel_driver/goal|-:J3:-802.304688:eff_
1549429544.062390,cobot_dynamixel_driver/goal|-:J3:0.000000:eff_
1549429544.143397,cobot_dynamixel_driver/goal|-:J1,J2,J3,J4,J5,J6:0.000000,0.000000,0.436332,0.000000,0.000000,0.000000:0.250000,0.250000,0.250000,0.250000,0.250000,0.250000:pos_vel_
1549429545.881571,cobot_dynamixel_driver/goal|-:J3:0.000000:eff_
1549429545.972657,cobot_dynamixel_driver/goal|-:J1,J2,J3,J4,J5,J6:0.000000,0.000000,0.436332,0.000000,0.000000,0.000000:0.250000,0.250000,0.250000,0.250000,0.250000,0.250000:pos_vel_
1549429546.981023,cobot_dynamixel_driver/goal|-:J3:-708.984375:eff_
1549429547.693938,cobot_dynamixel_driver/goal|-:J3:-718.984375:eff_
1549429548.287435,cobot_dynamixel_driver/goal|-:J3:-728.984375:eff_
1549429548.882037,cobot_dynamixel_driver/goal|-:J3:-738.984375:eff_
1549429549.475622,cobot_dynamixel_driver/goal|-:J3:-748.984375:eff_
1549429550.096641,cobot_dynamixel_driver/goal|-:J3:-758.984375:eff_
1549429550.690932,cobot_dynamixel_driver/goal|-:J3:-768.984375:eff_
1549429551.284496,cobot_dynamixel_driver/goal|-:J3:-778.984375:eff_
1549429551.878109,cobot_dynamixel_driver/goal|-:J3:-788.984375:eff_
1549429552.499680,cobot_dynamixel_driver/goal|-:J3:-798.984375:eff_
1549429553.093514,cobot_dynamixel_driver/goal|-:J3:-808.984375:eff_
1549429553.687210,cobot_dynamixel_driver/goal|-:J3:-818.984375:eff_
1549429554.281883,cobot_dynamixel_driver/goal|-:J3:-828.984375:eff_
1549429554.904639,cobot_dynamixel_driver/goal|-:J3:-838.984375:eff_
1549429555.499578,cobot_dynamixel_driver/goal|-:J3:-848.984375:eff_
1549429556.094324,cobot_dynamixel_driver/goal|-:J3:-858.984375:eff_
1549429556.687728,cobot_dynamixel_driver/goal|-:J3:0.000000:eff_
1549429556.796672,cobot_dynamixel_driver/goal|-:J1,J2,J3,J4,J5,J6:0.000000,0.000000,0.436332,0.000000,0.000000,0.000000:0.250000,0.250000,0.250000,0.250000,0.250000,0.250000:pos_vel_
1549429558.722910,cobot_dynamixel_driver/goal|-:J3:0.000000:eff_
1549429558.813860,cobot_dynamixel_driver/goal|-:J1,J2,J3,J4,J5,J6:0.000000,0.000000,0.349066,0.000000,0.000000,0.000000:0.250000,0.250000,0.250000,0.250000,0.250000,0.250000:pos_vel_
1549429560.417066,cobot_dynamixel_driver/goal|-:J3:-612.304688:eff_
1549429561.128869,cobot_dynamixel_driver/goal|-:J3:-622.304688:eff_
1549429561.724895,cobot_dynamixel_driver/goal|-:J3:-632.304688:eff_
1549429562.319144,cobot_dynamixel_driver/goal|-:J3:-642.304688:eff_
1549429562.912780,cobot_dynamixel_driver/goal|-:J3:-652.304688:eff_
1549429563.534360,cobot_dynamixel_driver/goal|-:J3:-662.304688:eff_
1549429564.128949,cobot_dynamixel_driver/goal|-:J3:-672.304688:eff_
1549429564.722473,cobot_dynamixel_driver/goal|-:J3:-682.304688:eff_
1549429565.316047,cobot_dynamixel_driver/goal|-:J3:-692.304688:eff_
1549429565.937077,cobot_dynamixel_driver/goal|-:J3:-702.304688:eff_
1549429566.532187,cobot_dynamixel_driver/goal|-:J3:-712.304688:eff_
1549429567.127928,cobot_dynamixel_driver/goal|-:J3:-722.304688:eff_
1549429567.721725,cobot_dynamixel_driver/goal|-:J3:-732.304688:eff_
1549429568.316653,cobot_dynamixel_driver/goal|-:J3:-742.304688:eff_
1549429568.938200,cobot_dynamixel_driver/goal|-:J3:-752.304688:eff_
1549429569.531754,cobot_dynamixel_driver/goal|-:J3:-762.304688:eff_
1549429570.125482,cobot_dynamixel_driver/goal|-:J3:-772.304688:eff_
1549429570.719521,cobot_dynamixel_driver/goal|-:J3:-782.304688:eff_
1549429571.340201,cobot_dynamixel_driver/goal|-:J3:-792.304688:eff_
1549429571.933757,cobot_dynamixel_driver/goal|-:J3:-802.304688:eff_
1549429572.528021,cobot_dynamixel_driver/goal|-:J3:-812.304688:eff_
1549429573.123197,cobot_dynamixel_driver/goal|-:J3:-822.304688:eff_
1549429573.743748,cobot_dynamixel_driver/goal|-:J3:-832.304688:eff_
1549429574.337495,cobot_dynamixel_driver/goal|-:J3:-842.304688:eff_
1549429574.931444,cobot_dynamixel_driver/goal|-:J3:-852.304688:eff_
1549429575.525075,cobot_dynamixel_driver/goal|-:J3:-862.304688:eff_
1549429576.334278,cobot_dynamixel_driver/goal|-:J3:0.000000:eff_
1549429576.415686,cobot_dynamixel_driver/goal|-:J1,J2,J3,J4,J5,J6:0.000000,0.000000,0.349066,0.000000,0.000000,0.000000:0.250000,0.250000,0.250000,0.250000,0.250000,0.250000:pos_vel_
1549429578.235012,cobot_dynamixel_driver/goal|-:J3:0.000000:eff_
1549429578.326012,cobot_dynamixel_driver/goal|-:J1,J2,J3,J4,J5,J6:0.000000,0.000000,0.349066,0.000000,0.000000,0.000000:0.250000,0.250000,0.250000,0.250000,0.250000,0.250000:pos_vel_
1549429579.523286,cobot_dynamixel_driver/goal|-:J3:-644.531250:eff_
1549429580.237015,cobot_dynamixel_driver/goal|-:J3:-654.531250:eff_
1549429580.831683,cobot_dynamixel_driver/goal|-:J3:-664.531250:eff_
1549429581.426379,cobot_dynamixel_driver/goal|-:J3:-674.531250:eff_
1549429582.047075,cobot_dynamixel_driver/goal|-:J3:-684.531250:eff_
1549429582.640752,cobot_dynamixel_driver/goal|-:J3:-694.531250:eff_
1549429583.235472,cobot_dynamixel_driver/goal|-:J3:-704.531250:eff_
1549429583.830241,cobot_dynamixel_driver/goal|-:J3:-714.531250:eff_
1549429584.451005,cobot_dynamixel_driver/goal|-:J3:-724.531250:eff_
1549429585.044760,cobot_dynamixel_driver/goal|-:J3:-734.531250:eff_
1549429585.638322,cobot_dynamixel_driver/goal|-:J3:-744.531250:eff_
1549429586.232160,cobot_dynamixel_driver/goal|-:J3:-754.531250:eff_
1549429586.853822,cobot_dynamixel_driver/goal|-:J3:-764.531250:eff_
1549429587.447420,cobot_dynamixel_driver/goal|-:J3:-774.531250:eff_
1549429588.041089,cobot_dynamixel_driver/goal|-:J3:-784.531250:eff_
1549429588.634681,cobot_dynamixel_driver/goal|-:J3:-794.531250:eff_
1549429589.256276,cobot_dynamixel_driver/goal|-:J3:-804.531250:eff_
1549429589.849869,cobot_dynamixel_driver/goal|-:J3:-814.531250:eff_
1549429590.444550,cobot_dynamixel_driver/goal|-:J3:-824.531250:eff_
1549429591.038135,cobot_dynamixel_driver/goal|-:J3:-834.531250:eff_
1549429591.658814,cobot_dynamixel_driver/goal|-:J3:-844.531250:eff_
1549429592.442242,cobot_dynamixel_driver/goal|-:J3:0.000000:eff_
1549429592.523218,cobot_dynamixel_driver/goal|-:J1,J2,J3,J4,J5,J6:0.000000,0.000000,0.349066,0.000000,0.000000,0.000000:0.250000,0.250000,0.250000,0.250000,0.250000,0.250000:pos_vel_
1549429594.450254,cobot_dynamixel_driver/goal|-:J3:0.000000:eff_
1549429594.541375,cobot_dynamixel_driver/goal|-:J1,J2,J3,J4,J5,J6:0.000000,0.000000,0.261799,0.000000,0.000000,0.000000:0.250000,0.250000,0.250000,0.250000,0.250000,0.250000:pos_vel_
1549429596.143286,cobot_dynamixel_driver/goal|-:J3:-805.664062:eff_
1549429596.856273,cobot_dynamixel_driver/goal|-:J3:-815.664062:eff_
1549429597.449683,cobot_dynamixel_driver/goal|-:J3:-825.664062:eff_
1549429598.043502,cobot_dynamixel_driver/goal|-:J3:-835.664062:eff_
1549429598.637155,cobot_dynamixel_driver/goal|-:J3:-845.664062:eff_
1549429599.259073,cobot_dynamixel_driver/goal|-:J3:-855.664062:eff_
1549429599.852558,cobot_dynamixel_driver/goal|-:J3:-865.664062:eff_
1549429600.447397,cobot_dynamixel_driver/goal|-:J3:-875.664062:eff_
1549429601.041058,cobot_dynamixel_driver/goal|-:J3:-885.664062:eff_
1549429601.662682,cobot_dynamixel_driver/goal|-:J3:-895.664062:eff_
1549429602.259284,cobot_dynamixel_driver/goal|-:J3:-905.664062:eff_
1549429602.852980,cobot_dynamixel_driver/goal|-:J3:0.000000:eff_
1549429602.960837,cobot_dynamixel_driver/goal|-:J1,J2,J3,J4,J5,J6:0.000000,0.000000,0.261799,0.000000,0.000000,0.000000:0.250000,0.250000,0.250000,0.250000,0.250000,0.250000:pos_vel_
1549429605.075521,cobot_dynamixel_driver/goal|-:J3:0.000000:eff_
1549429605.166426,cobot_dynamixel_driver/goal|-:J1,J2,J3,J4,J5,J6:0.000000,0.000000,0.261799,0.000000,0.000000,0.000000:0.250000,0.250000,0.250000,0.250000,0.250000,0.250000:pos_vel_
1549429606.363849,cobot_dynamixel_driver/goal|-:J3:-725.097656:eff_
1549429607.076623,cobot_dynamixel_driver/goal|-:J3:-735.097656:eff_
1549429607.670531,cobot_dynamixel_driver/goal|-:J3:-745.097656:eff_
1549429608.263950,cobot_dynamixel_driver/goal|-:J3:-755.097656:eff_
1549429608.857721,cobot_dynamixel_driver/goal|-:J3:-765.097656:eff_
1549429609.478291,cobot_dynamixel_driver/goal|-:J3:-775.097656:eff_
1549429610.073058,cobot_dynamixel_driver/goal|-:J3:-785.097656:eff_
1549429610.666819,cobot_dynamixel_driver/goal|-:J3:-795.097656:eff_
1549429611.260625,cobot_dynamixel_driver/goal|-:J3:-805.097656:eff_
1549429611.881263,cobot_dynamixel_driver/goal|-:J3:-815.097656:eff_
1549429612.475944,cobot_dynamixel_driver/goal|-:J3:-825.097656:eff_
1549429613.070583,cobot_dynamixel_driver/goal|-:J3:-835.097656:eff_
1549429613.665310,cobot_dynamixel_driver/goal|-:J3:-845.097656:eff_
1549429614.285958,cobot_dynamixel_driver/goal|-:J3:-855.097656:eff_
1549429614.879589,cobot_dynamixel_driver/goal|-:J3:-865.097656:eff_
1549429615.474292,cobot_dynamixel_driver/goal|-:J3:-875.097656:eff_
1549429616.067854,cobot_dynamixel_driver/goal|-:J3:-885.097656:eff_
1549429616.688850,cobot_dynamixel_driver/goal|-:J3:-895.097656:eff_
1549429617.283021,cobot_dynamixel_driver/goal|-:J3:-905.097656:eff_
1549429617.876598,cobot_dynamixel_driver/goal|-:J3:-915.097656:eff_
1549429618.471247,cobot_dynamixel_driver/goal|-:J3:-925.097656:eff_
1549429619.092310,cobot_dynamixel_driver/goal|-:J3:-935.097656:eff_
1549429619.685800,cobot_dynamixel_driver/goal|-:J3:0.000000:eff_
1549429619.793879,cobot_dynamixel_driver/goal|-:J1,J2,J3,J4,J5,J6:0.000000,0.000000,0.261799,0.000000,0.000000,0.000000:0.250000,0.250000,0.250000,0.250000,0.250000,0.250000:pos_vel_
1549429621.909660,cobot_dynamixel_driver/goal|-:J3:0.000000:eff_
1549429622.000585,cobot_dynamixel_driver/goal|-:J1,J2,J3,J4,J5,J6:0.000000,0.000000,0.174533,0.000000,0.000000,0.000000:0.250000,0.250000,0.250000,0.250000,0.250000,0.250000:pos_vel_
1549429623.604970,cobot_dynamixel_driver/goal|-:J3:-692.871094:eff_
1549429624.316610,cobot_dynamixel_driver/goal|-:J3:-702.871094:eff_
1549429624.910360,cobot_dynamixel_driver/goal|-:J3:-712.871094:eff_
1549429625.505100,cobot_dynamixel_driver/goal|-:J3:-722.871094:eff_
1549429626.100010,cobot_dynamixel_driver/goal|-:J3:-732.871094:eff_
1549429626.693665,cobot_dynamixel_driver/goal|-:J3:-742.871094:eff_
1549429627.315130,cobot_dynamixel_driver/goal|-:J3:-752.871094:eff_
1549429627.909878,cobot_dynamixel_driver/goal|-:J3:-762.871094:eff_
1549429628.505514,cobot_dynamixel_driver/goal|-:J3:-772.871094:eff_
1549429629.099151,cobot_dynamixel_driver/goal|-:J3:-782.871094:eff_
1549429629.720633,cobot_dynamixel_driver/goal|-:J3:-792.871094:eff_
1549429630.314292,cobot_dynamixel_driver/goal|-:J3:-802.871094:eff_
1549429630.908011,cobot_dynamixel_driver/goal|-:J3:-812.871094:eff_
1549429631.501561,cobot_dynamixel_driver/goal|-:J3:-822.871094:eff_
1549429632.123529,cobot_dynamixel_driver/goal|-:J3:-832.871094:eff_
1549429632.716924,cobot_dynamixel_driver/goal|-:J3:-842.871094:eff_
1549429633.311679,cobot_dynamixel_driver/goal|-:J3:-852.871094:eff_
1549429633.905408,cobot_dynamixel_driver/goal|-:J3:-862.871094:eff_
1549429634.527028,cobot_dynamixel_driver/goal|-:J3:-872.871094:eff_
1549429635.120788,cobot_dynamixel_driver/goal|-:J3:-882.871094:eff_
1549429635.714455,cobot_dynamixel_driver/goal|-:J3:-892.871094:eff_
1549429637.306728,cobot_dynamixel_driver/goal|-:J3:0.000000:eff_
1549429637.414782,cobot_dynamixel_driver/goal|-:J1,J2,J3,J4,J5,J6:0.000000,0.000000,0.174533,0.000000,0.000000,0.000000:0.250000,0.250000,0.250000,0.250000,0.250000,0.250000:pos_vel_
1549429637.911524,cobot_dynamixel_driver/goal|-:J3:-902.871094:eff_
1549429638.516224,cobot_dynamixel_driver/goal|-:J3:0.000000:eff_
1549429638.625170,cobot_dynamixel_driver/goal|-:J1,J2,J3,J4,J5,J6:0.000000,0.000000,0.174533,0.000000,0.000000,0.000000:0.250000,0.250000,0.250000,0.250000,0.250000,0.250000:pos_vel_
1549429640.552219,cobot_dynamixel_driver/goal|-:J3:0.000000:eff_
1549429640.643190,cobot_dynamixel_driver/goal|-:J1,J2,J3,J4,J5,J6:0.000000,0.000000,0.174533,0.000000,0.000000,0.000000:0.250000,0.250000,0.250000,0.250000,0.250000,0.250000:pos_vel_
1549429641.840556,cobot_dynamixel_driver/goal|-:J3:-628.417969:eff_
1549429642.553033,cobot_dynamixel_driver/goal|-:J3:-638.417969:eff_
1549429643.148627,cobot_dynamixel_driver/goal|-:J3:-648.417969:eff_
1549429643.744223,cobot_dynamixel_driver/goal|-:J3:-658.417969:eff_
1549429644.338043,cobot_dynamixel_driver/goal|-:J3:-668.417969:eff_
1549429644.959667,cobot_dynamixel_driver/goal|-:J3:-678.417969:eff_
1549429645.555278,cobot_dynamixel_driver/goal|-:J3:-688.417969:eff_
1549429646.149033,cobot_dynamixel_driver/goal|-:J3:-698.417969:eff_
1549429646.745873,cobot_dynamixel_driver/goal|-:J3:-708.417969:eff_
1549429647.340522,cobot_dynamixel_driver/goal|-:J3:-718.417969:eff_
1549429647.962147,cobot_dynamixel_driver/goal|-:J3:-728.417969:eff_
1549429648.556024,cobot_dynamixel_driver/goal|-:J3:-738.417969:eff_
1549429649.150591,cobot_dynamixel_driver/goal|-:J3:-748.417969:eff_
1549429649.745449,cobot_dynamixel_driver/goal|-:J3:-758.417969:eff_
1549429650.366317,cobot_dynamixel_driver/goal|-:J3:-768.417969:eff_
1549429650.960852,cobot_dynamixel_driver/goal|-:J3:-778.417969:eff_
1549429651.555474,cobot_dynamixel_driver/goal|-:J3:-788.417969:eff_
1549429652.149165,cobot_dynamixel_driver/goal|-:J3:-798.417969:eff_
1549429652.769961,cobot_dynamixel_driver/goal|-:J3:-808.417969:eff_
1549429653.363688,cobot_dynamixel_driver/goal|-:J3:-818.417969:eff_
1549429653.958476,cobot_dynamixel_driver/goal|-:J3:-828.417969:eff_
1549429654.551993,cobot_dynamixel_driver/goal|-:J3:-838.417969:eff_
1549429655.173624,cobot_dynamixel_driver/goal|-:J3:-848.417969:eff_
1549429655.767349,cobot_dynamixel_driver/goal|-:J3:-858.417969:eff_
1549429656.360806,cobot_dynamixel_driver/goal|-:J3:-868.417969:eff_
1549429656.955226,cobot_dynamixel_driver/goal|-:J3:-878.417969:eff_
1549429657.575906,cobot_dynamixel_driver/goal|-:J3:-888.417969:eff_
1549429658.710262,cobot_dynamixel_driver/goal|-:J3:0.000000:eff_
1549429658.791190,cobot_dynamixel_driver/goal|-:J1,J2,J3,J4,J5,J6:0.000000,0.000000,0.174533,0.000000,0.000000,0.000000:0.250000,0.250000,0.250000,0.250000,0.250000,0.250000:pos_vel_
1549429660.719337,cobot_dynamixel_driver/goal|-:J3:0.000000:eff_
1549429660.810242,cobot_dynamixel_driver/goal|-:J1,J2,J3,J4,J5,J6:0.000000,0.000000,0.087266,0.000000,0.000000,0.000000:0.250000,0.250000,0.250000,0.250000,0.250000,0.250000:pos_vel_
1549429662.413475,cobot_dynamixel_driver/goal|-:J3:-757.324219:eff_
1549429663.098228,cobot_dynamixel_driver/goal|-:J3:-767.324219:eff_
1549429663.718895,cobot_dynamixel_driver/goal|-:J3:-777.324219:eff_
1549429664.313636,cobot_dynamixel_driver/goal|-:J3:-787.324219:eff_
1549429664.908363,cobot_dynamixel_driver/goal|-:J3:-797.324219:eff_
1549429665.503292,cobot_dynamixel_driver/goal|-:J3:-807.324219:eff_
1549429666.123804,cobot_dynamixel_driver/goal|-:J3:-817.324219:eff_
1549429666.717402,cobot_dynamixel_driver/goal|-:J3:-827.324219:eff_
1549429667.311125,cobot_dynamixel_driver/goal|-:J3:-837.324219:eff_
1549429667.905730,cobot_dynamixel_driver/goal|-:J3:-847.324219:eff_
1549429668.527263,cobot_dynamixel_driver/goal|-:J3:-857.324219:eff_
1549429669.120960,cobot_dynamixel_driver/goal|-:J3:-867.324219:eff_
1549429669.715433,cobot_dynamixel_driver/goal|-:J3:-877.324219:eff_
1549429671.307540,cobot_dynamixel_driver/goal|-:J3:0.000000:eff_
1549429671.415559,cobot_dynamixel_driver/goal|-:J1,J2,J3,J4,J5,J6:0.000000,0.000000,0.087266,0.000000,0.000000,0.000000:0.250000,0.250000,0.250000,0.250000,0.250000,0.250000:pos_vel_
1549429671.911201,cobot_dynamixel_driver/goal|-:J3:-887.324219:eff_
1549429672.516909,cobot_dynamixel_driver/goal|-:J3:0.000000:eff_
1549429672.624928,cobot_dynamixel_driver/goal|-:J1,J2,J3,J4,J5,J6:0.000000,0.000000,0.087266,0.000000,0.000000,0.000000:0.250000,0.250000,0.250000,0.250000,0.250000,0.250000:pos_vel_
1549429674.443005,cobot_dynamixel_driver/goal|-:J3:0.000000:eff_
1549429674.533927,cobot_dynamixel_driver/goal|-:J1,J2,J3,J4,J5,J6:0.000000,0.000000,0.087266,0.000000,0.000000,0.000000:0.250000,0.250000,0.250000,0.250000,0.250000,0.250000:pos_vel_
1549429675.733807,cobot_dynamixel_driver/goal|-:J3:-725.097656:eff_
1549429676.445180,cobot_dynamixel_driver/goal|-:J3:-735.097656:eff_
1549429677.040957,cobot_dynamixel_driver/goal|-:J3:-745.097656:eff_
1549429677.634625,cobot_dynamixel_driver/goal|-:J3:-755.097656:eff_
1549429678.255391,cobot_dynamixel_driver/goal|-:J3:-765.097656:eff_
1549429678.851073,cobot_dynamixel_driver/goal|-:J3:-775.097656:eff_
1549429679.445053,cobot_dynamixel_driver/goal|-:J3:-785.097656:eff_
1549429680.039463,cobot_dynamixel_driver/goal|-:J3:-795.097656:eff_
1549429680.660335,cobot_dynamixel_driver/goal|-:J3:-805.097656:eff_
1549429681.253792,cobot_dynamixel_driver/goal|-:J3:-815.097656:eff_
1549429681.848603,cobot_dynamixel_driver/goal|-:J3:-825.097656:eff_
1549429682.442054,cobot_dynamixel_driver/goal|-:J3:-835.097656:eff_
1549429683.062518,cobot_dynamixel_driver/goal|-:J3:-845.097656:eff_
1549429684.654600,cobot_dynamixel_driver/goal|-:J3:0.000000:eff_
1549429684.762774,cobot_dynamixel_driver/goal|-:J1,J2,J3,J4,J5,J6:0.000000,0.000000,0.087266,0.000000,0.000000,0.000000:0.250000,0.250000,0.250000,0.250000,0.250000,0.250000:pos_vel_
1549429685.448203,cobot_dynamixel_driver/goal|-:J3:-855.097656:eff_
1549429686.321733,cobot_dynamixel_driver/goal|-:J3:0.000000:eff_
1549429686.403681,cobot_dynamixel_driver/goal|-:J1,J2,J3,J4,J5,J6:0.000000,0.000000,0.087266,0.000000,0.000000,0.000000:0.250000,0.250000,0.250000,0.250000,0.250000,0.250000:pos_vel_
1549429687.926185,cobot_dynamixel_driver/goal|-:J3:0.000000:eff_
1549429688.016932,cobot_dynamixel_driver/goal|-:J1,J2,J3,J4,J5,J6:0.000000,0.000000,0.000000,0.000000,0.000000,0.000000:0.250000,0.250000,0.250000,0.250000,0.250000,0.250000:pos_vel_
1549429689.619403,cobot_dynamixel_driver/goal|-:J3:-757.324219:eff_
1549429690.306024,cobot_dynamixel_driver/goal|-:J3:-767.324219:eff_
1549429690.927588,cobot_dynamixel_driver/goal|-:J3:-777.324219:eff_
1549429691.521278,cobot_dynamixel_driver/goal|-:J3:-787.324219:eff_
1549429692.114995,cobot_dynamixel_driver/goal|-:J3:-797.324219:eff_
1549429692.735761,cobot_dynamixel_driver/goal|-:J3:-807.324219:eff_
1549429693.331536,cobot_dynamixel_driver/goal|-:J3:-817.324219:eff_
1549429693.924913,cobot_dynamixel_driver/goal|-:J3:-827.324219:eff_
1549429694.519610,cobot_dynamixel_driver/goal|-:J3:-837.324219:eff_
1549429695.114119,cobot_dynamixel_driver/goal|-:J3:-847.324219:eff_
1549429695.734870,cobot_dynamixel_driver/goal|-:J3:-857.324219:eff_
1549429696.329433,cobot_dynamixel_driver/goal|-:J3:-867.324219:eff_
1549429696.923415,cobot_dynamixel_driver/goal|-:J3:-877.324219:eff_
1549429697.517700,cobot_dynamixel_driver/goal|-:J3:-887.324219:eff_
1549429698.138362,cobot_dynamixel_driver/goal|-:J3:-897.324219:eff_
1549429698.732188,cobot_dynamixel_driver/goal|-:J3:-907.324219:eff_
1549429699.326873,cobot_dynamixel_driver/goal|-:J3:-917.324219:eff_
1549429699.920532,cobot_dynamixel_driver/goal|-:J3:-927.324219:eff_
1549429700.541155,cobot_dynamixel_driver/goal|-:J3:-937.324219:eff_
1549429701.135243,cobot_dynamixel_driver/goal|-:J3:-947.324219:eff_
1549429701.729568,cobot_dynamixel_driver/goal|-:J3:-957.324219:eff_
1549429702.350478,cobot_dynamixel_driver/goal|-:J3:-967.324219:eff_
1549429702.946206,cobot_dynamixel_driver/goal|-:J3:0.000000:eff_
1549429703.028129,cobot_dynamixel_driver/goal|-:J1,J2,J3,J4,J5,J6:0.000000,0.000000,0.000000,0.000000,0.000000,0.000000:0.250000,0.250000,0.250000,0.250000,0.250000,0.250000:pos_vel_
1549429704.875072,cobot_dynamixel_driver/goal|-:J3:0.000000:eff_
1549429704.966046,cobot_dynamixel_driver/goal|-:J1,J2,J3,J4,J5,J6:0.000000,0.000000,0.000000,0.000000,0.000000,0.000000:0.250000,0.250000,0.250000,0.250000,0.250000,0.250000:pos_vel_
1549429706.056911,cobot_dynamixel_driver/goal|-:J3:-692.871094:eff_
1549429706.768106,cobot_dynamixel_driver/goal|-:J3:-702.871094:eff_
1549429707.361701,cobot_dynamixel_driver/goal|-:J3:-712.871094:eff_
1549429707.955297,cobot_dynamixel_driver/goal|-:J3:-722.871094:eff_
1549429708.576808,cobot_dynamixel_driver/goal|-:J3:-732.871094:eff_
1549429709.170504,cobot_dynamixel_driver/goal|-:J3:-742.871094:eff_
1549429709.764121,cobot_dynamixel_driver/goal|-:J3:-752.871094:eff_
1549429710.357832,cobot_dynamixel_driver/goal|-:J3:-762.871094:eff_
1549429710.978534,cobot_dynamixel_driver/goal|-:J3:-772.871094:eff_
1549429711.572193,cobot_dynamixel_driver/goal|-:J3:-782.871094:eff_
1549429712.166210,cobot_dynamixel_driver/goal|-:J3:-792.871094:eff_
1549429712.760765,cobot_dynamixel_driver/goal|-:J3:-802.871094:eff_
1549429713.381598,cobot_dynamixel_driver/goal|-:J3:-812.871094:eff_
1549429713.976137,cobot_dynamixel_driver/goal|-:J3:-822.871094:eff_
1549429714.571853,cobot_dynamixel_driver/goal|-:J3:-832.871094:eff_
1549429715.166739,cobot_dynamixel_driver/goal|-:J3:-842.871094:eff_
1549429715.787162,cobot_dynamixel_driver/goal|-:J3:-852.871094:eff_
1549429716.380935,cobot_dynamixel_driver/goal|-:J3:-862.871094:eff_
1549429717.974132,cobot_dynamixel_driver/goal|-:J3:0.000000:eff_
1549429718.082114,cobot_dynamixel_driver/goal|-:J1,J2,J3,J4,J5,J6:0.000000,0.000000,0.000000,0.000000,0.000000,0.000000:0.250000,0.250000,0.250000,0.250000,0.250000,0.250000:pos_vel_
1549429718.874710,cobot_dynamixel_driver/goal|-:J3:-872.871094:eff_
1549429720.476664,cobot_dynamixel_driver/goal|-:J3:0.000000:eff_
1549429720.584707,cobot_dynamixel_driver/goal|-:J1,J2,J3,J4,J5,J6:0.000000,0.000000,0.000000,0.000000,0.000000,0.000000:0.250000,0.250000,0.250000,0.250000,0.250000,0.250000:pos_vel_
1549429721.271230,cobot_dynamixel_driver/goal|-:J3:-882.871094:eff_
1549429721.875855,cobot_dynamixel_driver/goal|-:J3:-892.871094:eff_
1549429722.469515,cobot_dynamixel_driver/goal|-:J3:-902.871094:eff_
1549429723.090097,cobot_dynamixel_driver/goal|-:J3:-912.871094:eff_
1549429723.683671,cobot_dynamixel_driver/goal|-:J3:-922.871094:eff_
1549429724.278404,cobot_dynamixel_driver/goal|-:J3:-932.871094:eff_
1549429724.872060,cobot_dynamixel_driver/goal|-:J3:-942.871094:eff_
1549429725.493168,cobot_dynamixel_driver/goal|-:J3:-952.871094:eff_
1549429726.086422,cobot_dynamixel_driver/goal|-:J3:-962.871094:eff_
1549429726.680263,cobot_dynamixel_driver/goal|-:J3:-972.871094:eff_
1549429727.301848,cobot_dynamixel_driver/goal|-:J3:-982.871094:eff_
1549429727.895654,cobot_dynamixel_driver/goal|-:J3:-992.871094:eff_
1549429728.489270,cobot_dynamixel_driver/goal|-:J3:-1002.871094:eff_
1549429729.082952,cobot_dynamixel_driver/goal|-:J3:-1012.871094:eff_
1549429729.703690,cobot_dynamixel_driver/goal|-:J3:-1022.871094:eff_
1549429730.297505,cobot_dynamixel_driver/goal|-:J3:-1032.871094:eff_
1549429730.891401,cobot_dynamixel_driver/goal|-:J3:-1042.871094:eff_
1549429731.485167,cobot_dynamixel_driver/goal|-:J3:-1052.871094:eff_
1549429732.106632,cobot_dynamixel_driver/goal|-:J3:-1062.871094:eff_
1549429732.701483,cobot_dynamixel_driver/goal|-:J3:-1072.871094:eff_
1549429733.296168,cobot_dynamixel_driver/goal|-:J3:-1082.871094:eff_
1549429733.890446,cobot_dynamixel_driver/goal|-:J3:0.000000:eff_
1549429733.998443,cobot_dynamixel_driver/goal|-:J1,J2,J3,J4,J5,J6:0.000000,0.000000,0.000000,0.000000,0.000000,0.000000:0.250000,0.250000,0.250000,0.250000,0.250000,0.250000:pos_vel_
1549429736.113028,cobot_dynamixel_driver/goal|-:J3:0.000000:eff_
1549429736.203881,cobot_dynamixel_driver/goal|-:J1,J2,J3,J4,J5,J6:0.000000,0.000000,-0.087266,0.000000,0.000000,0.000000:0.250000,0.250000,0.250000,0.250000,0.250000,0.250000:pos_vel_
1549429737.997298,cobot_dynamixel_driver/goal|-:J3:-966.796875:eff_
1549429738.708639,cobot_dynamixel_driver/goal|-:J1,J2,J3,J4,J5,J6:0.000000,0.000000,-0.087266,0.000000,0.000000,0.000000:0.250000,0.250000,0.250000,0.250000,0.250000,0.250000:pos_vel_
1549429739.609166,cobot_dynamixel_driver/goal|-:J3:-956.796875:eff_
1549429740.213977,cobot_dynamixel_driver/goal|-:J1,J2,J3,J4,J5,J6:0.000000,0.000000,-0.087266,0.000000,0.000000,0.000000:0.250000,0.250000,0.250000,0.250000,0.250000,0.250000:pos_vel_
1549429741.222388,cobot_dynamixel_driver/goal|-:J3:-946.796875:eff_
1549429741.801026,cobot_dynamixel_driver/goal|-:J1,J2,J3,J4,J5,J6:0.000000,0.000000,-0.087266,0.000000,0.000000,0.000000:0.250000,0.250000,0.250000,0.250000,0.250000,0.250000:pos_vel_
1549429742.621697,cobot_dynamixel_driver/goal|-:J3:-936.796875:eff_
1549429743.198406,cobot_dynamixel_driver/goal|-:J1,J2,J3,J4,J5,J6:0.000000,0.000000,-0.087266,0.000000,0.000000,0.000000:0.250000,0.250000,0.250000,0.250000,0.250000,0.250000:pos_vel_
1549429744.019008,cobot_dynamixel_driver/goal|-:J3:-926.796875:eff_
1549429744.623674,cobot_dynamixel_driver/goal|-:J1,J2,J3,J4,J5,J6:0.000000,0.000000,-0.087266,0.000000,0.000000,0.000000:0.250000,0.250000,0.250000,0.250000,0.250000,0.250000:pos_vel_
1549429745.416332,cobot_dynamixel_driver/goal|-:J3:-916.796875:eff_
1549429746.021104,cobot_dynamixel_driver/goal|-:J1,J2,J3,J4,J5,J6:0.000000,0.000000,-0.087266,0.000000,0.000000,0.000000:0.250000,0.250000,0.250000,0.250000,0.250000,0.250000:pos_vel_
1549429746.922785,cobot_dynamixel_driver/goal|-:J3:-906.796875:eff_
1549429747.527124,cobot_dynamixel_driver/goal|-:J1,J2,J3,J4,J5,J6:0.000000,0.000000,-0.087266,0.000000,0.000000,0.000000:0.250000,0.250000,0.250000,0.250000,0.250000,0.250000:pos_vel_
1549429748.212688,cobot_dynamixel_driver/goal|-:J3:-896.796875:eff_
1549429748.817401,cobot_dynamixel_driver/goal|-:J1,J2,J3,J4,J5,J6:0.000000,0.000000,-0.087266,0.000000,0.000000,0.000000:0.250000,0.250000,0.250000,0.250000,0.250000,0.250000:pos_vel_
1549429749.502798,cobot_dynamixel_driver/goal|-:J3:-886.796875:eff_
1549429750.135102,cobot_dynamixel_driver/goal|-:J3:0.000000:eff_
1549429750.216457,cobot_dynamixel_driver/goal|-:J1,J2,J3,J4,J5,J6:0.000000,0.000000,-0.087266,0.000000,0.000000,0.000000:0.250000,0.250000,0.250000,0.250000,0.250000,0.250000:pos_vel_
1549429751.929665,cobot_dynamixel_driver/goal|-:J3:0.000000:eff_
