surachairobotic/cobot/cobot_dynamixel_driver/log/2019-02-05T07:55:59.721265_driver_cmd.txt
1549353363.789776,cobot_dynamixel_driver/goal|-:J1,J2,J3,J4,J5,J6:0.000000,0.000000,0.000000,0.000000,0.000000,0.000000:0.500000,0.500000,0.500000,0.500000,0.500000,0.500000:pos_vel_
1549353550.559184,cobot_dynamixel_driver/goal|-:J1,J2,J3,J4,J5,J6:0.000000,0.000000,0.000000,0.000000,0.000000,0.000000:0.500000,0.500000,0.500000,0.500000,0.500000,0.500000:pos_vel_
1549353551.182041,cobot_dynamixel_driver/goal|-:J1,J2,J3,J4,J5,J6:0.000000,0.000000,0.000000,0.000000,0.000000,0.000000:0.500000,0.500000,0.500000,0.500000,0.500000,0.500000:pos_vel_
1549353679.630751,cobot_dynamixel_driver/goal|-:J1,J2,J3,J4,J5,J6:0.000000,0.000000,0.000000,0.000000,0.000000,0.000000:0.500000,0.500000,0.500000,0.500000,0.500000,0.500000:pos_vel_
1549353688.353628,cobot_dynamixel_driver/goal|-:J3:0.000000:eff_
1549353688.455865,cobot_dynamixel_driver/goal|-:J1,J2,J3,J4,J5,J6:0.000000,0.000000,0.523599,0.000000,0.000000,0.000000:0.250000,0.250000,0.250000,0.250000,0.250000,0.250000:pos_vel_
1549353691.856721,cobot_dynamixel_driver/goal|-:J3:-370.605469:eff_
1549353691.959899,cobot_dynamixel_driver/goal|-:J3:-360.605469:eff_
1549353692.070687,cobot_dynamixel_driver/goal|-:J3:-350.605469:eff_
1549353692.154460,cobot_dynamixel_driver/goal|-:J3:-340.605469:eff_
1549353692.264405,cobot_dynamixel_driver/goal|-:J3:-330.605469:eff_
1549353692.346359,cobot_dynamixel_driver/goal|-:J3:-320.605469:eff_
1549353692.456148,cobot_dynamixel_driver/goal|-:J3:-310.605469:eff_
1549353692.565241,cobot_dynamixel_driver/goal|-:J3:-300.605469:eff_
1549353692.648182,cobot_dynamixel_driver/goal|-:J3:-290.605469:eff_
1549353692.758090,cobot_dynamixel_driver/goal|-:J3:-280.605469:eff_
1549353692.868064,cobot_dynamixel_driver/goal|-:J3:-270.605469:eff_
1549353692.950856,cobot_dynamixel_driver/goal|-:J3:-260.605469:eff_
1549353693.059944,cobot_dynamixel_driver/goal|-:J3:-250.605469:eff_
1549353693.169932,cobot_dynamixel_driver/goal|-:J3:-240.605469:eff_
1549353693.252867,cobot_dynamixel_driver/goal|-:J3:-230.605469:eff_
1549353693.362751,cobot_dynamixel_driver/goal|-:J3:-220.605469:eff_
1549353693.472678,cobot_dynamixel_driver/goal|-:J3:-210.605469:eff_
1549353693.555557,cobot_dynamixel_driver/goal|-:J3:-200.605469:eff_
1549353693.665529,cobot_dynamixel_driver/goal|-:J3:-190.605469:eff_
1549353693.775424,cobot_dynamixel_driver/goal|-:J3:-180.605469:eff_
1549353693.857429,cobot_dynamixel_driver/goal|-:J3:-170.605469:eff_
1549353693.966385,cobot_dynamixel_driver/goal|-:J3:-160.605469:eff_
1549353694.076233,cobot_dynamixel_driver/goal|-:J3:-150.605469:eff_
1549353694.159461,cobot_dynamixel_driver/goal|-:J3:-140.605469:eff_
1549353694.270176,cobot_dynamixel_driver/goal|-:J3:-130.605469:eff_
1549353694.380046,cobot_dynamixel_driver/goal|-:J3:-120.605469:eff_
1549353694.463001,cobot_dynamixel_driver/goal|-:J3:-110.605469:eff_
1549353694.571898,cobot_dynamixel_driver/goal|-:J3:-100.605469:eff_
1549353694.680808,cobot_dynamixel_driver/goal|-:J3:-90.605469:eff_
1549353694.763775,cobot_dynamixel_driver/goal|-:J3:-80.605469:eff_
1549353694.873743,cobot_dynamixel_driver/goal|-:J3:-70.605469:eff_
1549353694.983646,cobot_dynamixel_driver/goal|-:J3:-60.605469:eff_
1549353695.066550,cobot_dynamixel_driver/goal|-:J3:-50.605469:eff_
1549353695.176510,cobot_dynamixel_driver/goal|-:J3:-40.605469:eff_
1549353695.259570,cobot_dynamixel_driver/goal|-:J3:-30.605469:eff_
1549353695.370196,cobot_dynamixel_driver/goal|-:J3:-20.605469:eff_
1549353695.480370,cobot_dynamixel_driver/goal|-:J3:-10.605469:eff_
1549353695.563233,cobot_dynamixel_driver/goal|-:J3:-0.605469:eff_
1549353695.672168,cobot_dynamixel_driver/goal|-:J3:9.394531:eff_
1549353695.781892,cobot_dynamixel_driver/goal|-:J3:19.394531:eff_
1549353695.864010,cobot_dynamixel_driver/goal|-:J3:29.394531:eff_
1549353695.973980,cobot_dynamixel_driver/goal|-:J3:39.394531:eff_
1549353696.083913,cobot_dynamixel_driver/goal|-:J3:49.394531:eff_
1549353696.166900,cobot_dynamixel_driver/goal|-:J3:59.394531:eff_
1549353696.276824,cobot_dynamixel_driver/goal|-:J3:69.394531:eff_
1549353696.385702,cobot_dynamixel_driver/goal|-:J3:79.394531:eff_
1549353696.468703,cobot_dynamixel_driver/goal|-:J3:89.394531:eff_
1549353696.578790,cobot_dynamixel_driver/goal|-:J3:99.394531:eff_
1549353696.689592,cobot_dynamixel_driver/goal|-:J3:109.394531:eff_
1549353696.772538,cobot_dynamixel_driver/goal|-:J3:119.394531:eff_
1549353696.882543,cobot_dynamixel_driver/goal|-:J3:129.394531:eff_
1549353696.992370,cobot_dynamixel_driver/goal|-:J3:139.394531:eff_
1549353697.074406,cobot_dynamixel_driver/goal|-:J3:149.394531:eff_
1549353697.184315,cobot_dynamixel_driver/goal|-:J3:159.394531:eff_
1549353697.294362,cobot_dynamixel_driver/goal|-:J3:169.394531:eff_
1549353697.376117,cobot_dynamixel_driver/goal|-:J3:179.394531:eff_
1549353697.487171,cobot_dynamixel_driver/goal|-:J3:189.394531:eff_
1549353697.597219,cobot_dynamixel_driver/goal|-:J3:199.394531:eff_
1549353697.680129,cobot_dynamixel_driver/goal|-:J3:209.394531:eff_
1549353697.790097,cobot_dynamixel_driver/goal|-:J3:219.394531:eff_
1549353697.873019,cobot_dynamixel_driver/goal|-:J3:229.394531:eff_
1549353697.982914,cobot_dynamixel_driver/goal|-:J3:239.394531:eff_
1549353698.092932,cobot_dynamixel_driver/goal|-:J3:249.394531:eff_
1549353698.175921,cobot_dynamixel_driver/goal|-:J3:259.394531:eff_
1549353698.285779,cobot_dynamixel_driver/goal|-:J3:269.394531:eff_
1549353698.395719,cobot_dynamixel_driver/goal|-:J3:279.394531:eff_
1549353698.478694,cobot_dynamixel_driver/goal|-:J3:289.394531:eff_
1549353698.589591,cobot_dynamixel_driver/goal|-:J3:299.394531:eff_
1549353698.699638,cobot_dynamixel_driver/goal|-:J3:289.394531:eff_
1549353699.295335,cobot_dynamixel_driver/goal|-:J3:279.394531:eff_
1549353699.595286,cobot_dynamixel_driver/goal|-:J3:0.000000:eff_
1549353699.595286,cobot_dynamixel_driver/goal|-:J1,J2,J3,J4,J5,J6:0.000000,0.000000,0.523599,0.000000,0.000000,0.000000:0.250000,0.250000,0.250000,0.250000,0.250000,0.250000:pos_vel_
cobot_dynamixel_driver/goal|-:J1,J2,J3,J4,J5,J6:0.000000,0.000000,0.523599,0.000000,0.000000,0.000000:0.250000,0.250000,0.250000,0.250000,0.250000,0.250000:pos_vel_
0
-:J1,J2,J3,J4,J5,J6:0.000000,0.000000,0.523599,0.000000,0.000000,0.000000:0.250000,0.250000,0.250000,0.250000,0.250000,0.250000:pos_vel_
[TxRxResult] There is no status packet!
 /home/mtec/catkin_ws/src/cobot/cobot_dynamixel_driver/src/cJoint_pro.cpp:413
1549353699.595286,cobot_dynamixel_driver/goal|-:J1,J2,J3,J4,J5,J6:0.000000,0.000000,0.523599,0.000000,0.000000,0.000000:0.250000,0.250000,0.250000,0.250000,0.250000,0.250000:pos_vel_
cobot_dynamixel_driver/goal|-:J1,J2,J3,J4,J5,J6:0.000000,0.000000,0.523599,0.000000,0.000000,0.000000:0.250000,0.250000,0.250000,0.250000,0.250000,0.250000:pos_vel_
1
-:J1,J2,J3,J4,J5,J6:0.000000,0.000000,0.523599,0.000000,0.000000,0.000000:0.250000,0.250000,0.250000,0.250000,0.250000,0.250000:pos_vel_
[TxRxResult] There is no status packet!
 /home/mtec/catkin_ws/src/cobot/cobot_dynamixel_driver/src/cJoint_pro.cpp:413
