surachairobotic/cobot/cobot_dynamixel_driver/log/2019-02-06T05:30:12.073922_driver_cmd.txt
1549431015.879920,cobot_dynamixel_driver/goal|-:J1,J2,J3,J4,J5,J6:0.000000,0.000000,0.000000,0.000000,0.000000,0.000000:0.500000,0.500000,0.500000,0.500000,0.500000,0.500000:pos_vel_
1549431026.899622,cobot_dynamixel_driver/goal|-:J3:0.000000:eff_
1549431026.990699,cobot_dynamixel_driver/goal|-:J1,J2,J3,J4,J5,J6:0.000000,0.000000,0.523599,0.000000,0.000000,0.000000:0.250000,0.250000,0.250000,0.250000,0.250000,0.250000:pos_vel_
1549431030.293120,cobot_dynamixel_driver/goal|-:J3:-273.925781:eff_
1549431031.004262,cobot_dynamixel_driver/goal|-:J3:-283.925781:eff_
1549431031.598323,cobot_dynamixel_driver/goal|-:J3:-293.925781:eff_
1549431032.191463,cobot_dynamixel_driver/goal|-:J3:-303.925781:eff_
1549431032.812140,cobot_dynamixel_driver/goal|-:J3:-313.925781:eff_
1549431033.405554,cobot_dynamixel_driver/goal|-:J3:-323.925781:eff_
1549431033.999132,cobot_dynamixel_driver/goal|-:J3:-333.925781:eff_
1549431034.592814,cobot_dynamixel_driver/goal|-:J3:-343.925781:eff_
1549431035.214585,cobot_dynamixel_driver/goal|-:J3:-353.925781:eff_
1549431035.809266,cobot_dynamixel_driver/goal|-:J3:-363.925781:eff_
1549431036.402955,cobot_dynamixel_driver/goal|-:J3:-373.925781:eff_
1549431036.996614,cobot_dynamixel_driver/goal|-:J3:-383.925781:eff_
1549431037.591312,cobot_dynamixel_driver/goal|-:J3:-393.925781:eff_
1549431038.212018,cobot_dynamixel_driver/goal|-:J3:-403.925781:eff_
1549431038.806754,cobot_dynamixel_driver/goal|-:J3:-413.925781:eff_
1549431039.400445,cobot_dynamixel_driver/goal|-:J3:-423.925781:eff_
1549431039.994230,cobot_dynamixel_driver/goal|-:J3:-433.925781:eff_
1549431040.614840,cobot_dynamixel_driver/goal|-:J3:-443.925781:eff_
1549431041.208513,cobot_dynamixel_driver/goal|-:J3:-453.925781:eff_
1549431041.802165,cobot_dynamixel_driver/goal|-:J3:-463.925781:eff_
1549431042.422897,cobot_dynamixel_driver/goal|-:J3:-473.925781:eff_
1549431043.017527,cobot_dynamixel_driver/goal|-:J3:-483.925781:eff_
1549431043.611198,cobot_dynamixel_driver/goal|-:J3:-493.925781:eff_
1549431044.204710,cobot_dynamixel_driver/goal|-:J3:-503.925781:eff_
1549431044.825336,cobot_dynamixel_driver/goal|-:J3:-513.925781:eff_
1549431045.419358,cobot_dynamixel_driver/goal|-:J3:-523.925781:eff_
1549431046.012495,cobot_dynamixel_driver/goal|-:J3:-533.925781:eff_
1549431046.606154,cobot_dynamixel_driver/goal|-:J3:-543.925781:eff_
1549431047.226722,cobot_dynamixel_driver/goal|-:J3:-553.925781:eff_
1549431047.820374,cobot_dynamixel_driver/goal|-:J3:-563.925781:eff_
1549431048.414043,cobot_dynamixel_driver/goal|-:J3:-573.925781:eff_
1549431049.007692,cobot_dynamixel_driver/goal|-:J3:-583.925781:eff_
1549431049.628350,cobot_dynamixel_driver/goal|-:J3:-593.925781:eff_
1549431050.223070,cobot_dynamixel_driver/goal|-:J3:-603.925781:eff_
1549431050.816903,cobot_dynamixel_driver/goal|-:J3:-613.925781:eff_
1549431051.410569,cobot_dynamixel_driver/goal|-:J3:-623.925781:eff_
1549431052.030775,cobot_dynamixel_driver/goal|-:J3:-633.925781:eff_
1549431052.625462,cobot_dynamixel_driver/goal|-:J3:-643.925781:eff_
1549431053.220211,cobot_dynamixel_driver/goal|-:J3:-653.925781:eff_
1549431053.814767,cobot_dynamixel_driver/goal|-:J3:-663.925781:eff_
1549431054.435392,cobot_dynamixel_driver/goal|-:J3:-673.925781:eff_
1549431055.029089,cobot_dynamixel_driver/goal|-:J3:-683.925781:eff_
1549431055.623690,cobot_dynamixel_driver/goal|-:J3:-693.925781:eff_
1549431057.242568,cobot_dynamixel_driver/goal|-:J3:0.000000:eff_
1549431057.323565,cobot_dynamixel_driver/goal|-:J1,J2,J3,J4,J5,J6:0.000000,0.000000,0.523599,0.000000,0.000000,0.000000:0.250000,0.250000,0.250000,0.250000,0.250000,0.250000:pos_vel_
1549431057.738223,cobot_dynamixel_driver/goal|-:J3:-703.925781:eff_
1549431059.340022,cobot_dynamixel_driver/goal|-:J3:0.000000:eff_
1549431059.420995,cobot_dynamixel_driver/goal|-:J1,J2,J3,J4,J5,J6:0.000000,0.000000,0.523599,0.000000,0.000000,0.000000:0.250000,0.250000,0.250000,0.250000,0.250000,0.250000:pos_vel_
1549431059.836486,cobot_dynamixel_driver/goal|-:J3:-713.925781:eff_
1549431061.439385,cobot_dynamixel_driver/goal|-:J3:0.000000:eff_
1549431061.520325,cobot_dynamixel_driver/goal|-:J1,J2,J3,J4,J5,J6:0.000000,0.000000,0.523599,0.000000,0.000000,0.000000:0.250000,0.250000,0.250000,0.250000,0.250000,0.250000:pos_vel_
1549431062.043986,cobot_dynamixel_driver/goal|-:J3:-723.925781:eff_
1549431062.674647,cobot_dynamixel_driver/goal|-:J3:0.000000:eff_
1549431062.755567,cobot_dynamixel_driver/goal|-:J1,J2,J3,J4,J5,J6:0.000000,0.000000,0.523599,0.000000,0.000000,0.000000:0.250000,0.250000,0.250000,0.250000,0.250000,0.250000:pos_vel_
1549431064.681443,cobot_dynamixel_driver/goal|-:J3:0.000000:eff_
1549431064.772350,cobot_dynamixel_driver/goal|-:J1,J2,J3,J4,J5,J6:0.000000,0.000000,0.523599,0.000000,0.000000,0.000000:0.250000,0.250000,0.250000,0.250000,0.250000,0.250000:pos_vel_
1549431065.861766,cobot_dynamixel_driver/goal|-:J3:-515.625000:eff_
1549431066.574703,cobot_dynamixel_driver/goal|-:J3:-525.625000:eff_
1549431067.168948,cobot_dynamixel_driver/goal|-:J3:-535.625000:eff_
1549431067.762650,cobot_dynamixel_driver/goal|-:J3:-545.625000:eff_
1549431068.383418,cobot_dynamixel_driver/goal|-:J3:-555.625000:eff_
1549431068.976950,cobot_dynamixel_driver/goal|-:J3:-565.625000:eff_
1549431069.570499,cobot_dynamixel_driver/goal|-:J3:-575.625000:eff_
1549431070.163884,cobot_dynamixel_driver/goal|-:J3:-585.625000:eff_
1549431070.784359,cobot_dynamixel_driver/goal|-:J3:-595.625000:eff_
1549431071.378005,cobot_dynamixel_driver/goal|-:J3:-605.625000:eff_
1549431071.971752,cobot_dynamixel_driver/goal|-:J3:-615.625000:eff_
1549431072.565050,cobot_dynamixel_driver/goal|-:J3:-625.625000:eff_
1549431073.186586,cobot_dynamixel_driver/goal|-:J3:-635.625000:eff_
1549431073.780134,cobot_dynamixel_driver/goal|-:J3:-645.625000:eff_
1549431074.374769,cobot_dynamixel_driver/goal|-:J3:-655.625000:eff_
1549431074.968711,cobot_dynamixel_driver/goal|-:J3:-665.625000:eff_
1549431075.589061,cobot_dynamixel_driver/goal|-:J3:-675.625000:eff_
1549431076.182771,cobot_dynamixel_driver/goal|-:J3:-685.625000:eff_
1549431076.776502,cobot_dynamixel_driver/goal|-:J3:-695.625000:eff_
1549431077.396899,cobot_dynamixel_driver/goal|-:J3:-705.625000:eff_
1549431077.991654,cobot_dynamixel_driver/goal|-:J3:-715.625000:eff_
1549431078.585355,cobot_dynamixel_driver/goal|-:J3:-725.625000:eff_
1549431079.179011,cobot_dynamixel_driver/goal|-:J3:-735.625000:eff_
1549431079.799621,cobot_dynamixel_driver/goal|-:J3:-745.625000:eff_
1549431080.393247,cobot_dynamixel_driver/goal|-:J3:-755.625000:eff_
1549431080.986835,cobot_dynamixel_driver/goal|-:J3:-765.625000:eff_
1549431081.580605,cobot_dynamixel_driver/goal|-:J3:-775.625000:eff_
1549431082.201048,cobot_dynamixel_driver/goal|-:J3:-785.625000:eff_
1549431082.794741,cobot_dynamixel_driver/goal|-:J3:-795.625000:eff_
1549431083.388355,cobot_dynamixel_driver/goal|-:J3:-805.625000:eff_
1549431083.982812,cobot_dynamixel_driver/goal|-:J3:-815.625000:eff_
1549431084.603183,cobot_dynamixel_driver/goal|-:J3:-825.625000:eff_
1549431085.277704,cobot_dynamixel_driver/goal|-:J3:0.000000:eff_
1549431085.359633,cobot_dynamixel_driver/goal|-:J1,J2,J3,J4,J5,J6:0.000000,0.000000,0.523599,0.000000,0.000000,0.000000:0.250000,0.250000,0.250000,0.250000,0.250000,0.250000:pos_vel_
1549431087.285227,cobot_dynamixel_driver/goal|-:J3:0.000000:eff_
1549431087.376174,cobot_dynamixel_driver/goal|-:J1,J2,J3,J4,J5,J6:0.000000,0.000000,0.436332,0.000000,0.000000,0.000000:0.250000,0.250000,0.250000,0.250000,0.250000,0.250000:pos_vel_
1549431088.979476,cobot_dynamixel_driver/goal|-:J3:-580.078125:eff_
1549431089.692735,cobot_dynamixel_driver/goal|-:J3:-590.078125:eff_
1549431090.286440,cobot_dynamixel_driver/goal|-:J3:-600.078125:eff_
1549431090.880020,cobot_dynamixel_driver/goal|-:J3:-610.078125:eff_
1549431091.500941,cobot_dynamixel_driver/goal|-:J3:-620.078125:eff_
1549431092.094335,cobot_dynamixel_driver/goal|-:J3:-630.078125:eff_
1549431092.688003,cobot_dynamixel_driver/goal|-:J3:-640.078125:eff_
1549431093.281657,cobot_dynamixel_driver/goal|-:J3:-650.078125:eff_
1549431093.903299,cobot_dynamixel_driver/goal|-:J3:-660.078125:eff_
1549431094.497913,cobot_dynamixel_driver/goal|-:J3:-670.078125:eff_
1549431095.091579,cobot_dynamixel_driver/goal|-:J3:-680.078125:eff_
1549431095.685207,cobot_dynamixel_driver/goal|-:J3:-690.078125:eff_
1549431096.306714,cobot_dynamixel_driver/goal|-:J3:-700.078125:eff_
1549431096.900347,cobot_dynamixel_driver/goal|-:J3:-710.078125:eff_
1549431097.493917,cobot_dynamixel_driver/goal|-:J3:-720.078125:eff_
1549431098.088569,cobot_dynamixel_driver/goal|-:J3:-730.078125:eff_
1549431098.708870,cobot_dynamixel_driver/goal|-:J3:-740.078125:eff_
1549431099.303435,cobot_dynamixel_driver/goal|-:J3:-750.078125:eff_
1549431099.896919,cobot_dynamixel_driver/goal|-:J3:-760.078125:eff_
1549431100.490595,cobot_dynamixel_driver/goal|-:J3:-770.078125:eff_
1549431101.111196,cobot_dynamixel_driver/goal|-:J3:-780.078125:eff_
1549431101.705889,cobot_dynamixel_driver/goal|-:J3:-790.078125:eff_
1549431102.299611,cobot_dynamixel_driver/goal|-:J3:-800.078125:eff_
1549431102.893185,cobot_dynamixel_driver/goal|-:J3:-810.078125:eff_
1549431103.513860,cobot_dynamixel_driver/goal|-:J3:-820.078125:eff_
1549431104.107596,cobot_dynamixel_driver/goal|-:J3:-830.078125:eff_
1549431104.701176,cobot_dynamixel_driver/goal|-:J3:-840.078125:eff_
1549431105.294920,cobot_dynamixel_driver/goal|-:J3:-850.078125:eff_
1549431105.916498,cobot_dynamixel_driver/goal|-:J3:-860.078125:eff_
1549431106.510176,cobot_dynamixel_driver/goal|-:J3:-870.078125:eff_
1549431107.103858,cobot_dynamixel_driver/goal|-:J3:-880.078125:eff_
1549431107.698835,cobot_dynamixel_driver/goal|-:J3:-890.078125:eff_
1549431108.319068,cobot_dynamixel_driver/goal|-:J3:-900.078125:eff_
1549431108.912658,cobot_dynamixel_driver/goal|-:J3:-910.078125:eff_
1549431109.507249,cobot_dynamixel_driver/goal|-:J3:0.000000:eff_
1549431109.616224,cobot_dynamixel_driver/goal|-:J1,J2,J3,J4,J5,J6:0.000000,0.000000,0.436332,0.000000,0.000000,0.000000:0.250000,0.250000,0.250000,0.250000,0.250000,0.250000:pos_vel_
1549431112.027315,cobot_dynamixel_driver/goal|-:J3:0.000000:eff_
1549431112.118257,cobot_dynamixel_driver/goal|-:J1,J2,J3,J4,J5,J6:0.000000,0.000000,0.436332,0.000000,0.000000,0.000000:0.250000,0.250000,0.250000,0.250000,0.250000,0.250000:pos_vel_
1549431113.234277,cobot_dynamixel_driver/goal|-:J3:-596.191406:eff_
1549431113.920038,cobot_dynamixel_driver/goal|-:J3:-606.191406:eff_
1549431114.513483,cobot_dynamixel_driver/goal|-:J3:-616.191406:eff_
1549431115.134068,cobot_dynamixel_driver/goal|-:J3:-626.191406:eff_
1549431115.727778,cobot_dynamixel_driver/goal|-:J3:-636.191406:eff_
1549431116.322301,cobot_dynamixel_driver/goal|-:J3:-646.191406:eff_
1549431116.915977,cobot_dynamixel_driver/goal|-:J3:-656.191406:eff_
1549431117.536946,cobot_dynamixel_driver/goal|-:J3:-666.191406:eff_
1549431118.130307,cobot_dynamixel_driver/goal|-:J3:-676.191406:eff_
1549431118.723835,cobot_dynamixel_driver/goal|-:J3:-686.191406:eff_
1549431119.317734,cobot_dynamixel_driver/goal|-:J3:-696.191406:eff_
1549431119.938179,cobot_dynamixel_driver/goal|-:J3:-706.191406:eff_
1549431120.531941,cobot_dynamixel_driver/goal|-:J3:-716.191406:eff_
1549431121.125455,cobot_dynamixel_driver/goal|-:J3:-726.191406:eff_
1549431121.746101,cobot_dynamixel_driver/goal|-:J3:-736.191406:eff_
1549431122.339638,cobot_dynamixel_driver/goal|-:J3:-746.191406:eff_
1549431122.933666,cobot_dynamixel_driver/goal|-:J3:-756.191406:eff_
1549431123.527860,cobot_dynamixel_driver/goal|-:J3:-766.191406:eff_
1549431124.149294,cobot_dynamixel_driver/goal|-:J3:-776.191406:eff_
1549431124.742823,cobot_dynamixel_driver/goal|-:J3:-786.191406:eff_
1549431125.336645,cobot_dynamixel_driver/goal|-:J3:-796.191406:eff_
1549431125.930166,cobot_dynamixel_driver/goal|-:J3:-806.191406:eff_
1549431126.551466,cobot_dynamixel_driver/goal|-:J3:-816.191406:eff_
1549431127.145036,cobot_dynamixel_driver/goal|-:J3:-826.191406:eff_
1549431127.739053,cobot_dynamixel_driver/goal|-:J3:-836.191406:eff_
1549431128.332401,cobot_dynamixel_driver/goal|-:J3:-846.191406:eff_
1549431129.060977,cobot_dynamixel_driver/goal|-:J3:0.000000:eff_
1549431129.141981,cobot_dynamixel_driver/goal|-:J1,J2,J3,J4,J5,J6:0.000000,0.000000,0.436332,0.000000,0.000000,0.000000:0.250000,0.250000,0.250000,0.250000,0.250000,0.250000:pos_vel_
1549431130.959871,cobot_dynamixel_driver/goal|-:J3:0.000000:eff_
1549431131.050868,cobot_dynamixel_driver/goal|-:J1,J2,J3,J4,J5,J6:0.000000,0.000000,0.349066,0.000000,0.000000,0.000000:0.250000,0.250000,0.250000,0.250000,0.250000,0.250000:pos_vel_
1549431132.652857,cobot_dynamixel_driver/goal|-:J3:-692.871094:eff_
1549431133.364449,cobot_dynamixel_driver/goal|-:J3:-702.871094:eff_
1549431133.958009,cobot_dynamixel_driver/goal|-:J3:-712.871094:eff_
1549431134.552723,cobot_dynamixel_driver/goal|-:J3:-722.871094:eff_
1549431135.173305,cobot_dynamixel_driver/goal|-:J3:-732.871094:eff_
1549431135.766810,cobot_dynamixel_driver/goal|-:J3:-742.871094:eff_
1549431136.360402,cobot_dynamixel_driver/goal|-:J3:-752.871094:eff_
1549431136.953983,cobot_dynamixel_driver/goal|-:J3:-762.871094:eff_
1549431137.574425,cobot_dynamixel_driver/goal|-:J3:-772.871094:eff_
1549431138.167959,cobot_dynamixel_driver/goal|-:J3:-782.871094:eff_
1549431138.762537,cobot_dynamixel_driver/goal|-:J3:-792.871094:eff_
1549431139.356220,cobot_dynamixel_driver/goal|-:J3:-802.871094:eff_
1549431139.977096,cobot_dynamixel_driver/goal|-:J3:-812.871094:eff_
1549431140.570808,cobot_dynamixel_driver/goal|-:J3:-822.871094:eff_
1549431141.461928,cobot_dynamixel_driver/goal|-:J3:0.000000:eff_
1549431141.542843,cobot_dynamixel_driver/goal|-:J1,J2,J3,J4,J5,J6:0.000000,0.000000,0.349066,0.000000,0.000000,0.000000:0.250000,0.250000,0.250000,0.250000,0.250000,0.250000:pos_vel_
1549431143.252859,cobot_dynamixel_driver/goal|-:J3:0.000000:eff_
1549431143.371295,cobot_dynamixel_driver/goal|-:J1,J2,J3,J4,J5,J6:0.000000,0.000000,0.349066,0.000000,0.000000,0.000000:0.250000,0.250000,0.250000,0.250000,0.250000,0.250000:pos_vel_
1549431144.461241,cobot_dynamixel_driver/goal|-:J3:-628.417969:eff_
1549431145.173181,cobot_dynamixel_driver/goal|-:J3:-638.417969:eff_
1549431145.766757,cobot_dynamixel_driver/goal|-:J3:-648.417969:eff_
1549431146.360151,cobot_dynamixel_driver/goal|-:J3:-658.417969:eff_
1549431146.953789,cobot_dynamixel_driver/goal|-:J3:-668.417969:eff_
1549431147.574439,cobot_dynamixel_driver/goal|-:J3:-678.417969:eff_
1549431148.168258,cobot_dynamixel_driver/goal|-:J3:-688.417969:eff_
1549431148.761644,cobot_dynamixel_driver/goal|-:J3:-698.417969:eff_
1549431149.355295,cobot_dynamixel_driver/goal|-:J3:-708.417969:eff_
1549431149.975650,cobot_dynamixel_driver/goal|-:J3:-718.417969:eff_
1549431150.570715,cobot_dynamixel_driver/goal|-:J3:-728.417969:eff_
1549431151.164823,cobot_dynamixel_driver/goal|-:J3:-738.417969:eff_
1549431151.758435,cobot_dynamixel_driver/goal|-:J3:-748.417969:eff_
1549431152.379198,cobot_dynamixel_driver/goal|-:J3:-758.417969:eff_
1549431152.972584,cobot_dynamixel_driver/goal|-:J3:-768.417969:eff_
1549431153.566248,cobot_dynamixel_driver/goal|-:J3:-778.417969:eff_
1549431154.160934,cobot_dynamixel_driver/goal|-:J3:-788.417969:eff_
1549431154.781594,cobot_dynamixel_driver/goal|-:J3:-798.417969:eff_
1549431155.377201,cobot_dynamixel_driver/goal|-:J3:-808.417969:eff_
1549431155.971094,cobot_dynamixel_driver/goal|-:J3:-818.417969:eff_
1549431156.564492,cobot_dynamixel_driver/goal|-:J3:-828.417969:eff_
1549431157.185275,cobot_dynamixel_driver/goal|-:J3:-838.417969:eff_
1549431157.778985,cobot_dynamixel_driver/goal|-:J3:-848.417969:eff_
1549431158.373375,cobot_dynamixel_driver/goal|-:J3:-858.417969:eff_
1549431158.967094,cobot_dynamixel_driver/goal|-:J3:-868.417969:eff_
1549431159.588703,cobot_dynamixel_driver/goal|-:J3:-878.417969:eff_
1549431160.183336,cobot_dynamixel_driver/goal|-:J3:0.000000:eff_
1549431160.292274,cobot_dynamixel_driver/goal|-:J1,J2,J3,J4,J5,J6:0.000000,0.000000,0.349066,0.000000,0.000000,0.000000:0.250000,0.250000,0.250000,0.250000,0.250000,0.250000:pos_vel_
1549431162.379857,cobot_dynamixel_driver/goal|-:J3:0.000000:eff_
1549431162.498300,cobot_dynamixel_driver/goal|-:J1,J2,J3,J4,J5,J6:0.000000,0.000000,0.261799,0.000000,0.000000,0.000000:0.250000,0.250000,0.250000,0.250000,0.250000,0.250000:pos_vel_
1549431164.100618,cobot_dynamixel_driver/goal|-:J3:-692.871094:eff_
1549431164.786034,cobot_dynamixel_driver/goal|-:J3:-702.871094:eff_
1549431165.406560,cobot_dynamixel_driver/goal|-:J3:-712.871094:eff_
1549431166.000247,cobot_dynamixel_driver/goal|-:J3:-722.871094:eff_
1549431166.593831,cobot_dynamixel_driver/goal|-:J3:-732.871094:eff_
1549431167.187617,cobot_dynamixel_driver/goal|-:J3:-742.871094:eff_
1549431167.808161,cobot_dynamixel_driver/goal|-:J3:-752.871094:eff_
1549431168.401796,cobot_dynamixel_driver/goal|-:J3:-762.871094:eff_
1549431168.995419,cobot_dynamixel_driver/goal|-:J3:-772.871094:eff_
1549431169.590082,cobot_dynamixel_driver/goal|-:J3:-782.871094:eff_
1549431170.211676,cobot_dynamixel_driver/goal|-:J3:-792.871094:eff_
1549431170.806340,cobot_dynamixel_driver/goal|-:J3:-802.871094:eff_
1549431171.400043,cobot_dynamixel_driver/goal|-:J3:-812.871094:eff_
1549431171.993717,cobot_dynamixel_driver/goal|-:J3:-822.871094:eff_
1549431172.614236,cobot_dynamixel_driver/goal|-:J3:-832.871094:eff_
1549431173.207911,cobot_dynamixel_driver/goal|-:J3:-842.871094:eff_
1549431173.801512,cobot_dynamixel_driver/goal|-:J3:-852.871094:eff_
1549431174.395187,cobot_dynamixel_driver/goal|-:J3:-862.871094:eff_
1549431175.015820,cobot_dynamixel_driver/goal|-:J3:-872.871094:eff_
1549431175.609339,cobot_dynamixel_driver/goal|-:J3:-882.871094:eff_
1549431176.202822,cobot_dynamixel_driver/goal|-:J3:-892.871094:eff_
1549431176.796219,cobot_dynamixel_driver/goal|-:J3:-902.871094:eff_
1549431177.417204,cobot_dynamixel_driver/goal|-:J3:-912.871094:eff_
1549431178.010719,cobot_dynamixel_driver/goal|-:J3:-922.871094:eff_
1549431178.604033,cobot_dynamixel_driver/goal|-:J3:-932.871094:eff_
1549431179.197655,cobot_dynamixel_driver/goal|-:J3:-942.871094:eff_
1549431179.818367,cobot_dynamixel_driver/goal|-:J3:-952.871094:eff_
1549431180.412984,cobot_dynamixel_driver/goal|-:J3:-962.871094:eff_
1549431181.007598,cobot_dynamixel_driver/goal|-:J3:-972.871094:eff_
1549431181.601256,cobot_dynamixel_driver/goal|-:J3:-982.871094:eff_
1549431182.221903,cobot_dynamixel_driver/goal|-:J3:-992.871094:eff_
1549431182.816628,cobot_dynamixel_driver/goal|-:J3:-1002.871094:eff_
1549431183.410336,cobot_dynamixel_driver/goal|-:J3:0.000000:eff_
1549431183.518171,cobot_dynamixel_driver/goal|-:J1,J2,J3,J4,J5,J6:0.000000,0.000000,0.261799,0.000000,0.000000,0.000000:0.250000,0.250000,0.250000,0.250000,0.250000,0.250000:pos_vel_
1549431185.823223,cobot_dynamixel_driver/goal|-:J3:0.000000:eff_
1549431185.913847,cobot_dynamixel_driver/goal|-:J1,J2,J3,J4,J5,J6:0.000000,0.000000,0.261799,0.000000,0.000000,0.000000:0.250000,0.250000,0.250000,0.250000,0.250000,0.250000:pos_vel_
1549431186.922320,cobot_dynamixel_driver/goal|-:J3:-676.757812:eff_
1549431187.633845,cobot_dynamixel_driver/goal|-:J3:-686.757812:eff_
1549431188.227450,cobot_dynamixel_driver/goal|-:J3:-696.757812:eff_
1549431188.822306,cobot_dynamixel_driver/goal|-:J3:-706.757812:eff_
1549431189.415511,cobot_dynamixel_driver/goal|-:J3:-716.757812:eff_
1549431190.035995,cobot_dynamixel_driver/goal|-:J3:-726.757812:eff_
1549431190.630560,cobot_dynamixel_driver/goal|-:J3:-736.757812:eff_
1549431191.225175,cobot_dynamixel_driver/goal|-:J3:-746.757812:eff_
1549431191.819839,cobot_dynamixel_driver/goal|-:J3:-756.757812:eff_
1549431192.441446,cobot_dynamixel_driver/goal|-:J3:-766.757812:eff_
1549431193.035094,cobot_dynamixel_driver/goal|-:J3:-776.757812:eff_
1549431193.629764,cobot_dynamixel_driver/goal|-:J3:-786.757812:eff_
1549431194.224332,cobot_dynamixel_driver/goal|-:J3:-796.757812:eff_
1549431194.844962,cobot_dynamixel_driver/goal|-:J3:-806.757812:eff_
1549431195.438664,cobot_dynamixel_driver/goal|-:J3:-816.757812:eff_
1549431196.032284,cobot_dynamixel_driver/goal|-:J3:-826.757812:eff_
1549431196.626035,cobot_dynamixel_driver/goal|-:J3:-836.757812:eff_
1549431197.246713,cobot_dynamixel_driver/goal|-:J3:-846.757812:eff_
1549431197.840367,cobot_dynamixel_driver/goal|-:J3:-856.757812:eff_
1549431198.730730,cobot_dynamixel_driver/goal|-:J3:0.000000:eff_
1549431198.811715,cobot_dynamixel_driver/goal|-:J1,J2,J3,J4,J5,J6:0.000000,0.000000,0.261799,0.000000,0.000000,0.000000:0.250000,0.250000,0.250000,0.250000,0.250000,0.250000:pos_vel_
1549431200.522667,cobot_dynamixel_driver/goal|-:J3:0.000000:eff_
1549431200.640679,cobot_dynamixel_driver/goal|-:J1,J2,J3,J4,J5,J6:0.000000,0.000000,0.174533,0.000000,0.000000,0.000000:0.250000,0.250000,0.250000,0.250000,0.250000,0.250000:pos_vel_
1549431202.431146,cobot_dynamixel_driver/goal|-:J3:-628.417969:eff_
1549431203.116633,cobot_dynamixel_driver/goal|-:J3:-638.417969:eff_
1549431203.738214,cobot_dynamixel_driver/goal|-:J3:-648.417969:eff_
1549431204.332121,cobot_dynamixel_driver/goal|-:J3:-658.417969:eff_
1549431204.925401,cobot_dynamixel_driver/goal|-:J3:-668.417969:eff_
1549431205.519011,cobot_dynamixel_driver/goal|-:J3:-678.417969:eff_
1549431206.139786,cobot_dynamixel_driver/goal|-:J3:-688.417969:eff_
1549431206.733645,cobot_dynamixel_driver/goal|-:J3:-698.417969:eff_
1549431207.327932,cobot_dynamixel_driver/goal|-:J3:-708.417969:eff_
1549431207.948538,cobot_dynamixel_driver/goal|-:J3:-718.417969:eff_
1549431208.543211,cobot_dynamixel_driver/goal|-:J3:-728.417969:eff_
1549431209.136946,cobot_dynamixel_driver/goal|-:J3:-738.417969:eff_
1549431209.731558,cobot_dynamixel_driver/goal|-:J3:-748.417969:eff_
1549431210.325301,cobot_dynamixel_driver/goal|-:J3:-758.417969:eff_
1549431210.945906,cobot_dynamixel_driver/goal|-:J3:-768.417969:eff_
1549431211.539535,cobot_dynamixel_driver/goal|-:J3:-778.417969:eff_
1549431212.133157,cobot_dynamixel_driver/goal|-:J3:-788.417969:eff_
1549431212.753839,cobot_dynamixel_driver/goal|-:J3:-798.417969:eff_
1549431213.347524,cobot_dynamixel_driver/goal|-:J3:-808.417969:eff_
1549431213.941180,cobot_dynamixel_driver/goal|-:J3:-818.417969:eff_
1549431214.535004,cobot_dynamixel_driver/goal|-:J3:-828.417969:eff_
1549431215.155222,cobot_dynamixel_driver/goal|-:J3:-838.417969:eff_
1549431215.748832,cobot_dynamixel_driver/goal|-:J3:-848.417969:eff_
1549431216.342360,cobot_dynamixel_driver/goal|-:J3:-858.417969:eff_
1549431216.936937,cobot_dynamixel_driver/goal|-:J3:-868.417969:eff_
1549431217.558427,cobot_dynamixel_driver/goal|-:J3:-878.417969:eff_
1549431218.151986,cobot_dynamixel_driver/goal|-:J3:-888.417969:eff_
1549431219.744115,cobot_dynamixel_driver/goal|-:J3:0.000000:eff_
1549431219.851998,cobot_dynamixel_driver/goal|-:J1,J2,J3,J4,J5,J6:0.000000,0.000000,0.174533,0.000000,0.000000,0.000000:0.250000,0.250000,0.250000,0.250000,0.250000,0.250000:pos_vel_
1549431220.645517,cobot_dynamixel_driver/goal|-:J3:-898.417969:eff_
1549431221.250240,cobot_dynamixel_driver/goal|-:J3:0.000000:eff_
1549431221.358162,cobot_dynamixel_driver/goal|-:J1,J2,J3,J4,J5,J6:0.000000,0.000000,0.174533,0.000000,0.000000,0.000000:0.250000,0.250000,0.250000,0.250000,0.250000,0.250000:pos_vel_
1549431223.259011,cobot_dynamixel_driver/goal|-:J3:0.000000:eff_
1549431223.349945,cobot_dynamixel_driver/goal|-:J1,J2,J3,J4,J5,J6:0.000000,0.000000,0.174533,0.000000,0.000000,0.000000:0.250000,0.250000,0.250000,0.250000,0.250000,0.250000:pos_vel_
1549431224.574195,cobot_dynamixel_driver/goal|-:J3:-708.984375:eff_
1549431225.259891,cobot_dynamixel_driver/goal|-:J3:-718.984375:eff_
1549431225.853775,cobot_dynamixel_driver/goal|-:J3:-728.984375:eff_
1549431226.474168,cobot_dynamixel_driver/goal|-:J3:-738.984375:eff_
1549431227.067833,cobot_dynamixel_driver/goal|-:J3:-748.984375:eff_
1549431227.661254,cobot_dynamixel_driver/goal|-:J3:-758.984375:eff_
1549431228.254898,cobot_dynamixel_driver/goal|-:J3:-768.984375:eff_
1549431228.875484,cobot_dynamixel_driver/goal|-:J3:-778.984375:eff_
1549431229.470001,cobot_dynamixel_driver/goal|-:J3:-788.984375:eff_
1549431230.063543,cobot_dynamixel_driver/goal|-:J3:-798.984375:eff_
1549431230.659061,cobot_dynamixel_driver/goal|-:J3:-808.984375:eff_
1549431231.279665,cobot_dynamixel_driver/goal|-:J3:-818.984375:eff_
1549431231.874293,cobot_dynamixel_driver/goal|-:J3:-828.984375:eff_
1549431232.467973,cobot_dynamixel_driver/goal|-:J3:-838.984375:eff_
1549431233.062640,cobot_dynamixel_driver/goal|-:J3:-848.984375:eff_
1549431233.683242,cobot_dynamixel_driver/goal|-:J3:-858.984375:eff_
1549431234.276907,cobot_dynamixel_driver/goal|-:J3:-868.984375:eff_
1549431234.870622,cobot_dynamixel_driver/goal|-:J3:-878.984375:eff_
1549431235.465417,cobot_dynamixel_driver/goal|-:J3:-888.984375:eff_
1549431236.086001,cobot_dynamixel_driver/goal|-:J3:-898.984375:eff_
1549431236.680656,cobot_dynamixel_driver/goal|-:J3:-908.984375:eff_
1549431237.274270,cobot_dynamixel_driver/goal|-:J3:-918.984375:eff_
1549431237.868151,cobot_dynamixel_driver/goal|-:J3:-928.984375:eff_
1549431238.488575,cobot_dynamixel_driver/goal|-:J3:-938.984375:eff_
1549431239.082233,cobot_dynamixel_driver/goal|-:J3:-948.984375:eff_
1549431239.675872,cobot_dynamixel_driver/goal|-:J3:-958.984375:eff_
1549431240.269471,cobot_dynamixel_driver/goal|-:J3:-968.984375:eff_
1549431240.918141,cobot_dynamixel_driver/goal|-:J3:0.000000:eff_
1549431240.998879,cobot_dynamixel_driver/goal|-:J1,J2,J3,J4,J5,J6:0.000000,0.000000,0.174533,0.000000,0.000000,0.000000:0.250000,0.250000,0.250000,0.250000,0.250000,0.250000:pos_vel_
1549431242.816359,cobot_dynamixel_driver/goal|-:J3:0.000000:eff_
1549431242.907362,cobot_dynamixel_driver/goal|-:J1,J2,J3,J4,J5,J6:0.000000,0.000000,0.087266,0.000000,0.000000,0.000000:0.250000,0.250000,0.250000,0.250000,0.250000,0.250000:pos_vel_
1549431244.806121,cobot_dynamixel_driver/goal|-:J3:-821.777344:eff_
1549431245.518688,cobot_dynamixel_driver/goal|-:J3:-831.777344:eff_
1549431246.112278,cobot_dynamixel_driver/goal|-:J3:-841.777344:eff_
1549431246.705919,cobot_dynamixel_driver/goal|-:J3:-851.777344:eff_
1549431247.326569,cobot_dynamixel_driver/goal|-:J3:-861.777344:eff_
1549431247.920234,cobot_dynamixel_driver/goal|-:J3:-871.777344:eff_
1549431248.513976,cobot_dynamixel_driver/goal|-:J3:-881.777344:eff_
1549431249.107633,cobot_dynamixel_driver/goal|-:J3:-891.777344:eff_
1549431249.729274,cobot_dynamixel_driver/goal|-:J3:-901.777344:eff_
1549431250.322967,cobot_dynamixel_driver/goal|-:J3:-911.777344:eff_
1549431250.917542,cobot_dynamixel_driver/goal|-:J3:-921.777344:eff_
1549431251.511203,cobot_dynamixel_driver/goal|-:J3:0.000000:eff_
1549431251.619124,cobot_dynamixel_driver/goal|-:J1,J2,J3,J4,J5,J6:0.000000,0.000000,0.087266,0.000000,0.000000,0.000000:0.250000,0.250000,0.250000,0.250000,0.250000,0.250000:pos_vel_
1549431253.438982,cobot_dynamixel_driver/goal|-:J3:0.000000:eff_
1549431253.530072,cobot_dynamixel_driver/goal|-:J1,J2,J3,J4,J5,J6:0.000000,0.000000,0.087266,0.000000,0.000000,0.000000:0.250000,0.250000,0.250000,0.250000,0.250000,0.250000:pos_vel_
1549431254.728118,cobot_dynamixel_driver/goal|-:J3:-805.664062:eff_
1549431255.440604,cobot_dynamixel_driver/goal|-:J3:-815.664062:eff_
1549431256.034112,cobot_dynamixel_driver/goal|-:J3:-825.664062:eff_
1549431256.628721,cobot_dynamixel_driver/goal|-:J3:-835.664062:eff_
1549431257.249179,cobot_dynamixel_driver/goal|-:J3:-845.664062:eff_
1549431257.842776,cobot_dynamixel_driver/goal|-:J3:-855.664062:eff_
1549431258.437488,cobot_dynamixel_driver/goal|-:J3:-865.664062:eff_
1549431259.058588,cobot_dynamixel_driver/goal|-:J3:-875.664062:eff_
1549431259.651972,cobot_dynamixel_driver/goal|-:J3:-885.664062:eff_
1549431260.245471,cobot_dynamixel_driver/goal|-:J3:-895.664062:eff_
1549431260.839017,cobot_dynamixel_driver/goal|-:J3:-905.664062:eff_
1549431261.540591,cobot_dynamixel_driver/goal|-:J3:0.000000:eff_
1549431261.621538,cobot_dynamixel_driver/goal|-:J1,J2,J3,J4,J5,J6:0.000000,0.000000,0.087266,0.000000,0.000000,0.000000:0.250000,0.250000,0.250000,0.250000,0.250000,0.250000:pos_vel_
1549431263.358676,cobot_dynamixel_driver/goal|-:J3:0.000000:eff_
1549431263.449749,cobot_dynamixel_driver/goal|-:J1,J2,J3,J4,J5,J6:0.000000,0.000000,0.000000,0.000000,0.000000,0.000000:0.250000,0.250000,0.250000,0.250000,0.250000,0.250000:pos_vel_
1549431265.051869,cobot_dynamixel_driver/goal|-:J3:-708.984375:eff_
1549431265.763112,cobot_dynamixel_driver/goal|-:J3:-718.984375:eff_
1549431266.358695,cobot_dynamixel_driver/goal|-:J3:-728.984375:eff_
1549431266.952316,cobot_dynamixel_driver/goal|-:J3:-738.984375:eff_
1549431267.573849,cobot_dynamixel_driver/goal|-:J3:-748.984375:eff_
1549431268.167352,cobot_dynamixel_driver/goal|-:J3:-758.984375:eff_
1549431268.761963,cobot_dynamixel_driver/goal|-:J3:-768.984375:eff_
1549431269.355585,cobot_dynamixel_driver/goal|-:J3:-778.984375:eff_
1549431269.976348,cobot_dynamixel_driver/goal|-:J3:-788.984375:eff_
1549431270.569811,cobot_dynamixel_driver/goal|-:J3:-798.984375:eff_
1549431271.164437,cobot_dynamixel_driver/goal|-:J3:-808.984375:eff_
1549431271.758141,cobot_dynamixel_driver/goal|-:J3:-818.984375:eff_
1549431272.378773,cobot_dynamixel_driver/goal|-:J3:-828.984375:eff_
1549431272.972491,cobot_dynamixel_driver/goal|-:J3:-838.984375:eff_
1549431273.566984,cobot_dynamixel_driver/goal|-:J3:-848.984375:eff_
1549431274.160661,cobot_dynamixel_driver/goal|-:J3:-858.984375:eff_
1549431274.781363,cobot_dynamixel_driver/goal|-:J3:-868.984375:eff_
1549431275.375031,cobot_dynamixel_driver/goal|-:J3:-878.984375:eff_
1549431275.968596,cobot_dynamixel_driver/goal|-:J3:-888.984375:eff_
1549431276.562267,cobot_dynamixel_driver/goal|-:J3:-898.984375:eff_
1549431277.182914,cobot_dynamixel_driver/goal|-:J3:-908.984375:eff_
1549431277.776466,cobot_dynamixel_driver/goal|-:J3:-918.984375:eff_
1549431278.370158,cobot_dynamixel_driver/goal|-:J3:-928.984375:eff_
1549431278.963853,cobot_dynamixel_driver/goal|-:J3:-938.984375:eff_
1549431279.584486,cobot_dynamixel_driver/goal|-:J3:0.000000:eff_
1549431279.665475,cobot_dynamixel_driver/goal|-:J1,J2,J3,J4,J5,J6:0.000000,0.000000,0.000000,0.000000,0.000000,0.000000:0.250000,0.250000,0.250000,0.250000,0.250000,0.250000:pos_vel_
1549431281.592877,cobot_dynamixel_driver/goal|-:J3:0.000000:eff_
1549431281.711262,cobot_dynamixel_driver/goal|-:J1,J2,J3,J4,J5,J6:0.000000,0.000000,0.000000,0.000000,0.000000,0.000000:0.250000,0.250000,0.250000,0.250000,0.250000,0.250000:pos_vel_
1549431283.096836,cobot_dynamixel_driver/goal|-:J3:-708.984375:eff_
1549431283.808235,cobot_dynamixel_driver/goal|-:J3:-718.984375:eff_
1549431284.401908,cobot_dynamixel_driver/goal|-:J3:-728.984375:eff_
1549431284.995509,cobot_dynamixel_driver/goal|-:J3:-738.984375:eff_
1549431285.589252,cobot_dynamixel_driver/goal|-:J3:-748.984375:eff_
1549431286.209766,cobot_dynamixel_driver/goal|-:J3:-758.984375:eff_
1549431286.803457,cobot_dynamixel_driver/goal|-:J3:-768.984375:eff_
1549431287.397177,cobot_dynamixel_driver/goal|-:J3:-778.984375:eff_
1549431287.990832,cobot_dynamixel_driver/goal|-:J3:-788.984375:eff_
1549431288.612485,cobot_dynamixel_driver/goal|-:J3:-798.984375:eff_
1549431289.206166,cobot_dynamixel_driver/goal|-:J3:-808.984375:eff_
1549431289.799887,cobot_dynamixel_driver/goal|-:J3:-818.984375:eff_
1549431290.393457,cobot_dynamixel_driver/goal|-:J3:-828.984375:eff_
1549431291.014173,cobot_dynamixel_driver/goal|-:J3:-838.984375:eff_
1549431291.607774,cobot_dynamixel_driver/goal|-:J3:-848.984375:eff_
1549431292.201533,cobot_dynamixel_driver/goal|-:J3:-858.984375:eff_
1549431292.822047,cobot_dynamixel_driver/goal|-:J3:-868.984375:eff_
1549431293.416691,cobot_dynamixel_driver/goal|-:J3:-878.984375:eff_
1549431294.010293,cobot_dynamixel_driver/goal|-:J3:-888.984375:eff_
1549431294.603829,cobot_dynamixel_driver/goal|-:J3:-898.984375:eff_
1549431295.225251,cobot_dynamixel_driver/goal|-:J3:-908.984375:eff_
1549431295.819073,cobot_dynamixel_driver/goal|-:J3:-918.984375:eff_
1549431296.412599,cobot_dynamixel_driver/goal|-:J3:-928.984375:eff_
1549431297.006025,cobot_dynamixel_driver/goal|-:J3:-938.984375:eff_
1549431297.626722,cobot_dynamixel_driver/goal|-:J3:-948.984375:eff_
1549431298.220641,cobot_dynamixel_driver/goal|-:J3:-958.984375:eff_
1549431298.813986,cobot_dynamixel_driver/goal|-:J3:-968.984375:eff_
1549431299.407748,cobot_dynamixel_driver/goal|-:J3:-978.984375:eff_
1549431300.028323,cobot_dynamixel_driver/goal|-:J3:-988.984375:eff_
1549431300.623102,cobot_dynamixel_driver/goal|-:J3:-998.984375:eff_
1549431301.216716,cobot_dynamixel_driver/goal|-:J3:-1008.984375:eff_
1549431301.810843,cobot_dynamixel_driver/goal|-:J3:0.000000:eff_
1549431301.918322,cobot_dynamixel_driver/goal|-:J1,J2,J3,J4,J5,J6:0.000000,0.000000,0.000000,0.000000,0.000000,0.000000:0.250000,0.250000,0.250000,0.250000,0.250000,0.250000:pos_vel_
1549431303.952188,cobot_dynamixel_driver/goal|-:J3:0.000000:eff_
1549431304.043145,cobot_dynamixel_driver/goal|-:J1,J2,J3,J4,J5,J6:0.000000,0.000000,-0.087266,0.000000,0.000000,0.000000:0.250000,0.250000,0.250000,0.250000,0.250000,0.250000:pos_vel_
1549431305.564255,cobot_dynamixel_driver/goal|-:J3:-854.003906:eff_
1549431306.249758,cobot_dynamixel_driver/goal|-:J3:-864.003906:eff_
1549431306.843286,cobot_dynamixel_driver/goal|-:J3:-874.003906:eff_
1549431307.463847,cobot_dynamixel_driver/goal|-:J3:-884.003906:eff_
1549431308.057413,cobot_dynamixel_driver/goal|-:J3:-894.003906:eff_
1549431308.650915,cobot_dynamixel_driver/goal|-:J3:-904.003906:eff_
1549431309.244517,cobot_dynamixel_driver/goal|-:J3:-914.003906:eff_
1549431309.865212,cobot_dynamixel_driver/goal|-:J3:-924.003906:eff_
1549431310.458886,cobot_dynamixel_driver/goal|-:J3:-934.003906:eff_
1549431311.053626,cobot_dynamixel_driver/goal|-:J3:-944.003906:eff_
1549431311.647187,cobot_dynamixel_driver/goal|-:J3:-954.003906:eff_
1549431312.267784,cobot_dynamixel_driver/goal|-:J3:-964.003906:eff_
1549431312.861579,cobot_dynamixel_driver/goal|-:J3:-974.003906:eff_
1549431313.455205,cobot_dynamixel_driver/goal|-:J3:-984.003906:eff_
1549431314.048809,cobot_dynamixel_driver/goal|-:J3:-994.003906:eff_
1549431314.669463,cobot_dynamixel_driver/goal|-:J3:-1004.003906:eff_
1549431315.263036,cobot_dynamixel_driver/goal|-:J3:-1014.003906:eff_
1549431315.856733,cobot_dynamixel_driver/goal|-:J3:-1024.003906:eff_
1549431316.477430,cobot_dynamixel_driver/goal|-:J3:-1034.003906:eff_
1549431317.071070,cobot_dynamixel_driver/goal|-:J3:-1044.003906:eff_
1549431317.665750,cobot_dynamixel_driver/goal|-:J3:-1054.003906:eff_
1549431318.259363,cobot_dynamixel_driver/goal|-:J3:-1064.003906:eff_
1549431318.881040,cobot_dynamixel_driver/goal|-:J3:0.000000:eff_
1549431318.962007,cobot_dynamixel_driver/goal|-:J1,J2,J3,J4,J5,J6:0.000000,0.000000,-0.087266,0.000000,0.000000,0.000000:0.250000,0.250000,0.250000,0.250000,0.250000,0.250000:pos_vel_
1549431321.077383,cobot_dynamixel_driver/goal|-:J3:0.000000:eff_
1549431321.195784,cobot_dynamixel_driver/goal|-:J1,J2,J3,J4,J5,J6:0.000000,0.000000,-0.087266,0.000000,0.000000,0.000000:0.250000,0.250000,0.250000,0.250000,0.250000,0.250000:pos_vel_
1549431322.393372,cobot_dynamixel_driver/goal|-:J3:-886.230469:eff_
1549431323.078918,cobot_dynamixel_driver/goal|-:J3:-896.230469:eff_
1549431323.672662,cobot_dynamixel_driver/goal|-:J3:-906.230469:eff_
1549431324.293343,cobot_dynamixel_driver/goal|-:J3:-916.230469:eff_
1549431324.886844,cobot_dynamixel_driver/goal|-:J3:-926.230469:eff_
1549431325.480476,cobot_dynamixel_driver/goal|-:J3:-936.230469:eff_
1549431326.101501,cobot_dynamixel_driver/goal|-:J3:-946.230469:eff_
1549431326.694810,cobot_dynamixel_driver/goal|-:J3:-956.230469:eff_
1549431327.288481,cobot_dynamixel_driver/goal|-:J3:-966.230469:eff_
1549431327.882176,cobot_dynamixel_driver/goal|-:J3:-976.230469:eff_
1549431328.502778,cobot_dynamixel_driver/goal|-:J3:0.000000:eff_
1549431328.583801,cobot_dynamixel_driver/goal|-:J1,J2,J3,J4,J5,J6:0.000000,0.000000,-0.087266,0.000000,0.000000,0.000000:0.250000,0.250000,0.250000,0.250000,0.250000,0.250000:pos_vel_
1549431330.942387,cobot_dynamixel_driver/goal|-:J3:0.000000:eff_
1549431331.033537,cobot_dynamixel_driver/goal|-:J1,J2,J3,J4,J5,J6:0.000000,0.000000,-0.174533,0.000000,0.000000,0.000000:0.250000,0.250000,0.250000,0.250000,0.250000,0.250000:pos_vel_
1549431332.743222,cobot_dynamixel_driver/goal|-:J3:-692.871094:eff_
1549431333.427757,cobot_dynamixel_driver/goal|-:J3:-702.871094:eff_
1549431334.021477,cobot_dynamixel_driver/goal|-:J3:-712.871094:eff_
1549431334.641563,cobot_dynamixel_driver/goal|-:J3:-722.871094:eff_
1549431335.235226,cobot_dynamixel_driver/goal|-:J3:-732.871094:eff_
1549431335.829742,cobot_dynamixel_driver/goal|-:J3:-742.871094:eff_
1549431336.424443,cobot_dynamixel_driver/goal|-:J3:-752.871094:eff_
1549431337.045107,cobot_dynamixel_driver/goal|-:J3:-762.871094:eff_
1549431337.638704,cobot_dynamixel_driver/goal|-:J3:-772.871094:eff_
1549431338.232345,cobot_dynamixel_driver/goal|-:J3:-782.871094:eff_
1549431338.826096,cobot_dynamixel_driver/goal|-:J3:-792.871094:eff_
1549431339.446679,cobot_dynamixel_driver/goal|-:J3:-802.871094:eff_
1549431340.040341,cobot_dynamixel_driver/goal|-:J3:-812.871094:eff_
1549431340.634137,cobot_dynamixel_driver/goal|-:J3:-822.871094:eff_
1549431341.228798,cobot_dynamixel_driver/goal|-:J3:-832.871094:eff_
1549431341.849469,cobot_dynamixel_driver/goal|-:J3:-842.871094:eff_
1549431342.443083,cobot_dynamixel_driver/goal|-:J3:-852.871094:eff_
1549431343.036757,cobot_dynamixel_driver/goal|-:J3:-862.871094:eff_
1549431343.631371,cobot_dynamixel_driver/goal|-:J3:-872.871094:eff_
1549431344.251995,cobot_dynamixel_driver/goal|-:J3:-882.871094:eff_
1549431344.845608,cobot_dynamixel_driver/goal|-:J3:-892.871094:eff_
1549431345.439220,cobot_dynamixel_driver/goal|-:J3:-902.871094:eff_
1549431346.060884,cobot_dynamixel_driver/goal|-:J3:0.000000:eff_
1549431346.141724,cobot_dynamixel_driver/goal|-:J1,J2,J3,J4,J5,J6:0.000000,0.000000,-0.174533,0.000000,0.000000,0.000000:0.250000,0.250000,0.250000,0.250000,0.250000,0.250000:pos_vel_
1549431347.973231,cobot_dynamixel_driver/goal|-:J3:0.000000:eff_
1549431348.064326,cobot_dynamixel_driver/goal|-:J1,J2,J3,J4,J5,J6:0.000000,0.000000,-0.174533,0.000000,0.000000,0.000000:0.250000,0.250000,0.250000,0.250000,0.250000,0.250000:pos_vel_
1549431349.072494,cobot_dynamixel_driver/goal|-:J3:-773.437500:eff_
1549431349.784178,cobot_dynamixel_driver/goal|-:J3:-783.437500:eff_
1549431350.377886,cobot_dynamixel_driver/goal|-:J3:-793.437500:eff_
1549431350.971468,cobot_dynamixel_driver/goal|-:J3:-803.437500:eff_
1549431351.592450,cobot_dynamixel_driver/goal|-:J3:-813.437500:eff_
1549431352.185710,cobot_dynamixel_driver/goal|-:J3:-823.437500:eff_
1549431352.780375,cobot_dynamixel_driver/goal|-:J3:-833.437500:eff_
1549431353.374048,cobot_dynamixel_driver/goal|-:J3:-843.437500:eff_
1549431353.994772,cobot_dynamixel_driver/goal|-:J3:-853.437500:eff_
1549431354.588441,cobot_dynamixel_driver/goal|-:J3:-863.437500:eff_
1549431355.182099,cobot_dynamixel_driver/goal|-:J3:-873.437500:eff_
1549431355.775756,cobot_dynamixel_driver/goal|-:J3:-883.437500:eff_
1549431356.396351,cobot_dynamixel_driver/goal|-:J3:-893.437500:eff_
1549431356.990009,cobot_dynamixel_driver/goal|-:J3:-903.437500:eff_
1549431357.583802,cobot_dynamixel_driver/goal|-:J3:0.000000:eff_
1549431357.692636,cobot_dynamixel_driver/goal|-:J1,J2,J3,J4,J5,J6:0.000000,0.000000,-0.174533,0.000000,0.000000,0.000000:0.250000,0.250000,0.250000,0.250000,0.250000,0.250000:pos_vel_
1549431359.402501,cobot_dynamixel_driver/goal|-:J3:0.000000:eff_
1549431359.520537,cobot_dynamixel_driver/goal|-:J1,J2,J3,J4,J5,J6:0.000000,0.000000,-0.261799,0.000000,0.000000,0.000000:0.250000,0.250000,0.250000,0.250000,0.250000,0.250000:pos_vel_
1549431361.419068,cobot_dynamixel_driver/goal|-:J3:-725.097656:eff_
1549431362.103619,cobot_dynamixel_driver/goal|-:J3:-735.097656:eff_
1549431362.698537,cobot_dynamixel_driver/goal|-:J3:-745.097656:eff_
1549431363.318898,cobot_dynamixel_driver/goal|-:J3:-755.097656:eff_
1549431363.912532,cobot_dynamixel_driver/goal|-:J3:-765.097656:eff_
1549431364.506230,cobot_dynamixel_driver/goal|-:J3:-775.097656:eff_
1549431365.100971,cobot_dynamixel_driver/goal|-:J3:-785.097656:eff_
1549431365.721601,cobot_dynamixel_driver/goal|-:J3:-795.097656:eff_
1549431366.316229,cobot_dynamixel_driver/goal|-:J3:-805.097656:eff_
1549431366.909850,cobot_dynamixel_driver/goal|-:J3:-815.097656:eff_
1549431367.503623,cobot_dynamixel_driver/goal|-:J3:-825.097656:eff_
1549431368.124197,cobot_dynamixel_driver/goal|-:J3:-835.097656:eff_
1549431368.717887,cobot_dynamixel_driver/goal|-:J3:-845.097656:eff_
1549431369.311469,cobot_dynamixel_driver/goal|-:J3:-855.097656:eff_
1549431369.906057,cobot_dynamixel_driver/goal|-:J3:-865.097656:eff_
1549431370.526724,cobot_dynamixel_driver/goal|-:J3:-875.097656:eff_
1549431371.120311,cobot_dynamixel_driver/goal|-:J3:-885.097656:eff_
1549431371.713894,cobot_dynamixel_driver/goal|-:J3:-895.097656:eff_
1549431372.334455,cobot_dynamixel_driver/goal|-:J3:-905.097656:eff_
1549431372.928898,cobot_dynamixel_driver/goal|-:J3:-915.097656:eff_
1549431373.522520,cobot_dynamixel_driver/goal|-:J3:-925.097656:eff_
1549431374.117021,cobot_dynamixel_driver/goal|-:J3:-935.097656:eff_
1549431374.710549,cobot_dynamixel_driver/goal|-:J3:-945.097656:eff_
1549431375.331155,cobot_dynamixel_driver/goal|-:J3:-955.097656:eff_
1549431375.924874,cobot_dynamixel_driver/goal|-:J3:-965.097656:eff_
1549431376.518457,cobot_dynamixel_driver/goal|-:J3:-975.097656:eff_
1549431377.139418,cobot_dynamixel_driver/goal|-:J3:-985.097656:eff_
1549431377.733769,cobot_dynamixel_driver/goal|-:J3:0.000000:eff_
1549431377.841668,cobot_dynamixel_driver/goal|-:J1,J2,J3,J4,J5,J6:0.000000,0.000000,-0.261799,0.000000,0.000000,0.000000:0.250000,0.250000,0.250000,0.250000,0.250000,0.250000:pos_vel_
1549431379.935632,cobot_dynamixel_driver/goal|-:J3:0.000000:eff_
1549431380.026633,cobot_dynamixel_driver/goal|-:J1,J2,J3,J4,J5,J6:0.000000,0.000000,-0.261799,0.000000,0.000000,0.000000:0.250000,0.250000,0.250000,0.250000,0.250000,0.250000:pos_vel_
1549431381.035022,cobot_dynamixel_driver/goal|-:J3:-789.550781:eff_
1549431381.746641,cobot_dynamixel_driver/goal|-:J3:-799.550781:eff_
1549431382.340252,cobot_dynamixel_driver/goal|-:J3:-809.550781:eff_
1549431382.933831,cobot_dynamixel_driver/goal|-:J3:-819.550781:eff_
1549431383.554518,cobot_dynamixel_driver/goal|-:J3:-829.550781:eff_
1549431384.148178,cobot_dynamixel_driver/goal|-:J3:-839.550781:eff_
1549431384.742708,cobot_dynamixel_driver/goal|-:J3:-849.550781:eff_
1549431385.336258,cobot_dynamixel_driver/goal|-:J3:-859.550781:eff_
1549431385.957878,cobot_dynamixel_driver/goal|-:J3:-869.550781:eff_
1549431386.551492,cobot_dynamixel_driver/goal|-:J3:-879.550781:eff_
1549431387.145124,cobot_dynamixel_driver/goal|-:J3:-889.550781:eff_
1549431387.738690,cobot_dynamixel_driver/goal|-:J3:-899.550781:eff_
1549431388.359317,cobot_dynamixel_driver/goal|-:J3:-909.550781:eff_
1549431388.952897,cobot_dynamixel_driver/goal|-:J3:-919.550781:eff_
1549431389.546675,cobot_dynamixel_driver/goal|-:J3:-929.550781:eff_
1549431390.140334,cobot_dynamixel_driver/goal|-:J3:-939.550781:eff_
1549431390.761223,cobot_dynamixel_driver/goal|-:J3:-949.550781:eff_
1549431391.354588,cobot_dynamixel_driver/goal|-:J3:-959.550781:eff_
1549431391.949247,cobot_dynamixel_driver/goal|-:J3:-969.550781:eff_
1549431392.542843,cobot_dynamixel_driver/goal|-:J3:-979.550781:eff_
1549431393.163579,cobot_dynamixel_driver/goal|-:J3:-989.550781:eff_
1549431393.757236,cobot_dynamixel_driver/goal|-:J3:-999.550781:eff_
1549431394.350950,cobot_dynamixel_driver/goal|-:J3:-1009.550781:eff_
1549431394.945636,cobot_dynamixel_driver/goal|-:J3:-1019.550781:eff_
1549431395.566184,cobot_dynamixel_driver/goal|-:J3:-1029.550781:eff_
1549431396.160837,cobot_dynamixel_driver/goal|-:J3:-1039.550781:eff_
1549431396.754559,cobot_dynamixel_driver/goal|-:J3:0.000000:eff_
1549431396.863492,cobot_dynamixel_driver/goal|-:J1,J2,J3,J4,J5,J6:0.000000,0.000000,-0.261799,0.000000,0.000000,0.000000:0.250000,0.250000,0.250000,0.250000,0.250000,0.250000:pos_vel_
1549431398.979130,cobot_dynamixel_driver/goal|-:J3:0.000000:eff_
1549431399.069995,cobot_dynamixel_driver/goal|-:J1,J2,J3,J4,J5,J6:0.000000,0.000000,-0.349066,0.000000,0.000000,0.000000:0.250000,0.250000,0.250000,0.250000,0.250000,0.250000:pos_vel_
1549431400.860716,cobot_dynamixel_driver/goal|-:J3:-692.871094:eff_
1549431401.572393,cobot_dynamixel_driver/goal|-:J3:-702.871094:eff_
1549431402.165967,cobot_dynamixel_driver/goal|-:J3:-712.871094:eff_
1549431402.759653,cobot_dynamixel_driver/goal|-:J3:-722.871094:eff_
1549431403.380335,cobot_dynamixel_driver/goal|-:J3:-732.871094:eff_
1549431403.975904,cobot_dynamixel_driver/goal|-:J3:-742.871094:eff_
1549431404.569580,cobot_dynamixel_driver/goal|-:J3:-752.871094:eff_
1549431405.163183,cobot_dynamixel_driver/goal|-:J3:-762.871094:eff_
1549431405.783973,cobot_dynamixel_driver/goal|-:J3:-772.871094:eff_
1549431406.377767,cobot_dynamixel_driver/goal|-:J3:-782.871094:eff_
1549431406.971164,cobot_dynamixel_driver/goal|-:J3:-792.871094:eff_
1549431407.565024,cobot_dynamixel_driver/goal|-:J3:-802.871094:eff_
1549431408.185475,cobot_dynamixel_driver/goal|-:J3:-812.871094:eff_
1549431408.780191,cobot_dynamixel_driver/goal|-:J3:-822.871094:eff_
1549431409.373870,cobot_dynamixel_driver/goal|-:J3:-832.871094:eff_
1549431409.967555,cobot_dynamixel_driver/goal|-:J3:-842.871094:eff_
1549431410.588176,cobot_dynamixel_driver/goal|-:J3:-852.871094:eff_
1549431411.181783,cobot_dynamixel_driver/goal|-:J3:-862.871094:eff_
1549431411.775261,cobot_dynamixel_driver/goal|-:J3:-872.871094:eff_
1549431412.395782,cobot_dynamixel_driver/goal|-:J3:-882.871094:eff_
1549431412.989440,cobot_dynamixel_driver/goal|-:J3:-892.871094:eff_
1549431413.583039,cobot_dynamixel_driver/goal|-:J3:-902.871094:eff_
1549431414.176560,cobot_dynamixel_driver/goal|-:J3:-912.871094:eff_
1549431414.797262,cobot_dynamixel_driver/goal|-:J3:-922.871094:eff_
1549431415.390779,cobot_dynamixel_driver/goal|-:J3:-932.871094:eff_
1549431415.984515,cobot_dynamixel_driver/goal|-:J3:-942.871094:eff_
1549431416.579235,cobot_dynamixel_driver/goal|-:J3:-952.871094:eff_
1549431417.200084,cobot_dynamixel_driver/goal|-:J3:-962.871094:eff_
1549431417.793488,cobot_dynamixel_driver/goal|-:J3:-972.871094:eff_
1549431418.388083,cobot_dynamixel_driver/goal|-:J3:-982.871094:eff_
1549431418.982839,cobot_dynamixel_driver/goal|-:J3:-992.871094:eff_
1549431419.603490,cobot_dynamixel_driver/goal|-:J3:-1002.871094:eff_
1549431420.197226,cobot_dynamixel_driver/goal|-:J3:-1012.871094:eff_
1549431420.790894,cobot_dynamixel_driver/goal|-:J3:-1022.871094:eff_
1549431421.384551,cobot_dynamixel_driver/goal|-:J3:-1032.871094:eff_
1549431422.006116,cobot_dynamixel_driver/goal|-:J3:0.000000:eff_
1549431422.087075,cobot_dynamixel_driver/goal|-:J1,J2,J3,J4,J5,J6:0.000000,0.000000,-0.349066,0.000000,0.000000,0.000000:0.250000,0.250000,0.250000,0.250000,0.250000,0.250000:pos_vel_
1549431424.202820,cobot_dynamixel_driver/goal|-:J3:0.000000:eff_
1549431424.321045,cobot_dynamixel_driver/goal|-:J1,J2,J3,J4,J5,J6:0.000000,0.000000,-0.349066,0.000000,0.000000,0.000000:0.250000,0.250000,0.250000,0.250000,0.250000,0.250000:pos_vel_
1549431425.518148,cobot_dynamixel_driver/goal|-:J3:-725.097656:eff_
1549431426.203506,cobot_dynamixel_driver/goal|-:J3:-735.097656:eff_
1549431426.823966,cobot_dynamixel_driver/goal|-:J3:-745.097656:eff_
1549431427.417635,cobot_dynamixel_driver/goal|-:J3:-755.097656:eff_
1549431428.011326,cobot_dynamixel_driver/goal|-:J3:-765.097656:eff_
1549431428.604939,cobot_dynamixel_driver/goal|-:J3:-775.097656:eff_
1549431429.226542,cobot_dynamixel_driver/goal|-:J3:-785.097656:eff_
1549431429.820181,cobot_dynamixel_driver/goal|-:J3:-795.097656:eff_
1549431430.413925,cobot_dynamixel_driver/goal|-:J3:-805.097656:eff_
1549431431.007646,cobot_dynamixel_driver/goal|-:J3:-815.097656:eff_
1549431431.628263,cobot_dynamixel_driver/goal|-:J3:-825.097656:eff_
1549431432.221891,cobot_dynamixel_driver/goal|-:J3:-835.097656:eff_
1549431432.815631,cobot_dynamixel_driver/goal|-:J3:-845.097656:eff_
1549431433.409282,cobot_dynamixel_driver/goal|-:J3:-855.097656:eff_
1549431434.030056,cobot_dynamixel_driver/goal|-:J3:-865.097656:eff_
1549431434.623676,cobot_dynamixel_driver/goal|-:J3:-875.097656:eff_
1549431435.217344,cobot_dynamixel_driver/goal|-:J3:-885.097656:eff_
1549431435.810978,cobot_dynamixel_driver/goal|-:J3:-895.097656:eff_
1549431436.431600,cobot_dynamixel_driver/goal|-:J3:-905.097656:eff_
1549431437.026118,cobot_dynamixel_driver/goal|-:J3:-915.097656:eff_
1549431437.619718,cobot_dynamixel_driver/goal|-:J3:-925.097656:eff_
1549431438.240146,cobot_dynamixel_driver/goal|-:J3:-935.097656:eff_
1549431438.833776,cobot_dynamixel_driver/goal|-:J3:-945.097656:eff_
1549431439.427331,cobot_dynamixel_driver/goal|-:J3:-955.097656:eff_
1549431440.021881,cobot_dynamixel_driver/goal|-:J3:-965.097656:eff_
1549431440.642582,cobot_dynamixel_driver/goal|-:J3:-975.097656:eff_
1549431441.236171,cobot_dynamixel_driver/goal|-:J3:-985.097656:eff_
1549431441.829909,cobot_dynamixel_driver/goal|-:J3:-995.097656:eff_
1549431442.423501,cobot_dynamixel_driver/goal|-:J3:-1005.097656:eff_
1549431443.044158,cobot_dynamixel_driver/goal|-:J3:-1015.097656:eff_
1549431443.637780,cobot_dynamixel_driver/goal|-:J3:-1025.097656:eff_
1549431444.231401,cobot_dynamixel_driver/goal|-:J3:-1035.097656:eff_
1549431444.825080,cobot_dynamixel_driver/goal|-:J3:-1045.097656:eff_
1549431445.445704,cobot_dynamixel_driver/goal|-:J3:-1055.097656:eff_
1549431446.039471,cobot_dynamixel_driver/goal|-:J3:-1065.097656:eff_
1549431446.633152,cobot_dynamixel_driver/goal|-:J3:-1075.097656:eff_
1549431447.226824,cobot_dynamixel_driver/goal|-:J3:-1085.097656:eff_
1549431447.848425,cobot_dynamixel_driver/goal|-:J3:-1095.097656:eff_
1549431448.442038,cobot_dynamixel_driver/goal|-:J3:-1105.097656:eff_
1549431449.035730,cobot_dynamixel_driver/goal|-:J3:0.000000:eff_
1549431449.144669,cobot_dynamixel_driver/goal|-:J1,J2,J3,J4,J5,J6:0.000000,0.000000,-0.349066,0.000000,0.000000,0.000000:0.250000,0.250000,0.250000,0.250000,0.250000,0.250000:pos_vel_
1549431451.557120,cobot_dynamixel_driver/goal|-:J3:0.000000:eff_
1549431451.648089,cobot_dynamixel_driver/goal|-:J1,J2,J3,J4,J5,J6:0.000000,0.000000,-0.436332,0.000000,0.000000,0.000000:0.250000,0.250000,0.250000,0.250000,0.250000,0.250000:pos_vel_
1549431453.357813,cobot_dynamixel_driver/goal|-:J3:-660.644531:eff_
1549431454.042424,cobot_dynamixel_driver/goal|-:J3:-670.644531:eff_
1549431454.663186,cobot_dynamixel_driver/goal|-:J3:-680.644531:eff_
1549431455.256889,cobot_dynamixel_driver/goal|-:J3:-690.644531:eff_
1549431455.850547,cobot_dynamixel_driver/goal|-:J3:-700.644531:eff_
1549431456.444128,cobot_dynamixel_driver/goal|-:J3:-710.644531:eff_
1549431457.064731,cobot_dynamixel_driver/goal|-:J3:-720.644531:eff_
1549431457.658504,cobot_dynamixel_driver/goal|-:J3:-730.644531:eff_
1549431458.252127,cobot_dynamixel_driver/goal|-:J3:-740.644531:eff_
1549431458.872860,cobot_dynamixel_driver/goal|-:J3:-750.644531:eff_
1549431459.466619,cobot_dynamixel_driver/goal|-:J3:-760.644531:eff_
1549431460.060207,cobot_dynamixel_driver/goal|-:J3:-770.644531:eff_
1549431460.653974,cobot_dynamixel_driver/goal|-:J3:-780.644531:eff_
1549431461.274438,cobot_dynamixel_driver/goal|-:J3:-790.644531:eff_
1549431461.868205,cobot_dynamixel_driver/goal|-:J3:-800.644531:eff_
1549431462.461779,cobot_dynamixel_driver/goal|-:J3:-810.644531:eff_
1549431463.055630,cobot_dynamixel_driver/goal|-:J3:-820.644531:eff_
1549431463.676064,cobot_dynamixel_driver/goal|-:J3:-830.644531:eff_
1549431464.269681,cobot_dynamixel_driver/goal|-:J3:-840.644531:eff_
1549431464.863250,cobot_dynamixel_driver/goal|-:J3:-850.644531:eff_
1549431465.457235,cobot_dynamixel_driver/goal|-:J3:-860.644531:eff_
1549431466.077368,cobot_dynamixel_driver/goal|-:J3:-870.644531:eff_
1549431466.670924,cobot_dynamixel_driver/goal|-:J3:-880.644531:eff_
1549431467.265613,cobot_dynamixel_driver/goal|-:J3:-890.644531:eff_
1549431467.860280,cobot_dynamixel_driver/goal|-:J3:0.000000:eff_
1549431467.968249,cobot_dynamixel_driver/goal|-:J1,J2,J3,J4,J5,J6:0.000000,0.000000,-0.436332,0.000000,0.000000,0.000000:0.250000,0.250000,0.250000,0.250000,0.250000,0.250000:pos_vel_
1549431469.894030,cobot_dynamixel_driver/goal|-:J3:0.000000:eff_
1549431469.985035,cobot_dynamixel_driver/goal|-:J1,J2,J3,J4,J5,J6:0.000000,0.000000,-0.436332,0.000000,0.000000,0.000000:0.250000,0.250000,0.250000,0.250000,0.250000,0.250000:pos_vel_
1549431471.074427,cobot_dynamixel_driver/goal|-:J3:-757.324219:eff_
1549431471.787062,cobot_dynamixel_driver/goal|-:J3:-767.324219:eff_
1549431472.380746,cobot_dynamixel_driver/goal|-:J3:-777.324219:eff_
1549431472.974451,cobot_dynamixel_driver/goal|-:J3:-787.324219:eff_
1549431473.595067,cobot_dynamixel_driver/goal|-:J3:-797.324219:eff_
1549431474.188615,cobot_dynamixel_driver/goal|-:J3:-807.324219:eff_
1549431474.782252,cobot_dynamixel_driver/goal|-:J3:-817.324219:eff_
1549431475.375998,cobot_dynamixel_driver/goal|-:J3:-827.324219:eff_
1549431475.996506,cobot_dynamixel_driver/goal|-:J3:-837.324219:eff_
1549431476.590185,cobot_dynamixel_driver/goal|-:J3:-847.324219:eff_
1549431477.183789,cobot_dynamixel_driver/goal|-:J3:-857.324219:eff_
1549431477.777343,cobot_dynamixel_driver/goal|-:J3:-867.324219:eff_
1549431478.397814,cobot_dynamixel_driver/goal|-:J3:-877.324219:eff_
1549431478.991393,cobot_dynamixel_driver/goal|-:J3:-887.324219:eff_
1549431479.585994,cobot_dynamixel_driver/goal|-:J3:0.000000:eff_
1549431479.693907,cobot_dynamixel_driver/goal|-:J1,J2,J3,J4,J5,J6:0.000000,0.000000,-0.436332,0.000000,0.000000,0.000000:0.250000,0.250000,0.250000,0.250000,0.250000,0.250000:pos_vel_
1549431481.430958,cobot_dynamixel_driver/goal|-:J3:0.000000:eff_
1549431481.521931,cobot_dynamixel_driver/goal|-:J1,J2,J3,J4,J5,J6:0.000000,0.000000,-0.523599,0.000000,0.000000,0.000000:0.250000,0.250000,0.250000,0.250000,0.250000,0.250000:pos_vel_
1549431483.123909,cobot_dynamixel_driver/goal|-:J3:-676.757812:eff_
1549431483.808551,cobot_dynamixel_driver/goal|-:J3:-686.757812:eff_
1549431484.429373,cobot_dynamixel_driver/goal|-:J3:-696.757812:eff_
1549431485.023907,cobot_dynamixel_driver/goal|-:J3:-706.757812:eff_
1549431485.617516,cobot_dynamixel_driver/goal|-:J3:-716.757812:eff_
1549431486.211146,cobot_dynamixel_driver/goal|-:J3:-726.757812:eff_
1549431486.831871,cobot_dynamixel_driver/goal|-:J3:-736.757812:eff_
1549431487.425456,cobot_dynamixel_driver/goal|-:J3:-746.757812:eff_
1549431488.020218,cobot_dynamixel_driver/goal|-:J3:-756.757812:eff_
1549431488.614196,cobot_dynamixel_driver/goal|-:J3:-766.757812:eff_
1549431489.234589,cobot_dynamixel_driver/goal|-:J3:-776.757812:eff_
1549431489.828049,cobot_dynamixel_driver/goal|-:J3:-786.757812:eff_
1549431490.423038,cobot_dynamixel_driver/goal|-:J3:-796.757812:eff_
1549431491.016331,cobot_dynamixel_driver/goal|-:J3:-806.757812:eff_
1549431491.636874,cobot_dynamixel_driver/goal|-:J3:-816.757812:eff_
1549431492.230480,cobot_dynamixel_driver/goal|-:J3:-826.757812:eff_
1549431492.824036,cobot_dynamixel_driver/goal|-:J3:-836.757812:eff_
1549431493.418787,cobot_dynamixel_driver/goal|-:J3:-846.757812:eff_
1549431494.039348,cobot_dynamixel_driver/goal|-:J3:-856.757812:eff_
1549431494.633034,cobot_dynamixel_driver/goal|-:J3:-866.757812:eff_
1549431495.226827,cobot_dynamixel_driver/goal|-:J3:-876.757812:eff_
1549431495.847445,cobot_dynamixel_driver/goal|-:J3:-886.757812:eff_
1549431496.441134,cobot_dynamixel_driver/goal|-:J3:-896.757812:eff_
1549431497.034735,cobot_dynamixel_driver/goal|-:J3:-906.757812:eff_
1549431497.629453,cobot_dynamixel_driver/goal|-:J3:0.000000:eff_
1549431497.738415,cobot_dynamixel_driver/goal|-:J1,J2,J3,J4,J5,J6:0.000000,0.000000,-0.523599,0.000000,0.000000,0.000000:0.250000,0.250000,0.250000,0.250000,0.250000,0.250000:pos_vel_
1549431499.935204,cobot_dynamixel_driver/goal|-:J3:0.000000:eff_
1549431500.053186,cobot_dynamixel_driver/goal|-:J1,J2,J3,J4,J5,J6:0.000000,0.000000,-0.523599,0.000000,0.000000,0.000000:0.250000,0.250000,0.250000,0.250000,0.250000,0.250000:pos_vel_
1549431501.061540,cobot_dynamixel_driver/goal|-:J3:-773.437500:eff_
1549431501.747159,cobot_dynamixel_driver/goal|-:J3:-783.437500:eff_
1549431502.340829,cobot_dynamixel_driver/goal|-:J3:-793.437500:eff_
1549431502.961292,cobot_dynamixel_driver/goal|-:J3:-803.437500:eff_
1549431503.554798,cobot_dynamixel_driver/goal|-:J3:-813.437500:eff_
1549431504.148303,cobot_dynamixel_driver/goal|-:J3:-823.437500:eff_
1549431504.741921,cobot_dynamixel_driver/goal|-:J3:-833.437500:eff_
1549431505.362539,cobot_dynamixel_driver/goal|-:J3:-843.437500:eff_
1549431505.956096,cobot_dynamixel_driver/goal|-:J3:-853.437500:eff_
1549431506.549744,cobot_dynamixel_driver/goal|-:J3:-863.437500:eff_
1549431507.143499,cobot_dynamixel_driver/goal|-:J3:-873.437500:eff_
1549431507.765106,cobot_dynamixel_driver/goal|-:J3:-883.437500:eff_
1549431508.358675,cobot_dynamixel_driver/goal|-:J3:-893.437500:eff_
1549431508.952368,cobot_dynamixel_driver/goal|-:J3:-903.437500:eff_
1549431509.545967,cobot_dynamixel_driver/goal|-:J3:0.000000:eff_
1549431509.653927,cobot_dynamixel_driver/goal|-:J1,J2,J3,J4,J5,J6:0.000000,0.000000,-0.523599,0.000000,0.000000,0.000000:0.250000,0.250000,0.250000,0.250000,0.250000,0.250000:pos_vel_
1549431699.842355,cobot_dynamixel_driver/goal|-:J1,J2,J3,J4,J5,J6:0.000000,0.000000,0.000000,0.000000,0.000000,0.000000:0.500000,0.500000,0.500000,0.500000,0.500000,0.500000:pos_vel_
1549431729.920438,cobot_dynamixel_driver/goal|-:J2:0.000000:eff_
1549431730.011426,cobot_dynamixel_driver/goal|-:J1,J2,J3,J4,J5,J6:0.000000,0.523599,0.000000,0.000000,0.000000,0.000000:0.250000,0.250000,0.250000,0.250000,0.250000,0.250000:pos_vel_
1549431733.535480,cobot_dynamixel_driver/goal|-:J2:628.417969:eff_
1549431734.221299,cobot_dynamixel_driver/goal|-:J1,J2,J3,J4,J5,J6:0.000000,0.523599,0.000000,0.000000,0.000000,0.000000:0.250000,0.250000,0.250000,0.250000,0.250000,0.250000:pos_vel_
1549431735.013775,cobot_dynamixel_driver/goal|-:J2:638.417969:eff_
1549431735.618505,cobot_dynamixel_driver/goal|-:J1,J2,J3,J4,J5,J6:0.000000,0.523599,0.000000,0.000000,0.000000,0.000000:0.250000,0.250000,0.250000,0.250000,0.250000,0.250000:pos_vel_
1549431736.518815,cobot_dynamixel_driver/goal|-:J2:648.417969:eff_
1549431737.124630,cobot_dynamixel_driver/goal|-:J1,J2,J3,J4,J5,J6:0.000000,0.523599,0.000000,0.000000,0.000000,0.000000:0.250000,0.250000,0.250000,0.250000,0.250000,0.250000:pos_vel_
1549431737.918046,cobot_dynamixel_driver/goal|-:J2:658.417969:eff_
1549431738.521781,cobot_dynamixel_driver/goal|-:J1,J2,J3,J4,J5,J6:0.000000,0.523599,0.000000,0.000000,0.000000,0.000000:0.250000,0.250000,0.250000,0.250000,0.250000,0.250000:pos_vel_
1549431739.314738,cobot_dynamixel_driver/goal|-:J2:668.417969:eff_
1549431739.919918,cobot_dynamixel_driver/goal|-:J1,J2,J3,J4,J5,J6:0.000000,0.523599,0.000000,0.000000,0.000000,0.000000:0.250000,0.250000,0.250000,0.250000,0.250000,0.250000:pos_vel_
1549431740.739335,cobot_dynamixel_driver/goal|-:J2:678.417969:eff_
1549431741.316726,cobot_dynamixel_driver/goal|-:J1,J2,J3,J4,J5,J6:0.000000,0.523599,0.000000,0.000000,0.000000,0.000000:0.250000,0.250000,0.250000,0.250000,0.250000,0.250000:pos_vel_
1549431742.137259,cobot_dynamixel_driver/goal|-:J2:688.417969:eff_
1549431742.741869,cobot_dynamixel_driver/goal|-:J1,J2,J3,J4,J5,J6:0.000000,0.523599,0.000000,0.000000,0.000000,0.000000:0.250000,0.250000,0.250000,0.250000,0.250000,0.250000:pos_vel_
1549431743.536409,cobot_dynamixel_driver/goal|-:J2:698.417969:eff_
1549431744.141201,cobot_dynamixel_driver/goal|-:J1,J2,J3,J4,J5,J6:0.000000,0.523599,0.000000,0.000000,0.000000,0.000000:0.250000,0.250000,0.250000,0.250000,0.250000,0.250000:pos_vel_
1549431745.041639,cobot_dynamixel_driver/goal|-:J2:708.417969:eff_
1549431745.619308,cobot_dynamixel_driver/goal|-:J1,J2,J3,J4,J5,J6:0.000000,0.523599,0.000000,0.000000,0.000000,0.000000:0.250000,0.250000,0.250000,0.250000,0.250000,0.250000:pos_vel_
1549431746.439048,cobot_dynamixel_driver/goal|-:J2:718.417969:eff_
1549431747.042541,cobot_dynamixel_driver/goal|-:J1,J2,J3,J4,J5,J6:0.000000,0.523599,0.000000,0.000000,0.000000,0.000000:0.250000,0.250000,0.250000,0.250000,0.250000,0.250000:pos_vel_
1549431747.727251,cobot_dynamixel_driver/goal|-:J2:728.417969:eff_
1549431748.330856,cobot_dynamixel_driver/goal|-:J1,J2,J3,J4,J5,J6:0.000000,0.523599,0.000000,0.000000,0.000000,0.000000:0.250000,0.250000,0.250000,0.250000,0.250000,0.250000:pos_vel_
1549431749.042573,cobot_dynamixel_driver/goal|-:J2:738.417969:eff_
1549431749.646272,cobot_dynamixel_driver/goal|-:J1,J2,J3,J4,J5,J6:0.000000,0.523599,0.000000,0.000000,0.000000,0.000000:0.250000,0.250000,0.250000,0.250000,0.250000,0.250000:pos_vel_
1549431750.438928,cobot_dynamixel_driver/goal|-:J2:748.417969:eff_
1549431751.043262,cobot_dynamixel_driver/goal|-:J1,J2,J3,J4,J5,J6:0.000000,0.523599,0.000000,0.000000,0.000000,0.000000:0.250000,0.250000,0.250000,0.250000,0.250000,0.250000:pos_vel_
1549431751.943774,cobot_dynamixel_driver/goal|-:J2:758.417969:eff_
1549431752.548223,cobot_dynamixel_driver/goal|-:J1,J2,J3,J4,J5,J6:0.000000,0.523599,0.000000,0.000000,0.000000,0.000000:0.250000,0.250000,0.250000,0.250000,0.250000,0.250000:pos_vel_
1549431753.235857,cobot_dynamixel_driver/goal|-:J2:768.417969:eff_
1549431753.840524,cobot_dynamixel_driver/goal|-:J1,J2,J3,J4,J5,J6:0.000000,0.523599,0.000000,0.000000,0.000000,0.000000:0.250000,0.250000,0.250000,0.250000,0.250000,0.250000:pos_vel_
1549431754.740840,cobot_dynamixel_driver/goal|-:J2:778.417969:eff_
1549431755.345380,cobot_dynamixel_driver/goal|-:J1,J2,J3,J4,J5,J6:0.000000,0.523599,0.000000,0.000000,0.000000,0.000000:0.250000,0.250000,0.250000,0.250000,0.250000,0.250000:pos_vel_
1549431756.030927,cobot_dynamixel_driver/goal|-:J2:788.417969:eff_
1549431756.635523,cobot_dynamixel_driver/goal|-:J1,J2,J3,J4,J5,J6:0.000000,0.523599,0.000000,0.000000,0.000000,0.000000:0.250000,0.250000,0.250000,0.250000,0.250000,0.250000:pos_vel_
1549431757.430099,cobot_dynamixel_driver/goal|-:J2:798.417969:eff_
1549431758.033822,cobot_dynamixel_driver/goal|-:J1,J2,J3,J4,J5,J6:0.000000,0.523599,0.000000,0.000000,0.000000,0.000000:0.250000,0.250000,0.250000,0.250000,0.250000,0.250000:pos_vel_
1549431758.745458,cobot_dynamixel_driver/goal|-:J2:808.417969:eff_
1549431759.350194,cobot_dynamixel_driver/goal|-:J1,J2,J3,J4,J5,J6:0.000000,0.523599,0.000000,0.000000,0.000000,0.000000:0.250000,0.250000,0.250000,0.250000,0.250000,0.250000:pos_vel_
1549431760.143871,cobot_dynamixel_driver/goal|-:J2:818.417969:eff_
1549431760.748807,cobot_dynamixel_driver/goal|-:J1,J2,J3,J4,J5,J6:0.000000,0.523599,0.000000,0.000000,0.000000,0.000000:0.250000,0.250000,0.250000,0.250000,0.250000,0.250000:pos_vel_
1549431761.542269,cobot_dynamixel_driver/goal|-:J2:828.417969:eff_
1549431762.146736,cobot_dynamixel_driver/goal|-:J1,J2,J3,J4,J5,J6:0.000000,0.523599,0.000000,0.000000,0.000000,0.000000:0.250000,0.250000,0.250000,0.250000,0.250000,0.250000:pos_vel_
1549431762.832560,cobot_dynamixel_driver/goal|-:J2:838.417969:eff_
1549431763.436159,cobot_dynamixel_driver/goal|-:J1,J2,J3,J4,J5,J6:0.000000,0.523599,0.000000,0.000000,0.000000,0.000000:0.250000,0.250000,0.250000,0.250000,0.250000,0.250000:pos_vel_
1549431764.147761,cobot_dynamixel_driver/goal|-:J2:848.417969:eff_
1549431764.752362,cobot_dynamixel_driver/goal|-:J1,J2,J3,J4,J5,J6:0.000000,0.523599,0.000000,0.000000,0.000000,0.000000:0.250000,0.250000,0.250000,0.250000,0.250000,0.250000:pos_vel_
1549431765.439897,cobot_dynamixel_driver/goal|-:J2:858.417969:eff_
1549431766.045644,cobot_dynamixel_driver/goal|-:J1,J2,J3,J4,J5,J6:0.000000,0.523599,0.000000,0.000000,0.000000,0.000000:0.250000,0.250000,0.250000,0.250000,0.250000,0.250000:pos_vel_
1549431766.838022,cobot_dynamixel_driver/goal|-:J2:868.417969:eff_
1549431767.441683,cobot_dynamixel_driver/goal|-:J2:858.417969:eff_
1549431768.037320,cobot_dynamixel_driver/goal|-:J2:848.417969:eff_
1549431768.658723,cobot_dynamixel_driver/goal|-:J2:838.417969:eff_
1549431769.253387,cobot_dynamixel_driver/goal|-:J2:828.417969:eff_
1549431769.848179,cobot_dynamixel_driver/goal|-:J2:818.417969:eff_
1549431770.441811,cobot_dynamixel_driver/goal|-:J2:808.417969:eff_
1549431771.064441,cobot_dynamixel_driver/goal|-:J2:798.417969:eff_
1549431771.659038,cobot_dynamixel_driver/goal|-:J2:788.417969:eff_
1549431772.252808,cobot_dynamixel_driver/goal|-:J2:778.417969:eff_
1549431772.848289,cobot_dynamixel_driver/goal|-:J2:768.417969:eff_
1549431773.470935,cobot_dynamixel_driver/goal|-:J2:758.417969:eff_
1549431774.066679,cobot_dynamixel_driver/goal|-:J2:748.417969:eff_
1549431774.661328,cobot_dynamixel_driver/goal|-:J2:738.417969:eff_
1549431775.254947,cobot_dynamixel_driver/goal|-:J2:728.417969:eff_
1549431775.850694,cobot_dynamixel_driver/goal|-:J2:718.417969:eff_
1549431776.472351,cobot_dynamixel_driver/goal|-:J2:708.417969:eff_
1549431777.068905,cobot_dynamixel_driver/goal|-:J2:698.417969:eff_
1549431777.663617,cobot_dynamixel_driver/goal|-:J2:688.417969:eff_
1549431778.258193,cobot_dynamixel_driver/goal|-:J2:678.417969:eff_
1549431778.879857,cobot_dynamixel_driver/goal|-:J2:668.417969:eff_
1549431779.474416,cobot_dynamixel_driver/goal|-:J2:658.417969:eff_
1549431780.068957,cobot_dynamixel_driver/goal|-:J2:0.000000:eff_
1549431780.177623,cobot_dynamixel_driver/goal|-:J1,J2,J3,J4,J5,J6:0.000000,0.523599,0.000000,0.000000,0.000000,0.000000:0.250000,0.250000,0.250000,0.250000,0.250000,0.250000:pos_vel_
1549431782.401513,cobot_dynamixel_driver/goal|-:J2:0.000000:eff_
1549431782.492335,cobot_dynamixel_driver/goal|-:J1,J2,J3,J4,J5,J6:0.000000,0.523599,0.000000,0.000000,0.000000,0.000000:0.250000,0.250000,0.250000,0.250000,0.250000,0.250000:pos_vel_
1549431783.880585,cobot_dynamixel_driver/goal|-:J2:1627.441406:eff_
1549431784.592203,cobot_dynamixel_driver/goal|-:J2:1617.441406:eff_
1549431785.187130,cobot_dynamixel_driver/goal|-:J2:1607.441406:eff_
1549431785.781782,cobot_dynamixel_driver/goal|-:J2:1597.441406:eff_
1549431786.403189,cobot_dynamixel_driver/goal|-:J2:1587.441406:eff_
1549431786.998141,cobot_dynamixel_driver/goal|-:J2:1577.441406:eff_
1549431787.592689,cobot_dynamixel_driver/goal|-:J2:1567.441406:eff_
1549431788.188411,cobot_dynamixel_driver/goal|-:J2:1557.441406:eff_
1549431788.810136,cobot_dynamixel_driver/goal|-:J2:1547.441406:eff_
1549431789.405073,cobot_dynamixel_driver/goal|-:J2:1537.441406:eff_
1549431789.999391,cobot_dynamixel_driver/goal|-:J2:1527.441406:eff_
1549431790.595976,cobot_dynamixel_driver/goal|-:J2:1517.441406:eff_
1549431791.189507,cobot_dynamixel_driver/goal|-:J2:1507.441406:eff_
1549431791.811236,cobot_dynamixel_driver/goal|-:J2:1497.441406:eff_
1549431792.406873,cobot_dynamixel_driver/goal|-:J2:1487.441406:eff_
1549431793.002426,cobot_dynamixel_driver/goal|-:J2:1477.441406:eff_
1549431793.597052,cobot_dynamixel_driver/goal|-:J2:1467.441406:eff_
1549431794.218505,cobot_dynamixel_driver/goal|-:J2:1457.441406:eff_
1549431794.814375,cobot_dynamixel_driver/goal|-:J2:1447.441406:eff_
1549431795.408873,cobot_dynamixel_driver/goal|-:J2:1437.441406:eff_
1549431796.004603,cobot_dynamixel_driver/goal|-:J2:1427.441406:eff_
1549431796.599232,cobot_dynamixel_driver/goal|-:J2:1417.441406:eff_
1549431797.221811,cobot_dynamixel_driver/goal|-:J2:1407.441406:eff_
1549431797.816325,cobot_dynamixel_driver/goal|-:J2:1397.441406:eff_
1549431798.410124,cobot_dynamixel_driver/goal|-:J2:1387.441406:eff_
1549431799.004818,cobot_dynamixel_driver/goal|-:J2:1377.441406:eff_
1549431799.626525,cobot_dynamixel_driver/goal|-:J2:1367.441406:eff_
1549431800.222104,cobot_dynamixel_driver/goal|-:J2:1357.441406:eff_
1549431800.816765,cobot_dynamixel_driver/goal|-:J2:1347.441406:eff_
1549431801.412250,cobot_dynamixel_driver/goal|-:J2:1337.441406:eff_
1549431802.006236,cobot_dynamixel_driver/goal|-:J2:1327.441406:eff_
1549431802.627817,cobot_dynamixel_driver/goal|-:J2:1317.441406:eff_
1549431803.222455,cobot_dynamixel_driver/goal|-:J2:1307.441406:eff_
1549431803.817947,cobot_dynamixel_driver/goal|-:J2:1297.441406:eff_
1549431804.412555,cobot_dynamixel_driver/goal|-:J2:1287.441406:eff_
1549431805.034081,cobot_dynamixel_driver/goal|-:J2:1277.441406:eff_
1549431805.627733,cobot_dynamixel_driver/goal|-:J2:1267.441406:eff_
1549431806.224331,cobot_dynamixel_driver/goal|-:J2:1257.441406:eff_
1549431806.819113,cobot_dynamixel_driver/goal|-:J2:1247.441406:eff_
1549431807.414412,cobot_dynamixel_driver/goal|-:J2:1237.441406:eff_
1549431808.038312,cobot_dynamixel_driver/goal|-:J2:1227.441406:eff_
1549431808.632718,cobot_dynamixel_driver/goal|-:J2:1217.441406:eff_
1549431809.226632,cobot_dynamixel_driver/goal|-:J2:1207.441406:eff_
1549431809.820112,cobot_dynamixel_driver/goal|-:J2:1197.441406:eff_
1549431810.442013,cobot_dynamixel_driver/goal|-:J2:1187.441406:eff_
1549431811.036699,cobot_dynamixel_driver/goal|-:J2:1177.441406:eff_
1549431811.631229,cobot_dynamixel_driver/goal|-:J2:1167.441406:eff_
1549431812.225955,cobot_dynamixel_driver/goal|-:J2:1157.441406:eff_
1549431812.847654,cobot_dynamixel_driver/goal|-:J2:1147.441406:eff_
1549431813.442340,cobot_dynamixel_driver/goal|-:J2:1137.441406:eff_
1549431814.037154,cobot_dynamixel_driver/goal|-:J2:1127.441406:eff_
1549431814.630724,cobot_dynamixel_driver/goal|-:J2:1117.441406:eff_
1549431815.226311,cobot_dynamixel_driver/goal|-:J2:1107.441406:eff_
1549431815.846986,cobot_dynamixel_driver/goal|-:J2:1097.441406:eff_
1549431816.442085,cobot_dynamixel_driver/goal|-:J2:1087.441406:eff_
1549431817.036483,cobot_dynamixel_driver/goal|-:J2:1077.441406:eff_
1549431817.629983,cobot_dynamixel_driver/goal|-:J2:1067.441406:eff_
1549431818.251423,cobot_dynamixel_driver/goal|-:J2:1057.441406:eff_
1549431818.846058,cobot_dynamixel_driver/goal|-:J2:1047.441406:eff_
1549431819.440642,cobot_dynamixel_driver/goal|-:J2:1037.441406:eff_
1549431820.035111,cobot_dynamixel_driver/goal|-:J2:1027.441406:eff_
1549431820.657705,cobot_dynamixel_driver/goal|-:J2:1017.441406:eff_
1549431821.257680,cobot_dynamixel_driver/goal|-:J2:1007.441406:eff_
1549431821.852121,cobot_dynamixel_driver/goal|-:J2:997.441406:eff_
1549431822.446104,cobot_dynamixel_driver/goal|-:J2:987.441406:eff_
1549431823.040344,cobot_dynamixel_driver/goal|-:J2:977.441406:eff_
1549431823.662393,cobot_dynamixel_driver/goal|-:J2:967.441406:eff_
1549431824.257020,cobot_dynamixel_driver/goal|-:J2:957.441406:eff_
1549431824.851617,cobot_dynamixel_driver/goal|-:J2:947.441406:eff_
1549431825.446288,cobot_dynamixel_driver/goal|-:J2:937.441406:eff_
1549431826.041970,cobot_dynamixel_driver/goal|-:J2:927.441406:eff_
1549431826.662888,cobot_dynamixel_driver/goal|-:J2:917.441406:eff_
1549431827.257435,cobot_dynamixel_driver/goal|-:J2:907.441406:eff_
1549431827.852446,cobot_dynamixel_driver/goal|-:J2:897.441406:eff_
1549431828.447704,cobot_dynamixel_driver/goal|-:J2:887.441406:eff_
1549431829.069733,cobot_dynamixel_driver/goal|-:J2:877.441406:eff_
1549431829.663985,cobot_dynamixel_driver/goal|-:J2:867.441406:eff_
1549431830.258862,cobot_dynamixel_driver/goal|-:J2:857.441406:eff_
1549431830.854095,cobot_dynamixel_driver/goal|-:J2:847.441406:eff_
1549431831.474649,cobot_dynamixel_driver/goal|-:J2:837.441406:eff_
1549431832.068289,cobot_dynamixel_driver/goal|-:J2:827.441406:eff_
1549431832.663090,cobot_dynamixel_driver/goal|-:J2:817.441406:eff_
1549431833.258373,cobot_dynamixel_driver/goal|-:J2:807.441406:eff_
1549431833.852144,cobot_dynamixel_driver/goal|-:J2:797.441406:eff_
1549431834.474924,cobot_dynamixel_driver/goal|-:J2:787.441406:eff_
1549431835.071430,cobot_dynamixel_driver/goal|-:J2:777.441406:eff_
1549431835.665147,cobot_dynamixel_driver/goal|-:J2:767.441406:eff_
1549431836.259925,cobot_dynamixel_driver/goal|-:J2:757.441406:eff_
1549431836.883726,cobot_dynamixel_driver/goal|-:J2:747.441406:eff_
1549431837.478211,cobot_dynamixel_driver/goal|-:J2:737.441406:eff_
1549431838.073057,cobot_dynamixel_driver/goal|-:J2:727.441406:eff_
1549431838.667547,cobot_dynamixel_driver/goal|-:J2:717.441406:eff_
1549431839.262079,cobot_dynamixel_driver/goal|-:J2:707.441406:eff_
1549431839.883045,cobot_dynamixel_driver/goal|-:J2:697.441406:eff_
1549431840.478832,cobot_dynamixel_driver/goal|-:J2:687.441406:eff_
1549431841.073456,cobot_dynamixel_driver/goal|-:J2:677.441406:eff_
1549431841.667835,cobot_dynamixel_driver/goal|-:J2:667.441406:eff_
1549431842.291441,cobot_dynamixel_driver/goal|-:J2:657.441406:eff_
1549431842.886042,cobot_dynamixel_driver/goal|-:J2:647.441406:eff_
1549431843.480910,cobot_dynamixel_driver/goal|-:J2:637.441406:eff_
1549431844.075193,cobot_dynamixel_driver/goal|-:J2:627.441406:eff_
1549431844.668859,cobot_dynamixel_driver/goal|-:J2:617.441406:eff_
1549431845.290325,cobot_dynamixel_driver/goal|-:J2:607.441406:eff_
1549431845.884826,cobot_dynamixel_driver/goal|-:J2:597.441406:eff_
1549431846.480705,cobot_dynamixel_driver/goal|-:J2:587.441406:eff_
1549431847.076042,cobot_dynamixel_driver/goal|-:J2:577.441406:eff_
1549431847.697919,cobot_dynamixel_driver/goal|-:J2:567.441406:eff_
1549431848.293376,cobot_dynamixel_driver/goal|-:J2:557.441406:eff_
1549431848.887235,cobot_dynamixel_driver/goal|-:J2:547.441406:eff_
1549431849.481951,cobot_dynamixel_driver/goal|-:J2:537.441406:eff_
1549431850.103576,cobot_dynamixel_driver/goal|-:J2:527.441406:eff_
1549431850.699199,cobot_dynamixel_driver/goal|-:J2:517.441406:eff_
1549431851.293947,cobot_dynamixel_driver/goal|-:J2:507.441406:eff_
1549431851.888942,cobot_dynamixel_driver/goal|-:J2:497.441406:eff_
1549431853.482548,cobot_dynamixel_driver/goal|-:J2:0.000000:eff_
1549431853.590687,cobot_dynamixel_driver/goal|-:J1,J2,J3,J4,J5,J6:0.000000,0.523599,0.000000,0.000000,0.000000,0.000000:0.250000,0.250000,0.250000,0.250000,0.250000,0.250000:pos_vel_
1549431854.492086,cobot_dynamixel_driver/goal|-:J2:487.441406:eff_
1549431855.095695,cobot_dynamixel_driver/goal|-:J2:0.000000:eff_
1549431855.204584,cobot_dynamixel_driver/goal|-:J1,J2,J3,J4,J5,J6:0.000000,0.523599,0.000000,0.000000,0.000000,0.000000:0.250000,0.250000,0.250000,0.250000,0.250000,0.250000:pos_vel_
1549431857.805985,cobot_dynamixel_driver/goal|-:J2:0.000000:eff_
1549431857.923868,cobot_dynamixel_driver/goal|-:J1,J2,J3,J4,J5,J6:0.000000,0.436332,0.000000,0.000000,0.000000,0.000000:0.250000,0.250000,0.250000,0.250000,0.250000,0.250000:pos_vel_
1549431859.608563,cobot_dynamixel_driver/goal|-:J2:1627.441406:eff_
1549431860.321042,cobot_dynamixel_driver/goal|-:J1,J2,J3,J4,J5,J6:0.000000,0.436332,0.000000,0.000000,0.000000,0.000000:0.250000,0.250000,0.250000,0.250000,0.250000,0.250000:pos_vel_
1549431861.518546,cobot_dynamixel_driver/goal|-:J2:1637.441406:eff_
1549431862.122355,cobot_dynamixel_driver/goal|-:J1,J2,J3,J4,J5,J6:0.000000,0.436332,0.000000,0.000000,0.000000,0.000000:0.250000,0.250000,0.250000,0.250000,0.250000,0.250000:pos_vel_
1549431863.319707,cobot_dynamixel_driver/goal|-:J2:1647.441406:eff_
1549431863.924176,cobot_dynamixel_driver/goal|-:J1,J2,J3,J4,J5,J6:0.000000,0.436332,0.000000,0.000000,0.000000,0.000000:0.250000,0.250000,0.250000,0.250000,0.250000,0.250000:pos_vel_
1549431865.122578,cobot_dynamixel_driver/goal|-:J2:1657.441406:eff_
1549431865.726238,cobot_dynamixel_driver/goal|-:J1,J2,J3,J4,J5,J6:0.000000,0.436332,0.000000,0.000000,0.000000,0.000000:0.250000,0.250000,0.250000,0.250000,0.250000,0.250000:pos_vel_
1549431866.924591,cobot_dynamixel_driver/goal|-:J2:1667.441406:eff_
1549431867.528081,cobot_dynamixel_driver/goal|-:J1,J2,J3,J4,J5,J6:0.000000,0.436332,0.000000,0.000000,0.000000,0.000000:0.250000,0.250000,0.250000,0.250000,0.250000,0.250000:pos_vel_
1549431868.726718,cobot_dynamixel_driver/goal|-:J2:1677.441406:eff_
1549431869.331434,cobot_dynamixel_driver/goal|-:J1,J2,J3,J4,J5,J6:0.000000,0.436332,0.000000,0.000000,0.000000,0.000000:0.250000,0.250000,0.250000,0.250000,0.250000,0.250000:pos_vel_
1549431870.611118,cobot_dynamixel_driver/goal|-:J2:1687.441406:eff_
1549431871.214700,cobot_dynamixel_driver/goal|-:J1,J2,J3,J4,J5,J6:0.000000,0.436332,0.000000,0.000000,0.000000,0.000000:0.250000,0.250000,0.250000,0.250000,0.250000,0.250000:pos_vel_
1549431872.413898,cobot_dynamixel_driver/goal|-:J2:1697.441406:eff_
1549431873.019514,cobot_dynamixel_driver/goal|-:J1,J2,J3,J4,J5,J6:0.000000,0.436332,0.000000,0.000000,0.000000,0.000000:0.250000,0.250000,0.250000,0.250000,0.250000,0.250000:pos_vel_
1549431874.328852,cobot_dynamixel_driver/goal|-:J2:1707.441406:eff_
1549431874.932482,cobot_dynamixel_driver/goal|-:J1,J2,J3,J4,J5,J6:0.000000,0.436332,0.000000,0.000000,0.000000,0.000000:0.250000,0.250000,0.250000,0.250000,0.250000,0.250000:pos_vel_
1549431876.132694,cobot_dynamixel_driver/goal|-:J2:1717.441406:eff_
1549431876.710339,cobot_dynamixel_driver/goal|-:J1,J2,J3,J4,J5,J6:0.000000,0.436332,0.000000,0.000000,0.000000,0.000000:0.250000,0.250000,0.250000,0.250000,0.250000,0.250000:pos_vel_
1549431877.935813,cobot_dynamixel_driver/goal|-:J2:1727.441406:eff_
1549431878.513507,cobot_dynamixel_driver/goal|-:J1,J2,J3,J4,J5,J6:0.000000,0.436332,0.000000,0.000000,0.000000,0.000000:0.250000,0.250000,0.250000,0.250000,0.250000,0.250000:pos_vel_
1549431879.819792,cobot_dynamixel_driver/goal|-:J2:1737.441406:eff_
1549431880.424503,cobot_dynamixel_driver/goal|-:J1,J2,J3,J4,J5,J6:0.000000,0.436332,0.000000,0.000000,0.000000,0.000000:0.250000,0.250000,0.250000,0.250000,0.250000,0.250000:pos_vel_
1549431881.729746,cobot_dynamixel_driver/goal|-:J2:1747.441406:eff_
1549431882.334407,cobot_dynamixel_driver/goal|-:J1,J2,J3,J4,J5,J6:0.000000,0.436332,0.000000,0.000000,0.000000,0.000000:0.250000,0.250000,0.250000,0.250000,0.250000,0.250000:pos_vel_
1549431883.829604,cobot_dynamixel_driver/goal|-:J2:1757.441406:eff_
1549431884.433118,cobot_dynamixel_driver/goal|-:J1,J2,J3,J4,J5,J6:0.000000,0.436332,0.000000,0.000000,0.000000,0.000000:0.250000,0.250000,0.250000,0.250000,0.250000,0.250000:pos_vel_
1549431885.820202,cobot_dynamixel_driver/goal|-:J2:1767.441406:eff_
1549431886.424950,cobot_dynamixel_driver/goal|-:J1,J2,J3,J4,J5,J6:0.000000,0.436332,0.000000,0.000000,0.000000,0.000000:0.250000,0.250000,0.250000,0.250000,0.250000,0.250000:pos_vel_
1549431887.840086,cobot_dynamixel_driver/goal|-:J2:1777.441406:eff_
1549431888.417681,cobot_dynamixel_driver/goal|-:J1,J2,J3,J4,J5,J6:0.000000,0.436332,0.000000,0.000000,0.000000,0.000000:0.250000,0.250000,0.250000,0.250000,0.250000,0.250000:pos_vel_
1549431889.831084,cobot_dynamixel_driver/goal|-:J2:1787.441406:eff_
1549431890.434600,cobot_dynamixel_driver/goal|-:J1,J2,J3,J4,J5,J6:0.000000,0.436332,0.000000,0.000000,0.000000,0.000000:0.250000,0.250000,0.250000,0.250000,0.250000,0.250000:pos_vel_
1549431891.929997,cobot_dynamixel_driver/goal|-:J2:1797.441406:eff_
1549431892.533550,cobot_dynamixel_driver/goal|-:J1,J2,J3,J4,J5,J6:0.000000,0.436332,0.000000,0.000000,0.000000,0.000000:0.250000,0.250000,0.250000,0.250000,0.250000,0.250000:pos_vel_
1549431894.135565,cobot_dynamixel_driver/goal|-:J2:1807.441406:eff_
1549431894.740337,cobot_dynamixel_driver/goal|-:J1,J2,J3,J4,J5,J6:0.000000,0.436332,0.000000,0.000000,0.000000,0.000000:0.250000,0.250000,0.250000,0.250000,0.250000,0.250000:pos_vel_
1549431896.234454,cobot_dynamixel_driver/goal|-:J2:1817.441406:eff_
1549431896.839267,cobot_dynamixel_driver/goal|-:J1,J2,J3,J4,J5,J6:0.000000,0.436332,0.000000,0.000000,0.000000,0.000000:0.250000,0.250000,0.250000,0.250000,0.250000,0.250000:pos_vel_
1549431898.333759,cobot_dynamixel_driver/goal|-:J2:1827.441406:eff_
1549431898.939595,cobot_dynamixel_driver/goal|-:J1,J2,J3,J4,J5,J6:0.000000,0.436332,0.000000,0.000000,0.000000,0.000000:0.250000,0.250000,0.250000,0.250000,0.250000,0.250000:pos_vel_
1549431900.434661,cobot_dynamixel_driver/goal|-:J2:1837.441406:eff_
1549431901.040600,cobot_dynamixel_driver/goal|-:J1,J2,J3,J4,J5,J6:0.000000,0.436332,0.000000,0.000000,0.000000,0.000000:0.250000,0.250000,0.250000,0.250000,0.250000,0.250000:pos_vel_
1549431902.642522,cobot_dynamixel_driver/goal|-:J2:1847.441406:eff_
1549431903.248076,cobot_dynamixel_driver/goal|-:J1,J2,J3,J4,J5,J6:0.000000,0.436332,0.000000,0.000000,0.000000,0.000000:0.250000,0.250000,0.250000,0.250000,0.250000,0.250000:pos_vel_
1549431904.931311,cobot_dynamixel_driver/goal|-:J2:1857.441406:eff_
1549431905.536073,cobot_dynamixel_driver/goal|-:J1,J2,J3,J4,J5,J6:0.000000,0.436332,0.000000,0.000000,0.000000,0.000000:0.250000,0.250000,0.250000,0.250000,0.250000,0.250000:pos_vel_
1549431907.141123,cobot_dynamixel_driver/goal|-:J2:1867.441406:eff_
1549431907.745847,cobot_dynamixel_driver/goal|-:J1,J2,J3,J4,J5,J6:0.000000,0.436332,0.000000,0.000000,0.000000,0.000000:0.250000,0.250000,0.250000,0.250000,0.250000,0.250000:pos_vel_
1549431909.348691,cobot_dynamixel_driver/goal|-:J2:1877.441406:eff_
1549431909.953400,cobot_dynamixel_driver/goal|-:J1,J2,J3,J4,J5,J6:0.000000,0.436332,0.000000,0.000000,0.000000,0.000000:0.250000,0.250000,0.250000,0.250000,0.250000,0.250000:pos_vel_
1549431911.638398,cobot_dynamixel_driver/goal|-:J2:1887.441406:eff_
1549431912.243782,cobot_dynamixel_driver/goal|-:J1,J2,J3,J4,J5,J6:0.000000,0.436332,0.000000,0.000000,0.000000,0.000000:0.250000,0.250000,0.250000,0.250000,0.250000,0.250000:pos_vel_
1549431913.929007,cobot_dynamixel_driver/goal|-:J2:1897.441406:eff_
1549431914.533744,cobot_dynamixel_driver/goal|-:J1,J2,J3,J4,J5,J6:0.000000,0.436332,0.000000,0.000000,0.000000,0.000000:0.250000,0.250000,0.250000,0.250000,0.250000,0.250000:pos_vel_
1549431916.244681,cobot_dynamixel_driver/goal|-:J2:1907.441406:eff_
1549431916.849303,cobot_dynamixel_driver/goal|-:J1,J2,J3,J4,J5,J6:0.000000,0.436332,0.000000,0.000000,0.000000,0.000000:0.250000,0.250000,0.250000,0.250000,0.250000,0.250000:pos_vel_
1549431918.536403,cobot_dynamixel_driver/goal|-:J2:1917.441406:eff_
1549431919.139999,cobot_dynamixel_driver/goal|-:J1,J2,J3,J4,J5,J6:0.000000,0.436332,0.000000,0.000000,0.000000,0.000000:0.250000,0.250000,0.250000,0.250000,0.250000,0.250000:pos_vel_
1549431920.852157,cobot_dynamixel_driver/goal|-:J2:1927.441406:eff_
1549431921.458092,cobot_dynamixel_driver/goal|-:J1,J2,J3,J4,J5,J6:0.000000,0.436332,0.000000,0.000000,0.000000,0.000000:0.250000,0.250000,0.250000,0.250000,0.250000,0.250000:pos_vel_
1549431923.141679,cobot_dynamixel_driver/goal|-:J2:1937.441406:eff_
1549431923.745296,cobot_dynamixel_driver/goal|-:J1,J2,J3,J4,J5,J6:0.000000,0.436332,0.000000,0.000000,0.000000,0.000000:0.250000,0.250000,0.250000,0.250000,0.250000,0.250000:pos_vel_
1549431925.458117,cobot_dynamixel_driver/goal|-:J2:1947.441406:eff_
1549431926.037102,cobot_dynamixel_driver/goal|-:J1,J2,J3,J4,J5,J6:0.000000,0.436332,0.000000,0.000000,0.000000,0.000000:0.250000,0.250000,0.250000,0.250000,0.250000,0.250000:pos_vel_
1549431927.855956,cobot_dynamixel_driver/goal|-:J2:1957.441406:eff_
1549431928.460527,cobot_dynamixel_driver/goal|-:J1,J2,J3,J4,J5,J6:0.000000,0.436332,0.000000,0.000000,0.000000,0.000000:0.250000,0.250000,0.250000,0.250000,0.250000,0.250000:pos_vel_
1549431930.252616,cobot_dynamixel_driver/goal|-:J2:1967.441406:eff_
1549431930.856331,cobot_dynamixel_driver/goal|-:J1,J2,J3,J4,J5,J6:0.000000,0.436332,0.000000,0.000000,0.000000,0.000000:0.250000,0.250000,0.250000,0.250000,0.250000,0.250000:pos_vel_
1549431932.647386,cobot_dynamixel_driver/goal|-:J2:1977.441406:eff_
1549431933.251997,cobot_dynamixel_driver/goal|-:J1,J2,J3,J4,J5,J6:0.000000,0.436332,0.000000,0.000000,0.000000,0.000000:0.250000,0.250000,0.250000,0.250000,0.250000,0.250000:pos_vel_
1549431935.044898,cobot_dynamixel_driver/goal|-:J2:1987.441406:eff_
1549431935.649589,cobot_dynamixel_driver/goal|-:J1,J2,J3,J4,J5,J6:0.000000,0.436332,0.000000,0.000000,0.000000,0.000000:0.250000,0.250000,0.250000,0.250000,0.250000,0.250000:pos_vel_
1549431937.658187,cobot_dynamixel_driver/goal|-:J2:1997.441406:eff_
1549431938.261856,cobot_dynamixel_driver/goal|-:J1,J2,J3,J4,J5,J6:0.000000,0.436332,0.000000,0.000000,0.000000,0.000000:0.250000,0.250000,0.250000,0.250000,0.250000,0.250000:pos_vel_
1549431940.241878,cobot_dynamixel_driver/goal|-:J2:2007.441406:eff_
1549431940.846615,cobot_dynamixel_driver/goal|-:J1,J2,J3,J4,J5,J6:0.000000,0.436332,0.000000,0.000000,0.000000,0.000000:0.250000,0.250000,0.250000,0.250000,0.250000,0.250000:pos_vel_
1549431942.745440,cobot_dynamixel_driver/goal|-:J2:2017.441406:eff_
1549431943.351105,cobot_dynamixel_driver/goal|-:J1,J2,J3,J4,J5,J6:0.000000,0.436332,0.000000,0.000000,0.000000,0.000000:0.250000,0.250000,0.250000,0.250000,0.250000,0.250000:pos_vel_
1549431945.360146,cobot_dynamixel_driver/goal|-:J2:2027.441406:eff_
1549431945.963732,cobot_dynamixel_driver/goal|-:J1,J2,J3,J4,J5,J6:0.000000,0.436332,0.000000,0.000000,0.000000,0.000000:0.250000,0.250000,0.250000,0.250000,0.250000,0.250000:pos_vel_
1549431947.864683,cobot_dynamixel_driver/goal|-:J2:2037.441406:eff_
1549431948.469334,cobot_dynamixel_driver/goal|-:J1,J2,J3,J4,J5,J6:0.000000,0.436332,0.000000,0.000000,0.000000,0.000000:0.250000,0.250000,0.250000,0.250000,0.250000,0.250000:pos_vel_
1549431950.450902,cobot_dynamixel_driver/goal|-:J2:2047.441406:eff_
1549431951.054619,cobot_dynamixel_driver/goal|-:J1,J2,J3,J4,J5,J6:0.000000,0.436332,0.000000,0.000000,0.000000,0.000000:0.250000,0.250000,0.250000,0.250000,0.250000,0.250000:pos_vel_
1549431953.061243,cobot_dynamixel_driver/goal|-:J2:2057.441406:eff_
1549431953.665143,cobot_dynamixel_driver/goal|-:J1,J2,J3,J4,J5,J6:0.000000,0.436332,0.000000,0.000000,0.000000,0.000000:0.250000,0.250000,0.250000,0.250000,0.250000,0.250000:pos_vel_
1549431955.671739,cobot_dynamixel_driver/goal|-:J2:2067.441406:eff_
1549431956.249393,cobot_dynamixel_driver/goal|-:J1,J2,J3,J4,J5,J6:0.000000,0.436332,0.000000,0.000000,0.000000,0.000000:0.250000,0.250000,0.250000,0.250000,0.250000,0.250000:pos_vel_
1549431958.149412,cobot_dynamixel_driver/goal|-:J2:2077.441406:eff_
1549431958.753131,cobot_dynamixel_driver/goal|-:J1,J2,J3,J4,J5,J6:0.000000,0.436332,0.000000,0.000000,0.000000,0.000000:0.250000,0.250000,0.250000,0.250000,0.250000,0.250000:pos_vel_
1549431960.868934,cobot_dynamixel_driver/goal|-:J2:2087.441406:eff_
1549431961.472514,cobot_dynamixel_driver/goal|-:J1,J2,J3,J4,J5,J6:0.000000,0.436332,0.000000,0.000000,0.000000,0.000000:0.250000,0.250000,0.250000,0.250000,0.250000,0.250000:pos_vel_
1549431963.751202,cobot_dynamixel_driver/goal|-:J2:2097.441406:eff_
1549431964.355618,cobot_dynamixel_driver/goal|-:J1,J2,J3,J4,J5,J6:0.000000,0.436332,0.000000,0.000000,0.000000,0.000000:0.250000,0.250000,0.250000,0.250000,0.250000,0.250000:pos_vel_
1549431966.470388,cobot_dynamixel_driver/goal|-:J2:2107.441406:eff_
1549431967.074089,cobot_dynamixel_driver/goal|-:J1,J2,J3,J4,J5,J6:0.000000,0.436332,0.000000,0.000000,0.000000,0.000000:0.250000,0.250000,0.250000,0.250000,0.250000,0.250000:pos_vel_
1549431969.271994,cobot_dynamixel_driver/goal|-:J2:2117.441406:eff_
1549431969.876663,cobot_dynamixel_driver/goal|-:J1,J2,J3,J4,J5,J6:0.000000,0.436332,0.000000,0.000000,0.000000,0.000000:0.250000,0.250000,0.250000,0.250000,0.250000,0.250000:pos_vel_
1549431972.073386,cobot_dynamixel_driver/goal|-:J2:2127.441406:eff_
1549431972.677983,cobot_dynamixel_driver/goal|-:J1,J2,J3,J4,J5,J6:0.000000,0.436332,0.000000,0.000000,0.000000,0.000000:0.250000,0.250000,0.250000,0.250000,0.250000,0.250000:pos_vel_
1549431974.766856,cobot_dynamixel_driver/goal|-:J2:2137.441406:eff_
1549431975.370393,cobot_dynamixel_driver/goal|-:J1,J2,J3,J4,J5,J6:0.000000,0.436332,0.000000,0.000000,0.000000,0.000000:0.250000,0.250000,0.250000,0.250000,0.250000,0.250000:pos_vel_
1549431977.566911,cobot_dynamixel_driver/goal|-:J2:2147.441406:eff_
1549431978.170608,cobot_dynamixel_driver/goal|-:J1,J2,J3,J4,J5,J6:0.000000,0.436332,0.000000,0.000000,0.000000,0.000000:0.250000,0.250000,0.250000,0.250000,0.250000,0.250000:pos_vel_
1549431980.368279,cobot_dynamixel_driver/goal|-:J2:2157.441406:eff_
1549431980.971993,cobot_dynamixel_driver/goal|-:J1,J2,J3,J4,J5,J6:0.000000,0.436332,0.000000,0.000000,0.000000,0.000000:0.250000,0.250000,0.250000,0.250000,0.250000,0.250000:pos_vel_
1549431983.169031,cobot_dynamixel_driver/goal|-:J2:2167.441406:eff_
1549431983.772450,cobot_dynamixel_driver/goal|-:J1,J2,J3,J4,J5,J6:0.000000,0.436332,0.000000,0.000000,0.000000,0.000000:0.250000,0.250000,0.250000,0.250000,0.250000,0.250000:pos_vel_
1549431985.968447,cobot_dynamixel_driver/goal|-:J2:2177.441406:eff_
1549431986.572982,cobot_dynamixel_driver/goal|-:J1,J2,J3,J4,J5,J6:0.000000,0.436332,0.000000,0.000000,0.000000,0.000000:0.250000,0.250000,0.250000,0.250000,0.250000,0.250000:pos_vel_
1549431988.878228,cobot_dynamixel_driver/goal|-:J2:2187.441406:eff_
1549431989.482095,cobot_dynamixel_driver/goal|-:J1,J2,J3,J4,J5,J6:0.000000,0.436332,0.000000,0.000000,0.000000,0.000000:0.250000,0.250000,0.250000,0.250000,0.250000,0.250000:pos_vel_
1549431991.678293,cobot_dynamixel_driver/goal|-:J2:2197.441406:eff_
1549431992.283237,cobot_dynamixel_driver/goal|-:J1,J2,J3,J4,J5,J6:0.000000,0.436332,0.000000,0.000000,0.000000,0.000000:0.250000,0.250000,0.250000,0.250000,0.250000,0.250000:pos_vel_
1549431994.562704,cobot_dynamixel_driver/goal|-:J2:2207.441406:eff_
1549431995.167550,cobot_dynamixel_driver/goal|-:J1,J2,J3,J4,J5,J6:0.000000,0.436332,0.000000,0.000000,0.000000,0.000000:0.250000,0.250000,0.250000,0.250000,0.250000,0.250000:pos_vel_
1549431997.366598,cobot_dynamixel_driver/goal|-:J2:2217.441406:eff_
1549431997.970968,cobot_dynamixel_driver/goal|-:J1,J2,J3,J4,J5,J6:0.000000,0.436332,0.000000,0.000000,0.000000,0.000000:0.250000,0.250000,0.250000,0.250000,0.250000,0.250000:pos_vel_
1549432000.276967,cobot_dynamixel_driver/goal|-:J2:2227.441406:eff_
1549432000.882742,cobot_dynamixel_driver/goal|-:J1,J2,J3,J4,J5,J6:0.000000,0.436332,0.000000,0.000000,0.000000,0.000000:0.250000,0.250000,0.250000,0.250000,0.250000,0.250000:pos_vel_
1549432003.266720,cobot_dynamixel_driver/goal|-:J2:2237.441406:eff_
1549432003.871345,cobot_dynamixel_driver/goal|-:J1,J2,J3,J4,J5,J6:0.000000,0.436332,0.000000,0.000000,0.000000,0.000000:0.250000,0.250000,0.250000,0.250000,0.250000,0.250000:pos_vel_
1549432006.175138,cobot_dynamixel_driver/goal|-:J2:2247.441406:eff_
1549432006.779950,cobot_dynamixel_driver/goal|-:J1,J2,J3,J4,J5,J6:0.000000,0.436332,0.000000,0.000000,0.000000,0.000000:0.250000,0.250000,0.250000,0.250000,0.250000,0.250000:pos_vel_
1549432009.084920,cobot_dynamixel_driver/goal|-:J2:2257.441406:eff_
1549432009.688547,cobot_dynamixel_driver/goal|-:J1,J2,J3,J4,J5,J6:0.000000,0.436332,0.000000,0.000000,0.000000,0.000000:0.250000,0.250000,0.250000,0.250000,0.250000,0.250000:pos_vel_
1549432012.074100,cobot_dynamixel_driver/goal|-:J2:2267.441406:eff_
1549432012.677868,cobot_dynamixel_driver/goal|-:J1,J2,J3,J4,J5,J6:0.000000,0.436332,0.000000,0.000000,0.000000,0.000000:0.250000,0.250000,0.250000,0.250000,0.250000,0.250000:pos_vel_
1549432014.982110,cobot_dynamixel_driver/goal|-:J2:2277.441406:eff_
1549432015.586625,cobot_dynamixel_driver/goal|-:J1,J2,J3,J4,J5,J6:0.000000,0.436332,0.000000,0.000000,0.000000,0.000000:0.250000,0.250000,0.250000,0.250000,0.250000,0.250000:pos_vel_
1549432017.974196,cobot_dynamixel_driver/goal|-:J2:2287.441406:eff_
1549432018.577848,cobot_dynamixel_driver/goal|-:J1,J2,J3,J4,J5,J6:0.000000,0.436332,0.000000,0.000000,0.000000,0.000000:0.250000,0.250000,0.250000,0.250000,0.250000,0.250000:pos_vel_
1549432021.071884,cobot_dynamixel_driver/goal|-:J2:2297.441406:eff_
1549432021.676566,cobot_dynamixel_driver/goal|-:J1,J2,J3,J4,J5,J6:0.000000,0.436332,0.000000,0.000000,0.000000,0.000000:0.250000,0.250000,0.250000,0.250000,0.250000,0.250000:pos_vel_
1549432024.089429,cobot_dynamixel_driver/goal|-:J2:2307.441406:eff_
1549432024.692778,cobot_dynamixel_driver/goal|-:J1,J2,J3,J4,J5,J6:0.000000,0.436332,0.000000,0.000000,0.000000,0.000000:0.250000,0.250000,0.250000,0.250000,0.250000,0.250000:pos_vel_
1549432027.187398,cobot_dynamixel_driver/goal|-:J2:2317.441406:eff_
1549432027.790881,cobot_dynamixel_driver/goal|-:J1,J2,J3,J4,J5,J6:0.000000,0.436332,0.000000,0.000000,0.000000,0.000000:0.250000,0.250000,0.250000,0.250000,0.250000,0.250000:pos_vel_
1549432030.177339,cobot_dynamixel_driver/goal|-:J2:2327.441406:eff_
1549432030.780950,cobot_dynamixel_driver/goal|-:J1,J2,J3,J4,J5,J6:0.000000,0.436332,0.000000,0.000000,0.000000,0.000000:0.250000,0.250000,0.250000,0.250000,0.250000,0.250000:pos_vel_
1549432033.274654,cobot_dynamixel_driver/goal|-:J2:2337.441406:eff_
1549432033.879254,cobot_dynamixel_driver/goal|-:J1,J2,J3,J4,J5,J6:0.000000,0.436332,0.000000,0.000000,0.000000,0.000000:0.250000,0.250000,0.250000,0.250000,0.250000,0.250000:pos_vel_
1549432036.481984,cobot_dynamixel_driver/goal|-:J2:2347.441406:eff_
1549432037.086674,cobot_dynamixel_driver/goal|-:J1,J2,J3,J4,J5,J6:0.000000,0.436332,0.000000,0.000000,0.000000,0.000000:0.250000,0.250000,0.250000,0.250000,0.250000,0.250000:pos_vel_
1549432039.690231,cobot_dynamixel_driver/goal|-:J2:2357.441406:eff_
1549432040.293646,cobot_dynamixel_driver/goal|-:J1,J2,J3,J4,J5,J6:0.000000,0.436332,0.000000,0.000000,0.000000,0.000000:0.250000,0.250000,0.250000,0.250000,0.250000,0.250000:pos_vel_
1549432042.893987,cobot_dynamixel_driver/goal|-:J2:2367.441406:eff_
1549432043.498579,cobot_dynamixel_driver/goal|-:J1,J2,J3,J4,J5,J6:0.000000,0.436332,0.000000,0.000000,0.000000,0.000000:0.250000,0.250000,0.250000,0.250000,0.250000,0.250000:pos_vel_
1549432045.993411,cobot_dynamixel_driver/goal|-:J2:2377.441406:eff_
1549432046.597928,cobot_dynamixel_driver/goal|-:J1,J2,J3,J4,J5,J6:0.000000,0.436332,0.000000,0.000000,0.000000,0.000000:0.250000,0.250000,0.250000,0.250000,0.250000,0.250000:pos_vel_
1549432049.202863,cobot_dynamixel_driver/goal|-:J2:2387.441406:eff_
1549432049.806586,cobot_dynamixel_driver/goal|-:J1,J2,J3,J4,J5,J6:0.000000,0.436332,0.000000,0.000000,0.000000,0.000000:0.250000,0.250000,0.250000,0.250000,0.250000,0.250000:pos_vel_
1549432052.488567,cobot_dynamixel_driver/goal|-:J2:2397.441406:eff_
1549432053.092223,cobot_dynamixel_driver/goal|-:J1,J2,J3,J4,J5,J6:0.000000,0.436332,0.000000,0.000000,0.000000,0.000000:0.250000,0.250000,0.250000,0.250000,0.250000,0.250000:pos_vel_
1549432059.878211,cobot_dynamixel_driver/goal|-:J1,J2,J3,J4,J5,J6:0.000000,0.000000,0.000000,0.000000,0.000000,0.000000:0.500000,0.500000,0.500000,0.500000,0.500000,0.500000:pos_vel_
1549432495.296921,cobot_dynamixel_driver/goal|-:J1,J2,J3,J4,J5,J6:0.000000,0.000000,0.000000,0.000000,0.000000,0.000000:0.500000,0.500000,0.500000,0.500000,0.500000,0.500000:pos_vel_
1549432564.100820,cobot_dynamixel_driver/goal|-:J2:0.000000:eff_
1549432564.191828,cobot_dynamixel_driver/goal|-:J1,J2,J3,J4,J5,J6:0.000000,0.523599,0.000000,0.000000,0.000000,0.000000:0.250000,0.250000,0.250000,0.250000,0.250000,0.250000:pos_vel_
1549432567.684212,cobot_dynamixel_driver/goal|-:J2:531.738281:eff_
1549432568.397409,cobot_dynamixel_driver/goal|-:J1,J2,J3,J4,J5,J6:0.000000,0.523599,0.000000,0.000000,0.000000,0.000000:0.250000,0.250000,0.250000,0.250000,0.250000,0.250000:pos_vel_
1549432569.597373,cobot_dynamixel_driver/goal|-:J2:541.738281:eff_
1549432570.202173,cobot_dynamixel_driver/goal|-:J1,J2,J3,J4,J5,J6:0.000000,0.523599,0.000000,0.000000,0.000000,0.000000:0.250000,0.250000,0.250000,0.250000,0.250000,0.250000:pos_vel_
1549432571.292355,cobot_dynamixel_driver/goal|-:J2:551.738281:eff_
1549432571.896973,cobot_dynamixel_driver/goal|-:J1,J2,J3,J4,J5,J6:0.000000,0.523599,0.000000,0.000000,0.000000,0.000000:0.250000,0.250000,0.250000,0.250000,0.250000,0.250000:pos_vel_
1549432572.905511,cobot_dynamixel_driver/goal|-:J2:561.738281:eff_
1549432573.484312,cobot_dynamixel_driver/goal|-:J1,J2,J3,J4,J5,J6:0.000000,0.523599,0.000000,0.000000,0.000000,0.000000:0.250000,0.250000,0.250000,0.250000,0.250000,0.250000:pos_vel_
1549432574.600611,cobot_dynamixel_driver/goal|-:J2:571.738281:eff_
1549432575.205289,cobot_dynamixel_driver/goal|-:J1,J2,J3,J4,J5,J6:0.000000,0.523599,0.000000,0.000000,0.000000,0.000000:0.250000,0.250000,0.250000,0.250000,0.250000,0.250000:pos_vel_
1549432576.405870,cobot_dynamixel_driver/goal|-:J2:581.738281:eff_
1549432576.984413,cobot_dynamixel_driver/goal|-:J1,J2,J3,J4,J5,J6:0.000000,0.523599,0.000000,0.000000,0.000000,0.000000:0.250000,0.250000,0.250000,0.250000,0.250000,0.250000:pos_vel_
1549432577.993778,cobot_dynamixel_driver/goal|-:J2:591.738281:eff_
1549432578.597537,cobot_dynamixel_driver/goal|-:J1,J2,J3,J4,J5,J6:0.000000,0.523599,0.000000,0.000000,0.000000,0.000000:0.250000,0.250000,0.250000,0.250000,0.250000,0.250000:pos_vel_
1549432579.606741,cobot_dynamixel_driver/goal|-:J2:601.738281:eff_
1549432580.185232,cobot_dynamixel_driver/goal|-:J1,J2,J3,J4,J5,J6:0.000000,0.523599,0.000000,0.000000,0.000000,0.000000:0.250000,0.250000,0.250000,0.250000,0.250000,0.250000:pos_vel_
1549432581.086785,cobot_dynamixel_driver/goal|-:J2:611.738281:eff_
1549432581.691372,cobot_dynamixel_driver/goal|-:J1,J2,J3,J4,J5,J6:0.000000,0.523599,0.000000,0.000000,0.000000,0.000000:0.250000,0.250000,0.250000,0.250000,0.250000,0.250000:pos_vel_
1549432582.592017,cobot_dynamixel_driver/goal|-:J2:621.738281:eff_
1549432583.195620,cobot_dynamixel_driver/goal|-:J1,J2,J3,J4,J5,J6:0.000000,0.523599,0.000000,0.000000,0.000000,0.000000:0.250000,0.250000,0.250000,0.250000,0.250000,0.250000:pos_vel_
1549432584.205255,cobot_dynamixel_driver/goal|-:J2:631.738281:eff_
1549432584.808744,cobot_dynamixel_driver/goal|-:J1,J2,J3,J4,J5,J6:0.000000,0.523599,0.000000,0.000000,0.000000,0.000000:0.250000,0.250000,0.250000,0.250000,0.250000,0.250000:pos_vel_
1549432585.602584,cobot_dynamixel_driver/goal|-:J2:641.738281:eff_
1549432586.207081,cobot_dynamixel_driver/goal|-:J1,J2,J3,J4,J5,J6:0.000000,0.523599,0.000000,0.000000,0.000000,0.000000:0.250000,0.250000,0.250000,0.250000,0.250000,0.250000:pos_vel_
1549432587.000017,cobot_dynamixel_driver/goal|-:J2:651.738281:eff_
1549432587.603279,cobot_dynamixel_driver/goal|-:J1,J2,J3,J4,J5,J6:0.000000,0.523599,0.000000,0.000000,0.000000,0.000000:0.250000,0.250000,0.250000,0.250000,0.250000,0.250000:pos_vel_
1549432588.396843,cobot_dynamixel_driver/goal|-:J2:661.738281:eff_
1549432589.000764,cobot_dynamixel_driver/goal|-:J1,J2,J3,J4,J5,J6:0.000000,0.523599,0.000000,0.000000,0.000000,0.000000:0.250000,0.250000,0.250000,0.250000,0.250000,0.250000:pos_vel_
1549432589.712060,cobot_dynamixel_driver/goal|-:J2:671.738281:eff_
1549432590.317222,cobot_dynamixel_driver/goal|-:J1,J2,J3,J4,J5,J6:0.000000,0.523599,0.000000,0.000000,0.000000,0.000000:0.250000,0.250000,0.250000,0.250000,0.250000,0.250000:pos_vel_
1549432591.218090,cobot_dynamixel_driver/goal|-:J2:681.738281:eff_
1549432591.794761,cobot_dynamixel_driver/goal|-:J1,J2,J3,J4,J5,J6:0.000000,0.523599,0.000000,0.000000,0.000000,0.000000:0.250000,0.250000,0.250000,0.250000,0.250000,0.250000:pos_vel_
1549432592.615137,cobot_dynamixel_driver/goal|-:J2:691.738281:eff_
1549432593.218723,cobot_dynamixel_driver/goal|-:J1,J2,J3,J4,J5,J6:0.000000,0.523599,0.000000,0.000000,0.000000,0.000000:0.250000,0.250000,0.250000,0.250000,0.250000,0.250000:pos_vel_
1549432593.904449,cobot_dynamixel_driver/goal|-:J2:701.738281:eff_
1549432594.508978,cobot_dynamixel_driver/goal|-:J1,J2,J3,J4,J5,J6:0.000000,0.523599,0.000000,0.000000,0.000000,0.000000:0.250000,0.250000,0.250000,0.250000,0.250000,0.250000:pos_vel_
1549432595.301489,cobot_dynamixel_driver/goal|-:J2:711.738281:eff_
1549432595.906213,cobot_dynamixel_driver/goal|-:J1,J2,J3,J4,J5,J6:0.000000,0.523599,0.000000,0.000000,0.000000,0.000000:0.250000,0.250000,0.250000,0.250000,0.250000,0.250000:pos_vel_
1549432596.698844,cobot_dynamixel_driver/goal|-:J2:721.738281:eff_
1549432597.303440,cobot_dynamixel_driver/goal|-:J1,J2,J3,J4,J5,J6:0.000000,0.523599,0.000000,0.000000,0.000000,0.000000:0.250000,0.250000,0.250000,0.250000,0.250000,0.250000:pos_vel_
1549432598.015959,cobot_dynamixel_driver/goal|-:J2:731.738281:eff_
1549432598.619669,cobot_dynamixel_driver/goal|-:J1,J2,J3,J4,J5,J6:0.000000,0.523599,0.000000,0.000000,0.000000,0.000000:0.250000,0.250000,0.250000,0.250000,0.250000,0.250000:pos_vel_
1549432599.305279,cobot_dynamixel_driver/goal|-:J2:741.738281:eff_
1549432599.910205,cobot_dynamixel_driver/goal|-:J1,J2,J3,J4,J5,J6:0.000000,0.523599,0.000000,0.000000,0.000000,0.000000:0.250000,0.250000,0.250000,0.250000,0.250000,0.250000:pos_vel_
1549432600.702814,cobot_dynamixel_driver/goal|-:J2:751.738281:eff_
1549432601.307096,cobot_dynamixel_driver/goal|-:J1,J2,J3,J4,J5,J6:0.000000,0.523599,0.000000,0.000000,0.000000,0.000000:0.250000,0.250000,0.250000,0.250000,0.250000,0.250000:pos_vel_
