surachairobotic/cobot/cobot_dynamixel_driver/log/2019-01-04T09:07:37.120395_driver_log.txt
cobot_dynamixel_driver/joint_states|name|J1,J2,J3,J4,J5,J6|pos|-0.006434,-1.268785,1.294497,-0.009226,-1.337103,-0.000083|vel|0.000000,-0.000000,0.000000,0.000000,0.000000,0.000000|eff|0.000000,0.000000,0.000000,0.000000,0.000000,0.000000
cobot_dynamixel_driver/joint_states|name|J1,J2,J3,J4,J5,J6|pos|-0.006434,-1.268785,1.294497,-0.009226,-1.337103,-0.000083|vel|0.000000,-0.000000,0.000000,0.000000,0.000000,0.000000|eff|0.000000,0.000000,0.000000,0.000000,0.000000,0.000000
cobot_dynamixel_driver/joint_states|name|J1,J2,J3,J4,J5,J6|pos|-0.006434,-1.268785,1.294497,-0.009226,-1.337103,-0.000083|vel|0.000000,-0.000000,0.000000,0.000000,0.000000,0.000000|eff|0.000000,0.000000,0.000000,0.000000,0.000000,0.000000
cobot_dynamixel_driver/joint_states|name|J1,J2,J3,J4,J5,J6|pos|-0.006434,-1.268785,1.294497,-0.009226,-1.337103,-0.000083|vel|0.000000,-0.000000,0.000000,0.000000,0.000000,0.000000|eff|0.000000,0.000000,0.000000,0.000000,0.000000,0.000000
cobot_dynamixel_driver/joint_states|name|J1,J2,J3,J4,J5,J6|pos|-0.006434,-1.268785,1.294497,-0.009226,-1.337103,-0.000083|vel|0.000000,-0.000000,0.000000,0.000000,0.000000,0.000000|eff|0.000000,0.000000,0.000000,0.000000,0.000000,0.000000
cobot_dynamixel_driver/joint_states|name|J1,J2,J3,J4,J5,J6|pos|-0.006434,-1.268785,1.294497,-0.009226,-1.337103,-0.000083|vel|0.000000,-0.000000,0.000000,0.000000,0.000000,0.000000|eff|0.000000,0.000000,0.000000,0.000000,0.000000,0.000000
cobot_dynamixel_driver/joint_states|name|J1,J2,J3,J4,J5,J6|pos|-0.006434,-1.268785,1.294497,-0.009226,-1.337103,-0.000083|vel|0.000000,-0.000000,0.000000,0.000000,0.000000,0.000000|eff|0.000000,0.000000,0.000000,0.000000,0.000000,0.000000
cobot_dynamixel_driver/joint_states|name|J1,J2,J3,J4,J5,J6|pos|-0.006434,-1.268785,1.294497,-0.009226,-1.337103,-0.000083|vel|0.000000,-0.000000,0.000000,0.000000,0.000000,0.000000|eff|0.000000,0.000000,0.000000,0.000000,0.000000,0.000000
cobot_dynamixel_driver/joint_states|name|J1,J2,J3,J4,J5,J6|pos|-0.006434,-1.268785,1.294497,-0.009226,-1.337103,-0.000083|vel|0.000000,-0.000000,0.000000,0.000000,0.000000,0.000000|eff|0.000000,0.000000,0.000000,0.000000,0.000000,0.000000
cobot_dynamixel_driver/joint_states|name|J1,J2,J3,J4,J5,J6|pos|-0.006434,-1.268785,1.294497,-0.009226,-1.337103,-0.000083|vel|0.000000,-0.000000,0.000000,0.000000,0.000000,0.000000|eff|0.000000,0.000000,0.000000,0.000000,0.000000,0.000000
cobot_dynamixel_driver/joint_states|name|J1,J2,J3,J4,J5,J6|pos|-0.006434,-1.268785,1.294497,-0.009226,-1.337103,-0.000083|vel|0.000000,-0.000000,0.000000,0.000000,0.000000,0.000000|eff|0.000000,0.000000,0.000000,0.000000,0.000000,0.000000
cobot_dynamixel_driver/joint_states|name|J1,J2,J3,J4,J5,J6|pos|-0.006434,-1.268785,1.294497,-0.009226,-1.337103,-0.000083|vel|0.000000,-0.000000,0.000000,0.000000,0.000000,0.000000|eff|0.000000,0.000000,0.000000,0.000000,0.000000,0.000000
cobot_dynamixel_driver/joint_states|name|J1,J2,J3,J4,J5,J6|pos|-0.006434,-1.268785,1.294497,-0.009226,-1.337103,-0.000083|vel|0.000000,-0.000000,0.000000,0.000000,0.000000,0.000000|eff|0.000000,0.000000,0.000000,0.000000,0.000000,0.000000
cobot_dynamixel_driver/joint_states|name|J1,J2,J3,J4,J5,J6|pos|-0.006434,-1.268785,1.294497,-0.009226,-1.337103,-0.000083|vel|0.000000,-0.000000,0.000000,0.000000,0.000000,0.000000|eff|0.000000,0.000000,0.000000,0.000000,0.000000,0.000000
cobot_dynamixel_driver/joint_states|name|J1,J2,J3,J4,J5,J6|pos|-0.006434,-1.268785,1.294497,-0.009226,-1.337103,-0.000083|vel|0.000000,-0.000000,0.000000,0.000000,0.000000,0.000000|eff|0.000000,0.000000,0.000000,0.000000,0.000000,0.000000
cobot_dynamixel_driver/joint_states|name|J1,J2,J3,J4,J5,J6|pos|-0.006434,-1.268785,1.294497,-0.009226,-1.337103,-0.000083|vel|0.000000,-0.000000,0.000000,0.000000,0.000000,0.000000|eff|0.000000,0.000000,0.000000,0.000000,0.000000,0.000000
cobot_dynamixel_driver/joint_states|name|J1,J2,J3,J4,J5,J6|pos|-0.006434,-1.268785,1.294497,-0.009226,-1.337103,-0.000083|vel|0.000000,-0.000000,0.000000,0.000000,0.000000,0.000000|eff|0.000000,0.000000,0.000000,0.000000,0.000000,0.000000
cobot_dynamixel_driver/joint_states|name|J1,J2,J3,J4,J5,J6|pos|-0.006434,-1.268785,1.294497,-0.009226,-1.337103,-0.000083|vel|0.000000,-0.000000,0.000000,0.000000,0.000000,0.000000|eff|0.000000,0.000000,0.000000,0.000000,0.000000,0.000000
cobot_dynamixel_driver/joint_states|name|J1,J2,J3,J4,J5,J6|pos|-0.006434,-1.268785,1.294497,-0.009226,-1.337103,-0.000083|vel|0.000000,-0.000000,0.000000,0.000000,0.000000,0.000000|eff|0.000000,0.000000,0.000000,0.000000,0.000000,0.000000
cobot_dynamixel_driver/joint_states|name|J1,J2,J3,J4,J5,J6|pos|-0.006434,-1.268785,1.294497,-0.009226,-1.337103,-0.000083|vel|0.000000,-0.000000,0.000000,0.000000,0.000000,0.000000|eff|0.000000,0.000000,0.000000,0.000000,0.000000,0.000000
cobot_dynamixel_driver/joint_states|name|J1,J2,J3,J4,J5,J6|pos|-0.006434,-1.268785,1.294497,-0.009226,-1.337103,-0.000083|vel|0.000000,-0.000000,0.000000,0.000000,0.000000,0.000000|eff|0.000000,0.000000,0.000000,0.000000,0.000000,0.000000
cobot_dynamixel_driver/joint_states|name|J1,J2,J3,J4,J5,J6|pos|-0.006434,-1.268785,1.294497,-0.009226,-1.337103,-0.000083|vel|0.000000,-0.000000,0.000000,0.000000,0.000000,0.000000|eff|0.000000,0.000000,0.000000,0.000000,0.000000,0.000000
cobot_dynamixel_driver/joint_states|name|J1,J2,J3,J4,J5,J6|pos|-0.006434,-1.268785,1.294497,-0.009226,-1.337103,-0.000083|vel|0.000000,-0.000000,0.000000,0.000000,0.000000,0.000000|eff|0.000000,0.000000,0.000000,0.000000,0.000000,0.000000
cobot_dynamixel_driver/joint_states|name|J1,J2,J3,J4,J5,J6|pos|-0.006434,-1.268785,1.294497,-0.009226,-1.337103,-0.000083|vel|0.000000,-0.000000,0.000000,0.000000,0.000000,0.000000|eff|0.000000,0.000000,0.000000,0.000000,0.000000,0.000000
cobot_dynamixel_driver/joint_states|name|J1,J2,J3,J4,J5,J6|pos|-0.006434,-1.268785,1.294497,-0.009226,-1.337103,-0.000083|vel|0.000000,-0.000000,0.000000,0.000000,0.000000,0.000000|eff|0.000000,0.000000,0.000000,0.000000,0.000000,0.000000
cobot_dynamixel_driver/joint_states|name|J1,J2,J3,J4,J5,J6|pos|-0.006434,-1.268785,1.294497,-0.009226,-1.337103,-0.000083|vel|0.000000,-0.000000,0.000000,0.000000,0.000000,0.000000|eff|0.000000,0.000000,0.000000,0.000000,0.000000,0.000000
cobot_dynamixel_driver/joint_states|name|J1,J2,J3,J4,J5,J6|pos|-0.006434,-1.268785,1.294497,-0.009226,-1.337103,-0.000083|vel|0.000000,-0.000000,0.000000,0.000000,0.000000,0.000000|eff|0.000000,0.000000,0.000000,0.000000,0.000000,0.000000
cobot_dynamixel_driver/joint_states|name|J1,J2,J3,J4,J5,J6|pos|-0.006434,-1.268785,1.294497,-0.009226,-1.337103,-0.000083|vel|0.000000,-0.000000,0.000000,0.000000,0.000000,0.000000|eff|0.000000,0.000000,0.000000,0.000000,0.000000,0.000000
cobot_dynamixel_driver/joint_states|name|J1,J2,J3,J4,J5,J6|pos|-0.006434,-1.268785,1.294497,-0.009226,-1.337103,-0.000083|vel|0.000000,-0.000000,0.000000,0.000000,0.000000,0.000000|eff|0.000000,0.000000,0.000000,0.000000,0.000000,0.000000
cobot_dynamixel_driver/joint_states|name|J1,J2,J3,J4,J5,J6|pos|-0.006434,-1.268785,1.294497,-0.009226,-1.337103,-0.000083|vel|0.000000,-0.000000,0.000000,0.000000,0.000000,0.000000|eff|0.000000,0.000000,0.000000,0.000000,0.000000,0.000000
cobot_dynamixel_driver/joint_states|name|J1,J2,J3,J4,J5,J6|pos|-0.006434,-1.268785,1.294497,-0.009226,-1.337103,-0.000083|vel|0.000000,-0.000000,0.000000,0.000000,0.000000,0.000000|eff|0.000000,0.000000,0.000000,0.000000,0.000000,0.000000
cobot_dynamixel_driver/joint_states|name|J1,J2,J3,J4,J5,J6|pos|-0.006434,-1.268785,1.294497,-0.009226,-1.337103,-0.000083|vel|0.000000,-0.000000,0.000000,0.000000,0.000000,0.000000|eff|0.000000,0.000000,0.000000,0.000000,0.000000,0.000000
cobot_dynamixel_driver/joint_states|name|J1,J2,J3,J4,J5,J6|pos|-0.006434,-1.268785,1.294497,-0.009226,-1.337103,-0.000083|vel|0.000000,-0.000000,0.000000,0.000000,0.000000,0.000000|eff|0.000000,0.000000,0.000000,0.000000,0.000000,0.000000
cobot_dynamixel_driver/joint_states|name|J1,J2,J3,J4,J5,J6|pos|-0.006434,-1.268785,1.294497,-0.009226,-1.337103,-0.000083|vel|0.000000,-0.000000,0.000000,0.000000,0.000000,0.000000|eff|0.000000,0.000000,0.000000,0.000000,0.000000,0.000000
cobot_dynamixel_driver/joint_states|name|J1,J2,J3,J4,J5,J6|pos|-0.006434,-1.268785,1.294497,-0.009226,-1.337103,-0.000083|vel|0.000000,-0.000000,0.000000,0.000000,0.000000,0.000000|eff|0.000000,0.000000,0.000000,0.000000,0.000000,0.000000
cobot_dynamixel_driver/joint_states|name|J1,J2,J3,J4,J5,J6|pos|-0.006434,-1.268785,1.294497,-0.009226,-1.337103,-0.000083|vel|0.000000,-0.000000,0.000000,0.000000,0.000000,0.000000|eff|0.000000,0.000000,0.000000,0.000000,0.000000,0.000000
cobot_dynamixel_driver/joint_states|name|J1,J2,J3,J4,J5,J6|pos|-0.006434,-1.268785,1.294497,-0.009226,-1.337103,-0.000083|vel|0.000000,-0.000000,0.000000,0.000000,0.000000,0.000000|eff|0.000000,0.000000,0.000000,0.000000,0.000000,0.000000
cobot_dynamixel_driver/joint_states|name|J1,J2,J3,J4,J5,J6|pos|-0.006434,-1.268785,1.294497,-0.009226,-1.337103,-0.000083|vel|0.000000,-0.000000,0.000000,0.000000,0.000000,0.000000|eff|0.000000,0.000000,0.000000,0.000000,0.000000,0.000000
cobot_dynamixel_driver/joint_states|name|J1,J2,J3,J4,J5,J6|pos|-0.006434,-1.268785,1.294497,-0.009226,-1.337103,-0.000083|vel|0.000000,-0.000000,0.000000,0.000000,0.000000,0.000000|eff|0.000000,0.000000,0.000000,0.000000,0.000000,0.000000
cobot_dynamixel_driver/joint_states|name|J1,J2,J3,J4,J5,J6|pos|-0.006434,-1.268785,1.294497,-0.009226,-1.337103,-0.000083|vel|0.000000,-0.000000,0.000000,0.000000,0.000000,0.000000|eff|0.000000,0.000000,0.000000,0.000000,0.000000,0.000000
cobot_dynamixel_driver/joint_states|name|J1,J2,J3,J4,J5,J6|pos|-0.006434,-1.268785,1.294497,-0.009226,-1.337103,-0.000083|vel|0.000000,-0.000000,0.000000,0.000000,0.000000,0.000000|eff|0.000000,0.000000,0.000000,0.000000,0.000000,0.000000
cobot_dynamixel_driver/joint_states|name|J1,J2,J3,J4,J5,J6|pos|-0.006434,-1.268785,1.294497,-0.009226,-1.337103,-0.000083|vel|0.000000,-0.000000,0.000000,0.000000,0.000000,0.000000|eff|0.000000,0.000000,0.000000,0.000000,0.000000,0.000000
cobot_dynamixel_driver/joint_states|name|J1,J2,J3,J4,J5,J6|pos|-0.006434,-1.268785,1.294497,-0.009226,-1.337103,-0.000083|vel|0.000000,-0.000000,0.000000,0.000000,0.000000,0.000000|eff|0.000000,0.000000,0.000000,0.000000,0.000000,0.000000
cobot_dynamixel_driver/joint_states|name|J1,J2,J3,J4,J5,J6|pos|-0.006434,-1.268785,1.294497,-0.009226,-1.337103,-0.000083|vel|0.000000,-0.000000,0.000000,0.000000,0.000000,0.000000|eff|0.000000,0.000000,0.000000,0.000000,0.000000,0.000000
cobot_dynamixel_driver/joint_states|name|J1,J2,J3,J4,J5,J6|pos|-0.006434,-1.268785,1.294497,-0.009226,-1.337103,-0.000083|vel|0.000000,-0.000000,0.000000,0.000000,0.000000,0.000000|eff|0.000000,0.000000,0.000000,0.000000,0.000000,0.000000
cobot_dynamixel_driver/joint_states|name|J1,J2,J3,J4,J5,J6|pos|-0.006434,-1.268785,1.294497,-0.009226,-1.337103,-0.000083|vel|0.000000,-0.000000,0.000000,0.000000,0.000000,0.000000|eff|0.000000,0.000000,0.000000,0.000000,0.000000,0.000000
cobot_dynamixel_driver/joint_states|name|J1,J2,J3,J4,J5,J6|pos|-0.006434,-1.268785,1.294497,-0.009226,-1.337103,-0.000083|vel|0.000000,-0.000000,0.000000,0.000000,0.000000,0.000000|eff|0.000000,0.000000,0.000000,0.000000,0.000000,0.000000
cobot_dynamixel_driver/joint_states|name|J1,J2,J3,J4,J5,J6|pos|-0.006434,-1.268785,1.294497,-0.009226,-1.337103,-0.000083|vel|0.000000,-0.000000,0.000000,0.000000,0.000000,0.000000|eff|0.000000,0.000000,0.000000,0.000000,0.000000,0.000000
cobot_dynamixel_driver/joint_states|name|J1,J2,J3,J4,J5,J6|pos|-0.006434,-1.268785,1.294497,-0.009226,-1.337103,-0.000083|vel|0.000000,-0.000000,0.000000,0.000000,0.000000,0.000000|eff|0.000000,0.000000,0.000000,0.000000,0.000000,0.000000
cobot_dynamixel_driver/joint_states|name|J1,J2,J3,J4,J5,J6|pos|-0.006434,-1.268785,1.294497,-0.009226,-1.337103,-0.000083|vel|0.000000,-0.000000,0.000000,0.000000,0.000000,0.000000|eff|0.000000,0.000000,0.000000,0.000000,0.000000,0.000000
cobot_dynamixel_driver/joint_states|name|J1,J2,J3,J4,J5,J6|pos|-0.006434,-1.268785,1.294497,-0.009226,-1.337103,-0.000083|vel|0.000000,-0.000000,0.000000,0.000000,0.000000,0.000000|eff|0.000000,0.000000,0.000000,0.000000,0.000000,0.000000
cobot_dynamixel_driver/joint_states|name|J1,J2,J3,J4,J5,J6|pos|-0.006434,-1.268785,1.294497,-0.009226,-1.337103,-0.000083|vel|0.000000,-0.000000,0.000000,0.000000,0.000000,0.000000|eff|0.000000,0.000000,0.000000,0.000000,0.000000,0.000000
cobot_dynamixel_driver/joint_states|name|J1,J2,J3,J4,J5,J6|pos|-0.006434,-1.268785,1.294497,-0.009226,-1.337103,-0.000083|vel|0.000000,-0.000000,0.000000,0.000000,0.000000,0.000000|eff|0.000000,0.000000,0.000000,0.000000,0.000000,0.000000
cobot_dynamixel_driver/joint_states|name|J1,J2,J3,J4,J5,J6|pos|-0.006434,-1.268785,1.294497,-0.009226,-1.337103,-0.000083|vel|0.000000,-0.000000,0.000000,0.000000,0.000000,0.000000|eff|0.000000,0.000000,0.000000,0.000000,0.000000,0.000000
cobot_dynamixel_driver/joint_states|name|J1,J2,J3,J4,J5,J6|pos|-0.006434,-1.268785,1.294497,-0.009226,-1.337103,-0.000083|vel|0.000000,-0.000000,0.000000,0.000000,0.000000,0.000000|eff|0.000000,0.000000,0.000000,0.000000,0.000000,0.000000
cobot_dynamixel_driver/joint_states|name|J1,J2,J3,J4,J5,J6|pos|-0.006434,-1.268785,1.294497,-0.009226,-1.337103,-0.000083|vel|0.000000,-0.000000,0.000000,0.000000,0.000000,0.000000|eff|0.000000,0.000000,0.000000,0.000000,0.000000,0.000000
cobot_dynamixel_driver/joint_states|name|J1,J2,J3,J4,J5,J6|pos|-0.006434,-1.268785,1.294497,-0.009226,-1.337103,-0.000083|vel|0.000000,-0.000000,0.000000,0.000000,0.000000,0.000000|eff|0.000000,0.000000,0.000000,0.000000,0.000000,0.000000
cobot_dynamixel_driver/joint_states|name|J1,J2,J3,J4,J5,J6|pos|-0.006434,-1.268785,1.294497,-0.009226,-1.337103,-0.000083|vel|0.000000,-0.000000,0.000000,0.000000,0.000000,0.000000|eff|0.000000,0.000000,0.000000,0.000000,0.000000,0.000000
cobot_dynamixel_driver/joint_states|name|J1,J2,J3,J4,J5,J6|pos|-0.006434,-1.268785,1.294497,-0.009226,-1.337103,-0.000083|vel|0.000000,-0.000000,0.000000,0.000000,0.000000,0.000000|eff|0.000000,0.000000,0.000000,0.000000,0.000000,0.000000
cobot_dynamixel_driver/joint_states|name|J1,J2,J3,J4,J5,J6|pos|-0.006434,-1.268785,1.294497,-0.009226,-1.337103,-0.000083|vel|0.000000,-0.000000,0.000000,0.000000,0.000000,0.000000|eff|0.000000,0.000000,0.000000,0.000000,0.000000,0.000000
cobot_dynamixel_driver/joint_states|name|J1,J2,J3,J4,J5,J6|pos|-0.006434,-1.268785,1.294497,-0.009226,-1.337103,-0.000083|vel|0.000000,-0.000000,0.000000,0.000000,0.000000,0.000000|eff|0.000000,0.000000,0.000000,0.000000,0.000000,0.000000
cobot_dynamixel_driver/joint_states|name|J1,J2,J3,J4,J5,J6|pos|-0.006434,-1.268785,1.294497,-0.009226,-1.337103,-0.000083|vel|0.000000,-0.000000,0.000000,0.000000,0.000000,0.000000|eff|0.000000,0.000000,0.000000,0.000000,0.000000,0.000000
cobot_dynamixel_driver/joint_states|name|J1,J2,J3,J4,J5,J6|pos|-0.006434,-1.268785,1.294497,-0.009226,-1.337103,-0.000083|vel|0.000000,-0.000000,0.000000,0.000000,0.000000,0.000000|eff|0.000000,0.000000,0.000000,0.000000,0.000000,0.000000
cobot_dynamixel_driver/joint_states|name|J1,J2,J3,J4,J5,J6|pos|-0.006434,-1.268785,1.294497,-0.009226,-1.337103,-0.000083|vel|0.000000,-0.000000,0.000000,0.000000,0.000000,0.000000|eff|0.000000,0.000000,0.000000,0.000000,0.000000,0.000000
cobot_dynamixel_driver/joint_states|name|J1,J2,J3,J4,J5,J6|pos|-0.006434,-1.268785,1.294497,-0.009226,-1.337103,-0.000083|vel|0.000000,-0.000000,0.000000,0.000000,0.000000,0.000000|eff|0.000000,0.000000,0.000000,0.000000,0.000000,0.000000
cobot_dynamixel_driver/joint_states|name|J1,J2,J3,J4,J5,J6|pos|-0.006434,-1.268785,1.294497,-0.009226,-1.337103,-0.000083|vel|0.000000,-0.000000,0.000000,0.000000,0.000000,0.000000|eff|0.000000,0.000000,0.000000,0.000000,0.000000,0.000000
cobot_dynamixel_driver/joint_states|name|J1,J2,J3,J4,J5,J6|pos|-0.006434,-1.268785,1.294497,-0.009226,-1.337103,-0.000083|vel|0.000000,-0.000000,0.000000,0.000000,0.000000,0.000000|eff|0.000000,0.000000,0.000000,0.000000,0.000000,0.000000
cobot_dynamixel_driver/joint_states|name|J1,J2,J3,J4,J5,J6|pos|-0.006434,-1.268785,1.294497,-0.009226,-1.337103,-0.000083|vel|0.000000,-0.000000,0.000000,0.000000,0.000000,0.000000|eff|0.000000,0.000000,0.000000,0.000000,0.000000,0.000000
cobot_dynamixel_driver/joint_states|name|J1,J2,J3,J4,J5,J6|pos|-0.006434,-1.268785,1.294497,-0.009226,-1.337103,-0.000083|vel|0.000000,-0.000000,0.000000,0.000000,0.000000,0.000000|eff|0.000000,0.000000,0.000000,0.000000,0.000000,0.000000
cobot_dynamixel_driver/joint_states|name|J1,J2,J3,J4,J5,J6|pos|-0.006434,-1.268785,1.294497,-0.009226,-1.337103,-0.000083|vel|0.000000,-0.000000,0.000000,0.000000,0.000000,0.000000|eff|0.000000,0.000000,0.000000,0.000000,0.000000,0.000000
cobot_dynamixel_driver/joint_states|name|J1,J2,J3,J4,J5,J6|pos|-0.006434,-1.268785,1.294497,-0.009226,-1.337103,-0.000083|vel|0.000000,-0.000000,0.000000,0.000000,0.000000,0.000000|eff|0.000000,0.000000,0.000000,0.000000,0.000000,0.000000
cobot_dynamixel_driver/joint_states|name|J1,J2,J3,J4,J5,J6|pos|-0.006434,-1.268785,1.294497,-0.009226,-1.337103,-0.000083|vel|0.000000,-0.000000,0.000000,0.000000,0.000000,0.000000|eff|0.000000,0.000000,0.000000,0.000000,0.000000,0.000000
cobot_dynamixel_driver/joint_states|name|J1,J2,J3,J4,J5,J6|pos|-0.006434,-1.268785,1.294497,-0.009226,-1.337103,-0.000083|vel|0.000000,-0.000000,0.000000,0.000000,0.000000,0.000000|eff|0.000000,0.000000,0.000000,0.000000,0.000000,0.000000
cobot_dynamixel_driver/joint_states|name|J1,J2,J3,J4,J5,J6|pos|-0.006434,-1.268785,1.294497,-0.009226,-1.337103,-0.000083|vel|0.000000,-0.000000,0.000000,0.000000,0.000000,0.000000|eff|0.000000,0.000000,0.000000,0.000000,0.000000,0.000000
cobot_dynamixel_driver/joint_states|name|J1,J2,J3,J4,J5,J6|pos|-0.006434,-1.268785,1.294497,-0.009226,-1.337103,-0.000083|vel|0.000000,-0.000000,0.000000,0.000000,0.000000,0.000000|eff|0.000000,0.000000,0.000000,0.000000,0.000000,0.000000
cobot_dynamixel_driver/joint_states|name|J1,J2,J3,J4,J5,J6|pos|-0.006434,-1.268785,1.294497,-0.009226,-1.337103,-0.000083|vel|0.000000,-0.000000,0.000000,0.000000,0.000000,0.000000|eff|0.000000,0.000000,0.000000,0.000000,0.000000,0.000000
cobot_dynamixel_driver/joint_states|name|J1,J2,J3,J4,J5,J6|pos|-0.006434,-1.268785,1.294497,-0.009226,-1.337103,-0.000083|vel|0.000000,-0.000000,0.000000,0.000000,0.000000,0.000000|eff|0.000000,0.000000,0.000000,0.000000,0.000000,0.000000
cobot_dynamixel_driver/joint_states|name|J1,J2,J3,J4,J5,J6|pos|-0.006434,-1.268785,1.294497,-0.009226,-1.337103,-0.000083|vel|0.000000,-0.000000,0.000000,0.000000,0.000000,0.000000|eff|0.000000,0.000000,0.000000,0.000000,0.000000,0.000000
cobot_dynamixel_driver/joint_states|name|J1,J2,J3,J4,J5,J6|pos|-0.006434,-1.268785,1.294497,-0.009226,-1.337103,-0.000083|vel|0.000000,-0.000000,0.000000,0.000000,0.000000,0.000000|eff|0.000000,0.000000,0.000000,0.000000,0.000000,0.000000
cobot_dynamixel_driver/joint_states|name|J1,J2,J3,J4,J5,J6|pos|-0.006434,-1.268785,1.294497,-0.009226,-1.337103,-0.000083|vel|0.000000,-0.000000,0.000000,0.000000,0.000000,0.000000|eff|0.000000,0.000000,0.000000,0.000000,0.000000,0.000000
cobot_dynamixel_driver/joint_states|name|J1,J2,J3,J4,J5,J6|pos|-0.006434,-1.268785,1.294497,-0.009226,-1.337103,-0.000083|vel|0.000000,-0.000000,0.000000,0.000000,0.000000,0.000000|eff|0.000000,0.000000,0.000000,0.000000,0.000000,0.000000
cobot_dynamixel_driver/joint_states|name|J1,J2,J3,J4,J5,J6|pos|-0.006434,-1.268785,1.294497,-0.009226,-1.337103,-0.000083|vel|0.000000,-0.000000,0.000000,0.000000,0.000000,0.000000|eff|0.000000,0.000000,0.000000,0.000000,0.000000,0.000000
cobot_dynamixel_driver/joint_states|name|J1,J2,J3,J4,J5,J6|pos|-0.006434,-1.268785,1.294497,-0.009226,-1.337103,-0.000083|vel|0.000000,-0.000000,0.000000,0.000000,0.000000,0.000000|eff|0.000000,0.000000,0.000000,0.000000,0.000000,0.000000
cobot_dynamixel_driver/joint_states|name|J1,J2,J3,J4,J5,J6|pos|-0.006434,-1.268785,1.294497,-0.009226,-1.337103,-0.000083|vel|0.000000,-0.000000,0.000000,0.000000,0.000000,0.000000|eff|0.000000,0.000000,0.000000,0.000000,0.000000,0.000000
cobot_dynamixel_driver/joint_states|name|J1,J2,J3,J4,J5,J6|pos|-0.006434,-1.268785,1.294497,-0.009226,-1.337103,-0.000083|vel|0.000000,-0.000000,0.000000,0.000000,0.000000,0.000000|eff|0.000000,0.000000,0.000000,0.000000,0.000000,0.000000
cobot_dynamixel_driver/joint_states|name|J1,J2,J3,J4,J5,J6|pos|-0.006434,-1.268785,1.294497,-0.009226,-1.337103,-0.000083|vel|0.000000,-0.000000,0.000000,0.000000,0.000000,0.000000|eff|0.000000,0.000000,0.000000,0.000000,0.000000,0.000000
cobot_dynamixel_driver/joint_states|name|J1,J2,J3,J4,J5,J6|pos|-0.006434,-1.268785,1.294497,-0.009226,-1.337103,-0.000083|vel|0.000000,-0.000000,0.000000,0.000000,0.000000,0.000000|eff|0.000000,0.000000,0.000000,0.000000,0.000000,0.000000
cobot_dynamixel_driver/joint_states|name|J1,J2,J3,J4,J5,J6|pos|-0.006434,-1.268785,1.294497,-0.009226,-1.337103,-0.000083|vel|0.000000,-0.000000,0.000000,0.000000,0.000000,0.000000|eff|0.000000,0.000000,0.000000,0.000000,0.000000,0.000000
cobot_dynamixel_driver/joint_states|name|J1,J2,J3,J4,J5,J6|pos|-0.006434,-1.268785,1.294497,-0.009226,-1.337103,-0.000083|vel|0.000000,-0.000000,0.000000,0.000000,0.000000,0.000000|eff|0.000000,0.000000,0.000000,0.000000,0.000000,0.000000
cobot_dynamixel_driver/joint_states|name|J1,J2,J3,J4,J5,J6|pos|-0.006434,-1.268785,1.294497,-0.009226,-1.337103,-0.000083|vel|0.000000,-0.000000,0.000000,0.000000,0.000000,0.000000|eff|0.000000,0.000000,0.000000,0.000000,0.000000,0.000000
cobot_dynamixel_driver/joint_states|name|J1,J2,J3,J4,J5,J6|pos|-0.006434,-1.268785,1.294497,-0.009226,-1.337103,-0.000083|vel|0.000000,-0.000000,0.000000,0.000000,0.000000,0.000000|eff|0.000000,0.000000,0.000000,0.000000,0.000000,0.000000
cobot_dynamixel_driver/joint_states|name|J1,J2,J3,J4,J5,J6|pos|-0.006434,-1.268785,1.294497,-0.009226,-1.337103,-0.000083|vel|0.000000,-0.000000,0.000000,0.000000,0.000000,0.000000|eff|0.000000,0.000000,0.000000,0.000000,0.000000,0.000000
cobot_dynamixel_driver/joint_states|name|J1,J2,J3,J4,J5,J6|pos|-0.006434,-1.268785,1.294497,-0.009226,-1.337103,-0.000083|vel|0.000000,-0.000000,0.000000,0.000000,0.000000,0.000000|eff|0.000000,0.000000,0.000000,0.000000,0.000000,0.000000
cobot_dynamixel_driver/joint_states|name|J1,J2,J3,J4,J5,J6|pos|-0.006434,-1.268785,1.294497,-0.009226,-1.337103,-0.000083|vel|0.000000,-0.000000,0.000000,0.000000,0.000000,0.000000|eff|0.000000,0.000000,0.000000,0.000000,0.000000,0.000000
cobot_dynamixel_driver/joint_states|name|J1,J2,J3,J4,J5,J6|pos|-0.006434,-1.268785,1.294497,-0.009226,-1.337103,-0.000083|vel|0.000000,-0.000000,0.000000,0.000000,0.000000,0.000000|eff|0.000000,0.000000,0.000000,0.000000,0.000000,0.000000
cobot_dynamixel_driver/joint_states|name|J1,J2,J3,J4,J5,J6|pos|-0.006434,-1.268785,1.294497,-0.009226,-1.337103,-0.000083|vel|0.000000,-0.000000,0.000000,0.000000,0.000000,0.000000|eff|0.000000,0.000000,0.000000,0.000000,0.000000,0.000000
cobot_dynamixel_driver/joint_states|name|J1,J2,J3,J4,J5,J6|pos|-0.006434,-1.268785,1.294497,-0.009226,-1.337103,-0.000083|vel|0.000000,-0.000000,0.000000,0.000000,0.000000,0.000000|eff|0.000000,0.000000,0.000000,0.000000,0.000000,0.000000
cobot_dynamixel_driver/joint_states|name|J1,J2,J3,J4,J5,J6|pos|-0.006434,-1.268785,1.294497,-0.009226,-1.337103,-0.000083|vel|0.000000,-0.000000,0.000000,0.000000,0.000000,0.000000|eff|0.000000,0.000000,0.000000,0.000000,0.000000,0.000000
cobot_dynamixel_driver/joint_states|name|J1,J2,J3,J4,J5,J6|pos|-0.006434,-1.268785,1.294497,-0.009226,-1.337103,-0.000083|vel|0.000000,-0.000000,0.000000,0.000000,0.000000,0.000000|eff|0.000000,0.000000,0.000000,0.000000,0.000000,0.000000
cobot_dynamixel_driver/joint_states|name|J1,J2,J3,J4,J5,J6|pos|-0.006434,-1.268785,1.294497,-0.009226,-1.337103,-0.000083|vel|0.000000,-0.000000,0.000000,0.000000,0.000000,0.000000|eff|0.000000,0.000000,0.000000,0.000000,0.000000,0.000000
cobot_dynamixel_driver/joint_states|name|J1,J2,J3,J4,J5,J6|pos|-0.006434,-1.268785,1.294497,-0.009226,-1.337103,-0.000083|vel|0.000000,-0.000000,0.000000,0.000000,0.000000,0.000000|eff|0.000000,0.000000,0.000000,0.000000,0.000000,0.000000
cobot_dynamixel_driver/joint_states|name|J1,J2,J3,J4,J5,J6|pos|-0.006434,-1.268785,1.294497,-0.009226,-1.337103,-0.000083|vel|0.000000,-0.000000,0.000000,0.000000,0.000000,0.000000|eff|0.000000,0.000000,0.000000,0.000000,0.000000,0.000000
cobot_dynamixel_driver/joint_states|name|J1,J2,J3,J4,J5,J6|pos|-0.006434,-1.268785,1.294497,-0.009226,-1.337103,-0.000083|vel|0.000000,-0.000000,0.000000,0.000000,0.000000,0.000000|eff|0.000000,0.000000,0.000000,0.000000,0.000000,0.000000
cobot_dynamixel_driver/joint_states|name|J1,J2,J3,J4,J5,J6|pos|-0.006434,-1.268785,1.294497,-0.009226,-1.337103,-0.000083|vel|0.000000,-0.000000,0.000000,0.000000,0.000000,0.000000|eff|0.000000,0.000000,0.000000,0.000000,0.000000,0.000000
cobot_dynamixel_driver/joint_states|name|J1,J2,J3,J4,J5,J6|pos|-0.006434,-1.268785,1.294497,-0.009226,-1.337103,-0.000083|vel|0.000000,-0.000000,0.000000,0.000000,0.000000,0.000000|eff|0.000000,0.000000,0.000000,0.000000,0.000000,0.000000
cobot_dynamixel_driver/joint_states|name|J1,J2,J3,J4,J5,J6|pos|-0.006434,-1.268785,1.294497,-0.009226,-1.337103,-0.000083|vel|0.000000,-0.000000,0.000000,0.000000,0.000000,0.000000|eff|0.000000,0.000000,0.000000,0.000000,0.000000,0.000000
cobot_dynamixel_driver/joint_states|name|J1,J2,J3,J4,J5,J6|pos|-0.006434,-1.268785,1.294497,-0.009226,-1.337103,-0.000083|vel|0.000000,-0.000000,0.000000,0.000000,0.000000,0.000000|eff|0.000000,0.000000,0.000000,0.000000,0.000000,0.000000
cobot_dynamixel_driver/joint_states|name|J1,J2,J3,J4,J5,J6|pos|-0.006434,-1.268785,1.294497,-0.009226,-1.337103,-0.000083|vel|0.000000,-0.000000,0.000000,0.000000,0.000000,0.000000|eff|0.000000,0.000000,0.000000,0.000000,0.000000,0.000000
cobot_dynamixel_driver/joint_states|name|J1,J2,J3,J4,J5,J6|pos|-0.006434,-1.268785,1.294497,-0.009226,-1.337103,-0.000083|vel|0.000000,-0.000000,0.000000,0.000000,0.000000,0.000000|eff|0.000000,0.000000,0.000000,0.000000,0.000000,0.000000
cobot_dynamixel_driver/joint_states|name|J1,J2,J3,J4,J5,J6|pos|-0.006434,-1.268785,1.294497,-0.009226,-1.337103,-0.000083|vel|0.000000,-0.000000,0.000000,0.000000,0.000000,0.000000|eff|0.000000,0.000000,0.000000,0.000000,0.000000,0.000000
cobot_dynamixel_driver/joint_states|name|J1,J2,J3,J4,J5,J6|pos|-0.006434,-1.268785,1.294497,-0.009226,-1.337103,-0.000083|vel|0.000000,-0.000000,0.000000,0.000000,0.000000,0.000000|eff|0.000000,0.000000,0.000000,0.000000,0.000000,0.000000
cobot_dynamixel_driver/joint_states|name|J1,J2,J3,J4,J5,J6|pos|-0.006434,-1.268785,1.294497,-0.009226,-1.337103,-0.000083|vel|0.000000,-0.000000,0.000000,0.000000,0.000000,0.000000|eff|0.000000,0.000000,0.000000,0.000000,0.000000,0.000000
cobot_dynamixel_driver/joint_states|name|J1,J2,J3,J4,J5,J6|pos|-0.006434,-1.268785,1.294497,-0.009226,-1.337103,-0.000083|vel|0.000000,-0.000000,0.000000,0.000000,0.000000,0.000000|eff|0.000000,0.000000,0.000000,0.000000,0.000000,0.000000
cobot_dynamixel_driver/joint_states|name|J1,J2,J3,J4,J5,J6|pos|-0.006434,-1.268785,1.294497,-0.009226,-1.337103,-0.000083|vel|0.000000,-0.000000,0.000000,0.000000,0.000000,0.000000|eff|0.000000,0.000000,0.000000,0.000000,0.000000,0.000000
cobot_dynamixel_driver/joint_states|name|J1,J2,J3,J4,J5,J6|pos|-0.006434,-1.268785,1.294497,-0.009226,-1.337103,-0.000083|vel|0.000000,-0.000000,0.000000,0.000000,0.000000,0.000000|eff|0.000000,0.000000,0.000000,0.000000,0.000000,0.000000
cobot_dynamixel_driver/joint_states|name|J1,J2,J3,J4,J5,J6|pos|-0.006434,-1.268785,1.294497,-0.009226,-1.337103,-0.000083|vel|0.000000,-0.000000,0.000000,0.000000,0.000000,0.000000|eff|0.000000,0.000000,0.000000,0.000000,0.000000,0.000000
cobot_dynamixel_driver/joint_states|name|J1,J2,J3,J4,J5,J6|pos|-0.006434,-1.268785,1.294497,-0.009226,-1.337103,-0.000083|vel|0.000000,-0.000000,0.000000,0.000000,0.000000,0.000000|eff|0.000000,0.000000,0.000000,0.000000,0.000000,0.000000
cobot_dynamixel_driver/joint_states|name|J1,J2,J3,J4,J5,J6|pos|-0.006434,-1.268785,1.294497,-0.009226,-1.337103,-0.000083|vel|0.000000,-0.000000,0.000000,0.000000,0.000000,0.000000|eff|0.000000,0.000000,0.000000,0.000000,0.000000,0.000000
cobot_dynamixel_driver/joint_states|name|J1,J2,J3,J4,J5,J6|pos|-0.006434,-1.268785,1.294497,-0.009226,-1.337103,-0.000083|vel|0.000000,-0.000000,0.000000,0.000000,0.000000,0.000000|eff|0.000000,0.000000,0.000000,0.000000,0.000000,0.000000
cobot_dynamixel_driver/joint_states|name|J1,J2,J3,J4,J5,J6|pos|-0.006434,-1.268785,1.294497,-0.009226,-1.337103,-0.000083|vel|0.000000,-0.000000,0.000000,0.000000,0.000000,0.000000|eff|0.000000,0.000000,0.000000,0.000000,0.000000,0.000000
cobot_dynamixel_driver/joint_states|name|J1,J2,J3,J4,J5,J6|pos|-0.006434,-1.268785,1.294497,-0.009226,-1.337103,-0.000083|vel|0.000000,-0.000000,0.000000,0.000000,0.000000,0.000000|eff|0.000000,0.000000,0.000000,0.000000,0.000000,0.000000
cobot_dynamixel_driver/joint_states|name|J1,J2,J3,J4,J5,J6|pos|-0.006434,-1.268785,1.294497,-0.009226,-1.337103,-0.000083|vel|0.000000,-0.000000,0.000000,0.000000,0.000000,0.000000|eff|0.000000,0.000000,0.000000,0.000000,0.000000,0.000000
cobot_dynamixel_driver/joint_states|name|J1,J2,J3,J4,J5,J6|pos|-0.006434,-1.268785,1.294497,-0.009226,-1.337103,-0.000083|vel|0.000000,-0.000000,0.000000,0.000000,0.000000,0.000000|eff|0.000000,0.000000,0.000000,0.000000,0.000000,0.000000
cobot_dynamixel_driver/joint_states|name|J1,J2,J3,J4,J5,J6|pos|-0.006434,-1.268785,1.294497,-0.009226,-1.337103,-0.000083|vel|0.000000,-0.000000,0.000000,0.000000,0.000000,0.000000|eff|0.000000,0.000000,0.000000,0.000000,0.000000,0.000000
cobot_dynamixel_driver/joint_states|name|J1,J2,J3,J4,J5,J6|pos|-0.006434,-1.268785,1.294497,-0.009226,-1.337103,-0.000083|vel|0.000000,-0.000000,0.000000,0.000000,0.000000,0.000000|eff|0.000000,0.000000,0.000000,0.000000,0.000000,0.000000
cobot_dynamixel_driver/joint_states|name|J1,J2,J3,J4,J5,J6|pos|-0.006434,-1.268785,1.294497,-0.009226,-1.337103,-0.000083|vel|0.000000,-0.000000,0.000000,0.000000,0.000000,0.000000|eff|0.000000,0.000000,0.000000,0.000000,0.000000,0.000000
cobot_dynamixel_driver/joint_states|name|J1,J2,J3,J4,J5,J6|pos|-0.006434,-1.268785,1.294497,-0.009226,-1.337103,-0.000083|vel|0.000000,-0.000000,0.000000,0.000000,0.000000,0.000000|eff|0.000000,0.000000,0.000000,0.000000,0.000000,0.000000
cobot_dynamixel_driver/joint_states|name|J1,J2,J3,J4,J5,J6|pos|-0.006434,-1.268785,1.294497,-0.009226,-1.337103,-0.000083|vel|0.000000,-0.000000,0.000000,0.000000,0.000000,0.000000|eff|0.000000,0.000000,0.000000,0.000000,0.000000,0.000000
cobot_dynamixel_driver/joint_states|name|J1,J2,J3,J4,J5,J6|pos|-0.006434,-1.268785,1.294497,-0.009226,-1.337103,-0.000083|vel|0.000000,-0.000000,0.000000,0.000000,0.000000,0.000000|eff|0.000000,0.000000,0.000000,0.000000,0.000000,0.000000
cobot_dynamixel_driver/joint_states|name|J1,J2,J3,J4,J5,J6|pos|-0.006434,-1.268785,1.294497,-0.009226,-1.337103,-0.000083|vel|0.000000,-0.000000,0.000000,0.000000,0.000000,0.000000|eff|0.000000,0.000000,0.000000,0.000000,0.000000,0.000000
cobot_dynamixel_driver/joint_states|name|J1,J2,J3,J4,J5,J6|pos|-0.006434,-1.268785,1.294497,-0.009226,-1.337103,-0.000083|vel|0.000000,-0.000000,0.000000,0.000000,0.000000,0.000000|eff|0.000000,0.000000,0.000000,0.000000,0.000000,0.000000
cobot_dynamixel_driver/joint_states|name|J1,J2,J3,J4,J5,J6|pos|-0.006434,-1.268785,1.294497,-0.009226,-1.337103,-0.000083|vel|0.000000,-0.000000,0.000000,0.000000,0.000000,0.000000|eff|0.000000,0.000000,0.000000,0.000000,0.000000,0.000000
cobot_dynamixel_driver/joint_states|name|J1,J2,J3,J4,J5,J6|pos|-0.006434,-1.268785,1.294497,-0.009226,-1.337103,-0.000083|vel|0.000000,-0.000000,0.000000,0.000000,0.000000,0.000000|eff|0.000000,0.000000,0.000000,0.000000,0.000000,0.000000
cobot_dynamixel_driver/joint_states|name|J1,J2,J3,J4,J5,J6|pos|-0.006434,-1.268785,1.294497,-0.009226,-1.337103,-0.000083|vel|0.000000,-0.000000,0.000000,0.000000,0.000000,0.000000|eff|0.000000,0.000000,0.000000,0.000000,0.000000,0.000000
cobot_dynamixel_driver/joint_states|name|J1,J2,J3,J4,J5,J6|pos|-0.006434,-1.268785,1.294497,-0.009226,-1.337103,-0.000083|vel|0.000000,-0.000000,0.000000,0.000000,0.000000,0.000000|eff|0.000000,0.000000,0.000000,0.000000,0.000000,0.000000
cobot_dynamixel_driver/joint_states|name|J1,J2,J3,J4,J5,J6|pos|-0.006434,-1.268785,1.294497,-0.009226,-1.337103,-0.000083|vel|0.000000,-0.000000,0.000000,0.000000,0.000000,0.000000|eff|0.000000,0.000000,0.000000,0.000000,0.000000,0.000000
cobot_dynamixel_driver/joint_states|name|J1,J2,J3,J4,J5,J6|pos|-0.006434,-1.268785,1.294497,-0.009226,-1.337103,-0.000083|vel|0.000000,-0.000000,0.000000,0.000000,0.000000,0.000000|eff|0.000000,0.000000,0.000000,0.000000,0.000000,0.000000
cobot_dynamixel_driver/joint_states|name|J1,J2,J3,J4,J5,J6|pos|-0.006434,-1.268785,1.294497,-0.009226,-1.337103,-0.000083|vel|0.000000,-0.000000,0.000000,0.000000,0.000000,0.000000|eff|0.000000,0.000000,0.000000,0.000000,0.000000,0.000000
cobot_dynamixel_driver/joint_states|name|J1,J2,J3,J4,J5,J6|pos|-0.006434,-1.268785,1.294497,-0.009226,-1.337103,-0.000083|vel|0.000000,-0.000000,0.000000,0.000000,0.000000,0.000000|eff|0.000000,0.000000,0.000000,0.000000,0.000000,0.000000
cobot_dynamixel_driver/joint_states|name|J1,J2,J3,J4,J5,J6|pos|-0.006434,-1.268785,1.294497,-0.009226,-1.337103,-0.000083|vel|0.000000,-0.000000,0.000000,0.000000,0.000000,0.000000|eff|0.000000,0.000000,0.000000,0.000000,0.000000,0.000000
cobot_dynamixel_driver/joint_states|name|J1,J2,J3,J4,J5,J6|pos|-0.006434,-1.268785,1.294497,-0.009226,-1.337103,-0.000083|vel|0.000000,-0.000000,0.000000,0.000000,0.000000,0.000000|eff|0.000000,0.000000,0.000000,0.000000,0.000000,0.000000
cobot_dynamixel_driver/joint_states|name|J1,J2,J3,J4,J5,J6|pos|-0.006434,-1.268785,1.294497,-0.009226,-1.337103,-0.000083|vel|0.000000,-0.000000,0.000000,0.000000,0.000000,0.000000|eff|0.000000,0.000000,0.000000,0.000000,0.000000,0.000000
cobot_dynamixel_driver/joint_states|name|J1,J2,J3,J4,J5,J6|pos|-0.006434,-1.268785,1.294497,-0.009226,-1.337103,-0.000083|vel|0.000000,-0.000000,0.000000,0.000000,0.000000,0.000000|eff|0.000000,0.000000,0.000000,0.000000,0.000000,0.000000
cobot_dynamixel_driver/joint_states|name|J1,J2,J3,J4,J5,J6|pos|-0.006434,-1.268785,1.294497,-0.009226,-1.337103,-0.000083|vel|0.000000,-0.000000,0.000000,0.000000,0.000000,0.000000|eff|0.000000,0.000000,0.000000,0.000000,0.000000,0.000000
cobot_dynamixel_driver/joint_states|name|J1,J2,J3,J4,J5,J6|pos|-0.006434,-1.268785,1.294497,-0.009226,-1.337103,-0.000083|vel|0.000000,-0.000000,0.000000,0.000000,0.000000,0.000000|eff|0.000000,0.000000,0.000000,0.000000,0.000000,0.000000
cobot_dynamixel_driver/joint_states|name|J1,J2,J3,J4,J5,J6|pos|-0.006434,-1.268785,1.294497,-0.009226,-1.337103,-0.000083|vel|0.000000,-0.000000,0.000000,0.000000,0.000000,0.000000|eff|0.000000,0.000000,0.000000,0.000000,0.000000,0.000000
cobot_dynamixel_driver/joint_states|name|J1,J2,J3,J4,J5,J6|pos|-0.006434,-1.268785,1.294497,-0.009226,-1.337103,-0.000083|vel|0.000000,-0.000000,0.000000,0.000000,0.000000,0.000000|eff|0.000000,0.000000,0.000000,0.000000,0.000000,0.000000
cobot_dynamixel_driver/joint_states|name|J1,J2,J3,J4,J5,J6|pos|-0.006434,-1.268785,1.294497,-0.009226,-1.337103,-0.000083|vel|0.000000,-0.000000,0.000000,0.000000,0.000000,0.000000|eff|0.000000,0.000000,0.000000,0.000000,0.000000,0.000000
cobot_dynamixel_driver/joint_states|name|J1,J2,J3,J4,J5,J6|pos|-0.006434,-1.268785,1.294497,-0.009226,-1.337103,-0.000083|vel|0.000000,-0.000000,0.000000,0.000000,0.000000,0.000000|eff|0.000000,0.000000,0.000000,0.000000,0.000000,0.000000
cobot_dynamixel_driver/joint_states|name|J1,J2,J3,J4,J5,J6|pos|-0.006434,-1.268785,1.294497,-0.009226,-1.337103,-0.000083|vel|0.000000,-0.000000,0.000000,0.000000,0.000000,0.000000|eff|0.000000,0.000000,0.000000,0.000000,0.000000,0.000000
cobot_dynamixel_driver/joint_states|name|J1,J2,J3,J4,J5,J6|pos|-0.006434,-1.268785,1.294497,-0.009226,-1.337103,-0.000083|vel|0.000000,-0.000000,0.000000,0.000000,0.000000,0.000000|eff|0.000000,0.000000,0.000000,0.000000,0.000000,0.000000
cobot_dynamixel_driver/joint_states|name|J1,J2,J3,J4,J5,J6|pos|-0.006434,-1.268785,1.294497,-0.009226,-1.337103,-0.000083|vel|0.000000,-0.000000,0.000000,0.000000,0.000000,0.000000|eff|0.000000,0.000000,0.000000,0.000000,0.000000,0.000000
cobot_dynamixel_driver/joint_states|name|J1,J2,J3,J4,J5,J6|pos|-0.006434,-1.268785,1.294497,-0.009226,-1.337103,-0.000083|vel|0.000000,-0.000000,0.000000,0.000000,0.000000,0.000000|eff|0.000000,0.000000,0.000000,0.000000,0.000000,0.000000
cobot_dynamixel_driver/joint_states|name|J1,J2,J3,J4,J5,J6|pos|-0.006434,-1.268785,1.294497,-0.009226,-1.337103,-0.000083|vel|0.000000,-0.000000,0.000000,0.000000,0.000000,0.000000|eff|0.000000,0.000000,0.000000,0.000000,0.000000,0.000000
cobot_dynamixel_driver/joint_states|name|J1,J2,J3,J4,J5,J6|pos|-0.006434,-1.268785,1.294497,-0.009226,-1.337103,-0.000083|vel|0.000000,-0.000000,0.000000,0.000000,0.000000,0.000000|eff|0.000000,0.000000,0.000000,0.000000,0.000000,0.000000
cobot_dynamixel_driver/joint_states|name|J1,J2,J3,J4,J5,J6|pos|-0.006434,-1.268785,1.294497,-0.009226,-1.337103,-0.000083|vel|0.000000,-0.000000,0.000000,0.000000,0.000000,0.000000|eff|0.000000,0.000000,0.000000,0.000000,0.000000,0.000000
cobot_dynamixel_driver/joint_states|name|J1,J2,J3,J4,J5,J6|pos|-0.006434,-1.268785,1.294497,-0.009226,-1.337103,-0.000083|vel|0.000000,-0.000000,0.000000,0.000000,0.000000,0.000000|eff|0.000000,0.000000,0.000000,0.000000,0.000000,0.000000
cobot_dynamixel_driver/joint_states|name|J1,J2,J3,J4,J5,J6|pos|-0.006434,-1.268785,1.294497,-0.009226,-1.337103,-0.000083|vel|0.000000,-0.000000,0.000000,0.000000,0.000000,0.000000|eff|0.000000,0.000000,0.000000,0.000000,0.000000,0.000000
cobot_dynamixel_driver/joint_states|name|J1,J2,J3,J4,J5,J6|pos|-0.006434,-1.268785,1.294497,-0.009226,-1.337103,-0.000083|vel|0.000000,-0.000000,0.000000,0.000000,0.000000,0.000000|eff|0.000000,0.000000,0.000000,0.000000,0.000000,0.000000
cobot_dynamixel_driver/joint_states|name|J1,J2,J3,J4,J5,J6|pos|-0.006434,-1.268785,1.294497,-0.009226,-1.337103,-0.000083|vel|0.000000,-0.000000,0.000000,0.000000,0.000000,0.000000|eff|0.000000,0.000000,0.000000,0.000000,0.000000,0.000000
cobot_dynamixel_driver/joint_states|name|J1,J2,J3,J4,J5,J6|pos|-0.006434,-1.268785,1.294497,-0.009226,-1.337103,-0.000083|vel|0.000000,-0.000000,0.000000,0.000000,0.000000,0.000000|eff|0.000000,0.000000,0.000000,0.000000,0.000000,0.000000
cobot_dynamixel_driver/joint_states|name|J1,J2,J3,J4,J5,J6|pos|-0.006434,-1.268785,1.294497,-0.009226,-1.337103,-0.000083|vel|0.000000,-0.000000,0.000000,0.000000,0.000000,0.000000|eff|0.000000,0.000000,0.000000,0.000000,0.000000,0.000000
cobot_dynamixel_driver/joint_states|name|J1,J2,J3,J4,J5,J6|pos|-0.006434,-1.268785,1.294497,-0.009226,-1.337103,-0.000083|vel|0.000000,-0.000000,0.000000,0.000000,0.000000,0.000000|eff|0.000000,0.000000,0.000000,0.000000,0.000000,0.000000
cobot_dynamixel_driver/joint_states|name|J1,J2,J3,J4,J5,J6|pos|-0.006434,-1.268785,1.294497,-0.009226,-1.337103,-0.000083|vel|0.000000,-0.000000,0.000000,0.000000,0.000000,0.000000|eff|0.000000,0.000000,0.000000,0.000000,0.000000,0.000000
cobot_dynamixel_driver/joint_states|name|J1,J2,J3,J4,J5,J6|pos|-0.006434,-1.268785,1.294497,-0.009226,-1.337103,-0.000083|vel|0.000000,-0.000000,0.000000,0.000000,0.000000,0.000000|eff|0.000000,0.000000,0.000000,0.000000,0.000000,0.000000
cobot_dynamixel_driver/joint_states|name|J1,J2,J3,J4,J5,J6|pos|-0.006434,-1.268785,1.294497,-0.009226,-1.337103,-0.000083|vel|0.000000,-0.000000,0.000000,0.000000,0.000000,0.000000|eff|0.000000,0.000000,0.000000,0.000000,0.000000,0.000000
cobot_dynamixel_driver/joint_states|name|J1,J2,J3,J4,J5,J6|pos|-0.006434,-1.268785,1.294497,-0.009226,-1.337103,-0.000083|vel|0.000000,-0.000000,0.000000,0.000000,0.000000,0.000000|eff|0.000000,0.000000,0.000000,0.000000,0.000000,0.000000
cobot_dynamixel_driver/joint_states|name|J1,J2,J3,J4,J5,J6|pos|-0.006434,-1.268785,1.294497,-0.009226,-1.337103,-0.000083|vel|0.000000,-0.000000,0.000000,0.000000,0.000000,0.000000|eff|0.000000,0.000000,0.000000,0.000000,0.000000,0.000000
cobot_dynamixel_driver/joint_states|name|J1,J2,J3,J4,J5,J6|pos|-0.006434,-1.268785,1.294497,-0.009226,-1.337103,-0.000083|vel|0.000000,-0.000000,0.000000,0.000000,0.000000,0.000000|eff|0.000000,0.000000,0.000000,0.000000,0.000000,0.000000
cobot_dynamixel_driver/joint_states|name|J1,J2,J3,J4,J5,J6|pos|-0.006434,-1.268785,1.294497,-0.009226,-1.337103,-0.000083|vel|0.000000,-0.000000,0.000000,0.000000,0.000000,0.000000|eff|0.000000,0.000000,0.000000,0.000000,0.000000,0.000000
cobot_dynamixel_driver/joint_states|name|J1,J2,J3,J4,J5,J6|pos|-0.006434,-1.268785,1.294497,-0.009226,-1.337103,-0.000083|vel|0.000000,-0.000000,0.000000,0.000000,0.000000,0.000000|eff|0.000000,0.000000,0.000000,0.000000,0.000000,0.000000
cobot_dynamixel_driver/joint_states|name|J1,J2,J3,J4,J5,J6|pos|-0.006434,-1.268785,1.294497,-0.009226,-1.337103,-0.000083|vel|0.000000,-0.000000,0.000000,0.000000,0.000000,0.000000|eff|0.000000,0.000000,0.000000,0.000000,0.000000,0.000000
cobot_dynamixel_driver/joint_states|name|J1,J2,J3,J4,J5,J6|pos|-0.006434,-1.268785,1.294497,-0.009226,-1.337103,-0.000083|vel|0.000000,-0.000000,0.000000,0.000000,0.000000,0.000000|eff|0.000000,0.000000,0.000000,0.000000,0.000000,0.000000
cobot_dynamixel_driver/joint_states|name|J1,J2,J3,J4,J5,J6|pos|-0.006434,-1.268785,1.294497,-0.009226,-1.337103,-0.000083|vel|0.000000,-0.000000,0.000000,0.000000,0.000000,0.000000|eff|0.000000,0.000000,0.000000,0.000000,0.000000,0.000000
cobot_dynamixel_driver/joint_states|name|J1,J2,J3,J4,J5,J6|pos|-0.006434,-1.268785,1.294497,-0.009226,-1.337103,-0.000083|vel|0.000000,-0.000000,0.000000,0.000000,0.000000,0.000000|eff|0.000000,0.000000,0.000000,0.000000,0.000000,0.000000
cobot_dynamixel_driver/joint_states|name|J1,J2,J3,J4,J5,J6|pos|-0.006434,-1.268785,1.294497,-0.009226,-1.337103,-0.000083|vel|0.000000,-0.000000,0.000000,0.000000,0.000000,0.000000|eff|0.000000,0.000000,0.000000,0.000000,0.000000,0.000000
cobot_dynamixel_driver/joint_states|name|J1,J2,J3,J4,J5,J6|pos|-0.006434,-1.268785,1.294497,-0.009226,-1.337103,-0.000083|vel|0.000000,-0.000000,0.000000,0.000000,0.000000,0.000000|eff|0.000000,0.000000,0.000000,0.000000,0.000000,0.000000
cobot_dynamixel_driver/joint_states|name|J1,J2,J3,J4,J5,J6|pos|-0.006434,-1.268785,1.294497,-0.009226,-1.337103,-0.000083|vel|0.000000,-0.000000,0.000000,0.000000,0.000000,0.000000|eff|0.000000,0.000000,0.000000,0.000000,0.000000,0.000000
cobot_dynamixel_driver/joint_states|name|J1,J2,J3,J4,J5,J6|pos|-0.006434,-1.268785,1.294497,-0.009226,-1.337103,-0.000083|vel|0.000000,-0.000000,0.000000,0.000000,0.000000,0.000000|eff|0.000000,0.000000,0.000000,0.000000,0.000000,0.000000
cobot_dynamixel_driver/joint_states|name|J1,J2,J3,J4,J5,J6|pos|-0.006434,-1.268785,1.294497,-0.009226,-1.337103,-0.000083|vel|0.000000,-0.000000,0.000000,0.000000,0.000000,0.000000|eff|0.000000,0.000000,0.000000,0.000000,0.000000,0.000000
cobot_dynamixel_driver/joint_states|name|J1,J2,J3,J4,J5,J6|pos|-0.006434,-1.268785,1.294497,-0.009226,-1.337103,-0.000083|vel|0.000000,-0.000000,0.000000,0.000000,0.000000,0.000000|eff|0.000000,0.000000,0.000000,0.000000,0.000000,0.000000
cobot_dynamixel_driver/joint_states|name|J1,J2,J3,J4,J5,J6|pos|-0.006434,-1.268785,1.294497,-0.009226,-1.337103,-0.000083|vel|0.000000,-0.000000,0.000000,0.000000,0.000000,0.000000|eff|0.000000,0.000000,0.000000,0.000000,0.000000,0.000000
cobot_dynamixel_driver/joint_states|name|J1,J2,J3,J4,J5,J6|pos|-0.006434,-1.268785,1.294497,-0.009226,-1.337103,-0.000083|vel|0.000000,-0.000000,0.000000,0.000000,0.000000,0.000000|eff|0.000000,0.000000,0.000000,0.000000,0.000000,0.000000
cobot_dynamixel_driver/joint_states|name|J1,J2,J3,J4,J5,J6|pos|-0.006434,-1.268785,1.294497,-0.009226,-1.337103,-0.000083|vel|0.000000,-0.000000,0.000000,0.000000,0.000000,0.000000|eff|0.000000,0.000000,0.000000,0.000000,0.000000,0.000000
cobot_dynamixel_driver/joint_states|name|J1,J2,J3,J4,J5,J6|pos|-0.006434,-1.268785,1.294497,-0.009226,-1.337103,-0.000083|vel|0.000000,-0.000000,0.000000,0.000000,0.000000,0.000000|eff|0.000000,0.000000,0.000000,0.000000,0.000000,0.000000
cobot_dynamixel_driver/joint_states|name|J1,J2,J3,J4,J5,J6|pos|-0.006434,-1.268785,1.294497,-0.009226,-1.337103,-0.000083|vel|0.000000,-0.000000,0.000000,0.000000,0.000000,0.000000|eff|0.000000,0.000000,0.000000,0.000000,0.000000,0.000000
cobot_dynamixel_driver/joint_states|name|J1,J2,J3,J4,J5,J6|pos|-0.006434,-1.268785,1.294497,-0.009226,-1.337103,-0.000083|vel|0.000000,-0.000000,0.000000,0.000000,0.000000,0.000000|eff|0.000000,0.000000,0.000000,0.000000,0.000000,0.000000
cobot_dynamixel_driver/joint_states|name|J1,J2,J3,J4,J5,J6|pos|-0.006434,-1.268785,1.294497,-0.009226,-1.337103,-0.000083|vel|0.000000,-0.000000,0.000000,0.000000,0.000000,0.000000|eff|0.000000,0.000000,0.000000,0.000000,0.000000,0.000000
cobot_dynamixel_driver/joint_states|name|J1,J2,J3,J4,J5,J6|pos|-0.006434,-1.268785,1.294497,-0.009226,-1.337103,-0.000083|vel|0.000000,-0.000000,0.000000,0.000000,0.000000,0.000000|eff|0.000000,0.000000,0.000000,0.000000,0.000000,0.000000
cobot_dynamixel_driver/joint_states|name|J1,J2,J3,J4,J5,J6|pos|-0.006434,-1.268785,1.294497,-0.009226,-1.337103,-0.000083|vel|0.000000,-0.000000,0.000000,0.000000,0.000000,0.000000|eff|0.000000,0.000000,0.000000,0.000000,0.000000,0.000000
cobot_dynamixel_driver/joint_states|name|J1,J2,J3,J4,J5,J6|pos|-0.006434,-1.268785,1.294497,-0.009226,-1.337103,-0.000083|vel|0.000000,-0.000000,0.000000,0.000000,0.000000,0.000000|eff|0.000000,0.000000,0.000000,0.000000,0.000000,0.000000
cobot_dynamixel_driver/joint_states|name|J1,J2,J3,J4,J5,J6|pos|-0.006434,-1.268785,1.294497,-0.009226,-1.337103,-0.000083|vel|0.000000,-0.000000,0.000000,0.000000,0.000000,0.000000|eff|0.000000,0.000000,0.000000,0.000000,0.000000,0.000000
cobot_dynamixel_driver/joint_states|name|J1,J2,J3,J4,J5,J6|pos|-0.006434,-1.268785,1.294497,-0.009226,-1.337103,-0.000083|vel|0.000000,-0.000000,0.000000,0.000000,0.000000,0.000000|eff|0.000000,0.000000,0.000000,0.000000,0.000000,0.000000
cobot_dynamixel_driver/joint_states|name|J1,J2,J3,J4,J5,J6|pos|-0.006434,-1.268785,1.294497,-0.009226,-1.337103,-0.000083|vel|0.000000,-0.000000,0.000000,0.000000,0.000000,0.000000|eff|0.000000,0.000000,0.000000,0.000000,0.000000,0.000000
cobot_dynamixel_driver/joint_states|name|J1,J2,J3,J4,J5,J6|pos|-0.006434,-1.268785,1.294497,-0.009226,-1.337103,-0.000083|vel|0.000000,-0.000000,0.000000,0.000000,0.000000,0.000000|eff|0.000000,0.000000,0.000000,0.000000,0.000000,0.000000
cobot_dynamixel_driver/joint_states|name|J1,J2,J3,J4,J5,J6|pos|-0.006434,-1.268785,1.294497,-0.009226,-1.337103,-0.000083|vel|0.000000,-0.000000,0.000000,0.000000,0.000000,0.000000|eff|0.000000,0.000000,0.000000,0.000000,0.000000,0.000000
cobot_dynamixel_driver/joint_states|name|J1,J2,J3,J4,J5,J6|pos|-0.006434,-1.268785,1.294497,-0.009226,-1.337103,-0.000083|vel|0.000000,-0.000000,0.000000,0.000000,0.000000,0.000000|eff|0.000000,0.000000,0.000000,0.000000,0.000000,0.000000
cobot_dynamixel_driver/joint_states|name|J1,J2,J3,J4,J5,J6|pos|-0.006434,-1.268785,1.294497,-0.009226,-1.337103,-0.000083|vel|0.000000,-0.000000,0.000000,0.000000,0.000000,0.000000|eff|0.000000,0.000000,0.000000,0.000000,0.000000,0.000000
cobot_dynamixel_driver/joint_states|name|J1,J2,J3,J4,J5,J6|pos|-0.006434,-1.268785,1.294497,-0.009226,-1.337103,-0.000083|vel|0.000000,-0.000000,0.000000,0.000000,0.000000,0.000000|eff|0.000000,0.000000,0.000000,0.000000,0.000000,0.000000
cobot_dynamixel_driver/joint_states|name|J1,J2,J3,J4,J5,J6|pos|-0.006434,-1.268785,1.294497,-0.009226,-1.337103,-0.000083|vel|0.000000,-0.000000,0.000000,0.000000,0.000000,0.000000|eff|0.000000,0.000000,0.000000,0.000000,0.000000,0.000000
cobot_dynamixel_driver/joint_states|name|J1,J2,J3,J4,J5,J6|pos|-0.006434,-1.268785,1.294497,-0.009226,-1.337103,-0.000083|vel|0.000000,-0.000000,0.000000,0.000000,0.000000,0.000000|eff|0.000000,0.000000,0.000000,0.000000,0.000000,0.000000
cobot_dynamixel_driver/joint_states|name|J1,J2,J3,J4,J5,J6|pos|-0.006434,-1.268785,1.294497,-0.009226,-1.337103,-0.000083|vel|0.000000,-0.000000,0.000000,0.000000,0.000000,0.000000|eff|0.000000,0.000000,0.000000,0.000000,0.000000,0.000000
cobot_dynamixel_driver/joint_states|name|J1,J2,J3,J4,J5,J6|pos|-0.006434,-1.268785,1.294497,-0.009226,-1.337103,-0.000083|vel|0.000000,-0.000000,0.000000,0.000000,0.000000,0.000000|eff|0.000000,0.000000,0.000000,0.000000,0.000000,0.000000
cobot_dynamixel_driver/joint_states|name|J1,J2,J3,J4,J5,J6|pos|-0.006434,-1.268785,1.294497,-0.009226,-1.337103,-0.000083|vel|0.000000,-0.000000,0.000000,0.000000,0.000000,0.000000|eff|0.000000,0.000000,0.000000,0.000000,0.000000,0.000000
cobot_dynamixel_driver/joint_states|name|J1,J2,J3,J4,J5,J6|pos|-0.006434,-1.268785,1.294497,-0.009226,-1.337103,-0.000083|vel|0.000000,-0.000000,0.000000,0.000000,0.000000,0.000000|eff|0.000000,0.000000,0.000000,0.000000,0.000000,0.000000
cobot_dynamixel_driver/joint_states|name|J1,J2,J3,J4,J5,J6|pos|-0.006434,-1.268785,1.294497,-0.009226,-1.337103,-0.000083|vel|0.000000,-0.000000,0.000000,0.000000,0.000000,0.000000|eff|0.000000,0.000000,0.000000,0.000000,0.000000,0.000000
cobot_dynamixel_driver/joint_states|name|J1,J2,J3,J4,J5,J6|pos|-0.006434,-1.268785,1.294497,-0.009226,-1.337103,-0.000083|vel|0.000000,-0.000000,0.000000,0.000000,0.000000,0.000000|eff|0.000000,0.000000,0.000000,0.000000,0.000000,0.000000
cobot_dynamixel_driver/joint_states|name|J1,J2,J3,J4,J5,J6|pos|-0.006434,-1.268785,1.294497,-0.009226,-1.337103,-0.000083|vel|0.000000,-0.000000,0.000000,0.000000,0.000000,0.000000|eff|0.000000,0.000000,0.000000,0.000000,0.000000,0.000000
cobot_dynamixel_driver/joint_states|name|J1,J2,J3,J4,J5,J6|pos|-0.006434,-1.268785,1.294497,-0.009226,-1.337103,-0.000083|vel|0.000000,-0.000000,0.000000,0.000000,0.000000,0.000000|eff|0.000000,0.000000,0.000000,0.000000,0.000000,0.000000
cobot_dynamixel_driver/joint_states|name|J1,J2,J3,J4,J5,J6|pos|-0.006434,-1.268785,1.294497,-0.009226,-1.337103,-0.000083|vel|0.000000,-0.000000,0.000000,0.000000,0.000000,0.000000|eff|0.000000,0.000000,0.000000,0.000000,0.000000,0.000000
cobot_dynamixel_driver/joint_states|name|J1,J2,J3,J4,J5,J6|pos|-0.006434,-1.268785,1.294497,-0.009226,-1.337103,-0.000083|vel|0.000000,-0.000000,0.000000,0.000000,0.000000,0.000000|eff|0.000000,0.000000,0.000000,0.000000,0.000000,0.000000
cobot_dynamixel_driver/joint_states|name|J1,J2,J3,J4,J5,J6|pos|-0.006434,-1.268785,1.294497,-0.009226,-1.337103,-0.000083|vel|0.000000,-0.000000,0.000000,0.000000,0.000000,0.000000|eff|0.000000,0.000000,0.000000,0.000000,0.000000,0.000000
cobot_dynamixel_driver/joint_states|name|J1,J2,J3,J4,J5,J6|pos|-0.006434,-1.268785,1.294497,-0.009226,-1.337103,-0.000083|vel|0.000000,-0.000000,0.000000,0.000000,0.000000,0.000000|eff|0.000000,0.000000,0.000000,0.000000,0.000000,0.000000
cobot_dynamixel_driver/joint_states|name|J1,J2,J3,J4,J5,J6|pos|-0.006434,-1.268785,1.294497,-0.009226,-1.337103,-0.000083|vel|0.000000,-0.000000,0.000000,0.000000,0.000000,0.000000|eff|0.000000,0.000000,0.000000,0.000000,0.000000,0.000000
cobot_dynamixel_driver/joint_states|name|J1,J2,J3,J4,J5,J6|pos|-0.006434,-1.268785,1.294497,-0.009226,-1.337103,-0.000083|vel|0.000000,-0.000000,0.000000,0.000000,0.000000,0.000000|eff|0.000000,0.000000,0.000000,0.000000,0.000000,0.000000
cobot_dynamixel_driver/joint_states|name|J1,J2,J3,J4,J5,J6|pos|-0.006434,-1.268785,1.294497,-0.009226,-1.337103,-0.000083|vel|0.000000,-0.000000,0.000000,0.000000,0.000000,0.000000|eff|0.000000,0.000000,0.000000,0.000000,0.000000,0.000000
cobot_dynamixel_driver/joint_states|name|J1,J2,J3,J4,J5,J6|pos|-0.006434,-1.268785,1.294497,-0.009226,-1.337103,-0.000083|vel|0.000000,-0.000000,0.000000,0.000000,0.000000,0.000000|eff|0.000000,0.000000,0.000000,0.000000,0.000000,0.000000
cobot_dynamixel_driver/joint_states|name|J1,J2,J3,J4,J5,J6|pos|-0.006434,-1.268785,1.294497,-0.009226,-1.337103,-0.000083|vel|0.000000,-0.000000,0.000000,0.000000,0.000000,0.000000|eff|0.000000,0.000000,0.000000,0.000000,0.000000,0.000000
cobot_dynamixel_driver/joint_states|name|J1,J2,J3,J4,J5,J6|pos|-0.006434,-1.268785,1.294497,-0.009226,-1.337103,-0.000083|vel|0.000000,-0.000000,0.000000,0.000000,0.000000,0.000000|eff|0.000000,0.000000,0.000000,0.000000,0.000000,0.000000
cobot_dynamixel_driver/joint_states|name|J1,J2,J3,J4,J5,J6|pos|-0.006434,-1.268785,1.294497,-0.009226,-1.337103,-0.000083|vel|0.000000,-0.000000,0.000000,0.000000,0.000000,0.000000|eff|0.000000,0.000000,0.000000,0.000000,0.000000,0.000000
cobot_dynamixel_driver/joint_states|name|J1,J2,J3,J4,J5,J6|pos|-0.006434,-1.268785,1.294497,-0.009226,-1.337103,-0.000083|vel|0.000000,-0.000000,0.000000,0.000000,0.000000,0.000000|eff|0.000000,0.000000,0.000000,0.000000,0.000000,0.000000
cobot_dynamixel_driver/joint_states|name|J1,J2,J3,J4,J5,J6|pos|-0.006434,-1.268785,1.294497,-0.009226,-1.337103,-0.000083|vel|0.000000,-0.000000,0.000000,0.000000,0.000000,0.000000|eff|0.000000,0.000000,0.000000,0.000000,0.000000,0.000000
cobot_dynamixel_driver/goal|-:J1,J2,J3,J4,J5,J6:0.000000,0.000000,0.000000,0.000000,0.000000,0.000000:0.700000,0.700000,0.700000,0.700000,0.700000,0.700000:pos_vel_
cobot_dynamixel_driver/joint_states|name|J1,J2,J3,J4,J5,J6|pos|-0.010891,-1.269974,1.294497,-0.009226,-1.337103,-0.000083|vel|0.000000,-0.000000,0.000000,0.000000,0.000000,0.000000|eff|128.906250,0.000000,0.000000,0.000000,16.113281,0.000000
cobot_dynamixel_driver/joint_states|name|J1,J2,J3,J4,J5,J6|pos|-0.010565,-1.269611,1.294209,-0.008875,-1.336131,-0.000083|vel|0.031506,0.036513,-0.033175,0.033175,0.093414,0.000000|eff|499.511719,-499.511719,-499.511719,418.945312,116.821289,0.000000
cobot_dynamixel_driver/joint_states|name|J1,J2,J3,J4,J5,J6|pos|-0.009238,-1.267696,1.292394,-0.007624,-1.332118,-0.000083|vel|0.065932,0.122058,-0.109122,0.057169,0.229915,0.000000|eff|338.378906,-1240.722656,-1144.042969,241.699219,116.821289,0.000000
cobot_dynamixel_driver/joint_states|name|J1,J2,J3,J4,J5,J6|pos|-0.007724,-1.263552,1.288388,-0.006272,-1.325333,-0.000083|vel|0.048197,0.183192,-0.226173,0.044233,0.292995,0.000000|eff|257.812500,-2046.386719,-1708.007812,193.359375,68.481445,0.000000
cobot_dynamixel_driver/joint_states|name|J1,J2,J3,J4,J5,J6|pos|-0.006497,-1.256855,1.280877,-0.005220,-1.316749,-0.000083|vel|0.044442,0.293774,-0.343224,0.035887,0.327120,0.000000|eff|290.039062,-2014.160156,-1337.402344,225.585938,64.453125,0.000000
cobot_dynamixel_driver/joint_states|name|J1,J2,J3,J4,J5,J6|pos|-0.005408,-1.247679,1.270850,-0.004381,-1.306654,-0.000083|vel|0.035679,0.400184,-0.409573,0.031297,0.403643,0.000000|eff|273.925781,-2384.765625,-1659.667969,177.246094,64.453125,0.000000
cobot_dynamixel_driver/joint_states|name|J1,J2,J3,J4,J5,J6|pos|-0.004582,-1.236663,1.259421,-0.003668,-1.295236,-0.000083|vel|0.029628,0.471541,-0.495119,0.026915,0.481545,0.000000|eff|322.265625,-1466.308594,-1611.328125,193.359375,60.424805,0.000000
cobot_dynamixel_driver/joint_states|name|J1,J2,J3,J4,J5,J6|pos|-0.003818,-1.224170,1.246865,-0.003105,-1.282721,-0.000083|vel|0.028793,0.499291,-0.489276,0.018570,0.443628,0.000000|eff|273.925781,-1272.949219,-1611.328125,225.585938,80.566406,0.000000
cobot_dynamixel_driver/joint_states|name|J1,J2,J3,J4,J5,J6|pos|-0.003155,-1.210588,1.233333,-0.002641,-1.269090,-0.000083|vel|0.024203,0.518487,-0.548115,0.019404,0.558069,0.000000|eff|257.812500,-1095.703125,-1772.460938,241.699219,20.141602,0.000000
cobot_dynamixel_driver/joint_states|name|J1,J2,J3,J4,J5,J6|pos|-0.002566,-1.196141,1.218962,-0.002216,-1.254920,-0.000083|vel|0.019613,0.587132,-0.552914,0.011893,0.558069,0.000000|eff|306.152344,-1208.496094,-1627.441406,257.812500,56.396484,0.000000
cobot_dynamixel_driver/joint_states|name|J1,J2,J3,J4,J5,J6|pos|-0.002103,-1.180882,1.203940,-0.001903,-1.240068,-0.000083|vel|0.012936,0.565641,-0.605284,0.013353,0.564963,0.000000|eff|257.812500,-2868.164062,-1095.703125,273.925781,32.226562,0.000000
cobot_dynamixel_driver/joint_states|name|J1,J2,J3,J4,J5,J6|pos|-0.001728,-1.165159,1.188518,-0.001527,-1.224699,-0.000083|vel|0.012102,0.609040,-0.582750,0.011893,0.613221,0.000000|eff|241.699219,-3367.675781,-1885.253906,241.699219,68.481445,12.084961
cobot_dynamixel_driver/joint_states|name|J1,J2,J3,J4,J5,J6|pos|-0.001465,-1.148960,1.172557,-0.001252,-1.208771,-0.000083|vel|0.010850,0.608831,-0.624688,0.009389,0.673888,0.000000|eff|225.585938,-934.570312,-708.984375,209.472656,12.084961,16.113281
cobot_dynamixel_driver/joint_states|name|J1,J2,J3,J4,J5,J6|pos|-0.001189,-1.132449,1.156283,-0.001077,-1.192554,-0.000083|vel|0.010641,0.649934,-0.649934,0.007094,0.571167,0.000000|eff|209.472656,-741.210938,-1885.253906,209.472656,60.424805,20.141602
cobot_dynamixel_driver/joint_states|name|J1,J2,J3,J4,J5,J6|pos|-0.000939,-1.115674,1.139572,-0.000851,-1.176026,-0.000083|vel|0.008346,0.630739,-0.639502,0.009389,0.554966,0.000000|eff|128.906250,-708.984375,-1901.367188,177.246094,36.254883,12.084961
cobot_dynamixel_driver/joint_states|name|J1,J2,J3,J4,J5,J6|pos|-0.000801,-1.098637,1.122584,-0.000663,-1.159292,-0.000083|vel|0.004590,0.634494,-0.635538,0.005842,0.629422,0.000000|eff|241.699219,-1965.820312,-1144.042969,177.246094,20.141602,0.000000
cobot_dynamixel_driver/joint_states|name|J1,J2,J3,J4,J5,J6|pos|-0.000676,-1.081237,1.105560,-0.000538,-1.142185,-0.000083|vel|0.005216,0.622393,-0.647013,0.004173,0.575648,0.000000|eff|241.699219,-418.945312,-1031.250000,161.132812,44.311523,20.141602
cobot_dynamixel_driver/joint_states|name|J1,J2,J3,J4,J5,J6|pos|-0.000551,-1.063774,1.088197,-0.000463,-1.124995,-0.000083|vel|0.005842,0.680814,-0.671634,0.002295,0.651827,0.000000|eff|290.039062,-1466.308594,-1289.062500,225.585938,32.226562,20.141602
cobot_dynamixel_driver/joint_states|name|J1,J2,J3,J4,J5,J6|pos|-0.000451,-1.046073,1.070684,-0.000426,-1.107661,-0.000083|vel|0.001878,0.664540,-0.686656,0.001461,0.666649,0.000000|eff|241.699219,-1466.308594,-821.777344,193.359375,0.000000,20.141602
cobot_dynamixel_driver/joint_states|name|J1,J2,J3,J4,J5,J6|pos|-0.000325,-1.028447,1.053046,-0.000363,-1.090161,-0.000083|vel|0.005008,0.650352,-0.725673,0.002504,0.595986,0.000000|eff|257.812500,-2852.050781,-1853.027344,290.039062,52.368164,16.113281
cobot_dynamixel_driver/joint_states|name|J1,J2,J3,J4,J5,J6|pos|-0.000263,-1.010659,1.035345,-0.000300,-1.072641,-0.000083|vel|0.002504,0.673303,-0.700427,0.002504,0.603569,0.000000|eff|112.792969,-2723.144531,-1724.121094,273.925781,56.396484,0.000000
cobot_dynamixel_driver/joint_states|name|J1,J2,J3,J4,J5,J6|pos|-0.000175,-0.993446,1.017381,-0.000263,-1.055079,-0.000083|vel|0.002921,0.675181,-0.715449,0.001669,0.597709,0.000000|eff|145.019531,-1981.933594,-1208.496094,209.472656,32.226562,16.113281
cobot_dynamixel_driver/joint_states|name|J1,J2,J3,J4,J5,J6|pos|-0.000125,-0.975383,0.999342,-0.000238,-1.036979,-0.000083|vel|0.003130,0.689160,-0.696671,0.001252,0.610808,0.000000|eff|177.246094,-531.738281,-596.191406,209.472656,0.000000,20.141602
cobot_dynamixel_driver/joint_states|name|J1,J2,J3,J4,J5,J6|pos|-0.000100,-0.956593,0.981554,-0.000213,-1.019376,-0.000083|vel|0.000835,0.629070,-0.706895,0.000626,0.687331,0.000000|eff|112.792969,-2690.917969,-741.210938,290.039062,84.594727,16.113281
cobot_dynamixel_driver/joint_states|name|J1,J2,J3,J4,J5,J6|pos|-0.000063,-0.938466,0.963365,-0.000200,-1.001069,-0.000083|vel|0.001252,0.716910,-0.703348,0.000626,0.764199,0.000000|eff|128.906250,-370.605469,-1740.234375,209.472656,12.084961,16.113281
cobot_dynamixel_driver/joint_states|name|J1,J2,J3,J4,J5,J6|pos|-0.000050,-0.921079,0.945088,-0.000175,-0.983445,-0.000083|vel|0.001461,0.686030,-0.695628,0.000626,0.714907,0.000000|eff|161.132812,-451.171875,-547.851562,209.472656,68.481445,20.141602
cobot_dynamixel_driver/joint_states|name|J1,J2,J3,J4,J5,J6|pos|-0.000025,-0.902501,0.927100,-0.000138,-0.965325,-0.000062|vel|0.000626,0.651186,-0.551662,0.001043,0.696983,0.000000|eff|161.132812,-1933.593750,-1127.929688,273.925781,44.311523,20.141602
cobot_dynamixel_driver/joint_states|name|J1,J2,J3,J4,J5,J6|pos|-0.000013,-0.884863,0.909023,-0.000088,-0.947225,-0.000021|vel|0.000626,0.663914,-0.692081,0.001878,0.702153,0.000000|eff|80.566406,-966.796875,-1724.121094,273.925781,60.424805,28.198242
cobot_dynamixel_driver/joint_states|name|J1,J2,J3,J4,J5,J6|pos|0.000000,-0.866637,0.891097,-0.000050,-0.929477,0.000041|vel|0.000626,0.696880,-0.606744,0.001043,0.581164,0.003447|eff|145.019531,-1385.742188,-2094.726562,209.472656,92.651367,12.084961
cobot_dynamixel_driver/joint_states|name|J1,J2,J3,J4,J5,J6|pos|0.000013,-0.848460,0.872696,-0.000013,-0.911170,0.000041|vel|-0.001043,0.682692,-0.695628,0.001252,0.733866,0.003447|eff|193.359375,-1901.367188,-1289.062500,209.472656,-32.226562,0.000000
cobot_dynamixel_driver/joint_states|name|J1,J2,J3,J4,J5,J6|pos|0.000025,-0.830146,0.854619,0.000013,-0.892988,0.000041|vel|0.000835,0.713989,-0.707104,0.001043,0.719043,0.003447|eff|161.132812,-1417.968750,-1691.894531,209.472656,-20.141602,0.000000
cobot_dynamixel_driver/joint_states|name|J1,J2,J3,J4,J5,J6|pos|0.000025,-0.811882,0.836355,0.000025,-0.874971,0.000041|vel|0.000835,0.711068,-0.696254,0.000417,0.736968,0.003447|eff|161.132812,-773.437500,-821.777344,225.585938,40.283203,-20.141602
cobot_dynamixel_driver/joint_states|name|J1,J2,J3,J4,J5,J6|pos|0.000025,-0.793605,0.818066,0.000025,-0.856727,0.000041|vel|-0.000835,0.701053,-0.689369,0.000417,0.676990,0.003447|eff|80.566406,-1144.042969,-2852.050781,225.585938,0.000000,-24.169922
cobot_dynamixel_driver/joint_states|name|J1,J2,J3,J4,J5,J6|pos|0.000038,-0.775379,0.799702,0.000038,-0.838523,0.000041|vel|0.000835,0.705643,-0.750711,0.000417,0.680782,0.000000|eff|177.246094,-1031.250000,-1192.382812,209.472656,-56.396484,-24.169922
cobot_dynamixel_driver/joint_states|name|J1,J2,J3,J4,J5,J6|pos|0.000038,-0.757015,0.781475,0.000038,-0.821065,0.000041|vel|0.000835,0.747998,-0.750711,0.000417,0.691468,0.000000|eff|161.132812,-1498.535156,-1885.253906,209.472656,40.283203,-20.141602
cobot_dynamixel_driver/joint_states|name|J1,J2,J3,J4,J5,J6|pos|0.000050,-0.738801,0.763249,0.000038,-0.802572,0.000041|vel|0.000000,0.717953,-0.729637,0.000417,0.685263,0.000000|eff|0.000000,-1530.761719,-982.910156,128.906250,88.623047,-20.141602
cobot_dynamixel_driver/joint_states|name|J1,J2,J3,J4,J5,J6|pos|0.000050,-0.720399,0.744947,0.000038,-0.784990,0.000041|vel|0.000000,0.732141,-0.710025,0.000000,0.597365,0.000000|eff|0.000000,-2094.726562,-2159.179688,145.019531,108.764648,-20.141602
cobot_dynamixel_driver/joint_states|name|J1,J2,J3,J4,J5,J6|pos|0.000050,-0.702060,0.726683,0.000038,-0.766290,0.000041|vel|0.000000,0.660367,-0.713572,0.000000,0.596675,0.000000|eff|0.000000,-80.566406,-805.664062,145.019531,28.198242,-20.141602
cobot_dynamixel_driver/joint_states|name|J1,J2,J3,J4,J5,J6|pos|0.000050,-0.683796,0.708319,0.000038,-0.747963,0.000041|vel|0.000000,0.704182,-0.622393,0.000000,0.690433,0.000000|eff|32.226562,-3190.429688,-918.457031,209.472656,12.084961,-20.141602
cobot_dynamixel_driver/joint_states|name|J1,J2,J3,J4,J5,J6|pos|0.000050,-0.665632,0.689829,0.000038,-0.729780,0.000041|vel|0.000000,0.683109,-0.751545,0.000000,0.692846,0.000000|eff|0.000000,-80.566406,-1836.914062,193.359375,68.481445,-20.141602
cobot_dynamixel_driver/joint_states|name|J1,J2,J3,J4,J5,J6|pos|0.000050,-0.647305,0.671503,0.000038,-0.711577,0.000041|vel|0.000000,0.714823,-0.705643,0.000000,0.687676,0.000000|eff|0.000000,-2562.011719,-692.871094,145.019531,12.084961,-20.141602
cobot_dynamixel_driver/joint_states|name|J1,J2,J3,J4,J5,J6|pos|0.000050,-0.628916,0.653088,0.000038,-0.694036,0.000041|vel|0.000000,0.630113,-0.630739,0.000000,0.670096,0.000000|eff|32.226562,-386.718750,-1643.554688,209.472656,0.000000,-20.141602
cobot_dynamixel_driver/joint_states|name|J1,J2,J3,J4,J5,J6|pos|0.000050,-0.610601,0.634687,0.000038,-0.675854,0.000041|vel|0.000000,0.703348,-0.699592,0.000000,0.724559,0.000000|eff|96.679688,-2143.066406,-1208.496094,193.359375,0.000000,-20.141602
cobot_dynamixel_driver/joint_states|name|J1,J2,J3,J4,J5,J6|pos|0.000050,-0.592312,0.616523,0.000038,-0.657113,0.000041|vel|0.000000,0.679145,-0.706269,0.000000,0.685952,0.000000|eff|80.566406,-725.097656,-999.023438,112.792969,12.084961,-20.141602
cobot_dynamixel_driver/joint_states|name|J1,J2,J3,J4,J5,J6|pos|0.000050,-0.573986,0.598033,0.000050,-0.639571,0.000041|vel|0.000000,0.684778,-0.727134,0.000000,0.589092,0.000000|eff|161.132812,-1498.535156,-1675.781250,209.472656,72.509766,-20.141602
cobot_dynamixel_driver/joint_states|name|J1,J2,J3,J4,J5,J6|pos|0.000050,-0.555646,0.579957,0.000050,-0.621389,0.000041|vel|0.000000,0.681023,-0.609457,0.000000,0.597020,0.000000|eff|32.226562,-1401.855469,-1015.136719,193.359375,36.254883,-20.141602
cobot_dynamixel_driver/joint_states|name|J1,J2,J3,J4,J5,J6|pos|0.000050,-0.537382,0.561593,0.000050,-0.603310,0.000041|vel|0.000000,0.664122,-0.719831,0.000000,0.674922,0.000000|eff|80.566406,-596.191406,-1498.535156,145.019531,60.424805,-20.141602
cobot_dynamixel_driver/joint_states|name|J1,J2,J3,J4,J5,J6|pos|0.000050,-0.519081,0.543591,0.000050,-0.585107,0.000041|vel|0.000000,0.708147,-0.707312,0.000000,0.668717,0.000000|eff|80.566406,-1240.722656,-2271.972656,193.359375,72.509766,-20.141602
cobot_dynamixel_driver/joint_states|name|J1,J2,J3,J4,J5,J6|pos|0.000050,-0.500654,0.525215,0.000050,-0.566862,0.000041|vel|0.000000,0.724213,-0.729011,0.000000,0.687331,0.000000|eff|96.679688,161.132812,-1095.703125,112.792969,44.311523,-20.141602
cobot_dynamixel_driver/joint_states|name|J1,J2,J3,J4,J5,J6|pos|0.000050,-0.482402,0.506825,0.000050,-0.548721,0.000041|vel|0.000000,0.702722,-0.644301,0.000000,0.682505,0.000000|eff|161.132812,-2271.972656,-805.664062,112.792969,48.339844,-20.141602
cobot_dynamixel_driver/joint_states|name|J1,J2,J3,J4,J5,J6|pos|0.000050,-0.464013,0.488511,0.000050,-0.530456,0.000041|vel|0.000000,0.672885,-0.692916,0.000000,0.728695,0.000000|eff|161.132812,-225.585938,-1772.460938,193.359375,36.254883,-20.141602
cobot_dynamixel_driver/joint_states|name|J1,J2,J3,J4,J5,J6|pos|0.000050,-0.445561,0.470022,0.000050,-0.512687,0.000041|vel|0.000000,0.689160,-0.689994,0.000000,0.690433,0.000000|eff|145.019531,-596.191406,-660.644531,145.019531,0.000000,-20.141602
cobot_dynamixel_driver/joint_states|name|J1,J2,J3,J4,J5,J6|pos|0.000050,-0.427272,0.451633,0.000050,-0.494691,0.000041|vel|0.000000,0.688743,-0.718370,0.000000,0.743862,0.000000|eff|96.679688,-1015.136719,-1498.535156,145.019531,64.453125,-20.141602
cobot_dynamixel_driver/joint_states|name|J1,J2,J3,J4,J5,J6|pos|0.000050,-0.408995,0.433193,0.000050,-0.476426,0.000041|vel|0.000000,0.664331,-0.627192,0.000000,0.664926,0.000000|eff|32.226562,-306.152344,-1514.648438,128.906250,32.226562,-20.141602
cobot_dynamixel_driver/joint_states|name|J1,J2,J3,J4,J5,J6|pos|0.000050,-0.390656,0.415192,0.000050,-0.458657,0.000041|vel|0.000000,0.703139,-0.624479,0.000000,0.695259,0.000000|eff|32.226562,-1272.949219,-1627.441406,112.792969,128.906250,-20.141602
cobot_dynamixel_driver/joint_states|name|J1,J2,J3,J4,J5,J6|pos|0.000050,-0.372280,0.397116,0.000050,-0.440164,0.000041|vel|0.000000,0.681649,-0.689160,0.000000,0.603569,0.000000|eff|145.019531,193.359375,-612.304688,161.132812,40.283203,-20.141602
cobot_dynamixel_driver/joint_states|name|J1,J2,J3,J4,J5,J6|pos|0.000050,-0.354003,0.379165,0.000050,-0.422065,0.000041|vel|0.000000,0.685822,-0.612587,0.000000,0.738002,0.000000|eff|32.226562,-2529.785156,-1160.156250,177.246094,96.679688,-20.141602
cobot_dynamixel_driver/joint_states|name|J1,J2,J3,J4,J5,J6|pos|0.000050,-0.335651,0.360725,0.000050,-0.403696,0.000041|vel|0.000000,0.683526,-0.724421,0.000000,0.628387,0.000000|eff|128.906250,0.000000,-837.890625,96.679688,44.311523,-20.141602
cobot_dynamixel_driver/joint_states|name|J1,J2,J3,J4,J5,J6|pos|0.000050,-0.317350,0.342161,0.000050,-0.385410,0.000041|vel|0.000000,0.685822,-0.755927,0.000000,0.672164,0.000000|eff|0.000000,-676.757812,-1691.894531,128.906250,44.311523,-20.141602
cobot_dynamixel_driver/joint_states|name|J1,J2,J3,J4,J5,J6|pos|0.000050,-0.299123,0.323709,0.000050,-0.367207,0.000041|vel|0.000000,0.728385,-0.711068,0.000000,0.684574,0.000000|eff|80.566406,-48.339844,-1401.855469,128.906250,0.000000,-20.141602
cobot_dynamixel_driver/joint_states|name|J1,J2,J3,J4,J5,J6|pos|0.000050,-0.280771,0.306083,0.000050,-0.349211,0.000041|vel|0.000000,0.665166,-0.620098,0.000000,0.665615,0.000000|eff|161.132812,-2239.746094,-854.003906,112.792969,0.000000,-20.141602
cobot_dynamixel_driver/joint_states|name|J1,J2,J3,J4,J5,J6|pos|0.000050,-0.262457,0.287669,0.000050,-0.331256,0.000041|vel|0.000000,0.710859,-0.687908,0.000000,0.719388,0.000000|eff|80.566406,0.000000,-1756.347656,96.679688,36.254883,-20.141602
cobot_dynamixel_driver/joint_states|name|J1,J2,J3,J4,J5,J6|pos|0.000050,-0.244206,0.268691,0.000050,-0.312949,0.000041|vel|0.000000,0.697923,-0.692290,0.000000,0.856579,0.000000|eff|145.019531,-982.910156,-499.511719,112.792969,0.000000,-20.141602
cobot_dynamixel_driver/joint_states|name|J1,J2,J3,J4,J5,J6|pos|0.000050,-0.225854,0.250540,0.000050,-0.294829,0.000041|vel|0.000000,0.640337,-0.698340,0.000000,0.780400,0.000000|eff|145.019531,-999.023438,-1788.574219,161.132812,52.368164,-20.141602
cobot_dynamixel_driver/joint_states|name|J1,J2,J3,J4,J5,J6|pos|0.000050,-0.207452,0.233052,0.000050,-0.276688,0.000041|vel|0.000000,0.697088,-0.715241,0.000000,0.688021,0.000000|eff|80.566406,483.398438,-1111.816406,161.132812,48.339844,-24.169922
cobot_dynamixel_driver/joint_states|name|J1,J2,J3,J4,J5,J6|pos|0.000050,-0.189200,0.213987,0.000050,-0.258422,0.000041|vel|0.000000,0.718996,-0.716910,0.000000,0.694225,0.000000|eff|0.000000,-2143.066406,-1772.460938,161.132812,108.764648,-20.141602
cobot_dynamixel_driver/joint_states|name|J1,J2,J3,J4,J5,J6|pos|0.000050,-0.170961,0.195547,0.000050,-0.239557,0.000041|vel|0.000000,0.660158,-0.614464,0.000000,0.719733,0.000000|eff|145.019531,0.000000,-1498.535156,177.246094,108.764648,-24.169922
cobot_dynamixel_driver/joint_states|name|J1,J2,J3,J4,J5,J6|pos|0.000050,-0.151295,0.175743,0.000050,-0.220568,0.000041|vel|0.000000,0.698549,-0.695211,0.000000,0.689055,0.000000|eff|0.000000,-241.699219,-692.871094,193.359375,36.254883,-24.169922
cobot_dynamixel_driver/joint_states|name|J1,J2,J3,J4,J5,J6|pos|0.000050,-0.132981,0.158080,0.000050,-0.202324,0.000041|vel|0.000000,0.722543,-0.690203,0.000000,0.630800,0.000000|eff|112.792969,-435.058594,-1691.894531,96.679688,56.396484,-24.169922
cobot_dynamixel_driver/joint_states|name|J1,J2,J3,J4,J5,J6|pos|0.000050,-0.114642,0.139703,0.000050,-0.184224,0.000041|vel|0.000000,0.698340,-0.726090,0.000000,0.595986,0.000000|eff|80.566406,531.738281,-1192.382812,161.132812,40.283203,-16.113281
cobot_dynamixel_driver/joint_states|name|J1,J2,J3,J4,J5,J6|pos|0.000050,-0.096453,0.121339,0.000050,-0.166104,0.000041|vel|0.000000,0.657028,-0.752171,0.000000,0.590815,0.000000|eff|0.000000,48.339844,-982.910156,96.679688,44.311523,-20.141602
cobot_dynamixel_driver/joint_states|name|J1,J2,J3,J4,J5,J6|pos|0.000050,-0.079666,0.102912,0.000050,-0.148066,0.000041|vel|0.000000,0.593391,-0.704182,0.000000,0.673543,0.000000|eff|161.132812,-128.906250,-2094.726562,193.359375,120.849609,-20.141602
cobot_dynamixel_driver/joint_states|name|J1,J2,J3,J4,J5,J6|pos|0.000050,-0.065583,0.085449,0.000050,-0.129801,0.000041|vel|0.000000,0.490528,-0.602363,0.000000,0.732487,0.000000|eff|0.000000,934.570312,-628.417969,128.906250,68.481445,-20.141602
cobot_dynamixel_driver/joint_states|name|J1,J2,J3,J4,J5,J6|pos|0.000050,-0.054116,0.070628,0.000050,-0.112115,0.000041|vel|0.000000,0.391212,-0.462361,0.000000,0.603914,0.000000|eff|0.000000,789.550781,-918.457031,145.019531,68.481445,-20.141602
cobot_dynamixel_driver/joint_states|name|J1,J2,J3,J4,J5,J6|pos|0.000050,-0.044878,0.058660,0.000050,-0.093870,0.000041|vel|0.000000,0.323402,-0.416876,0.000000,0.689399,0.000000|eff|64.453125,-273.925781,-563.964844,177.246094,-36.254883,-20.141602
cobot_dynamixel_driver/joint_states|name|J1,J2,J3,J4,J5,J6|pos|0.000050,-0.037242,0.048946,0.000050,-0.077839,0.000041|vel|0.000000,0.274788,-0.296904,0.000000,0.529459,0.000000|eff|0.000000,612.304688,-612.304688,193.359375,-28.198242,-20.141602
cobot_dynamixel_driver/joint_states|name|J1,J2,J3,J4,J5,J6|pos|0.000050,-0.030933,0.040872,0.000050,-0.064993,0.000041|vel|0.000000,0.219079,-0.250793,0.000000,0.389511,0.000000|eff|145.019531,483.398438,-854.003906,112.792969,12.084961,-20.141602
cobot_dynamixel_driver/joint_states|name|J1,J2,J3,J4,J5,J6|pos|0.000050,-0.025737,0.034200,0.000050,-0.054341,0.000041|vel|0.000000,0.165040,-0.229720,0.000000,0.365037,0.000000|eff|112.792969,386.718750,-805.664062,112.792969,0.000000,-20.141602
cobot_dynamixel_driver/joint_states|name|J1,J2,J3,J4,J5,J6|pos|0.000050,-0.021494,0.028579,0.000050,-0.045404,0.000041|vel|0.000000,0.143758,-0.199466,0.000000,0.307817,0.000000|eff|0.000000,290.039062,-805.664062,96.679688,8.056641,-20.141602
cobot_dynamixel_driver/joint_states|name|J1,J2,J3,J4,J5,J6|pos|0.000050,-0.018039,0.023760,0.000050,-0.037978,0.000041|vel|0.000000,0.121850,-0.146470,0.000000,0.268176,0.000000|eff|64.453125,177.246094,-725.097656,112.792969,28.198242,-20.141602
cobot_dynamixel_driver/joint_states|name|J1,J2,J3,J4,J5,J6|pos|0.000050,-0.015009,0.019891,0.000050,-0.031752,0.000041|vel|0.000000,0.105992,-0.135829,0.000000,0.195445,0.000000|eff|0.000000,290.039062,-854.003906,112.792969,36.254883,-20.141602
cobot_dynamixel_driver/joint_states|name|J1,J2,J3,J4,J5,J6|pos|0.000050,-0.012568,0.016674,0.000050,-0.026560,0.000041|vel|0.000000,0.077825,-0.099107,0.000000,0.181312,0.000000|eff|145.019531,145.019531,-821.777344,145.019531,40.283203,-20.141602
cobot_dynamixel_driver/joint_states|name|J1,J2,J3,J4,J5,J6|pos|0.000050,-0.010565,0.013945,0.000050,-0.022175,0.000041|vel|0.000000,0.069479,-0.107662,0.000000,0.148910,0.000000|eff|0.000000,209.472656,-870.117188,145.019531,48.339844,-20.141602
cobot_dynamixel_driver/joint_states|name|J1,J2,J3,J4,J5,J6|pos|0.000050,-0.008813,0.011717,0.000050,-0.018555,0.000041|vel|0.000000,0.057586,-0.071357,0.000000,0.108580,0.000000|eff|0.000000,209.472656,-902.343750,96.679688,52.368164,-20.141602
cobot_dynamixel_driver/joint_states|name|J1,J2,J3,J4,J5,J6|pos|0.000050,-0.007323,0.009752,0.000050,-0.015493,0.000041|vel|0.000000,0.052370,-0.068853,0.000000,0.105133,0.000000|eff|64.453125,257.812500,-837.890625,96.679688,60.424805,-20.141602
cobot_dynamixel_driver/joint_states|name|J1,J2,J3,J4,J5,J6|pos|0.000050,-0.006134,0.008149,0.000050,-0.012928,0.000041|vel|0.000000,0.041521,-0.045068,0.000000,0.096861,0.000000|eff|0.000000,193.359375,-837.890625,112.792969,44.311523,-20.141602
cobot_dynamixel_driver/joint_states|name|J1,J2,J3,J4,J5,J6|pos|0.000050,-0.005170,0.006898,0.000050,-0.010839,0.000041|vel|0.000000,0.029836,-0.042564,0.000000,0.073421,0.000000|eff|112.792969,193.359375,-934.570312,96.679688,60.424805,-20.141602
cobot_dynamixel_driver/joint_states|name|J1,J2,J3,J4,J5,J6|pos|0.000050,-0.004306,0.005871,0.000038,-0.009040,0.000041|vel|0.000000,0.030045,-0.040060,0.000000,0.069285,0.000000|eff|112.792969,225.585938,-934.570312,96.679688,56.396484,-20.141602
cobot_dynamixel_driver/joint_states|name|J1,J2,J3,J4,J5,J6|pos|0.000050,-0.003568,0.004857,0.000038,-0.007571,0.000041|vel|0.000000,0.025038,-0.034635,0.000000,0.047569,0.000000|eff|0.000000,209.472656,-886.230469,96.679688,64.453125,-20.141602
cobot_dynamixel_driver/joint_states|name|J1,J2,J3,J4,J5,J6|pos|0.000050,-0.002992,0.004006,0.000038,-0.006350,0.000041|vel|0.000000,0.020447,-0.027124,0.000000,0.046879,0.000000|eff|0.000000,225.585938,-918.457031,96.679688,56.396484,-20.141602
cobot_dynamixel_driver/joint_states|name|J1,J2,J3,J4,J5,J6|pos|0.000050,-0.002516,0.003255,0.000038,-0.005316,0.000041|vel|0.000000,0.016692,-0.027959,0.000000,0.032402,0.000000|eff|112.792969,209.472656,-870.117188,96.679688,68.481445,-20.141602
cobot_dynamixel_driver/joint_states|name|J1,J2,J3,J4,J5,J6|pos|0.000050,-0.002091,0.002779,0.000038,-0.004489,0.000041|vel|0.000000,0.015857,-0.017944,0.000000,0.024129,0.000000|eff|80.566406,193.359375,-870.117188,96.679688,72.509766,-20.141602
cobot_dynamixel_driver/joint_states|name|J1,J2,J3,J4,J5,J6|pos|0.000050,-0.001740,0.002216,0.000038,-0.003723,0.000041|vel|0.000000,0.011476,-0.018570,0.000000,0.027576,0.000000|eff|64.453125,257.812500,-821.777344,96.679688,60.424805,-20.141602
cobot_dynamixel_driver/joint_states|name|J1,J2,J3,J4,J5,J6|pos|0.000050,-0.001502,0.002015,0.000038,-0.003165,0.000041|vel|0.000000,0.007303,-0.003964,0.000000,0.020682,0.000000|eff|0.000000,290.039062,-1015.136719,96.679688,60.424805,-20.141602
cobot_dynamixel_driver/joint_states|name|J1,J2,J3,J4,J5,J6|pos|0.000050,-0.001302,0.001753,0.000038,-0.002668,0.000041|vel|0.000000,0.007303,-0.013979,0.000000,0.019648,0.000000|eff|0.000000,177.246094,-934.570312,96.679688,76.538086,-20.141602
cobot_dynamixel_driver/joint_states|name|J1,J2,J3,J4,J5,J6|pos|0.000050,-0.001102,0.001289,0.000038,-0.002151,0.000041|vel|0.000000,0.008137,-0.016066,0.000000,0.017924,0.000000|eff|0.000000,128.906250,-805.664062,96.679688,60.424805,-20.141602
cobot_dynamixel_driver/joint_states|name|J1,J2,J3,J4,J5,J6|pos|0.000050,-0.000876,0.001127,0.000038,-0.001882,0.000041|vel|0.000000,0.007720,-0.007929,0.000000,0.013099,0.000000|eff|0.000000,322.265625,-821.777344,96.679688,76.538086,-20.141602
cobot_dynamixel_driver/joint_states|name|J1,J2,J3,J4,J5,J6|pos|0.000050,-0.000726,0.001127,0.000038,-0.001531,0.000041|vel|0.000000,0.006051,-0.007929,0.000000,0.012754,0.000000|eff|80.566406,273.925781,-870.117188,96.679688,76.538086,-20.141602
cobot_dynamixel_driver/joint_states|name|J1,J2,J3,J4,J5,J6|pos|0.000050,-0.000601,0.001127,0.000038,-0.001324,0.000041|vel|0.000000,0.004799,-0.007929,0.000000,0.006549,0.000000|eff|48.339844,193.359375,-886.230469,64.453125,76.538086,-20.141602
cobot_dynamixel_driver/joint_states|name|J1,J2,J3,J4,J5,J6|pos|0.000050,-0.000501,0.001127,0.000038,-0.001117,0.000041|vel|0.000000,0.003547,-0.007929,0.000000,0.007239,0.000000|eff|112.792969,193.359375,-821.777344,96.679688,76.538086,-20.141602
cobot_dynamixel_driver/joint_states|name|J1,J2,J3,J4,J5,J6|pos|0.000050,-0.000376,0.001127,0.000038,-0.000910,0.000041|vel|0.000000,0.004799,0.000000,0.000000,0.007583,0.000000|eff|0.000000,209.472656,-837.890625,96.679688,76.538086,-20.141602
cobot_dynamixel_driver/joint_states|name|J1,J2,J3,J4,J5,J6|pos|0.000050,-0.000288,0.001102,0.000038,-0.000745,0.000041|vel|0.000000,0.004382,-0.001252,0.000000,0.005170,0.000000|eff|0.000000,161.132812,-999.023438,96.679688,72.509766,-20.141602
cobot_dynamixel_driver/joint_states|name|J1,J2,J3,J4,J5,J6|pos|0.000050,-0.000288,0.000976,0.000038,-0.000703,0.000041|vel|0.000000,0.004382,-0.005425,0.000000,0.003447,0.000000|eff|112.792969,370.605469,-966.796875,96.679688,80.566406,-20.141602
cobot_dynamixel_driver/joint_states|name|J1,J2,J3,J4,J5,J6|pos|0.000050,-0.000288,0.000789,0.000038,-0.000641,0.000041|vel|0.000000,0.004382,-0.008137,0.000000,0.003102,0.000000|eff|48.339844,386.718750,-902.343750,96.679688,88.623047,-20.141602
cobot_dynamixel_driver/joint_states|name|J1,J2,J3,J4,J5,J6|pos|0.000038,-0.000288,0.000526,0.000038,-0.000476,0.000041|vel|0.000000,0.004382,-0.010850,0.000000,0.005170,0.000000|eff|0.000000,386.718750,-837.890625,48.339844,72.509766,-20.141602
cobot_dynamixel_driver/joint_states|name|J1,J2,J3,J4,J5,J6|pos|0.000038,-0.000288,0.000338,0.000038,-0.000455,0.000041|vel|0.000000,0.004382,-0.005216,0.000000,0.005170,0.000000|eff|0.000000,241.699219,-870.117188,64.453125,64.453125,-20.141602
cobot_dynamixel_driver/joint_states|name|J1,J2,J3,J4,J5,J6|pos|0.000038,-0.000288,0.000300,0.000038,-0.000455,0.000041|vel|0.000000,-0.000000,-0.001252,0.000000,0.005170,0.000000|eff|0.000000,161.132812,-837.890625,96.679688,56.396484,-20.141602
cobot_dynamixel_driver/joint_states|name|J1,J2,J3,J4,J5,J6|pos|0.000038,-0.000288,0.000288,0.000038,-0.000455,0.000041|vel|0.000000,-0.000000,-0.001252,0.000000,0.005170,0.000000|eff|0.000000,370.605469,-821.777344,96.679688,56.396484,-20.141602
cobot_dynamixel_driver/joint_states|name|J1,J2,J3,J4,J5,J6|pos|0.000038,-0.000288,0.000275,0.000038,-0.000455,0.000041|vel|0.000000,-0.000000,-0.001252,0.000000,0.005170,0.000000|eff|0.000000,225.585938,-870.117188,48.339844,56.396484,-20.141602
cobot_dynamixel_driver/joint_states|name|J1,J2,J3,J4,J5,J6|pos|0.000038,-0.000275,0.000250,0.000038,-0.000455,0.000041|vel|0.000000,-0.000000,-0.000209,0.000000,0.000000,0.000000|eff|0.000000,161.132812,-902.343750,48.339844,56.396484,-20.141602
cobot_dynamixel_driver/joint_states|name|J1,J2,J3,J4,J5,J6|pos|0.000038,-0.000263,0.000238,0.000038,-0.000455,0.000041|vel|0.000000,0.000209,-0.000835,0.000000,0.000000,0.000000|eff|112.792969,177.246094,-902.343750,96.679688,64.453125,-20.141602
cobot_dynamixel_driver/joint_states|name|J1,J2,J3,J4,J5,J6|pos|0.000038,-0.000225,0.000238,0.000038,-0.000434,0.000041|vel|0.000000,0.001043,-0.000835,0.000000,0.000000,0.000000|eff|0.000000,354.492188,-918.457031,96.679688,72.509766,-20.141602
cobot_dynamixel_driver/joint_states|name|J1,J2,J3,J4,J5,J6|pos|0.000038,-0.000213,0.000225,0.000038,-0.000372,0.000041|vel|0.000000,0.001043,-0.000835,0.000000,0.002413,0.000000|eff|0.000000,145.019531,-902.343750,96.679688,80.566406,-20.141602
cobot_dynamixel_driver/joint_states|name|J1,J2,J3,J4,J5,J6|pos|0.000038,-0.000200,0.000213,0.000038,-0.000290,0.000041|vel|0.000000,0.000626,-0.000209,0.000000,0.003102,0.000000|eff|0.000000,193.359375,-918.457031,48.339844,76.538086,-20.141602
cobot_dynamixel_driver/joint_states|name|J1,J2,J3,J4,J5,J6|pos|0.000038,-0.000163,0.000200,0.000038,-0.000269,0.000041|vel|0.000000,0.000626,-0.000417,0.000000,0.003102,0.000000|eff|0.000000,177.246094,-918.457031,96.679688,68.481445,-20.141602
cobot_dynamixel_driver/joint_states|name|J1,J2,J3,J4,J5,J6|pos|0.000038,-0.000113,0.000188,0.000038,-0.000269,0.000041|vel|0.000000,0.001252,-0.000417,0.000000,0.003102,0.000000|eff|0.000000,225.585938,-918.457031,48.339844,60.424805,-20.141602
cobot_dynamixel_driver/joint_states|name|J1,J2,J3,J4,J5,J6|pos|0.000038,-0.000075,0.000175,0.000038,-0.000269,0.000041|vel|0.000000,0.001669,-0.000417,0.000000,0.003102,0.000000|eff|0.000000,209.472656,-934.570312,96.679688,56.396484,-20.141602
cobot_dynamixel_driver/joint_states|name|J1,J2,J3,J4,J5,J6|pos|0.000038,-0.000025,0.000163,0.000038,-0.000269,0.000041|vel|0.000000,0.001878,-0.000417,0.000000,0.000000,0.000000|eff|0.000000,241.699219,-950.683594,96.679688,60.424805,-20.141602
cobot_dynamixel_driver/joint_states|name|J1,J2,J3,J4,J5,J6|pos|0.000038,0.000013,0.000163,0.000038,-0.000269,0.000041|vel|0.000000,0.001043,-0.000417,0.000000,0.000000,0.000000|eff|0.000000,193.359375,-966.796875,80.566406,68.481445,-20.141602
cobot_dynamixel_driver/joint_states|name|J1,J2,J3,J4,J5,J6|pos|0.000038,0.000038,0.000150,0.000038,-0.000269,0.000041|vel|0.000000,0.001461,-0.000417,0.000000,0.000000,0.000000|eff|0.000000,273.925781,-934.570312,48.339844,72.509766,-20.141602
cobot_dynamixel_driver/joint_states|name|J1,J2,J3,J4,J5,J6|pos|0.000038,0.000063,0.000150,0.000038,-0.000269,0.000041|vel|0.000000,0.000626,-0.000209,0.000000,0.000000,0.000000|eff|0.000000,257.812500,-934.570312,80.566406,72.509766,-20.141602
cobot_dynamixel_driver/joint_states|name|J1,J2,J3,J4,J5,J6|pos|0.000038,0.000088,0.000138,0.000038,-0.000248,0.000041|vel|0.000000,0.001043,-0.000209,0.000000,0.000000,0.000000|eff|0.000000,193.359375,-966.796875,80.566406,84.594727,-20.141602
cobot_dynamixel_driver/joint_states|name|J1,J2,J3,J4,J5,J6|pos|0.000038,0.000088,0.000138,0.000038,-0.000207,0.000041|vel|0.000000,0.001043,-0.000209,0.000000,0.001379,0.000000|eff|0.000000,209.472656,-934.570312,48.339844,80.566406,-20.141602
cobot_dynamixel_driver/joint_states|name|J1,J2,J3,J4,J5,J6|pos|0.000038,0.000088,0.000138,0.000038,-0.000186,0.000041|vel|0.000000,-0.001043,-0.000209,0.000000,0.000689,0.000000|eff|0.000000,338.378906,-982.910156,0.000000,76.538086,-20.141602
cobot_dynamixel_driver/joint_states|name|J1,J2,J3,J4,J5,J6|pos|0.000038,0.000100,0.000125,0.000038,-0.000165,0.000041|vel|0.000000,0.001043,-0.000209,0.000000,0.000689,0.000000|eff|0.000000,306.152344,-982.910156,48.339844,76.538086,-20.141602
cobot_dynamixel_driver/joint_states|name|J1,J2,J3,J4,J5,J6|pos|0.000038,0.000100,0.000113,0.000038,-0.000124,0.000041|vel|0.000000,0.001043,-0.000209,0.000000,0.000689,0.000000|eff|0.000000,386.718750,-950.683594,80.566406,84.594727,-20.141602
cobot_dynamixel_driver/joint_states|name|J1,J2,J3,J4,J5,J6|pos|0.000038,0.000100,0.000113,0.000038,-0.000062,0.000041|vel|0.000000,-0.000000,-0.000209,0.000000,0.002413,0.000000|eff|0.000000,241.699219,-1160.156250,48.339844,76.538086,-20.141602
cobot_dynamixel_driver/joint_states|name|J1,J2,J3,J4,J5,J6|pos|0.000038,0.000100,0.000113,0.000038,-0.000062,0.000041|vel|0.000000,-0.000000,-0.000209,0.000000,0.002413,0.000000|eff|0.000000,193.359375,-1015.136719,0.000000,64.453125,-20.141602
cobot_dynamixel_driver/joint_states|name|J1,J2,J3,J4,J5,J6|pos|0.000038,0.000100,0.000113,0.000038,-0.000062,0.000041|vel|0.000000,-0.000000,-0.000209,0.000000,0.002413,0.000000|eff|0.000000,386.718750,-982.910156,0.000000,60.424805,-20.141602
cobot_dynamixel_driver/joint_states|name|J1,J2,J3,J4,J5,J6|pos|0.000038,0.000100,0.000113,0.000038,-0.000062,0.000041|vel|0.000000,-0.000000,0.000000,0.000000,0.002413,0.000000|eff|0.000000,370.605469,-982.910156,48.339844,56.396484,-20.141602
cobot_dynamixel_driver/joint_states|name|J1,J2,J3,J4,J5,J6|pos|0.000038,0.000100,0.000113,0.000038,-0.000062,0.000041|vel|0.000000,-0.000000,0.000000,0.000000,0.002413,0.000000|eff|0.000000,241.699219,-982.910156,0.000000,60.424805,-20.141602
cobot_dynamixel_driver/joint_states|name|J1,J2,J3,J4,J5,J6|pos|0.000038,0.000100,0.000113,0.000038,-0.000062,0.000041|vel|0.000000,-0.000000,0.000000,0.000000,0.000000,0.000000|eff|0.000000,177.246094,-1047.363281,80.566406,56.396484,-20.141602
cobot_dynamixel_driver/joint_states|name|J1,J2,J3,J4,J5,J6|pos|0.000038,0.000100,0.000100,0.000038,-0.000062,0.000041|vel|0.000000,-0.000000,0.000000,0.000000,0.000000,0.000000|eff|0.000000,209.472656,-982.910156,32.226562,32.226562,-20.141602
cobot_dynamixel_driver/joint_states|name|J1,J2,J3,J4,J5,J6|pos|0.000038,0.000100,0.000100,0.000038,-0.000062,0.000041|vel|0.000000,-0.000000,0.000000,0.000000,0.000000,0.000000|eff|0.000000,322.265625,-1047.363281,0.000000,48.339844,-20.141602
cobot_dynamixel_driver/joint_states|name|J1,J2,J3,J4,J5,J6|pos|0.000038,0.000100,0.000088,0.000038,-0.000062,0.000041|vel|0.000000,-0.000000,0.000000,0.000000,0.000000,0.000000|eff|0.000000,306.152344,-1015.136719,0.000000,60.424805,-20.141602
cobot_dynamixel_driver/joint_states|name|J1,J2,J3,J4,J5,J6|pos|0.000038,0.000100,0.000063,0.000038,-0.000062,0.000041|vel|0.000000,-0.000000,-0.000626,0.000000,0.000000,0.000000|eff|0.000000,402.832031,-1031.250000,0.000000,60.424805,-20.141602
cobot_dynamixel_driver/joint_states|name|J1,J2,J3,J4,J5,J6|pos|0.000038,0.000100,-0.000025,0.000038,-0.000062,0.000041|vel|0.000000,-0.000000,-0.004382,0.000000,0.000000,0.000000|eff|0.000000,386.718750,-982.910156,64.453125,52.368164,-20.141602
cobot_dynamixel_driver/joint_states|name|J1,J2,J3,J4,J5,J6|pos|0.000038,0.000088,-0.000138,0.000038,-0.000062,0.000041|vel|0.000000,-0.000000,-0.004382,0.000000,0.000000,0.000000|eff|0.000000,386.718750,-966.796875,0.000000,60.424805,-20.141602
cobot_dynamixel_driver/joint_states|name|J1,J2,J3,J4,J5,J6|pos|0.000038,0.000088,-0.000200,0.000038,-0.000062,0.000041|vel|0.000000,-0.000000,-0.001669,0.000000,0.000000,0.000000|eff|0.000000,338.378906,-918.457031,32.226562,60.424805,-20.141602
cobot_dynamixel_driver/joint_states|name|J1,J2,J3,J4,J5,J6|pos|0.000038,0.000088,-0.000263,0.000038,-0.000062,0.000041|vel|0.000000,-0.000000,-0.002712,0.000000,0.000000,0.000000|eff|-32.226562,402.832031,-918.457031,80.566406,60.424805,-20.141602
cobot_dynamixel_driver/joint_states|name|J1,J2,J3,J4,J5,J6|pos|0.000025,0.000088,-0.000313,0.000038,-0.000062,0.000041|vel|0.000000,-0.000000,-0.002086,0.000000,0.000000,0.000000|eff|0.000000,241.699219,-870.117188,80.566406,60.424805,-20.141602
cobot_dynamixel_driver/joint_states|name|J1,J2,J3,J4,J5,J6|pos|0.000025,0.000088,-0.000325,0.000025,-0.000062,0.000041|vel|0.000000,-0.000000,-0.002086,0.000000,0.000000,0.000000|eff|0.000000,370.605469,-886.230469,0.000000,60.424805,-20.141602
cobot_dynamixel_driver/joint_states|name|J1,J2,J3,J4,J5,J6|pos|0.000013,0.000088,-0.000325,0.000025,-0.000062,0.000041|vel|0.000000,-0.000000,-0.002086,0.000000,0.000000,0.000000|eff|0.000000,402.832031,-837.890625,64.453125,64.453125,-20.141602
cobot_dynamixel_driver/joint_states|name|J1,J2,J3,J4,J5,J6|pos|0.000013,0.000088,-0.000325,0.000025,-0.000062,0.000041|vel|0.000000,-0.000000,-0.002086,0.000000,0.000000,0.000000|eff|0.000000,402.832031,-789.550781,0.000000,60.424805,-20.141602
cobot_dynamixel_driver/joint_states|name|J1,J2,J3,J4,J5,J6|pos|0.000013,0.000088,-0.000325,0.000025,-0.000062,0.000041|vel|0.000000,-0.000000,-0.002086,0.000000,0.000000,0.000000|eff|-96.679688,354.492188,-789.550781,64.453125,60.424805,-20.141602
cobot_dynamixel_driver/joint_states|name|J1,J2,J3,J4,J5,J6|pos|0.000013,0.000088,-0.000325,0.000025,-0.000062,0.000041|vel|0.000000,-0.000000,0.000000,0.000000,0.000000,0.000000|eff|0.000000,402.832031,-773.437500,0.000000,60.424805,-20.141602
cobot_dynamixel_driver/joint_states|name|J1,J2,J3,J4,J5,J6|pos|0.000013,0.000088,-0.000325,0.000025,-0.000062,0.000041|vel|0.000000,-0.000000,0.000000,0.000000,0.000000,0.000000|eff|0.000000,402.832031,-692.871094,0.000000,68.481445,-20.141602
cobot_dynamixel_driver/joint_states|name|J1,J2,J3,J4,J5,J6|pos|0.000013,0.000088,-0.000325,0.000025,-0.000062,0.000041|vel|0.000000,-0.000000,0.000000,0.000000,0.000000,0.000000|eff|0.000000,418.945312,-708.984375,0.000000,68.481445,-20.141602
cobot_dynamixel_driver/joint_states|name|J1,J2,J3,J4,J5,J6|pos|0.000013,0.000088,-0.000325,0.000025,-0.000062,0.000041|vel|0.000000,-0.000000,0.000000,0.000000,0.000000,0.000000|eff|0.000000,402.832031,-676.757812,0.000000,68.481445,-20.141602
cobot_dynamixel_driver/joint_states|name|J1,J2,J3,J4,J5,J6|pos|0.000013,0.000088,-0.000325,0.000025,-0.000062,0.000041|vel|0.000000,-0.000000,0.000000,0.000000,0.000000,0.000000|eff|0.000000,402.832031,-692.871094,0.000000,68.481445,-20.141602
cobot_dynamixel_driver/joint_states|name|J1,J2,J3,J4,J5,J6|pos|0.000000,0.000088,-0.000325,0.000025,-0.000062,0.000041|vel|0.000000,-0.000000,0.000000,0.000000,0.000000,0.000000|eff|0.000000,209.472656,-676.757812,32.226562,68.481445,-20.141602
cobot_dynamixel_driver/joint_states|name|J1,J2,J3,J4,J5,J6|pos|0.000000,0.000088,-0.000325,0.000025,-0.000041,0.000041|vel|0.000000,-0.000000,0.000000,0.000000,0.000000,0.000000|eff|0.000000,418.945312,-676.757812,0.000000,68.481445,-20.141602
cobot_dynamixel_driver/joint_states|name|J1,J2,J3,J4,J5,J6|pos|0.000000,0.000088,-0.000313,0.000025,-0.000041,0.000041|vel|0.000000,-0.000000,0.000000,0.000000,0.000000,0.000000|eff|0.000000,273.925781,-644.531250,0.000000,72.509766,-20.141602
cobot_dynamixel_driver/joint_states|name|J1,J2,J3,J4,J5,J6|pos|0.000000,0.000088,-0.000313,0.000025,-0.000041,0.000041|vel|0.000000,-0.000000,0.000000,0.000000,0.000000,0.000000|eff|0.000000,402.832031,-660.644531,0.000000,72.509766,-20.141602
cobot_dynamixel_driver/joint_states|name|J1,J2,J3,J4,J5,J6|pos|0.000000,0.000088,-0.000313,0.000025,-0.000041,0.000041|vel|0.000000,-0.000000,0.000000,0.000000,0.000000,0.000000|eff|-64.453125,402.832031,-660.644531,0.000000,72.509766,-20.141602
cobot_dynamixel_driver/joint_states|name|J1,J2,J3,J4,J5,J6|pos|0.000000,0.000088,-0.000313,0.000025,-0.000041,0.000041|vel|0.000000,-0.000000,0.000000,0.000000,0.000000,0.000000|eff|-64.453125,306.152344,-612.304688,0.000000,72.509766,-20.141602
cobot_dynamixel_driver/joint_states|name|J1,J2,J3,J4,J5,J6|pos|0.000000,0.000088,-0.000300,0.000025,-0.000041,0.000041|vel|0.000000,-0.000000,0.000000,0.000000,0.000000,0.000000|eff|0.000000,402.832031,-612.304688,48.339844,72.509766,-20.141602
cobot_dynamixel_driver/joint_states|name|J1,J2,J3,J4,J5,J6|pos|0.000000,0.000088,-0.000300,0.000025,-0.000041,0.000041|vel|0.000000,-0.000000,0.000000,0.000000,0.000000,0.000000|eff|0.000000,402.832031,-580.078125,32.226562,72.509766,-20.141602
cobot_dynamixel_driver/joint_states|name|J1,J2,J3,J4,J5,J6|pos|0.000000,0.000088,-0.000288,0.000025,-0.000041,0.000041|vel|0.000000,-0.000000,0.000000,0.000000,0.000000,0.000000|eff|0.000000,241.699219,-499.511719,0.000000,72.509766,-20.141602
cobot_dynamixel_driver/joint_states|name|J1,J2,J3,J4,J5,J6|pos|0.000000,0.000088,-0.000275,0.000025,-0.000041,0.000041|vel|0.000000,-0.000000,0.000209,0.000000,0.000000,0.000000|eff|0.000000,241.699219,-563.964844,48.339844,72.509766,-20.141602
cobot_dynamixel_driver/joint_states|name|J1,J2,J3,J4,J5,J6|pos|0.000000,0.000088,-0.000263,0.000025,-0.000041,0.000041|vel|0.000000,-0.000000,0.000209,0.000000,0.000000,0.000000|eff|0.000000,418.945312,-515.625000,0.000000,68.481445,-20.141602
cobot_dynamixel_driver/joint_states|name|J1,J2,J3,J4,J5,J6|pos|0.000000,0.000088,-0.000263,0.000025,-0.000041,0.000041|vel|0.000000,-0.000000,0.000209,0.000000,0.000000,0.000000|eff|0.000000,402.832031,-580.078125,32.226562,68.481445,-20.141602
cobot_dynamixel_driver/joint_states|name|J1,J2,J3,J4,J5,J6|pos|-0.000013,0.000088,-0.000263,0.000025,-0.000041,0.000041|vel|0.000000,-0.000000,0.000209,0.000000,0.000000,0.000000|eff|0.000000,402.832031,-499.511719,64.453125,72.509766,-20.141602
cobot_dynamixel_driver/joint_states|name|J1,J2,J3,J4,J5,J6|pos|-0.000013,0.000088,-0.000263,0.000025,-0.000041,0.000041|vel|0.000000,-0.000000,0.000209,0.000000,0.000000,0.000000|eff|0.000000,402.832031,-499.511719,0.000000,72.509766,-20.141602
cobot_dynamixel_driver/joint_states|name|J1,J2,J3,J4,J5,J6|pos|-0.000013,0.000088,-0.000250,0.000025,-0.000041,0.000041|vel|0.000000,-0.000000,0.000209,0.000000,0.000000,0.000000|eff|0.000000,386.718750,-467.285156,64.453125,72.509766,-20.141602
cobot_dynamixel_driver/joint_states|name|J1,J2,J3,J4,J5,J6|pos|-0.000013,0.000088,-0.000238,0.000025,-0.000041,0.000041|vel|0.000000,-0.000000,0.000209,0.000000,0.000000,0.000000|eff|-64.453125,418.945312,-467.285156,64.453125,72.509766,-20.141602
cobot_dynamixel_driver/joint_states|name|J1,J2,J3,J4,J5,J6|pos|-0.000013,0.000088,-0.000238,0.000025,-0.000041,0.000041|vel|0.000000,-0.000000,0.000209,0.000000,0.000000,0.000000|eff|-96.679688,338.378906,-483.398438,0.000000,72.509766,-20.141602
cobot_dynamixel_driver/joint_states|name|J1,J2,J3,J4,J5,J6|pos|-0.000013,0.000088,-0.000225,0.000025,-0.000041,0.000041|vel|0.000000,-0.000000,0.000209,0.000000,0.000000,0.000000|eff|0.000000,418.945312,-467.285156,64.453125,72.509766,-20.141602
cobot_dynamixel_driver/joint_states|name|J1,J2,J3,J4,J5,J6|pos|-0.000013,0.000075,-0.000225,0.000025,-0.000041,0.000041|vel|0.000000,-0.000000,0.000209,0.000000,0.000000,0.000000|eff|0.000000,418.945312,-467.285156,64.453125,72.509766,-20.141602
cobot_dynamixel_driver/joint_states|name|J1,J2,J3,J4,J5,J6|pos|-0.000013,0.000075,-0.000225,0.000025,-0.000041,0.000041|vel|0.000000,-0.000000,0.000209,0.000000,0.000000,0.000000|eff|0.000000,418.945312,-467.285156,0.000000,72.509766,-20.141602
cobot_dynamixel_driver/joint_states|name|J1,J2,J3,J4,J5,J6|pos|-0.000013,0.000075,-0.000213,0.000025,-0.000041,0.000041|vel|0.000000,-0.000000,0.000209,0.000000,0.000000,0.000000|eff|0.000000,418.945312,-467.285156,32.226562,72.509766,-20.141602
cobot_dynamixel_driver/joint_states|name|J1,J2,J3,J4,J5,J6|pos|-0.000013,0.000075,-0.000213,0.000025,-0.000021,0.000041|vel|0.000000,-0.000000,0.000000,0.000000,0.000000,0.000000|eff|-96.679688,418.945312,-435.058594,64.453125,72.509766,-20.141602
cobot_dynamixel_driver/joint_states|name|J1,J2,J3,J4,J5,J6|pos|-0.000013,0.000075,-0.000213,0.000025,-0.000021,0.000041|vel|0.000000,-0.000000,0.000000,0.000000,0.000000,0.000000|eff|0.000000,418.945312,-418.945312,0.000000,72.509766,-20.141602
cobot_dynamixel_driver/joint_states|name|J1,J2,J3,J4,J5,J6|pos|-0.000013,0.000075,-0.000200,0.000025,-0.000021,0.000041|vel|0.000000,-0.000000,0.000000,0.000000,0.000000,0.000000|eff|0.000000,418.945312,-418.945312,0.000000,72.509766,-24.169922
cobot_dynamixel_driver/joint_states|name|J1,J2,J3,J4,J5,J6|pos|-0.000013,0.000075,-0.000200,0.000025,-0.000021,0.000041|vel|0.000000,-0.000000,0.000000,0.000000,0.000000,0.000000|eff|0.000000,418.945312,-386.718750,0.000000,72.509766,-16.113281
cobot_dynamixel_driver/joint_states|name|J1,J2,J3,J4,J5,J6|pos|-0.000013,0.000075,-0.000188,0.000025,-0.000021,0.000041|vel|0.000000,-0.000000,0.000000,0.000000,0.000000,0.000000|eff|-32.226562,418.945312,-386.718750,48.339844,72.509766,-20.141602
cobot_dynamixel_driver/joint_states|name|J1,J2,J3,J4,J5,J6|pos|-0.000013,0.000075,-0.000188,0.000025,-0.000021,0.000041|vel|0.000000,-0.000000,0.000209,0.000000,0.000000,0.000000|eff|0.000000,418.945312,-418.945312,0.000000,72.509766,-24.169922
cobot_dynamixel_driver/joint_states|name|J1,J2,J3,J4,J5,J6|pos|-0.000013,0.000075,-0.000163,0.000025,-0.000021,0.000041|vel|0.000000,-0.000000,0.000209,0.000000,0.000000,0.000000|eff|0.000000,418.945312,-370.605469,0.000000,72.509766,-20.141602
cobot_dynamixel_driver/joint_states|name|J1,J2,J3,J4,J5,J6|pos|-0.000013,0.000075,-0.000150,0.000025,-0.000021,0.000041|vel|0.000000,-0.000000,0.000417,0.000000,0.000000,0.000000|eff|0.000000,451.171875,-354.492188,64.453125,72.509766,-24.169922
cobot_dynamixel_driver/joint_states|name|J1,J2,J3,J4,J5,J6|pos|-0.000013,0.000075,-0.000150,0.000025,-0.000021,0.000041|vel|0.000000,-0.000000,0.000417,0.000000,0.000000,0.000000|eff|0.000000,402.832031,-418.945312,0.000000,72.509766,-24.169922
cobot_dynamixel_driver/joint_states|name|J1,J2,J3,J4,J5,J6|pos|-0.000013,0.000075,-0.000125,0.000025,-0.000021,0.000041|vel|0.000000,-0.000000,0.000209,0.000000,0.000000,0.000000|eff|-64.453125,418.945312,-370.605469,32.226562,72.509766,0.000000
cobot_dynamixel_driver/joint_states|name|J1,J2,J3,J4,J5,J6|pos|-0.000013,0.000063,-0.000100,0.000025,-0.000021,0.000041|vel|0.000000,-0.000000,0.001043,0.000000,0.000000,0.000000|eff|0.000000,418.945312,-354.492188,0.000000,72.509766,-20.141602
cobot_dynamixel_driver/joint_states|name|J1,J2,J3,J4,J5,J6|pos|-0.000013,0.000063,-0.000100,0.000025,-0.000021,0.000041|vel|0.000000,-0.000000,0.001043,0.000000,0.000000,0.000000|eff|-96.679688,467.285156,-435.058594,0.000000,72.509766,-24.169922
cobot_dynamixel_driver/joint_states|name|J1,J2,J3,J4,J5,J6|pos|-0.000013,0.000063,-0.000100,0.000025,-0.000021,0.000041|vel|0.000000,-0.000000,0.001043,0.000000,0.000000,0.000000|eff|-32.226562,499.511719,-370.605469,0.000000,72.509766,-24.169922
cobot_dynamixel_driver/joint_states|name|J1,J2,J3,J4,J5,J6|pos|-0.000013,0.000063,-0.000100,0.000025,-0.000021,0.000041|vel|0.000000,-0.000000,0.001043,0.000000,0.000000,0.000000|eff|0.000000,418.945312,-386.718750,0.000000,72.509766,-24.169922
cobot_dynamixel_driver/joint_states|name|J1,J2,J3,J4,J5,J6|pos|-0.000013,0.000063,-0.000100,0.000025,-0.000021,0.000041|vel|0.000000,-0.000000,0.000000,0.000000,0.000000,0.000000|eff|0.000000,418.945312,-386.718750,32.226562,72.509766,-24.169922
cobot_dynamixel_driver/joint_states|name|J1,J2,J3,J4,J5,J6|pos|-0.000013,0.000063,-0.000100,0.000025,-0.000021,0.000041|vel|0.000000,-0.000000,0.000000,0.000000,0.000000,0.000000|eff|0.000000,418.945312,-354.492188,0.000000,72.509766,-24.169922
cobot_dynamixel_driver/joint_states|name|J1,J2,J3,J4,J5,J6|pos|-0.000013,0.000063,-0.000100,0.000025,-0.000021,0.000041|vel|0.000000,-0.000000,0.000000,0.000000,0.000000,0.000000|eff|0.000000,499.511719,-354.492188,32.226562,72.509766,-24.169922
cobot_dynamixel_driver/joint_states|name|J1,J2,J3,J4,J5,J6|pos|-0.000013,0.000063,-0.000088,0.000025,-0.000021,0.000041|vel|0.000000,-0.000000,0.000000,0.000000,0.000000,0.000000|eff|0.000000,418.945312,-370.605469,0.000000,72.509766,-24.169922
