surachairobotic/cobot/cobot_dynamixel_driver/log/2019-07-04T03:29:43.216372_driver_cmd.txt
1562210989.703676,cobot_dynamixel_driver/goal|-:J1,J2,J3,J4,J5:0.000000,-842.184304,-607.786684,-6.267469,-64.872672:eff_
1562210990.042634,cobot_dynamixel_driver/goal|-:J1,J2,J3,J4,J5:0.000000,-842.184304,-607.786684,-6.267469,-64.872672:eff_
1562210990.082753,cobot_dynamixel_driver/goal|-:J1,J2,J3,J4,J5:0.000000,-1141.603515,-757.791921,-6.267558,-64.880001:eff_
1562210990.122698,cobot_dynamixel_driver/goal|-:J1,J2,J3,J4,J5:0.000000,-1140.982740,-757.787011,-6.267537,-64.873949:eff_
1562210990.162732,cobot_dynamixel_driver/goal|-:J1,J2,J3,J4,J5:0.000000,-1138.439613,-607.652865,-6.266916,-64.713724:eff_
1562210990.202697,cobot_dynamixel_driver/goal|-:J1,J2,J3,J4,J5:0.000000,-1137.754403,-607.596111,-6.266627,-64.648635:eff_
1562210990.242758,cobot_dynamixel_driver/goal|-:J1,J2,J3,J4,J5:0.000000,-1136.022646,-607.446691,-6.265804,-64.483824:eff_
1562210990.282727,cobot_dynamixel_driver/goal|-:J1,J2,J3,J4,J5:0.000000,-1135.587349,-607.408594,-6.265581,-64.443174:eff_
1562210990.322730,cobot_dynamixel_driver/goal|-:J1,J2,J3,J4,J5:0.000000,-1134.837187,-607.341844,-6.265179,-64.373161:eff_
1562210990.362772,cobot_dynamixel_driver/goal|-:J1,J2,J3,J4,J5:0.000000,-834.713429,-607.330699,-6.265110,-64.361616:eff_
1562210990.402757,cobot_dynamixel_driver/goal|-:J1,J2,J3,J4,J5:0.000000,-834.708667,-607.330270,-6.265108,-64.361172:eff_
1562210990.442703,cobot_dynamixel_driver/goal|-:J1,J2,J3,J4,J5:0.000000,-834.761039,-607.334991,-6.265137,-64.366057:eff_
1562210990.482720,cobot_dynamixel_driver/goal|-:J1,J2,J3,J4,J5:0.000000,-834.761039,-607.334991,-6.265137,-64.366057:eff_
1562210990.522705,cobot_dynamixel_driver/goal|-:J1,J2,J3,J4,J5:0.000000,-834.761039,-607.334991,-6.265137,-64.366057:eff_
1562210990.562694,cobot_dynamixel_driver/goal|-:J1,J2,J3,J4,J5:0.000000,-834.761039,-607.334991,-6.265137,-64.366057:eff_
1562210990.602740,cobot_dynamixel_driver/goal|-:J1,J2,J3,J4,J5:0.000000,-834.761039,-607.334991,-6.265137,-64.366057:eff_
1562210990.642701,cobot_dynamixel_driver/goal|-:J1,J2,J3,J4,J5:0.000000,-834.761039,-607.334991,-6.265137,-64.366057:eff_
1562210990.682745,cobot_dynamixel_driver/goal|-:J1,J2,J3,J4,J5:0.000000,-834.761039,-607.334991,-6.265137,-64.366057:eff_
1562210990.722707,cobot_dynamixel_driver/goal|-:J1,J2,J3,J4,J5:0.000000,-834.761039,-607.334991,-6.265137,-64.366057:eff_
1562210990.762742,cobot_dynamixel_driver/goal|-:J1,J2,J3,J4,J5:0.000000,-834.761039,-607.334991,-6.265137,-64.366057:eff_
1562210990.802717,cobot_dynamixel_driver/goal|-:J1,J2,J3,J4,J5:0.000000,-834.761039,-607.334991,-6.265137,-64.366057:eff_
1562210990.842697,cobot_dynamixel_driver/goal|-:J1,J2,J3,J4,J5:0.000000,-834.761039,-607.334991,-6.265137,-64.366057:eff_
1562210990.882696,cobot_dynamixel_driver/goal|-:J1,J2,J3,J4,J5:0.000000,-834.761039,-607.334991,-6.265137,-64.366057:eff_
1562210990.922750,cobot_dynamixel_driver/goal|-:J1,J2,J3,J4,J5:0.000000,-834.761039,-607.334991,-6.265137,-64.366057:eff_
1562210990.962723,cobot_dynamixel_driver/goal|-:J1,J2,J3,J4,J5:0.000000,-834.761039,-607.334991,-6.265137,-64.366057:eff_
1562210991.002742,cobot_dynamixel_driver/goal|-:J1,J2,J3,J4,J5:0.000000,-834.761039,-607.334991,-6.265137,-64.366057:eff_
1562210991.042699,cobot_dynamixel_driver/goal|-:J1,J2,J3,J4,J5:0.000000,-834.761039,-607.334991,-6.265137,-64.366057:eff_
1562210991.082762,cobot_dynamixel_driver/goal|-:J1,J2,J3,J4,J5:0.000000,-834.761039,-607.334991,-6.265137,-64.366057:eff_
1562210991.122693,cobot_dynamixel_driver/goal|-:J1,J2,J3,J4,J5:0.000000,-834.761039,-607.334991,-6.265137,-64.366057:eff_
1562210991.162700,cobot_dynamixel_driver/goal|-:J1,J2,J3,J4,J5:0.000000,-834.761039,-607.334991,-6.265137,-64.366057:eff_
1562210991.202705,cobot_dynamixel_driver/goal|-:J1,J2,J3,J4,J5:0.000000,-834.761039,-607.334991,-6.265137,-64.366057:eff_
1562210991.242732,cobot_dynamixel_driver/goal|-:J1,J2,J3,J4,J5:0.000000,-834.761039,-607.334991,-6.265137,-64.366057:eff_
1562210991.282704,cobot_dynamixel_driver/goal|-:J1,J2,J3,J4,J5:0.000000,-834.761039,-607.334991,-6.265137,-64.366057:eff_
1562210991.322706,cobot_dynamixel_driver/goal|-:J1,J2,J3,J4,J5:0.000000,-834.761039,-607.334991,-6.265137,-64.366057:eff_
1562210991.362766,cobot_dynamixel_driver/goal|-:J1,J2,J3,J4,J5:0.000000,-834.761039,-607.334991,-6.265137,-64.366057:eff_
1562210991.402760,cobot_dynamixel_driver/goal|-:J1,J2,J3,J4,J5:0.000000,-834.761039,-607.334991,-6.265137,-64.366057:eff_
1562210991.442734,cobot_dynamixel_driver/goal|-:J1,J2,J3,J4,J5:0.000000,-834.761039,-607.334991,-6.265137,-64.366057:eff_
1562210991.482745,cobot_dynamixel_driver/goal|-:J1,J2,J3,J4,J5:0.000000,-834.761039,-607.334991,-6.265137,-64.366057:eff_
1562210991.522766,cobot_dynamixel_driver/goal|-:J1,J2,J3,J4,J5:0.000000,-834.761039,-607.334991,-6.265137,-64.366057:eff_
1562210991.562732,cobot_dynamixel_driver/goal|-:J1,J2,J3,J4,J5:0.000000,-834.761039,-607.334991,-6.265137,-64.366057:eff_
1562210991.602732,cobot_dynamixel_driver/goal|-:J1,J2,J3,J4,J5:0.000000,-834.761039,-607.334991,-6.265137,-64.366057:eff_
1562210991.642743,cobot_dynamixel_driver/goal|-:J1,J2,J3,J4,J5:0.000000,-834.761039,-607.334991,-6.265137,-64.366057:eff_
1562210991.682707,cobot_dynamixel_driver/goal|-:J1,J2,J3,J4,J5:0.000000,-834.761039,-607.334991,-6.265137,-64.366057:eff_
1562210991.722729,cobot_dynamixel_driver/goal|-:J1,J2,J3,J4,J5:0.000000,-834.761039,-607.334991,-6.265137,-64.366057:eff_
1562210991.762719,cobot_dynamixel_driver/goal|-:J1,J2,J3,J4,J5:0.000000,-834.761039,-607.334991,-6.265137,-64.366057:eff_
1562210991.802766,cobot_dynamixel_driver/goal|-:J1,J2,J3,J4,J5:0.000000,-834.761039,-607.334991,-6.265137,-64.366057:eff_
1562210991.842761,cobot_dynamixel_driver/goal|-:J1,J2,J3,J4,J5:0.000000,-834.761039,-607.334991,-6.265137,-64.366057:eff_
1562210991.882721,cobot_dynamixel_driver/goal|-:J1,J2,J3,J4,J5:0.000000,-834.761039,-607.334991,-6.265137,-64.366057:eff_
1562210991.922762,cobot_dynamixel_driver/goal|-:J1,J2,J3,J4,J5:0.000000,-834.761039,-607.334991,-6.265137,-64.366057:eff_
1562210991.962715,cobot_dynamixel_driver/goal|-:J1,J2,J3,J4,J5:0.000000,-834.761039,-607.334991,-6.265137,-64.366057:eff_
1562210992.002709,cobot_dynamixel_driver/goal|-:J1,J2,J3,J4,J5:0.000000,-834.761039,-607.334991,-6.265137,-64.366057:eff_
1562210992.042699,cobot_dynamixel_driver/goal|-:J1,J2,J3,J4,J5:0.000000,-834.761039,-607.334991,-6.265137,-64.366057:eff_
1562210992.082725,cobot_dynamixel_driver/goal|-:J1,J2,J3,J4,J5:0.000000,-834.761039,-607.334991,-6.265137,-64.366057:eff_
1562210992.122740,cobot_dynamixel_driver/goal|-:J1,J2,J3,J4,J5:0.000000,-834.761039,-607.334991,-6.265137,-64.366057:eff_
1562210992.162703,cobot_dynamixel_driver/goal|-:J1,J2,J3,J4,J5:0.000000,-834.761039,-607.334991,-6.265137,-64.366057:eff_
1562210992.202703,cobot_dynamixel_driver/goal|-:J1,J2,J3,J4,J5:0.000000,-834.761039,-607.334991,-6.265137,-64.366057:eff_
1562210992.242733,cobot_dynamixel_driver/goal|-:J1,J2,J3,J4,J5:0.000000,-834.761039,-607.334991,-6.265137,-64.366057:eff_
1562210992.282732,cobot_dynamixel_driver/goal|-:J1,J2,J3,J4,J5:0.000000,-834.761039,-607.334991,-6.265137,-64.366057:eff_
1562210992.322697,cobot_dynamixel_driver/goal|-:J1,J2,J3,J4,J5:0.000000,-834.761039,-607.334991,-6.265137,-64.366057:eff_
1562210992.362701,cobot_dynamixel_driver/goal|-:J1,J2,J3,J4,J5:0.000000,-834.761039,-607.334991,-6.265137,-64.366057:eff_
1562210992.402752,cobot_dynamixel_driver/goal|-:J1,J2,J3,J4,J5:0.000000,-834.761039,-607.334991,-6.265137,-64.366057:eff_
1562210992.442698,cobot_dynamixel_driver/goal|-:J1,J2,J3,J4,J5:0.000000,-834.761039,-607.334991,-6.265137,-64.366057:eff_
1562210992.482710,cobot_dynamixel_driver/goal|-:J1,J2,J3,J4,J5:0.000000,-834.761039,-607.334991,-6.265137,-64.366057:eff_
1562210992.522704,cobot_dynamixel_driver/goal|-:J1,J2,J3,J4,J5:0.000000,-834.761039,-607.334991,-6.265137,-64.366057:eff_
1562210992.562745,cobot_dynamixel_driver/goal|-:J1,J2,J3,J4,J5:0.000000,-834.761039,-607.334991,-6.265137,-64.366057:eff_
1562210992.602731,cobot_dynamixel_driver/goal|-:J1,J2,J3,J4,J5:0.000000,-834.761039,-607.334991,-6.265137,-64.366057:eff_
1562210992.642699,cobot_dynamixel_driver/goal|-:J1,J2,J3,J4,J5:0.000000,-834.761039,-607.334991,-6.265137,-64.366057:eff_
1562210992.682709,cobot_dynamixel_driver/goal|-:J1,J2,J3,J4,J5:0.000000,-834.761039,-607.334991,-6.265137,-64.366057:eff_
1562210992.722728,cobot_dynamixel_driver/goal|-:J1,J2,J3,J4,J5:0.000000,-834.761039,-607.334991,-6.265137,-64.366057:eff_
1562210992.762699,cobot_dynamixel_driver/goal|-:J1,J2,J3,J4,J5:0.000000,-834.761039,-607.334991,-6.265137,-64.366057:eff_
1562210992.802696,cobot_dynamixel_driver/goal|-:J1,J2,J3,J4,J5:0.000000,-834.761039,-607.334991,-6.265137,-64.366057:eff_
1562210992.842695,cobot_dynamixel_driver/goal|-:J1,J2,J3,J4,J5:0.000000,-834.761039,-607.334991,-6.265137,-64.366057:eff_
1562210992.882702,cobot_dynamixel_driver/goal|-:J1,J2,J3,J4,J5:0.000000,-834.761039,-607.334991,-6.265137,-64.366057:eff_
1562210992.922701,cobot_dynamixel_driver/goal|-:J1,J2,J3,J4,J5:0.000000,-834.761039,-607.334991,-6.265137,-64.366057:eff_
1562210992.962711,cobot_dynamixel_driver/goal|-:J1,J2,J3,J4,J5:0.000000,-834.761039,-607.334991,-6.265137,-64.366057:eff_
1562210993.002751,cobot_dynamixel_driver/goal|-:J1,J2,J3,J4,J5:0.000000,-834.761039,-607.334991,-6.265137,-64.366057:eff_
1562210993.042692,cobot_dynamixel_driver/goal|-:J1,J2,J3,J4,J5:0.000000,-834.761039,-607.334991,-6.265137,-64.366057:eff_
1562210993.082711,cobot_dynamixel_driver/goal|-:J1,J2,J3,J4,J5:0.000000,-834.761039,-607.334991,-6.265137,-64.366057:eff_
1562210993.122702,cobot_dynamixel_driver/goal|-:J1,J2,J3,J4,J5:0.000000,-834.761039,-607.334991,-6.265137,-64.366057:eff_
1562210993.162754,cobot_dynamixel_driver/goal|-:J1,J2,J3,J4,J5:0.000000,-834.761039,-607.334991,-6.265137,-64.366057:eff_
1562210993.202699,cobot_dynamixel_driver/goal|-:J1,J2,J3,J4,J5:0.000000,-834.761039,-607.334991,-6.265137,-64.366057:eff_
1562210993.242759,cobot_dynamixel_driver/goal|-:J1,J2,J3,J4,J5:0.000000,-834.761039,-607.334991,-6.265137,-64.366057:eff_
1562210993.282726,cobot_dynamixel_driver/goal|-:J1,J2,J3,J4,J5:0.000000,-834.761039,-607.334991,-6.265137,-64.366057:eff_
1562210993.322702,cobot_dynamixel_driver/goal|-:J1,J2,J3,J4,J5:0.000000,-834.761039,-607.334991,-6.265137,-64.366057:eff_
1562210993.362741,cobot_dynamixel_driver/goal|-:J1,J2,J3,J4,J5:0.000000,-834.761039,-607.334991,-6.265137,-64.366057:eff_
1562210993.402731,cobot_dynamixel_driver/goal|-:J1,J2,J3,J4,J5:0.000000,-834.761039,-607.334991,-6.265137,-64.366057:eff_
1562210993.442705,cobot_dynamixel_driver/goal|-:J1,J2,J3,J4,J5:0.000000,-834.761039,-607.334991,-6.265137,-64.366057:eff_
1562210993.482701,cobot_dynamixel_driver/goal|-:J1,J2,J3,J4,J5:0.000000,-834.761039,-607.334991,-6.265137,-64.366057:eff_
1562210993.522703,cobot_dynamixel_driver/goal|-:J1,J2,J3,J4,J5:0.000000,-834.761039,-607.334991,-6.265137,-64.366057:eff_
1562210993.562691,cobot_dynamixel_driver/goal|-:J1,J2,J3,J4,J5:0.000000,-834.761039,-607.334991,-6.265137,-64.366057:eff_
1562210993.602690,cobot_dynamixel_driver/goal|-:J1,J2,J3,J4,J5:0.000000,-834.761039,-607.334991,-6.265137,-64.366057:eff_
1562210993.642734,cobot_dynamixel_driver/goal|-:J1,J2,J3,J4,J5:0.000000,-834.761039,-607.334991,-6.265137,-64.366057:eff_
1562210993.702699,cobot_dynamixel_driver/goal|-:J1,J2,J3,J4,J5:0.000000,-834.761039,-607.334991,-6.265137,-64.366057:eff_
1562210993.722760,cobot_dynamixel_driver/goal|-:J1,J2,J3,J4,J5:0.000000,-834.761039,-607.334991,-6.265137,-64.366057:eff_
1562210993.762728,cobot_dynamixel_driver/goal|-:J1,J2,J3,J4,J5:0.000000,-834.761039,-607.334991,-6.265137,-64.366057:eff_
1562210993.802702,cobot_dynamixel_driver/goal|-:J1,J2,J3,J4,J5:0.000000,-834.761039,-607.334991,-6.265137,-64.366057:eff_
1562210993.842708,cobot_dynamixel_driver/goal|-:J1,J2,J3,J4,J5:0.000000,-834.761039,-607.334991,-6.265137,-64.366057:eff_
1562210993.882753,cobot_dynamixel_driver/goal|-:J1,J2,J3,J4,J5:0.000000,-834.761039,-607.334991,-6.265137,-64.366057:eff_
1562210993.922700,cobot_dynamixel_driver/goal|-:J1,J2,J3,J4,J5:0.000000,-834.761039,-607.334991,-6.265137,-64.366057:eff_
1562210993.962738,cobot_dynamixel_driver/goal|-:J1,J2,J3,J4,J5:0.000000,-834.761039,-607.334991,-6.265137,-64.366057:eff_
1562210994.002730,cobot_dynamixel_driver/goal|-:J1,J2,J3,J4,J5:0.000000,-834.761039,-607.334991,-6.265137,-64.366057:eff_
1562210994.042737,cobot_dynamixel_driver/goal|-:J1,J2,J3,J4,J5:0.000000,-834.761039,-607.334991,-6.265137,-64.366057:eff_
1562210994.082731,cobot_dynamixel_driver/goal|-:J1,J2,J3,J4,J5:0.000000,-834.761039,-607.334991,-6.265137,-64.366057:eff_
1562210994.122769,cobot_dynamixel_driver/goal|-:J1,J2,J3,J4,J5:0.000000,-834.761039,-607.334991,-6.265137,-64.366057:eff_
1562210994.162779,cobot_dynamixel_driver/goal|-:J1,J2,J3,J4,J5:0.000000,-834.761039,-607.334991,-6.265137,-64.366057:eff_
1562210994.202756,cobot_dynamixel_driver/goal|-:J1,J2,J3,J4,J5:0.000000,-834.761039,-607.334991,-6.265137,-64.366057:eff_
1562210994.242735,cobot_dynamixel_driver/goal|-:J1,J2,J3,J4,J5:0.000000,-834.761039,-607.334991,-6.265137,-64.366057:eff_
1562210994.282695,cobot_dynamixel_driver/goal|-:J1,J2,J3,J4,J5:0.000000,-834.761039,-607.334991,-6.265137,-64.366057:eff_
1562210994.322700,cobot_dynamixel_driver/goal|-:J1,J2,J3,J4,J5:0.000000,-834.761039,-607.334991,-6.265137,-64.366057:eff_
1562210994.362704,cobot_dynamixel_driver/goal|-:J1,J2,J3,J4,J5:0.000000,-834.761039,-607.334991,-6.265137,-64.366057:eff_
1562210994.402737,cobot_dynamixel_driver/goal|-:J1,J2,J3,J4,J5:0.000000,-834.761039,-607.334991,-6.265137,-64.366057:eff_
1562210994.442708,cobot_dynamixel_driver/goal|-:J1,J2,J3,J4,J5:0.000000,-834.761039,-607.334991,-6.265137,-64.366057:eff_
1562210994.482766,cobot_dynamixel_driver/goal|-:J1,J2,J3,J4,J5:0.000000,-834.761039,-607.334991,-6.265137,-64.366057:eff_
1562210994.522698,cobot_dynamixel_driver/goal|-:J1,J2,J3,J4,J5:0.000000,-834.761039,-607.334991,-6.265137,-64.366057:eff_
1562210994.562772,cobot_dynamixel_driver/goal|-:J1,J2,J3,J4,J5:0.000000,-834.761039,-607.334991,-6.265137,-64.366057:eff_
1562210994.602746,cobot_dynamixel_driver/goal|-:J1,J2,J3,J4,J5:0.000000,-834.761039,-607.334991,-6.265137,-64.366057:eff_
1562210994.662746,cobot_dynamixel_driver/goal|-:J1,J2,J3,J4,J5:0.000000,-834.761039,-607.334991,-6.265137,-64.366057:eff_
1562210994.682708,cobot_dynamixel_driver/goal|-:J1,J2,J3,J4,J5:0.000000,-834.761039,-607.334991,-6.265137,-64.366057:eff_
1562210994.722700,cobot_dynamixel_driver/goal|-:J1,J2,J3,J4,J5:0.000000,-834.761039,-607.334991,-6.265137,-64.366057:eff_
1562210994.762711,cobot_dynamixel_driver/goal|-:J1,J2,J3,J4,J5:0.000000,-834.761039,-607.334991,-6.265137,-64.366057:eff_
1562210994.802759,cobot_dynamixel_driver/goal|-:J1,J2,J3,J4,J5:0.000000,-834.761039,-607.334991,-6.265137,-64.366057:eff_
1562210994.842702,cobot_dynamixel_driver/goal|-:J1,J2,J3,J4,J5:0.000000,-834.761039,-607.334991,-6.265137,-64.366057:eff_
1562210994.882771,cobot_dynamixel_driver/goal|-:J1,J2,J3,J4,J5:0.000000,-834.761039,-607.334991,-6.265137,-64.366057:eff_
1562210994.922745,cobot_dynamixel_driver/goal|-:J1,J2,J3,J4,J5:0.000000,-834.761039,-607.334991,-6.265137,-64.366057:eff_
1562210994.962737,cobot_dynamixel_driver/goal|-:J1,J2,J3,J4,J5:0.000000,-834.761039,-607.334991,-6.265137,-64.366057:eff_
1562210995.002704,cobot_dynamixel_driver/goal|-:J1,J2,J3,J4,J5:0.000000,-834.761039,-607.334991,-6.265137,-64.366057:eff_
1562210995.062712,cobot_dynamixel_driver/goal|-:J1,J2,J3,J4,J5:0.000000,-834.761039,-607.334991,-6.265137,-64.366057:eff_
1562210995.082752,cobot_dynamixel_driver/goal|-:J1,J2,J3,J4,J5:0.000000,-834.761039,-607.334991,-6.265137,-64.366057:eff_
1562210995.142707,cobot_dynamixel_driver/goal|-:J1,J2,J3,J4,J5:0.000000,-834.761039,-607.334991,-6.265137,-64.366057:eff_
1562210995.162719,cobot_dynamixel_driver/goal|-:J1,J2,J3,J4,J5:0.000000,-834.761039,-607.334991,-6.265137,-64.366057:eff_
1562210995.202697,cobot_dynamixel_driver/goal|-:J1,J2,J3,J4,J5:0.000000,-834.761039,-607.334991,-6.265137,-64.366057:eff_
1562210995.242694,cobot_dynamixel_driver/goal|-:J1,J2,J3,J4,J5:0.000000,-834.761039,-607.334991,-6.265137,-64.366057:eff_
1562210995.282700,cobot_dynamixel_driver/goal|-:J1,J2,J3,J4,J5:0.000000,-834.761039,-607.334991,-6.265137,-64.366057:eff_
1562210995.302782,cobot_dynamixel_driver/goal|-:J1,J2,J3,J4,J5:0.000000,-834.761039,-607.334991,-6.265137,-64.366057:eff_
1562210995.342704,cobot_dynamixel_driver/goal|-:J1,J2,J3,J4,J5:0.000000,-834.761039,-607.334991,-6.265137,-64.366057:eff_
1562210995.402738,cobot_dynamixel_driver/goal|-:J1,J2,J3,J4,J5:0.000000,-834.761039,-607.334991,-6.265137,-64.366057:eff_
1562210995.442708,cobot_dynamixel_driver/goal|-:J1,J2,J3,J4,J5:0.000000,-834.761039,-607.334991,-6.265137,-64.366057:eff_
1562210995.482732,cobot_dynamixel_driver/goal|-:J1,J2,J3,J4,J5:0.000000,-834.761039,-607.334991,-6.265137,-64.366057:eff_
1562210995.542759,cobot_dynamixel_driver/goal|-:J1,J2,J3,J4,J5:0.000000,-834.761039,-607.334991,-6.265137,-64.366057:eff_
1562210995.562702,cobot_dynamixel_driver/goal|-:J1,J2,J3,J4,J5:0.000000,-834.761039,-607.334991,-6.265137,-64.366057:eff_
1562210995.602756,cobot_dynamixel_driver/goal|-:J1,J2,J3,J4,J5:0.000000,-834.761039,-607.334991,-6.265137,-64.366057:eff_
1562210995.642714,cobot_dynamixel_driver/goal|-:J1,J2,J3,J4,J5:0.000000,-834.761039,-607.334991,-6.265137,-64.366057:eff_
1562210995.702769,cobot_dynamixel_driver/goal|-:J1,J2,J3,J4,J5:0.000000,-834.761039,-607.334991,-6.265137,-64.366057:eff_
1562210995.742720,cobot_dynamixel_driver/goal|-:J1,J2,J3,J4,J5:0.000000,-834.761039,-607.334991,-6.265137,-64.366057:eff_
1562210995.782734,cobot_dynamixel_driver/goal|-:J1,J2,J3,J4,J5:0.000000,-834.761039,-607.334991,-6.265137,-64.366057:eff_
1562210995.822695,cobot_dynamixel_driver/goal|-:J1,J2,J3,J4,J5:0.000000,-834.761039,-607.334991,-6.265137,-64.366057:eff_
1562210995.862713,cobot_dynamixel_driver/goal|-:J1,J2,J3,J4,J5:0.000000,-834.761039,-607.334991,-6.265137,-64.366057:eff_
1562210995.902705,cobot_dynamixel_driver/goal|-:J1,J2,J3,J4,J5:0.000000,-834.761039,-607.334991,-6.265137,-64.366057:eff_
1562210995.942751,cobot_dynamixel_driver/goal|-:J1,J2,J3,J4,J5:0.000000,-834.761039,-607.334991,-6.265137,-64.366057:eff_
1562210995.982699,cobot_dynamixel_driver/goal|-:J1,J2,J3,J4,J5:0.000000,-834.761039,-607.334991,-6.265137,-64.366057:eff_
1562210996.022702,cobot_dynamixel_driver/goal|-:J1,J2,J3,J4,J5:0.000000,-834.761039,-607.334991,-6.265137,-64.366057:eff_
1562210996.062697,cobot_dynamixel_driver/goal|-:J1,J2,J3,J4,J5:0.000000,-834.761039,-607.334991,-6.265137,-64.366057:eff_
1562210996.102700,cobot_dynamixel_driver/goal|-:J1,J2,J3,J4,J5:0.000000,-834.761039,-607.334991,-6.265137,-64.366057:eff_
1562210996.142750,cobot_dynamixel_driver/goal|-:J1,J2,J3,J4,J5:0.000000,-834.761039,-607.334991,-6.265137,-64.366057:eff_
1562210996.182751,cobot_dynamixel_driver/goal|-:J1,J2,J3,J4,J5:0.000000,-834.761039,-607.334991,-6.265137,-64.366057:eff_
1562210996.222727,cobot_dynamixel_driver/goal|-:J1,J2,J3,J4,J5:0.000000,-834.761039,-607.334991,-6.265137,-64.366057:eff_
1562210996.262754,cobot_dynamixel_driver/goal|-:J1,J2,J3,J4,J5:0.000000,-834.761039,-607.334991,-6.265137,-64.366057:eff_
1562210996.302704,cobot_dynamixel_driver/goal|-:J1,J2,J3,J4,J5:0.000000,-834.761039,-607.334991,-6.265137,-64.366057:eff_
1562210996.342709,cobot_dynamixel_driver/goal|-:J1,J2,J3,J4,J5:0.000000,-834.761039,-607.334991,-6.265137,-64.366057:eff_
1562210996.382704,cobot_dynamixel_driver/goal|-:J1,J2,J3,J4,J5:0.000000,-834.761039,-607.334991,-6.265137,-64.366057:eff_
1562210996.422734,cobot_dynamixel_driver/goal|-:J1,J2,J3,J4,J5:0.000000,-834.761039,-607.334991,-6.265137,-64.366057:eff_
1562210996.462696,cobot_dynamixel_driver/goal|-:J1,J2,J3,J4,J5:0.000000,-834.761039,-607.334991,-6.265137,-64.366057:eff_
1562210996.502756,cobot_dynamixel_driver/goal|-:J1,J2,J3,J4,J5:0.000000,-834.761039,-607.334991,-6.265137,-64.366057:eff_
1562210996.542706,cobot_dynamixel_driver/goal|-:J1,J2,J3,J4,J5:0.000000,-834.761039,-607.334991,-6.265137,-64.366057:eff_
1562210996.582735,cobot_dynamixel_driver/goal|-:J1,J2,J3,J4,J5:0.000000,-834.761039,-607.334991,-6.265137,-64.366057:eff_
1562210996.622698,cobot_dynamixel_driver/goal|-:J1,J2,J3,J4,J5:0.000000,-834.761039,-607.334991,-6.265137,-64.366057:eff_
1562210996.662768,cobot_dynamixel_driver/goal|-:J1,J2,J3,J4,J5:0.000000,-834.761039,-607.334991,-6.265137,-64.366057:eff_
1562210996.702733,cobot_dynamixel_driver/goal|-:J1,J2,J3,J4,J5:0.000000,-834.761039,-607.334991,-6.265137,-64.366057:eff_
1562210996.742733,cobot_dynamixel_driver/goal|-:J1,J2,J3,J4,J5:0.000000,-834.761039,-607.334991,-6.265137,-64.366057:eff_
1562210996.782735,cobot_dynamixel_driver/goal|-:J1,J2,J3,J4,J5:0.000000,-834.761039,-607.334991,-6.265137,-64.366057:eff_
1562210996.822741,cobot_dynamixel_driver/goal|-:J1,J2,J3,J4,J5:0.000000,-834.761039,-607.334991,-6.265137,-64.366057:eff_
1562210996.862703,cobot_dynamixel_driver/goal|-:J1,J2,J3,J4,J5:0.000000,-834.761039,-607.334991,-6.265137,-64.366057:eff_
1562210996.902699,cobot_dynamixel_driver/goal|-:J1,J2,J3,J4,J5:0.000000,-834.761039,-607.334991,-6.265137,-64.366057:eff_
1562210996.942693,cobot_dynamixel_driver/goal|-:J1,J2,J3,J4,J5:0.000000,-834.761039,-607.334991,-6.265137,-64.366057:eff_
1562210996.982702,cobot_dynamixel_driver/goal|-:J1,J2,J3,J4,J5:0.000000,-834.761039,-607.334991,-6.265137,-64.366057:eff_
1562210997.022722,cobot_dynamixel_driver/goal|-:J1,J2,J3,J4,J5:0.000000,-834.761039,-607.334991,-6.265137,-64.366057:eff_
1562210997.062768,cobot_dynamixel_driver/goal|-:J1,J2,J3,J4,J5:0.000000,-834.761039,-607.334991,-6.265137,-64.366057:eff_
1562210997.102694,cobot_dynamixel_driver/goal|-:J1,J2,J3,J4,J5:0.000000,-834.761039,-607.334991,-6.265137,-64.366057:eff_
1562210997.142706,cobot_dynamixel_driver/goal|-:J1,J2,J3,J4,J5:0.000000,-834.761039,-607.334991,-6.265137,-64.366057:eff_
1562210997.182741,cobot_dynamixel_driver/goal|-:J1,J2,J3,J4,J5:0.000000,-834.761039,-607.334991,-6.265137,-64.366057:eff_
1562210997.222758,cobot_dynamixel_driver/goal|-:J1,J2,J3,J4,J5:0.000000,-834.761039,-607.334991,-6.265137,-64.366057:eff_
1562210997.262703,cobot_dynamixel_driver/goal|-:J1,J2,J3,J4,J5:0.000000,-834.761039,-607.334991,-6.265137,-64.366057:eff_
1562210997.302700,cobot_dynamixel_driver/goal|-:J1,J2,J3,J4,J5:0.000000,-834.761039,-607.334991,-6.265137,-64.366057:eff_
1562210997.342704,cobot_dynamixel_driver/goal|-:J1,J2,J3,J4,J5:0.000000,-834.761039,-607.334991,-6.265137,-64.366057:eff_
1562210997.382758,cobot_dynamixel_driver/goal|-:J1,J2,J3,J4,J5:0.000000,-834.761039,-607.334991,-6.265137,-64.366057:eff_
1562210997.422693,cobot_dynamixel_driver/goal|-:J1,J2,J3,J4,J5:0.000000,-834.761039,-607.334991,-6.265137,-64.366057:eff_
1562210997.462740,cobot_dynamixel_driver/goal|-:J1,J2,J3,J4,J5:0.000000,-834.761039,-607.334991,-6.265137,-64.366057:eff_
1562210997.502735,cobot_dynamixel_driver/goal|-:J1,J2,J3,J4,J5:0.000000,-834.761039,-607.334991,-6.265137,-64.366057:eff_
1562210997.542761,cobot_dynamixel_driver/goal|-:J1,J2,J3,J4,J5:0.000000,-834.761039,-607.334991,-6.265137,-64.366057:eff_
1562210997.582695,cobot_dynamixel_driver/goal|-:J1,J2,J3,J4,J5:0.000000,-834.761039,-607.334991,-6.265137,-64.366057:eff_
1562210997.622741,cobot_dynamixel_driver/goal|-:J1,J2,J3,J4,J5:0.000000,-834.761039,-607.334991,-6.265137,-64.366057:eff_
1562210997.662704,cobot_dynamixel_driver/goal|-:J1,J2,J3,J4,J5:0.000000,-834.761039,-607.334991,-6.265137,-64.366057:eff_
1562210997.702736,cobot_dynamixel_driver/goal|-:J1,J2,J3,J4,J5:0.000000,-834.761039,-607.334991,-6.265137,-64.366057:eff_
1562210997.742704,cobot_dynamixel_driver/goal|-:J1,J2,J3,J4,J5:0.000000,-834.761039,-607.334991,-6.265137,-64.366057:eff_
1562210997.782757,cobot_dynamixel_driver/goal|-:J1,J2,J3,J4,J5:0.000000,-834.761039,-607.334991,-6.265137,-64.366057:eff_
1562210997.822693,cobot_dynamixel_driver/goal|-:J1,J2,J3,J4,J5:0.000000,-834.761039,-607.334991,-6.265137,-64.366057:eff_
1562210997.862695,cobot_dynamixel_driver/goal|-:J1,J2,J3,J4,J5:0.000000,-834.761039,-607.334991,-6.265137,-64.366057:eff_
1562210997.902734,cobot_dynamixel_driver/goal|-:J1,J2,J3,J4,J5:0.000000,-834.761039,-607.334991,-6.265137,-64.366057:eff_
1562210997.942760,cobot_dynamixel_driver/goal|-:J1,J2,J3,J4,J5:0.000000,-834.761039,-607.334991,-6.265137,-64.366057:eff_
1562210997.982715,cobot_dynamixel_driver/goal|-:J1,J2,J3,J4,J5:0.000000,-834.761039,-607.334991,-6.265137,-64.366057:eff_
1562210998.022736,cobot_dynamixel_driver/goal|-:J1,J2,J3,J4,J5:0.000000,-834.761039,-607.334991,-6.265137,-64.366057:eff_
1562210998.062722,cobot_dynamixel_driver/goal|-:J1,J2,J3,J4,J5:0.000000,-834.761039,-607.334991,-6.265137,-64.366057:eff_
1562210998.102706,cobot_dynamixel_driver/goal|-:J1,J2,J3,J4,J5:0.000000,-834.761039,-607.334991,-6.265137,-64.366057:eff_
1562210998.142709,cobot_dynamixel_driver/goal|-:J1,J2,J3,J4,J5:0.000000,-834.761039,-607.334991,-6.265137,-64.366057:eff_
1562210998.182735,cobot_dynamixel_driver/goal|-:J1,J2,J3,J4,J5:0.000000,-834.761039,-607.334991,-6.265137,-64.366057:eff_
1562210998.222691,cobot_dynamixel_driver/goal|-:J1,J2,J3,J4,J5:0.000000,-834.761039,-607.334991,-6.265137,-64.366057:eff_
1562210998.262738,cobot_dynamixel_driver/goal|-:J1,J2,J3,J4,J5:0.000000,-834.761039,-607.334991,-6.265137,-64.366057:eff_
1562210998.302700,cobot_dynamixel_driver/goal|-:J1,J2,J3,J4,J5:0.000000,-834.761039,-607.334991,-6.265137,-64.366057:eff_
1562210998.342700,cobot_dynamixel_driver/goal|-:J1,J2,J3,J4,J5:0.000000,-834.761039,-607.334991,-6.265137,-64.366057:eff_
1562210998.382694,cobot_dynamixel_driver/goal|-:J1,J2,J3,J4,J5:0.000000,-834.761039,-607.334991,-6.265137,-64.366057:eff_
1562210998.422723,cobot_dynamixel_driver/goal|-:J1,J2,J3,J4,J5:0.000000,-834.761039,-607.334991,-6.265137,-64.366057:eff_
1562210998.462697,cobot_dynamixel_driver/goal|-:J1,J2,J3,J4,J5:0.000000,-834.761039,-607.334991,-6.265137,-64.366057:eff_
1562210998.502753,cobot_dynamixel_driver/goal|-:J1,J2,J3,J4,J5:0.000000,-834.761039,-607.334991,-6.265137,-64.366057:eff_
1562210998.542729,cobot_dynamixel_driver/goal|-:J1,J2,J3,J4,J5:0.000000,-834.761039,-607.334991,-6.265137,-64.366057:eff_
1562210998.582695,cobot_dynamixel_driver/goal|-:J1,J2,J3,J4,J5:0.000000,-834.761039,-607.334991,-6.265137,-64.366057:eff_
1562210998.622703,cobot_dynamixel_driver/goal|-:J1,J2,J3,J4,J5:0.000000,-834.761039,-607.334991,-6.265137,-64.366057:eff_
1562210998.662742,cobot_dynamixel_driver/goal|-:J1,J2,J3,J4,J5:0.000000,-834.761039,-607.334991,-6.265137,-64.366057:eff_
1562210998.702694,cobot_dynamixel_driver/goal|-:J1,J2,J3,J4,J5:0.000000,-834.761039,-607.334991,-6.265137,-64.366057:eff_
1562210998.742740,cobot_dynamixel_driver/goal|-:J1,J2,J3,J4,J5:0.000000,-834.761039,-607.334991,-6.265137,-64.366057:eff_
1562210998.782740,cobot_dynamixel_driver/goal|-:J1,J2,J3,J4,J5:0.000000,-834.761039,-607.334991,-6.265137,-64.366057:eff_
1562210998.822760,cobot_dynamixel_driver/goal|-:J1,J2,J3,J4,J5:0.000000,-834.761039,-607.334991,-6.265137,-64.366057:eff_
1562210998.862715,cobot_dynamixel_driver/goal|-:J1,J2,J3,J4,J5:0.000000,-834.761039,-607.334991,-6.265137,-64.366057:eff_
1562210998.902719,cobot_dynamixel_driver/goal|-:J1,J2,J3,J4,J5:0.000000,-834.761039,-607.334991,-6.265137,-64.366057:eff_
1562210998.942737,cobot_dynamixel_driver/goal|-:J1,J2,J3,J4,J5:0.000000,-834.761039,-607.334991,-6.265137,-64.366057:eff_
1562210998.982775,cobot_dynamixel_driver/goal|-:J1,J2,J3,J4,J5:0.000000,-834.761039,-607.334991,-6.265137,-64.366057:eff_
1562210999.022694,cobot_dynamixel_driver/goal|-:J1,J2,J3,J4,J5:0.000000,-834.761039,-607.334991,-6.265137,-64.366057:eff_
1562210999.062711,cobot_dynamixel_driver/goal|-:J1,J2,J3,J4,J5:0.000000,-834.761039,-607.334991,-6.265137,-64.366057:eff_
1562210999.102704,cobot_dynamixel_driver/goal|-:J1,J2,J3,J4,J5:0.000000,-834.761039,-607.334991,-6.265137,-64.366057:eff_
1562210999.142741,cobot_dynamixel_driver/goal|-:J1,J2,J3,J4,J5:0.000000,-834.761039,-607.334991,-6.265137,-64.366057:eff_
1562210999.182703,cobot_dynamixel_driver/goal|-:J1,J2,J3,J4,J5:0.000000,-834.761039,-607.334991,-6.265137,-64.366057:eff_
1562210999.222701,cobot_dynamixel_driver/goal|-:J1,J2,J3,J4,J5:0.000000,-834.761039,-607.334991,-6.265137,-64.366057:eff_
1562210999.262700,cobot_dynamixel_driver/goal|-:J1,J2,J3,J4,J5:0.000000,-834.761039,-607.334991,-6.265137,-64.366057:eff_
1562210999.302758,cobot_dynamixel_driver/goal|-:J1,J2,J3,J4,J5:0.000000,-834.761039,-607.334991,-6.265137,-64.366057:eff_
1562210999.342698,cobot_dynamixel_driver/goal|-:J1,J2,J3,J4,J5:0.000000,-834.761039,-607.334991,-6.265137,-64.366057:eff_
1562210999.382756,cobot_dynamixel_driver/goal|-:J1,J2,J3,J4,J5:0.000000,-834.761039,-607.334991,-6.265137,-64.366057:eff_
1562210999.422693,cobot_dynamixel_driver/goal|-:J1,J2,J3,J4,J5:0.000000,-834.761039,-607.334991,-6.265137,-64.366057:eff_
1562210999.462739,cobot_dynamixel_driver/goal|-:J1,J2,J3,J4,J5:0.000000,-834.761039,-607.334991,-6.265137,-64.366057:eff_
1562210999.502744,cobot_dynamixel_driver/goal|-:J1,J2,J3,J4,J5:0.000000,-834.761039,-607.334991,-6.265137,-64.366057:eff_
1562210999.542732,cobot_dynamixel_driver/goal|-:J1,J2,J3,J4,J5:0.000000,-834.761039,-607.334991,-6.265137,-64.366057:eff_
1562210999.582741,cobot_dynamixel_driver/goal|-:J1,J2,J3,J4,J5:0.000000,-834.761039,-607.334991,-6.265137,-64.366057:eff_
1562210999.622766,cobot_dynamixel_driver/goal|-:J1,J2,J3,J4,J5:0.000000,-834.761039,-607.334991,-6.265137,-64.366057:eff_
1562210999.662740,cobot_dynamixel_driver/goal|-:J1,J2,J3,J4,J5:0.000000,-834.761039,-607.334991,-6.265137,-64.366057:eff_
1562210999.702722,cobot_dynamixel_driver/goal|-:J1,J2,J3,J4,J5:0.000000,-834.761039,-607.334991,-6.265137,-64.366057:eff_
1562210999.742721,cobot_dynamixel_driver/goal|-:J1,J2,J3,J4,J5:0.000000,-834.761039,-607.334991,-6.265137,-64.366057:eff_
1562210999.782746,cobot_dynamixel_driver/goal|-:J1,J2,J3,J4,J5:0.000000,-834.761039,-607.334991,-6.265137,-64.366057:eff_
1562210999.822697,cobot_dynamixel_driver/goal|-:J1,J2,J3,J4,J5:0.000000,-834.761039,-607.334991,-6.265137,-64.366057:eff_
1562210999.862697,cobot_dynamixel_driver/goal|-:J1,J2,J3,J4,J5:0.000000,-834.761039,-607.334991,-6.265137,-64.366057:eff_
1562210999.902696,cobot_dynamixel_driver/goal|-:J1,J2,J3,J4,J5:0.000000,-834.761039,-607.334991,-6.265137,-64.366057:eff_
1562210999.942719,cobot_dynamixel_driver/goal|-:J1,J2,J3,J4,J5:0.000000,-834.761039,-607.334991,-6.265137,-64.366057:eff_
1562210999.982706,cobot_dynamixel_driver/goal|-:J1,J2,J3,J4,J5:0.000000,-834.761039,-607.334991,-6.265137,-64.366057:eff_
1562211000.022741,cobot_dynamixel_driver/goal|-:J1,J2,J3,J4,J5:0.000000,-834.761039,-607.334991,-6.265137,-64.366057:eff_
1562211000.062691,cobot_dynamixel_driver/goal|-:J1,J2,J3,J4,J5:0.000000,-834.761039,-607.334991,-6.265137,-64.366057:eff_
1562211000.102759,cobot_dynamixel_driver/goal|-:J1,J2,J3,J4,J5:0.000000,-834.761039,-607.334991,-6.265137,-64.366057:eff_
1562211000.142708,cobot_dynamixel_driver/goal|-:J1,J2,J3,J4,J5:0.000000,-834.761039,-607.334991,-6.265137,-64.366057:eff_
1562211000.182706,cobot_dynamixel_driver/goal|-:J1,J2,J3,J4,J5:0.000000,-834.761039,-607.334991,-6.265137,-64.366057:eff_
1562211000.222731,cobot_dynamixel_driver/goal|-:J1,J2,J3,J4,J5:0.000000,-834.761039,-607.334991,-6.265137,-64.366057:eff_
1562211000.262746,cobot_dynamixel_driver/goal|-:J1,J2,J3,J4,J5:0.000000,-834.761039,-607.334991,-6.265137,-64.366057:eff_
1562211000.302701,cobot_dynamixel_driver/goal|-:J1,J2,J3,J4,J5:0.000000,-834.761039,-607.334991,-6.265137,-64.366057:eff_
1562211000.342726,cobot_dynamixel_driver/goal|-:J1,J2,J3,J4,J5:0.000000,-834.761039,-607.334991,-6.265137,-64.366057:eff_
1562211000.382723,cobot_dynamixel_driver/goal|-:J1,J2,J3,J4,J5:0.000000,-834.761039,-607.334991,-6.265137,-64.366057:eff_
1562211000.422758,cobot_dynamixel_driver/goal|-:J1,J2,J3,J4,J5:0.000000,-834.761039,-607.334991,-6.265137,-64.366057:eff_
1562211000.462708,cobot_dynamixel_driver/goal|-:J1,J2,J3,J4,J5:0.000000,-834.761039,-607.334991,-6.265137,-64.366057:eff_
1562211000.502729,cobot_dynamixel_driver/goal|-:J1,J2,J3,J4,J5:0.000000,-834.761039,-607.334991,-6.265137,-64.366057:eff_
1562211000.542751,cobot_dynamixel_driver/goal|-:J1,J2,J3,J4,J5:0.000000,-834.761039,-607.334991,-6.265137,-64.366057:eff_
1562211000.582754,cobot_dynamixel_driver/goal|-:J1,J2,J3,J4,J5:0.000000,-834.761039,-607.334991,-6.265137,-64.366057:eff_
1562211000.622690,cobot_dynamixel_driver/goal|-:J1,J2,J3,J4,J5:0.000000,-834.761039,-607.334991,-6.265137,-64.366057:eff_
1562211000.662699,cobot_dynamixel_driver/goal|-:J1,J2,J3,J4,J5:0.000000,-834.761039,-607.334991,-6.265137,-64.366057:eff_
1562211000.702701,cobot_dynamixel_driver/goal|-:J1,J2,J3,J4,J5:0.000000,-834.761039,-607.334991,-6.265137,-64.366057:eff_
1562211000.742682,cobot_dynamixel_driver/goal|-:J1,J2,J3,J4,J5:0.000000,-834.761039,-607.334991,-6.265137,-64.366057:eff_
1562211000.782704,cobot_dynamixel_driver/goal|-:J1,J2,J3,J4,J5:0.000000,-834.761039,-607.334991,-6.265137,-64.366057:eff_
1562211000.822762,cobot_dynamixel_driver/goal|-:J1,J2,J3,J4,J5:0.000000,-834.761039,-607.334991,-6.265137,-64.366057:eff_
1562211000.862701,cobot_dynamixel_driver/goal|-:J1,J2,J3,J4,J5:0.000000,-834.761039,-607.334991,-6.265137,-64.366057:eff_
1562211000.902737,cobot_dynamixel_driver/goal|-:J1,J2,J3,J4,J5:0.000000,-834.761039,-607.334991,-6.265137,-64.366057:eff_
1562211000.942694,cobot_dynamixel_driver/goal|-:J1,J2,J3,J4,J5:0.000000,-834.761039,-607.334991,-6.265137,-64.366057:eff_
1562211000.982707,cobot_dynamixel_driver/goal|-:J1,J2,J3,J4,J5:0.000000,-834.761039,-607.334991,-6.265137,-64.366057:eff_
1562211001.022737,cobot_dynamixel_driver/goal|-:J1,J2,J3,J4,J5:0.000000,-834.761039,-607.334991,-6.265137,-64.366057:eff_
1562211001.062741,cobot_dynamixel_driver/goal|-:J1,J2,J3,J4,J5:0.000000,-834.761039,-607.334991,-6.265137,-64.366057:eff_
1562211001.102694,cobot_dynamixel_driver/goal|-:J1,J2,J3,J4,J5:0.000000,-834.761039,-607.334991,-6.265137,-64.366057:eff_
1562211001.142711,cobot_dynamixel_driver/goal|-:J1,J2,J3,J4,J5:0.000000,-834.761039,-607.334991,-6.265137,-64.366057:eff_
1562211001.182701,cobot_dynamixel_driver/goal|-:J1,J2,J3,J4,J5:0.000000,-834.761039,-607.334991,-6.265137,-64.366057:eff_
1562211001.222697,cobot_dynamixel_driver/goal|-:J1,J2,J3,J4,J5:0.000000,-834.761039,-607.334991,-6.265137,-64.366057:eff_
1562211001.262746,cobot_dynamixel_driver/goal|-:J1,J2,J3,J4,J5:0.000000,-834.761039,-607.334991,-6.265137,-64.366057:eff_
1562211001.302714,cobot_dynamixel_driver/goal|-:J1,J2,J3,J4,J5:0.000000,-834.761039,-607.334991,-6.265137,-64.366057:eff_
1562211001.342738,cobot_dynamixel_driver/goal|-:J1,J2,J3,J4,J5:0.000000,-834.761039,-607.334991,-6.265137,-64.366057:eff_
1562211001.382752,cobot_dynamixel_driver/goal|-:J1,J2,J3,J4,J5:0.000000,-834.761039,-607.334991,-6.265137,-64.366057:eff_
1562211001.422704,cobot_dynamixel_driver/goal|-:J1,J2,J3,J4,J5:0.000000,-834.761039,-607.334991,-6.265137,-64.366057:eff_
1562211001.462727,cobot_dynamixel_driver/goal|-:J1,J2,J3,J4,J5:0.000000,-834.761039,-607.334991,-6.265137,-64.366057:eff_
1562211001.502733,cobot_dynamixel_driver/goal|-:J1,J2,J3,J4,J5:0.000000,-834.761039,-607.334991,-6.265137,-64.366057:eff_
1562211001.542694,cobot_dynamixel_driver/goal|-:J1,J2,J3,J4,J5:0.000000,-834.760480,-607.335420,-6.265139,-64.366501:eff_
1562211001.582710,cobot_dynamixel_driver/goal|-:J1,J2,J3,J4,J5:0.000000,-834.760021,-607.335772,-6.265163,-64.367234:eff_
1562211001.622702,cobot_dynamixel_driver/goal|-:J1,J2,J3,J4,J5:0.000000,-834.754417,-607.340077,-6.265428,-114.375743:eff_
1562211001.662698,cobot_dynamixel_driver/goal|-:J1,J2,J3,J4,J5:0.000000,-834.583608,-757.471263,-6.270510,-114.584269:eff_
1562211001.702702,cobot_dynamixel_driver/goal|-:J1,J2,J3,J4,J5:0.000000,-834.397581,-757.614138,-6.275376,-114.801184:eff_
1562211001.742747,cobot_dynamixel_driver/goal|-:J1,J2,J3,J4,J5:0.000000,-833.287867,-758.466433,-6.305569,-116.153747:eff_
1562211001.782705,cobot_dynamixel_driver/goal|-:J1,J2,J3,J4,J5:0.000000,-832.796904,-758.843508,-6.320688,-116.809965:eff_
1562211001.822695,cobot_dynamixel_driver/goal|-:J1,J2,J3,J4,J5:0.000000,-831.392570,-759.922081,-6.378676,-119.100343:eff_
1562211001.862697,cobot_dynamixel_driver/goal|-:J1,J2,J3,J4,J5:0.000000,-831.051247,-760.184227,-6.401143,-119.866709:eff_
1562211001.902703,cobot_dynamixel_driver/goal|-:J1,J2,J3,J4,J5:0.000000,-830.619533,-760.515798,-6.474099,-121.843782:eff_
1562211001.942703,cobot_dynamixel_driver/goal|-:J1,J2,J3,J4,J5:0.000000,-830.681411,-760.468273,-6.499173,-122.341859:eff_
1562211001.982697,cobot_dynamixel_driver/goal|-:J1,J2,J3,J4,J5:0.000000,-831.419580,-759.901336,-6.570665,-123.275046:eff_
1562211002.022740,cobot_dynamixel_driver/goal|-:J1,J2,J3,J4,J5:0.000000,-831.799179,-759.609793,-6.591519,-123.408915:eff_
1562211002.062733,cobot_dynamixel_driver/goal|-:J1,J2,J3,J4,J5:0.000000,-833.116759,-758.593764,-6.640328,-123.454377:eff_
1562211002.102711,cobot_dynamixel_driver/goal|-:J1,J2,J3,J4,J5:0.000000,-833.547017,-758.263313,-6.650223,-123.404408:eff_
1562211002.142704,cobot_dynamixel_driver/goal|-:J1,J2,J3,J4,J5:0.000000,-834.373394,-757.628629,-6.658068,-23.296558:eff_
1562211002.182708,cobot_dynamixel_driver/goal|-:J1,J2,J3,J4,J5:0.000000,-835.360921,-756.845664,-6.644920,-23.224873:eff_
1562211002.222702,cobot_dynamixel_driver/goal|-:J1,J2,J3,J4,J5:0.000000,-835.756839,-756.525241,-6.635776,-23.211653:eff_
1562211002.262760,cobot_dynamixel_driver/goal|-:J1,J2,J3,J4,J5:0.000000,-835.993436,-756.335354,-6.624408,-23.231174:eff_
1562211002.302694,cobot_dynamixel_driver/goal|-:J1,J2,J3,J4,J5:0.000000,-836.134656,-756.222805,-6.608334,-23.281736:eff_
1562211002.342717,cobot_dynamixel_driver/goal|-:J1,J2,J3,J4,J5:0.000000,-836.215816,-756.160471,-6.597653,-23.314270:eff_
1562211002.382726,cobot_dynamixel_driver/goal|-:J1,J2,J3,J4,J5:0.000000,-836.613362,-755.846969,-6.552605,-23.418080:eff_
1562211002.422717,cobot_dynamixel_driver/goal|-:J1,J2,J3,J4,J5:0.000000,-836.842220,-755.671199,-6.531743,-23.449032:eff_
1562211002.462734,cobot_dynamixel_driver/goal|-:J1,J2,J3,J4,J5:0.000000,-837.994612,-754.777950,-6.456383,-23.486244:eff_
1562211002.502697,cobot_dynamixel_driver/goal|-:J1,J2,J3,J4,J5:0.000000,-839.329140,-753.748902,-6.391063,-23.455991:eff_
1562211002.542694,cobot_dynamixel_driver/goal|-:J1,J2,J3,J4,J5:0.000000,-841.109654,-752.360969,-6.317174,-23.377802:eff_
1562211002.582700,cobot_dynamixel_driver/goal|-:J1,J2,J3,J4,J5:0.000000,-1143.328248,-750.554744,-6.235302,-23.258923:eff_
1562211002.622697,cobot_dynamixel_driver/goal|-:J1,J2,J3,J4,J5:0.000000,-1145.329814,-748.459270,-6.154578,-23.136297:eff_
1562211002.662756,cobot_dynamixel_driver/goal|-:J1,J2,J3,J4,J5:0.000000,-1145.848726,-747.371050,-6.113960,-23.061862:eff_
1562211002.702701,cobot_dynamixel_driver/goal|-:J1,J2,J3,J4,J5:0.000000,-1143.791701,-744.352298,-6.011459,-22.875992:eff_
1562211002.742735,cobot_dynamixel_driver/goal|-:J1,J2,J3,J4,J5:0.000000,-1138.559816,-742.771004,-5.962370,-22.792613:eff_
1562211002.782708,cobot_dynamixel_driver/goal|-:J1,J2,J3,J4,J5:0.000000,-1130.066404,-741.682882,-5.932153,-22.763663:eff_
1562211002.822754,cobot_dynamixel_driver/goal|-:J1,J2,J3,J4,J5:0.000000,-1124.536906,-741.336592,-5.923460,-22.763275:eff_
1562211002.862697,cobot_dynamixel_driver/goal|-:J1,J2,J3,J4,J5:0.000000,-1102.739664,-741.191078,-5.920334,-72.768612:eff_
1562211002.902719,cobot_dynamixel_driver/goal|-:J1,J2,J3,J4,J5:0.000000,-1093.854124,-741.410426,-5.924086,-122.750219:eff_
1562211002.942710,cobot_dynamixel_driver/goal|-:J1,J2,J3,J4,J5:0.000000,-1063.028804,-742.705032,-5.947056,-122.643078:eff_
1562211002.982704,cobot_dynamixel_driver/goal|-:J1,J2,J3,J4,J5:0.000000,-1051.575739,-743.293792,-5.957236,-122.586680:eff_
1562211003.022738,cobot_dynamixel_driver/goal|-:J1,J2,J3,J4,J5:0.000000,-1014.243268,-745.352956,-5.992723,-72.360166:eff_
1562211003.062708,cobot_dynamixel_driver/goal|-:J1,J2,J3,J4,J5:0.000000,-1000.743143,-746.127306,-6.006123,-72.262859:eff_
1562211003.102700,cobot_dynamixel_driver/goal|-:J1,J2,J3,J4,J5:0.000000,-957.876741,-748.554393,-6.048603,-71.908034:eff_
1562211003.142774,cobot_dynamixel_driver/goal|-:J1,J2,J3,J4,J5:0.000000,-943.088551,-749.341687,-6.062548,-71.773247:eff_
1562211003.182698,cobot_dynamixel_driver/goal|-:J1,J2,J3,J4,J5:0.000000,-896.794356,-751.674671,-6.104641,-71.300800:eff_
1562211003.222751,cobot_dynamixel_driver/goal|-:J1,J2,J3,J4,J5:0.000000,-864.461069,-753.143609,-6.131875,-70.927149:eff_
1562211003.262706,cobot_dynamixel_driver/goal|-:J1,J2,J3,J4,J5:0.000000,-831.738703,-754.412040,-6.156064,-70.534517:eff_
1562211003.302750,cobot_dynamixel_driver/goal|-:J1,J2,J3,J4,J5:0.000000,-815.092721,-754.987460,-6.167320,-70.326880:eff_
1562211003.342698,cobot_dynamixel_driver/goal|-:J1,J2,J3,J4,J5:0.000000,-764.993872,-756.398371,-6.196070,-69.697891:eff_
1562211003.382738,cobot_dynamixel_driver/goal|-:J1,J2,J3,J4,J5:0.000000,-748.290942,-756.761299,-6.203859,-69.495096:eff_
1562211003.422759,cobot_dynamixel_driver/goal|-:J1,J2,J3,J4,J5:0.000000,-698.071700,-757.580031,-6.222509,-68.925254:eff_
1562211003.462702,cobot_dynamixel_driver/goal|-:J1,J2,J3,J4,J5:50.000000,-681.024618,-757.790785,-6.227696,-68.738224:eff_
1562211003.502721,cobot_dynamixel_driver/goal|-:J1,J2,J3,J4,J5:50.000000,-630.047144,-758.254797,-6.240105,-68.192614:eff_
1562211003.542760,cobot_dynamixel_driver/goal|-:J1,J2,J3,J4,J5:50.000000,-595.213881,-758.465027,-6.246930,-67.821072:eff_
1562211003.562692,cobot_dynamixel_driver/goal|-:J1,J2,J3,J4,J5:50.000000,-576.682251,-758.550527,-6.250297,-67.605784:eff_
1562211003.629295,cobot_dynamixel_driver/goal|-:J1,J2,J3,J4,J5:50.000000,-527.579862,-758.659395,-6.257045,-67.082491:eff_
1562211003.669298,cobot_dynamixel_driver/goal|-:J1,J2,J3,J4,J5:50.000000,-481.965999,-758.641148,-6.261415,-66.591157:eff_
1562211003.689300,cobot_dynamixel_driver/goal|-:J1,J2,J3,J4,J5:50.000000,-464.022434,-758.603188,-6.262605,-66.393000:eff_
1562211003.729295,cobot_dynamixel_driver/goal|-:J1,J2,J3,J4,J5:50.000000,-427.746139,-758.463727,-6.264017,-15.956900:eff_
1562211003.769316,cobot_dynamixel_driver/goal|-:J1,J2,J3,J4,J5:50.000000,-391.910007,-758.230105,-6.263631,-15.471557:eff_
1562211003.809307,cobot_dynamixel_driver/goal|-:J1,J2,J3,J4,J5:50.000000,-374.240777,-758.064298,-6.261841,-15.186145:eff_
1562211003.849299,cobot_dynamixel_driver/goal|-:J1,J2,J3,J4,J5:50.000000,-323.445363,-757.346819,-6.246520,-14.080696:eff_
1562211003.889322,cobot_dynamixel_driver/goal|-:J1,J2,J3,J4,J5:50.000000,-291.950528,-756.693173,-6.228036,-13.113266:eff_
1562211003.929308,cobot_dynamixel_driver/goal|-:J1,J2,J3,J4,J5:50.000000,-262.218278,-755.840303,-6.202745,-11.874629:eff_
1562211003.969298,cobot_dynamixel_driver/goal|-:J1,J2,J3,J4,J5:50.000000,-248.375891,-755.350344,-6.187641,-11.158271:eff_
1562211004.009295,cobot_dynamixel_driver/goal|-:J1,J2,J3,J4,J5:50.000000,-210.016447,-753.592622,-6.132713,-8.554740:eff_
1562211004.049338,cobot_dynamixel_driver/goal|-:J1,J2,J3,J4,J5:50.000000,-187.096587,-752.281372,-6.092221,-6.580836:eff_
1562211004.089294,cobot_dynamixel_driver/goal|-:J1,J2,J3,J4,J5:50.000000,-165.334995,-750.953148,-6.051835,-4.544781:eff_
1562211004.129290,cobot_dynamixel_driver/goal|-:J1,J2,J3,J4,J5:50.000000,-145.182060,-749.767219,-6.011662,-2.622233:eff_
1562211004.169292,cobot_dynamixel_driver/goal|-:J1,J2,J3,J4,J5:50.000000,-126.203403,-748.796970,-5.974287,-0.935020:eff_
1562211004.209331,cobot_dynamixel_driver/goal|-:J1,J2,J3,J4,J5:50.000000,-108.201426,-748.157120,-5.947797,0.336717:eff_
1562211004.249311,cobot_dynamixel_driver/goal|-:J1,J2,J3,J4,J5:50.000000,-91.510001,-747.904964,-5.928683,1.095716:eff_
1562211004.289302,cobot_dynamixel_driver/goal|-:J1,J2,J3,J4,J5:50.000000,-83.409783,-747.903238,144.078729,1.279501:eff_
1562211004.329343,cobot_dynamixel_driver/goal|-:J1,J2,J3,J4,J5:50.000000,-60.145756,-748.311540,144.098350,-48.888628:eff_
1562211004.369298,cobot_dynamixel_driver/goal|-:J1,J2,J3,J4,J5:50.000000,-52.890985,-748.520148,144.112182,-49.066614:eff_
1562211004.409292,cobot_dynamixel_driver/goal|-:J1,J2,J3,J4,J5:50.000000,-31.640406,-749.130750,144.187362,-99.626076:eff_
1562211004.449303,cobot_dynamixel_driver/goal|-:J1,J2,J3,J4,J5:50.000000,-24.698264,-749.298241,144.218497,-99.797548:eff_
1562211004.469296,cobot_dynamixel_driver/goal|-:J1,J2,J3,J4,J5:50.000000,-11.040039,-749.556018,144.286334,-100.071116:eff_
1562211004.509295,cobot_dynamixel_driver/goal|-:J1,J2,J3,J4,J5:50.000000,-4.272609,-749.617272,144.324840,-100.125546:eff_
1562211004.549351,cobot_dynamixel_driver/goal|-:J1,J2,J3,J4,J5:50.000000,15.774007,-749.579935,144.456398,-100.078501:eff_
1562211004.589293,cobot_dynamixel_driver/goal|-:J1,J2,J3,J4,J5:50.000000,22.504526,-749.486176,144.505411,-49.986725:eff_
1562211004.629340,cobot_dynamixel_driver/goal|-:J1,J2,J3,J4,J5:50.000000,42.830662,-748.966772,144.669832,-49.502125:eff_
1562211004.669315,cobot_dynamixel_driver/goal|-:J1,J2,J3,J4,J5:50.000000,49.618632,-748.721858,144.731618,-49.281136:eff_
1562211004.709294,cobot_dynamixel_driver/goal|-:J1,J2,J3,J4,J5:50.000000,69.844202,-747.831702,144.916398,-48.524391:eff_
1562211004.749318,cobot_dynamixel_driver/goal|-:J1,J2,J3,J4,J5:50.000000,76.389789,-597.497936,144.984133,-48.253012:eff_
1562211004.789337,cobot_dynamixel_driver/goal|-:J1,J2,J3,J4,J5:50.000000,95.068265,-596.466673,145.202627,-47.447318:eff_
1562211004.829310,cobot_dynamixel_driver/goal|-:J1,J2,J3,J4,J5:50.000000,100.845137,-596.130160,145.282913,-47.192614:eff_
1562211004.869304,cobot_dynamixel_driver/goal|-:J1,J2,J3,J4,J5:50.000000,115.966400,-595.209724,145.517778,-46.513021:eff_
1562211004.909292,cobot_dynamixel_driver/goal|-:J1,J2,J3,J4,J5:50.000000,120.441663,-594.926025,145.603285,-46.306191:eff_
1562211004.949293,cobot_dynamixel_driver/goal|-:J1,J2,J3,J4,J5:50.000000,131.165172,-594.225092,145.838061,-45.798578:eff_
1562211004.989298,cobot_dynamixel_driver/goal|-:J1,J2,J3,J4,J5:50.000000,133.836932,-594.045486,145.915314,-45.666418:eff_
1562211005.029295,cobot_dynamixel_driver/goal|-:J1,J2,J3,J4,J5:50.000000,137.921022,-593.778379,146.114686,-45.450333:eff_
1562211005.069333,cobot_dynamixel_driver/goal|-:J1,J2,J3,J4,J5:50.000000,438.038461,-743.784867,146.178365,-45.437746:eff_
1562211005.109322,cobot_dynamixel_driver/goal|-:J1,J2,J3,J4,J5:50.000000,736.615143,-744.031015,146.331609,-45.539293:eff_
1562211005.149331,cobot_dynamixel_driver/goal|-:J1,J2,J3,J4,J5:50.000000,734.565956,-744.284579,146.377170,-45.684000:eff_
1562211005.189333,cobot_dynamixel_driver/goal|-:J1,J2,J3,J4,J5:50.000000,720.417353,-745.464850,146.484874,3.581065:eff_
1562211005.229291,cobot_dynamixel_driver/goal|-:J1,J2,J3,J4,J5:50.000000,713.603830,-595.916959,146.512532,3.286157:eff_
1562211005.269335,cobot_dynamixel_driver/goal|-:J1,J2,J3,J4,J5:50.000000,685.751776,-597.364149,146.590295,2.406507:eff_
1562211005.309333,cobot_dynamixel_driver/goal|-:J1,J2,J3,J4,J5:50.000000,674.372299,-597.865412,146.614154,2.110014:eff_
1562211005.349308,cobot_dynamixel_driver/goal|-:J1,J2,J3,J4,J5:50.000000,637.351305,-599.147278,-3.313870,1.451856:eff_
1562211005.389317,cobot_dynamixel_driver/goal|-:J1,J2,J3,J4,J5:50.000000,624.790095,-599.458709,-3.288109,1.343279:eff_
1562211005.429338,cobot_dynamixel_driver/goal|-:J1,J2,J3,J4,J5:0.000000,587.821343,-600.057832,-3.204004,1.283468:eff_
1562211005.469332,cobot_dynamixel_driver/goal|-:J1,J2,J3,J4,J5:0.000000,576.360354,-600.152516,-3.173766,1.335932:eff_
1562211005.509317,cobot_dynamixel_driver/goal|-:J1,J2,J3,J4,J5:0.000000,544.959640,-600.222067,-3.084153,1.594784:eff_
1562211005.549299,cobot_dynamixel_driver/goal|-:J1,J2,J3,J4,J5:0.000000,536.009250,-600.183335,-3.056354,1.715853:eff_
1562211005.589305,cobot_dynamixel_driver/goal|-:J1,J2,J3,J4,J5:0.000000,512.816338,-599.989252,-2.981795,2.073868:eff_
1562211005.629341,cobot_dynamixel_driver/goal|-:J1,J2,J3,J4,J5:0.000000,506.164865,-599.914185,-2.960655,2.177036:eff_
1562211005.669329,cobot_dynamixel_driver/goal|-:J1,J2,J3,J4,J5:0.000000,490.119576,-599.702369,-2.910658,2.416990:eff_
1562211005.709290,cobot_dynamixel_driver/goal|-:J1,J2,J3,J4,J5:0.000000,485.715055,-599.640229,-2.897585,2.473167:eff_
1562211005.749341,cobot_dynamixel_driver/goal|-:J1,J2,J3,J4,J5:0.000000,475.285482,-599.534818,-2.873175,2.487963:eff_
1562211005.789291,cobot_dynamixel_driver/goal|-:J1,J2,J3,J4,J5:0.000000,472.590771,-599.520136,-2.868682,2.458353:eff_
1562211005.829294,cobot_dynamixel_driver/goal|-:J1,J2,J3,J4,J5:0.000000,466.639603,-599.542258,-2.865468,2.268136:eff_
1562211005.869293,cobot_dynamixel_driver/goal|-:J1,J2,J3,J4,J5:0.000000,465.228422,-599.551819,-2.865310,2.211794:eff_
1562211005.909300,cobot_dynamixel_driver/goal|-:J1,J2,J3,J4,J5:0.000000,462.823798,-599.567115,-2.865035,2.115916:eff_
1562211005.949311,cobot_dynamixel_driver/goal|-:J1,J2,J3,J4,J5:0.000000,162.440407,-599.569438,-2.864990,-47.899356:eff_
1562211005.989322,cobot_dynamixel_driver/goal|-:J1,J2,J3,J4,J5:0.000000,162.178997,-599.571003,-2.864959,-47.909766:eff_
1562211006.029328,cobot_dynamixel_driver/goal|-:J1,J2,J3,J4,J5:0.000000,162.318416,-599.570170,-2.864975,-47.904214:eff_
1562211006.069296,cobot_dynamixel_driver/goal|-:J1,J2,J3,J4,J5:0.000000,162.562396,-599.568702,-2.865004,-47.894497:eff_
1562211006.109294,cobot_dynamixel_driver/goal|-:J1,J2,J3,J4,J5:0.000000,162.562396,-599.568702,-2.865004,-47.894497:eff_
1562211006.149327,cobot_dynamixel_driver/goal|-:J1,J2,J3,J4,J5:0.000000,162.562396,-599.568702,-2.865004,-47.894497:eff_
1562211006.189350,cobot_dynamixel_driver/goal|-:J1,J2,J3,J4,J5:0.000000,162.562396,-599.568702,-2.865004,-47.894497:eff_
1562211006.229297,cobot_dynamixel_driver/goal|-:J1,J2,J3,J4,J5:0.000000,162.562396,-599.568702,-2.865004,-47.894497:eff_
1562211006.269292,cobot_dynamixel_driver/goal|-:J1,J2,J3,J4,J5:0.000000,162.562396,-599.568702,-2.865004,-47.894497:eff_
1562211006.309297,cobot_dynamixel_driver/goal|-:J1,J2,J3,J4,J5:0.000000,162.562396,-599.568702,-2.865004,-47.894497:eff_
1562211006.349302,cobot_dynamixel_driver/goal|-:J1,J2,J3,J4,J5:0.000000,162.562396,-599.568702,-2.865004,-47.894497:eff_
1562211006.389332,cobot_dynamixel_driver/goal|-:J1,J2,J3,J4,J5:0.000000,162.562396,-599.568702,-2.865004,-47.894497:eff_
1562211006.429335,cobot_dynamixel_driver/goal|-:J1,J2,J3,J4,J5:0.000000,162.562396,-599.568702,-2.865004,-47.894497:eff_
1562211006.469354,cobot_dynamixel_driver/goal|-:J1,J2,J3,J4,J5:0.000000,162.562396,-599.568702,-2.865004,-47.894497:eff_
1562211006.509293,cobot_dynamixel_driver/goal|-:J1,J2,J3,J4,J5:0.000000,162.562396,-599.568702,-2.865004,-47.894497:eff_
1562211006.549332,cobot_dynamixel_driver/goal|-:J1,J2,J3,J4,J5:0.000000,162.562396,-599.568702,-2.865004,-47.894497:eff_
1562211006.589297,cobot_dynamixel_driver/goal|-:J1,J2,J3,J4,J5:0.000000,162.562396,-599.568702,-2.865004,-47.894497:eff_
1562211006.629294,cobot_dynamixel_driver/goal|-:J1,J2,J3,J4,J5:0.000000,162.562394,-599.568700,-2.865370,-47.894574:eff_
1562211006.669293,cobot_dynamixel_driver/goal|-:J1,J2,J3,J4,J5:0.000000,162.562394,-599.568700,-2.865370,-47.894574:eff_
1562211006.709294,cobot_dynamixel_driver/goal|-:J1,J2,J3,J4,J5:0.000000,162.562394,-599.568700,-2.865370,-47.894574:eff_
1562211006.749336,cobot_dynamixel_driver/goal|-:J1,J2,J3,J4,J5:0.000000,162.562394,-599.568700,-2.865370,-47.894574:eff_
1562211006.789318,cobot_dynamixel_driver/goal|-:J1,J2,J3,J4,J5:0.000000,162.562394,-599.568700,-2.865370,-47.894574:eff_
1562211006.829294,cobot_dynamixel_driver/goal|-:J1,J2,J3,J4,J5:0.000000,162.562394,-599.568700,-2.865370,-47.894574:eff_
1562211006.869333,cobot_dynamixel_driver/goal|-:J1,J2,J3,J4,J5:0.000000,162.562394,-599.568700,-2.865370,-47.894574:eff_
1562211006.909295,cobot_dynamixel_driver/goal|-:J1,J2,J3,J4,J5:0.000000,162.562394,-599.568700,-2.865370,-47.894574:eff_
1562211006.949330,cobot_dynamixel_driver/goal|-:J1,J2,J3,J4,J5:0.000000,162.562394,-599.568700,-2.865370,-47.894574:eff_
1562211006.989294,cobot_dynamixel_driver/goal|-:J1,J2,J3,J4,J5:0.000000,162.562394,-599.568700,-2.865370,-47.894574:eff_
1562211007.029330,cobot_dynamixel_driver/goal|-:J1,J2,J3,J4,J5:0.000000,162.562394,-599.568700,-2.865370,-47.894574:eff_
1562211007.069336,cobot_dynamixel_driver/goal|-:J1,J2,J3,J4,J5:0.000000,162.562394,-599.568700,-2.865370,-47.894574:eff_
1562211007.109300,cobot_dynamixel_driver/goal|-:J1,J2,J3,J4,J5:0.000000,162.562394,-599.568700,-2.865370,-47.894574:eff_
1562211007.149298,cobot_dynamixel_driver/goal|-:J1,J2,J3,J4,J5:0.000000,162.562394,-599.568700,-2.865370,-47.894574:eff_
1562211007.189305,cobot_dynamixel_driver/goal|-:J1,J2,J3,J4,J5:0.000000,162.562394,-599.568700,-2.865370,-47.894574:eff_
1562211007.229308,cobot_dynamixel_driver/goal|-:J1,J2,J3,J4,J5:0.000000,162.562394,-599.568700,-2.865370,-47.894574:eff_
1562211007.269310,cobot_dynamixel_driver/goal|-:J1,J2,J3,J4,J5:0.000000,162.562394,-599.568700,-2.865370,-47.894574:eff_
1562211007.309336,cobot_dynamixel_driver/goal|-:J1,J2,J3,J4,J5:0.000000,162.562394,-599.568700,-2.865370,-47.894574:eff_
1562211007.349328,cobot_dynamixel_driver/goal|-:J1,J2,J3,J4,J5:0.000000,162.562394,-599.568700,-2.865370,-47.894574:eff_
1562211007.389293,cobot_dynamixel_driver/goal|-:J1,J2,J3,J4,J5:0.000000,162.562394,-599.568700,-2.865370,-47.894574:eff_
1562211007.429291,cobot_dynamixel_driver/goal|-:J1,J2,J3,J4,J5:0.000000,162.562394,-599.568700,-2.865370,-47.894574:eff_
1562211007.469300,cobot_dynamixel_driver/goal|-:J1,J2,J3,J4,J5:0.000000,162.562394,-599.568700,-2.865370,-47.894574:eff_
1562211007.509297,cobot_dynamixel_driver/goal|-:J1,J2,J3,J4,J5:0.000000,162.562394,-599.568700,-2.865370,-47.894574:eff_
1562211007.549296,cobot_dynamixel_driver/goal|-:J1,J2,J3,J4,J5:0.000000,162.562394,-599.568700,-2.865370,-47.894574:eff_
1562211007.589294,cobot_dynamixel_driver/goal|-:J1,J2,J3,J4,J5:0.000000,162.562394,-599.568700,-2.865370,-47.894574:eff_
1562211007.629300,cobot_dynamixel_driver/goal|-:J1,J2,J3,J4,J5:0.000000,162.562394,-599.568700,-2.865370,-47.894574:eff_
1562211007.669335,cobot_dynamixel_driver/goal|-:J1,J2,J3,J4,J5:0.000000,162.562394,-599.568700,-2.865370,-47.894574:eff_
1562211007.709297,cobot_dynamixel_driver/goal|-:J1,J2,J3,J4,J5:0.000000,162.562394,-599.568700,-2.865370,-47.894574:eff_
1562211007.749291,cobot_dynamixel_driver/goal|-:J1,J2,J3,J4,J5:0.000000,162.562394,-599.568700,-2.865370,-47.894574:eff_
1562211007.789288,cobot_dynamixel_driver/goal|-:J1,J2,J3,J4,J5:0.000000,162.562394,-599.568700,-2.865370,-47.894574:eff_
1562211007.829298,cobot_dynamixel_driver/goal|-:J1,J2,J3,J4,J5:0.000000,162.562394,-599.568700,-2.865370,-47.894574:eff_
1562211007.869293,cobot_dynamixel_driver/goal|-:J1,J2,J3,J4,J5:0.000000,162.562394,-599.568700,-2.865370,-47.894574:eff_
1562211007.909298,cobot_dynamixel_driver/goal|-:J1,J2,J3,J4,J5:0.000000,162.562394,-599.568700,-2.865370,-47.894574:eff_
1562211007.949328,cobot_dynamixel_driver/goal|-:J1,J2,J3,J4,J5:0.000000,162.562394,-599.568700,-2.865370,-47.894574:eff_
1562211007.989297,cobot_dynamixel_driver/goal|-:J1,J2,J3,J4,J5:0.000000,162.562394,-599.568700,-2.865370,-47.894574:eff_
1562211008.029293,cobot_dynamixel_driver/goal|-:J1,J2,J3,J4,J5:0.000000,162.562394,-599.568700,-2.865370,-47.894574:eff_
1562211008.069336,cobot_dynamixel_driver/goal|-:J1,J2,J3,J4,J5:0.000000,162.562394,-599.568700,-2.865370,-47.894574:eff_
1562211008.109297,cobot_dynamixel_driver/goal|-:J1,J2,J3,J4,J5:0.000000,162.562394,-599.568700,-2.865370,-47.894574:eff_
1562211008.149299,cobot_dynamixel_driver/goal|-:J1,J2,J3,J4,J5:0.000000,162.562394,-599.568700,-2.865370,-47.894574:eff_
1562211008.189302,cobot_dynamixel_driver/goal|-:J1,J2,J3,J4,J5:0.000000,162.562394,-599.568700,-2.865370,-47.894574:eff_
1562211008.229355,cobot_dynamixel_driver/goal|-:J1,J2,J3,J4,J5:0.000000,162.562394,-599.568700,-2.865370,-47.894574:eff_
1562211008.269291,cobot_dynamixel_driver/goal|-:J1,J2,J3,J4,J5:0.000000,162.562394,-599.568700,-2.865370,-47.894574:eff_
1562211008.309299,cobot_dynamixel_driver/goal|-:J1,J2,J3,J4,J5:0.000000,162.562394,-599.568700,-2.865370,-47.894574:eff_
1562211008.349303,cobot_dynamixel_driver/goal|-:J1,J2,J3,J4,J5:0.000000,162.562394,-599.568700,-2.865370,-47.894574:eff_
1562211008.389292,cobot_dynamixel_driver/goal|-:J1,J2,J3,J4,J5:0.000000,162.562394,-599.568700,-2.865370,-47.894574:eff_
1562211008.429326,cobot_dynamixel_driver/goal|-:J1,J2,J3,J4,J5:0.000000,162.562394,-599.568700,-2.865370,-47.894574:eff_
1562211008.469294,cobot_dynamixel_driver/goal|-:J1,J2,J3,J4,J5:0.000000,162.562394,-599.568700,-2.865370,-47.894574:eff_
1562211008.509420,cobot_dynamixel_driver/goal|-:J1,J2,J3,J4,J5:0.000000,162.562394,-599.568700,-2.865370,-47.894574:eff_
1562211008.549276,cobot_dynamixel_driver/goal|-:J1,J2,J3,J4,J5:0.000000,162.562394,-599.568700,-2.865370,-47.894574:eff_
1562211008.589300,cobot_dynamixel_driver/goal|-:J1,J2,J3,J4,J5:0.000000,162.562394,-599.568700,-2.865370,-47.894574:eff_
1562211008.629334,cobot_dynamixel_driver/goal|-:J1,J2,J3,J4,J5:0.000000,162.562394,-599.568700,-2.865370,-47.894574:eff_
1562211008.669306,cobot_dynamixel_driver/goal|-:J1,J2,J3,J4,J5:0.000000,162.562394,-599.568700,-2.865370,-47.894574:eff_
1562211008.709295,cobot_dynamixel_driver/goal|-:J1,J2,J3,J4,J5:0.000000,162.562394,-599.568700,-2.865370,-47.894574:eff_
1562211008.749322,cobot_dynamixel_driver/goal|-:J1,J2,J3,J4,J5:0.000000,162.562394,-599.568700,-2.865370,-47.894574:eff_
1562211008.789335,cobot_dynamixel_driver/goal|-:J1,J2,J3,J4,J5:0.000000,162.562394,-599.568700,-2.865370,-47.894574:eff_
1562211008.829292,cobot_dynamixel_driver/goal|-:J1,J2,J3,J4,J5:0.000000,162.562394,-599.568700,-2.865370,-47.894574:eff_
1562211008.869301,cobot_dynamixel_driver/goal|-:J1,J2,J3,J4,J5:0.000000,162.562394,-599.568700,-2.865370,-47.894574:eff_
1562211008.909314,cobot_dynamixel_driver/goal|-:J1,J2,J3,J4,J5:0.000000,162.562394,-599.568700,-2.865370,-47.894574:eff_
1562211008.949299,cobot_dynamixel_driver/goal|-:J1,J2,J3,J4,J5:0.000000,162.562394,-599.568700,-2.865370,-47.894574:eff_
1562211008.989293,cobot_dynamixel_driver/goal|-:J1,J2,J3,J4,J5:0.000000,162.562394,-599.568700,-2.865370,-47.894574:eff_
1562211009.029313,cobot_dynamixel_driver/goal|-:J1,J2,J3,J4,J5:0.000000,162.562394,-599.568700,-2.865370,-47.894574:eff_
1562211009.069348,cobot_dynamixel_driver/goal|-:J1,J2,J3,J4,J5:0.000000,162.562394,-599.568700,-2.865370,-47.894574:eff_
1562211009.109295,cobot_dynamixel_driver/goal|-:J1,J2,J3,J4,J5:0.000000,162.562394,-599.568700,-2.865370,-47.894574:eff_
1562211009.149326,cobot_dynamixel_driver/goal|-:J1,J2,J3,J4,J5:0.000000,162.562394,-599.568700,-2.865370,-47.894574:eff_
1562211009.189296,cobot_dynamixel_driver/goal|-:J1,J2,J3,J4,J5:0.000000,162.562394,-599.568700,-2.865370,-47.894574:eff_
1562211009.229294,cobot_dynamixel_driver/goal|-:J1,J2,J3,J4,J5:0.000000,162.562394,-599.568700,-2.865370,-47.894574:eff_
1562211009.269329,cobot_dynamixel_driver/goal|-:J1,J2,J3,J4,J5:0.000000,162.562394,-599.568700,-2.865370,-47.894574:eff_
1562211009.309318,cobot_dynamixel_driver/goal|-:J1,J2,J3,J4,J5:0.000000,162.562394,-599.568700,-2.865370,-47.894574:eff_
1562211009.349301,cobot_dynamixel_driver/goal|-:J1,J2,J3,J4,J5:0.000000,162.562394,-599.568700,-2.865370,-47.894574:eff_
1562211009.389295,cobot_dynamixel_driver/goal|-:J1,J2,J3,J4,J5:0.000000,162.562394,-599.568700,-2.865370,-47.894574:eff_
1562211009.429300,cobot_dynamixel_driver/goal|-:J1,J2,J3,J4,J5:0.000000,162.562394,-599.568700,-2.865370,-47.894574:eff_
1562211009.469267,cobot_dynamixel_driver/goal|-:J1,J2,J3,J4,J5:0.000000,162.562394,-599.568700,-2.865370,-47.894574:eff_
1562211009.509327,cobot_dynamixel_driver/goal|-:J1,J2,J3,J4,J5:0.000000,162.562394,-599.568700,-2.865370,-47.894574:eff_
1562211009.549298,cobot_dynamixel_driver/goal|-:J1,J2,J3,J4,J5:0.000000,162.562394,-599.568700,-2.865370,-47.894574:eff_
1562211009.589296,cobot_dynamixel_driver/goal|-:J1,J2,J3,J4,J5:0.000000,162.562394,-599.568700,-2.865370,-47.894574:eff_
1562211009.629294,cobot_dynamixel_driver/goal|-:J1,J2,J3,J4,J5:0.000000,162.562394,-599.568700,-2.865370,-47.894574:eff_
1562211009.669307,cobot_dynamixel_driver/goal|-:J1,J2,J3,J4,J5:0.000000,162.562394,-599.568700,-2.865370,-47.894574:eff_
1562211009.709336,cobot_dynamixel_driver/goal|-:J1,J2,J3,J4,J5:0.000000,162.562394,-599.568700,-2.865370,-47.894574:eff_
1562211009.749302,cobot_dynamixel_driver/goal|-:J1,J2,J3,J4,J5:0.000000,162.562394,-599.568700,-2.865370,-47.894574:eff_
1562211009.789298,cobot_dynamixel_driver/goal|-:J1,J2,J3,J4,J5:0.000000,162.562394,-599.568700,-2.865370,-47.894574:eff_
1562211009.829330,cobot_dynamixel_driver/goal|-:J1,J2,J3,J4,J5:0.000000,162.562394,-599.568700,-2.865370,-47.894574:eff_
1562211009.869298,cobot_dynamixel_driver/goal|-:J1,J2,J3,J4,J5:0.000000,162.562394,-599.568700,-2.865370,-47.894574:eff_
1562211009.909340,cobot_dynamixel_driver/goal|-:J1,J2,J3,J4,J5:0.000000,162.562394,-599.568700,-2.865370,-47.894574:eff_
1562211009.949297,cobot_dynamixel_driver/goal|-:J1,J2,J3,J4,J5:0.000000,162.562394,-599.568700,-2.865370,-47.894574:eff_
1562211009.989316,cobot_dynamixel_driver/goal|-:J1,J2,J3,J4,J5:0.000000,162.562394,-599.568700,-2.865370,-47.894574:eff_
1562211010.029295,cobot_dynamixel_driver/goal|-:J1,J2,J3,J4,J5:0.000000,162.562394,-599.568700,-2.865370,-47.894574:eff_
1562211010.069296,cobot_dynamixel_driver/goal|-:J1,J2,J3,J4,J5:0.000000,162.562394,-599.568700,-2.865370,-47.894574:eff_
1562211010.109298,cobot_dynamixel_driver/goal|-:J1,J2,J3,J4,J5:0.000000,162.562394,-599.568700,-2.865370,-47.894574:eff_
1562211010.149356,cobot_dynamixel_driver/goal|-:J1,J2,J3,J4,J5:0.000000,162.562394,-599.568700,-2.865370,-47.894574:eff_
1562211010.189294,cobot_dynamixel_driver/goal|-:J1,J2,J3,J4,J5:0.000000,162.562394,-599.568700,-2.865370,-47.894574:eff_
1562211010.229300,cobot_dynamixel_driver/goal|-:J1,J2,J3,J4,J5:0.000000,162.562394,-599.568700,-2.865370,-47.894574:eff_
1562211010.269300,cobot_dynamixel_driver/goal|-:J1,J2,J3,J4,J5:0.000000,162.562394,-599.568700,-2.865370,-47.894574:eff_
1562211010.309296,cobot_dynamixel_driver/goal|-:J1,J2,J3,J4,J5:0.000000,162.562394,-599.568700,-2.865370,-47.894574:eff_
1562211010.349296,cobot_dynamixel_driver/goal|-:J1,J2,J3,J4,J5:0.000000,162.562394,-599.568700,-2.865370,-47.894574:eff_
1562211010.389301,cobot_dynamixel_driver/goal|-:J1,J2,J3,J4,J5:0.000000,162.562394,-599.568700,-2.865370,-47.894574:eff_
1562211010.429311,cobot_dynamixel_driver/goal|-:J1,J2,J3,J4,J5:0.000000,162.562394,-599.568700,-2.865370,-47.894574:eff_
1562211010.469315,cobot_dynamixel_driver/goal|-:J1,J2,J3,J4,J5:0.000000,162.562394,-599.568700,-2.865370,-47.894574:eff_
1562211010.509298,cobot_dynamixel_driver/goal|-:J1,J2,J3,J4,J5:0.000000,162.562394,-599.568700,-2.865370,-47.894574:eff_
1562211010.549306,cobot_dynamixel_driver/goal|-:J1,J2,J3,J4,J5:0.000000,162.562394,-599.568700,-2.865370,-47.894574:eff_
1562211010.589336,cobot_dynamixel_driver/goal|-:J1,J2,J3,J4,J5:0.000000,162.562394,-599.568700,-2.865370,-47.894574:eff_
1562211010.629318,cobot_dynamixel_driver/goal|-:J1,J2,J3,J4,J5:0.000000,162.562394,-599.568700,-2.865370,-47.894574:eff_
1562211010.669299,cobot_dynamixel_driver/goal|-:J1,J2,J3,J4,J5:0.000000,162.562394,-599.568700,-2.865370,-47.894574:eff_
1562211010.709336,cobot_dynamixel_driver/goal|-:J1,J2,J3,J4,J5:0.000000,162.562394,-599.568700,-2.865370,-47.894574:eff_
1562211010.749301,cobot_dynamixel_driver/goal|-:J1,J2,J3,J4,J5:0.000000,162.562394,-599.568700,-2.865370,-47.894574:eff_
1562211010.789335,cobot_dynamixel_driver/goal|-:J1,J2,J3,J4,J5:0.000000,162.562394,-599.568700,-2.865370,-47.894574:eff_
1562211010.829294,cobot_dynamixel_driver/goal|-:J1,J2,J3,J4,J5:0.000000,162.562394,-599.568700,-2.865370,-47.894574:eff_
1562211010.869326,cobot_dynamixel_driver/goal|-:J1,J2,J3,J4,J5:0.000000,162.562394,-599.568700,-2.865370,-47.894574:eff_
1562211010.909301,cobot_dynamixel_driver/goal|-:J1,J2,J3,J4,J5:0.000000,162.562394,-599.568700,-2.865370,-47.894574:eff_
1562211010.949341,cobot_dynamixel_driver/goal|-:J1,J2,J3,J4,J5:0.000000,162.562394,-599.568700,-2.865370,-47.894574:eff_
1562211010.989299,cobot_dynamixel_driver/goal|-:J1,J2,J3,J4,J5:0.000000,162.562394,-599.568700,-2.865370,-47.894574:eff_
1562211011.029298,cobot_dynamixel_driver/goal|-:J1,J2,J3,J4,J5:0.000000,162.562394,-599.568700,-2.865370,-47.894574:eff_
1562211011.069334,cobot_dynamixel_driver/goal|-:J1,J2,J3,J4,J5:0.000000,162.562394,-599.568700,-2.865370,-47.894574:eff_
1562211011.109363,cobot_dynamixel_driver/goal|-:J1,J2,J3,J4,J5:0.000000,162.562394,-599.568700,-2.865370,-47.894574:eff_
1562211011.149297,cobot_dynamixel_driver/goal|-:J1,J2,J3,J4,J5:0.000000,162.562394,-599.568700,-2.865370,-47.894574:eff_
1562211011.189294,cobot_dynamixel_driver/goal|-:J1,J2,J3,J4,J5:0.000000,162.562394,-599.568700,-2.865370,-47.894574:eff_
1562211011.229300,cobot_dynamixel_driver/goal|-:J1,J2,J3,J4,J5:0.000000,162.562394,-599.568700,-2.865370,-47.894574:eff_
1562211011.269303,cobot_dynamixel_driver/goal|-:J1,J2,J3,J4,J5:0.000000,162.562394,-599.568700,-2.865370,-47.894574:eff_
1562211011.309298,cobot_dynamixel_driver/goal|-:J1,J2,J3,J4,J5:0.000000,162.562394,-599.568700,-2.865370,-47.894574:eff_
1562211011.349345,cobot_dynamixel_driver/goal|-:J1,J2,J3,J4,J5:0.000000,162.562394,-599.568700,-2.865370,-47.894574:eff_
1562211011.389301,cobot_dynamixel_driver/goal|-:J1,J2,J3,J4,J5:0.000000,162.562394,-599.568700,-2.865370,-47.894574:eff_
1562211011.429336,cobot_dynamixel_driver/goal|-:J1,J2,J3,J4,J5:0.000000,162.562394,-599.568700,-2.865370,-47.894574:eff_
1562211011.469297,cobot_dynamixel_driver/goal|-:J1,J2,J3,J4,J5:0.000000,162.562394,-599.568700,-2.865370,-47.894574:eff_
1562211011.509327,cobot_dynamixel_driver/goal|-:J1,J2,J3,J4,J5:0.000000,162.562394,-599.568700,-2.865370,-47.894574:eff_
1562211011.549310,cobot_dynamixel_driver/goal|-:J1,J2,J3,J4,J5:0.000000,162.562394,-599.568700,-2.865370,-47.894574:eff_
1562211011.549310,cobot_dynamixel_driver/goal|-:J1,J2,J3,J4,J5:0.000000,162.562394,-599.568700,-2.865370,-47.894574:eff_
1562211011.549310,cobot_dynamixel_driver/goal|-:J1,J2,J3,J4,J5:0.000000,162.562394,-599.568700,-2.865370,-47.894574:eff_
1562211011.549310,cobot_dynamixel_driver/goal|-:J1,J2,J3,J4,J5:0.000000,162.562394,-599.568700,-2.865370,-47.894574:eff_
1562211011.549310,cobot_dynamixel_driver/goal|-:J1,J2,J3,J4,J5:0.000000,162.562394,-599.568700,-2.865370,-47.894574:eff_
1562211011.549310,cobot_dynamixel_driver/goal|-:J1,J2,J3,J4,J5:0.000000,162.562394,-599.568700,-2.865370,-47.894574:eff_
1562211011.549310,cobot_dynamixel_driver/goal|-:J1,J2,J3,J4,J5:0.000000,162.562394,-599.568700,-2.865370,-47.894574:eff_
1562211011.549310,cobot_dynamixel_driver/goal|-:J1,J2,J3,J4,J5:0.000000,162.562394,-599.568700,-2.865370,-47.894574:eff_
1562211013.164409,cobot_dynamixel_driver/goal|-:J1,J2,J3,J4,J5:0.000000,162.562394,-599.568700,-2.865370,-47.894574:eff_
1562211013.164409,cobot_dynamixel_driver/goal|-:J1,J2,J3,J4,J5:0.000000,162.562394,-599.568700,-2.865370,-47.894574:eff_
1562211013.993018,cobot_dynamixel_driver/goal|-:J1,J2,J3,J4,J5:0.000000,162.562394,-599.568700,-2.865370,-47.894574:eff_
1562211014.033081,cobot_dynamixel_driver/goal|-:J1,J2,J3,J4,J5:0.000000,427.755266,-449.733492,-2.870945,-49.703806:eff_
1562211014.073102,cobot_dynamixel_driver/goal|-:J1,J2,J3,J4,J5:0.000000,-173.411055,-599.748337,-2.872505,-99.675717:eff_
1562211014.113086,cobot_dynamixel_driver/goal|-:J1,J2,J3,J4,J5:0.000000,-171.876696,-599.775072,-2.875491,-99.663773:eff_
1562211014.153128,cobot_dynamixel_driver/goal|-:J1,J2,J3,J4,J5:0.000000,-160.775295,-599.947119,-2.896204,-99.575466:eff_
1562211014.193099,cobot_dynamixel_driver/goal|-:J1,J2,J3,J4,J5:0.000000,-156.098248,-600.020208,-2.905859,-99.553094:eff_
1562211014.233145,cobot_dynamixel_driver/goal|-:J1,J2,J3,J4,J5:0.000000,-143.796426,-600.104062,-2.920674,-99.315213:eff_
1562211014.273085,cobot_dynamixel_driver/goal|-:J1,J2,J3,J4,J5:0.000000,157.741674,-600.099738,-2.920838,-99.267723:eff_
1562211014.313149,cobot_dynamixel_driver/goal|-:J1,J2,J3,J4,J5:0.000000,157.535593,-600.103160,-2.921049,-49.285733:eff_
1562211014.353089,cobot_dynamixel_driver/goal|-:J1,J2,J3,J4,J5:0.000000,157.289069,-600.115936,-2.922431,-99.320307:eff_
1562211014.393106,cobot_dynamixel_driver/goal|-:J1,J2,J3,J4,J5:0.000000,-142.295452,-600.179024,-2.930228,-99.437641:eff_
1562211014.433083,cobot_dynamixel_driver/goal|-:J1,J2,J3,J4,J5:0.000000,-139.095766,-600.318127,-2.948850,-99.631845:eff_
1562211014.473120,cobot_dynamixel_driver/goal|-:J1,J2,J3,J4,J5:0.000000,-133.119155,-600.591479,-2.986339,-100.033265:eff_
1562211014.513091,cobot_dynamixel_driver/goal|-:J1,J2,J3,J4,J5:0.000000,-125.531266,-601.003018,-3.044070,-100.701404:eff_
1562211014.553090,cobot_dynamixel_driver/goal|-:J1,J2,J3,J4,J5:0.000000,-117.042612,-751.557759,-3.124066,-101.680107:eff_
1562211014.593088,cobot_dynamixel_driver/goal|-:J1,J2,J3,J4,J5:0.000000,-109.114227,-752.283546,-3.228896,-103.098450:eff_
1562211014.633139,cobot_dynamixel_driver/goal|-:J1,J2,J3,J4,J5:0.000000,-97.514674,-753.664022,-3.434897,-106.018379:eff_
1562211014.673124,cobot_dynamixel_driver/goal|-:J1,J2,J3,J4,J5:0.000000,-94.069169,-754.178274,-3.516460,-107.167635:eff_
1562211014.713139,cobot_dynamixel_driver/goal|-:J1,J2,J3,J4,J5:0.000000,-85.935195,-755.696054,-3.789558,-110.768671:eff_
1562211014.753093,cobot_dynamixel_driver/goal|-:J1,J2,J3,J4,J5:0.000000,215.431711,-756.147559,-3.885671,-111.941538:eff_
1562211014.793116,cobot_dynamixel_driver/goal|-:J1,J2,J3,J4,J5:0.000000,516.039490,-757.185479,-4.163753,-115.014626:eff_
1562211014.833120,cobot_dynamixel_driver/goal|-:J1,J2,J3,J4,J5:0.000000,515.136867,-757.416764,-4.246211,-115.824102:eff_
1562211014.873129,cobot_dynamixel_driver/goal|-:J1,J2,J3,J4,J5:0.000000,505.497850,-757.796589,-4.441988,-117.604582:eff_
1562211014.913086,cobot_dynamixel_driver/goal|-:J1,J2,J3,J4,J5:0.000000,501.871190,-607.860112,-4.483658,-117.936624:eff_
1562211014.953141,cobot_dynamixel_driver/goal|-:J1,J2,J3,J4,J5:0.000000,490.852531,-607.743294,-4.511184,-18.319420:eff_
1562211014.993080,cobot_dynamixel_driver/goal|-:J1,J2,J3,J4,J5:0.000000,487.555669,-607.673845,-4.508211,-18.365070:eff_
1562211015.033159,cobot_dynamixel_driver/goal|-:J1,J2,J3,J4,J5:0.000000,481.514095,-607.481685,-4.477385,-18.292368:eff_
1562211015.073079,cobot_dynamixel_driver/goal|-:J1,J2,J3,J4,J5:0.000000,180.903650,-457.418192,-4.458044,-18.188035:eff_
1562211015.113148,cobot_dynamixel_driver/goal|-:J1,J2,J3,J4,J5:0.000000,180.459502,-607.144626,-4.361892,-17.589999:eff_
1562211015.153082,cobot_dynamixel_driver/goal|-:J1,J2,J3,J4,J5:0.000000,180.642866,-607.015233,-4.317192,-17.293165:eff_
1562211015.193093,cobot_dynamixel_driver/goal|-:J1,J2,J3,J4,J5:0.000000,180.551507,-606.661314,-4.207413,-16.543392:eff_
1562211015.233080,cobot_dynamixel_driver/goal|-:J1,J2,J3,J4,J5:0.000000,180.014633,-606.167902,-4.068901,-15.523726:eff_
1562211015.273129,cobot_dynamixel_driver/goal|-:J1,J2,J3,J4,J5:0.000000,178.716032,-605.184048,-3.826005,-13.503935:eff_
1562211015.313085,cobot_dynamixel_driver/goal|-:J1,J2,J3,J4,J5:0.000000,178.200342,-604.787981,-3.737851,-12.690060:eff_
1562211015.353101,cobot_dynamixel_driver/goal|-:J1,J2,J3,J4,J5:0.000000,176.516493,-603.481220,-3.477311,-10.002658:eff_
1562211015.393114,cobot_dynamixel_driver/goal|-:J1,J2,J3,J4,J5:0.000000,175.922773,-603.025224,-3.395608,-9.064967:eff_
1562211015.433111,cobot_dynamixel_driver/goal|-:J1,J2,J3,J4,J5:0.000000,174.177314,-601.684656,-3.177614,-6.308657:eff_
1562211015.473079,cobot_dynamixel_driver/goal|-:J1,J2,J3,J4,J5:0.000000,173.644270,-601.275262,-3.116835,-5.467498:eff_
1562211015.513100,cobot_dynamixel_driver/goal|-:J1,J2,J3,J4,J5:0.000000,172.251250,-600.205378,-2.968879,-3.265963:eff_
1562211015.553090,cobot_dynamixel_driver/goal|-:J1,J2,J3,J4,J5:0.000000,171.859798,-599.904731,-2.929926,-2.647222:eff_
1562211015.593090,cobot_dynamixel_driver/goal|-:J1,J2,J3,J4,J5:0.000000,470.436145,-749.135615,-2.836513,-1.136405:eff_
1562211015.633079,cobot_dynamixel_driver/goal|-:J1,J2,J3,J4,J5:0.000000,469.321662,-748.914657,-2.813204,-0.820683:eff_
1562211015.673145,cobot_dynamixel_driver/goal|-:J1,J2,J3,J4,J5:0.000000,458.867474,-748.187512,-2.760824,-0.767113:eff_
1562211015.713119,cobot_dynamixel_driver/goal|-:J1,J2,J3,J4,J5:0.000000,452.931707,-747.887517,-2.746232,-0.956804:eff_
1562211015.753086,cobot_dynamixel_driver/goal|-:J1,J2,J3,J4,J5:0.000000,438.858260,-747.221515,-2.726428,-101.667375:eff_
1562211015.793092,cobot_dynamixel_driver/goal|-:J1,J2,J3,J4,J5:0.000000,422.859850,-746.455779,-2.716466,-102.652756:eff_
1562211015.833092,cobot_dynamixel_driver/goal|-:J1,J2,J3,J4,J5:0.000000,405.965577,-745.565316,-2.708291,-103.657036:eff_
1562211015.873081,cobot_dynamixel_driver/goal|-:J1,J2,J3,J4,J5:0.000000,389.939015,-744.739979,-2.710782,-104.702605:eff_
1562211015.913085,cobot_dynamixel_driver/goal|-:J1,J2,J3,J4,J5:0.000000,370.087146,-743.863636,-2.725760,-105.972322:eff_
1562211015.953085,cobot_dynamixel_driver/goal|-:J1,J2,J3,J4,J5:0.000000,363.961359,-593.643614,-2.732594,-106.339134:eff_
1562211015.993087,cobot_dynamixel_driver/goal|-:J1,J2,J3,J4,J5:0.000000,347.404363,-593.065077,-2.754468,-107.337954:eff_
1562211016.033105,cobot_dynamixel_driver/goal|-:J1,J2,J3,J4,J5:0.000000,342.512645,-592.887141,-2.761149,-107.628843:eff_
1562211016.073090,cobot_dynamixel_driver/goal|-:J1,J2,J3,J4,J5:0.000000,330.854214,-592.441839,-2.778602,-108.343759:eff_
1562211016.113117,cobot_dynamixel_driver/goal|-:J1,J2,J3,J4,J5:0.000000,327.863516,-592.320503,-2.782783,-108.520319:eff_
1562211016.153157,cobot_dynamixel_driver/goal|-:J1,J2,J3,J4,J5:0.000000,320.692510,-592.035359,-2.794970,-108.971894:eff_
1562211016.193100,cobot_dynamixel_driver/goal|-:J1,J2,J3,J4,J5:-50.000000,318.820646,-591.970392,-2.800271,-109.114729:eff_
1562211016.233086,cobot_dynamixel_driver/goal|-:J1,J2,J3,J4,J5:-50.000000,314.831160,-591.897710,-2.821663,-109.572253:eff_
1562211016.273083,cobot_dynamixel_driver/goal|-:J1,J2,J3,J4,J5:-50.000000,314.000501,-591.912438,-2.831009,-109.735744:eff_
1562211016.313088,cobot_dynamixel_driver/goal|-:J1,J2,J3,J4,J5:-50.000000,13.806205,-592.128657,-2.868048,-110.253970:eff_
1562211016.353080,cobot_dynamixel_driver/goal|-:J1,J2,J3,J4,J5:-50.000000,-285.677440,-592.264207,-2.885921,-110.478480:eff_
1562211016.393109,cobot_dynamixel_driver/goal|-:J1,J2,J3,J4,J5:0.000000,-278.072833,-593.140528,-2.966733,-111.269770:eff_
1562211016.433081,cobot_dynamixel_driver/goal|-:J1,J2,J3,J4,J5:0.000000,-272.944377,-593.625205,-3.005103,-111.575506:eff_
1562211016.473103,cobot_dynamixel_driver/goal|-:J1,J2,J3,J4,J5:0.000000,-258.741253,-594.881395,-3.103147,-112.278556:eff_
1562211016.513105,cobot_dynamixel_driver/goal|-:J1,J2,J3,J4,J5:0.000000,-240.584456,-596.398815,-3.227048,-113.086318:eff_
1562211016.553106,cobot_dynamixel_driver/goal|-:J1,J2,J3,J4,J5:0.000000,-207.791529,-598.915785,-3.449220,-114.352621:eff_
1562211016.593089,cobot_dynamixel_driver/goal|-:J1,J2,J3,J4,J5:0.000000,-196.034927,-599.748953,-3.527461,-114.749211:eff_
1562211016.633090,cobot_dynamixel_driver/goal|-:J1,J2,J3,J4,J5:0.000000,-159.816313,-602.052743,-3.751349,-115.712150:eff_
1562211016.673084,cobot_dynamixel_driver/goal|-:J1,J2,J3,J4,J5:0.000000,-147.739972,-602.728956,-3.817802,-115.939816:eff_
1562211016.713121,cobot_dynamixel_driver/goal|-:J1,J2,J3,J4,J5:0.000000,-124.329396,-603.912428,-3.933744,-116.260174:eff_
1562211016.753084,cobot_dynamixel_driver/goal|-:J1,J2,J3,J4,J5:0.000000,-101.337092,-604.880672,-4.020061,-116.352638:eff_
1562211016.793102,cobot_dynamixel_driver/goal|-:J1,J2,J3,J4,J5:50.000000,-65.790611,-755.981770,-4.094943,-116.067709:eff_
1562211016.833137,cobot_dynamixel_driver/goal|-:J1,J2,J3,J4,J5:50.000000,-53.643032,-756.258715,-4.108220,-115.885228:eff_
1562211016.873084,cobot_dynamixel_driver/goal|-:J1,J2,J3,J4,J5:50.000000,-15.455331,-756.864280,-4.129175,-65.197763:eff_
1562211016.913082,cobot_dynamixel_driver/goal|-:J1,J2,J3,J4,J5:50.000000,-2.105074,-756.996440,-4.132189,-64.942450:eff_
1562211016.953136,cobot_dynamixel_driver/goal|-:J1,J2,J3,J4,J5:50.000000,38.052878,-757.225633,-4.139121,-64.242680:eff_
1562211016.993130,cobot_dynamixel_driver/goal|-:J1,J2,J3,J4,J5:50.000000,51.481748,-757.258909,-4.140822,-64.028821:eff_
1562211017.033106,cobot_dynamixel_driver/goal|-:J1,J2,J3,J4,J5:50.000000,91.911957,-757.265872,-4.144386,-63.418938:eff_
1562211017.073077,cobot_dynamixel_driver/goal|-:J1,J2,J3,J4,J5:50.000000,105.204600,-757.242671,-4.145279,-63.224127:eff_
1562211017.113138,cobot_dynamixel_driver/goal|-:J1,J2,J3,J4,J5:50.000000,143.190281,-757.100337,-4.145352,-12.637615:eff_
1562211017.153137,cobot_dynamixel_driver/goal|-:J1,J2,J3,J4,J5:50.000000,154.667085,-757.030522,-4.144445,-12.440627:eff_
1562211017.193105,cobot_dynamixel_driver/goal|-:J1,J2,J3,J4,J5:50.000000,185.086056,-756.716206,-4.133066,-11.752120:eff_
1562211017.233119,cobot_dynamixel_driver/goal|-:J1,J2,J3,J4,J5:0.000000,193.443582,-756.554856,-4.120924,-11.446194:eff_
1562211017.273143,cobot_dynamixel_driver/goal|-:J1,J2,J3,J4,J5:0.000000,213.079235,-605.898388,-4.056088,-10.271860:eff_
1562211017.313086,cobot_dynamixel_driver/goal|-:J1,J2,J3,J4,J5:0.000000,217.633093,-605.621246,-4.020080,-9.769858:eff_
1562211017.353136,cobot_dynamixel_driver/goal|-:J1,J2,J3,J4,J5:0.000000,224.609645,-604.631755,-3.862916,-7.865343:eff_
1562211017.393121,cobot_dynamixel_driver/goal|-:J1,J2,J3,J4,J5:0.000000,524.639674,-604.193392,-3.785153,-6.971672:eff_
1562211017.433104,cobot_dynamixel_driver/goal|-:J1,J2,J3,J4,J5:0.000000,821.786782,-602.659463,-3.524069,-3.791105:eff_
1562211017.473085,cobot_dynamixel_driver/goal|-:J1,J2,J3,J4,J5:0.000000,819.301942,-602.023423,-3.420514,-2.449740:eff_
1562211017.513090,cobot_dynamixel_driver/goal|-:J1,J2,J3,J4,J5:0.000000,811.586803,-600.753811,-3.220032,0.266878:eff_
1562211017.553084,cobot_dynamixel_driver/goal|-:J1,J2,J3,J4,J5:0.000000,802.673295,-599.457995,-3.033075,3.037123:eff_
1562211017.593129,cobot_dynamixel_driver/goal|-:J1,J2,J3,J4,J5:0.000000,789.447262,-747.616466,-2.796307,6.948795:eff_
1562211017.633089,cobot_dynamixel_driver/goal|-:J1,J2,J3,J4,J5:0.000000,785.843425,-747.168440,-2.742557,7.896247:eff_
1562211017.673116,cobot_dynamixel_driver/goal|-:J1,J2,J3,J4,J5:0.000000,778.952869,-746.613169,-2.664873,9.083840:eff_
1562211017.713086,cobot_dynamixel_driver/goal|-:J1,J2,J3,J4,J5:0.000000,778.031273,-746.673797,-2.664369,-91.037862:eff_
1562211017.753126,cobot_dynamixel_driver/goal|-:J1,J2,J3,J4,J5:0.000000,476.874535,-746.944989,-2.675012,-91.605930:eff_
1562211017.793125,cobot_dynamixel_driver/goal|-:J1,J2,J3,J4,J5:0.000000,776.782358,-747.055815,-2.682147,-91.840293:eff_
1562211017.833132,cobot_dynamixel_driver/goal|-:J1,J2,J3,J4,J5:0.000000,777.237784,-747.503391,-2.720230,-92.775948:eff_
1562211017.873090,cobot_dynamixel_driver/goal|-:J1,J2,J3,J4,J5:0.000000,477.259999,-597.688100,-2.737866,-93.159029:eff_
1562211017.913084,cobot_dynamixel_driver/goal|-:J1,J2,J3,J4,J5:0.000000,477.815974,-598.310693,-2.801685,-94.443786:eff_
1562211017.953080,cobot_dynamixel_driver/goal|-:J1,J2,J3,J4,J5:0.000000,478.250625,-598.518784,-2.824304,-94.871607:eff_
1562211017.993150,cobot_dynamixel_driver/goal|-:J1,J2,J3,J4,J5:0.000000,479.103121,-599.061764,-2.884052,-95.990448:eff_
1562211017.993150,cobot_dynamixel_driver/goal|-:J1,J2,J3,J4,J5:0.000000,479.265711,-599.200608,-2.899624,-96.276805:eff_
1562211017.993150,cobot_dynamixel_driver/goal|-:J1,J2,J3,J4,J5:0.000000,479.265711,-599.200608,-2.899624,-96.276805:eff_
1562211017.993150,cobot_dynamixel_driver/goal|-:J1,J2,J3,J4,J5:0.000000,479.265711,-599.200608,-2.899624,-96.276805:eff_
1562211017.993150,cobot_dynamixel_driver/goal|-:J1,J2,J3,J4,J5:0.000000,479.265711,-599.200608,-2.899624,-96.276805:eff_
1562211017.993150,cobot_dynamixel_driver/goal|-:J1,J2,J3,J4,J5:0.000000,479.265711,-599.200608,-2.899624,-96.276805:eff_
1562211017.993150,cobot_dynamixel_driver/goal|-:J1,J2,J3,J4,J5:0.000000,479.265711,-599.200608,-2.899624,-96.276805:eff_
1562211017.993150,cobot_dynamixel_driver/goal|-:J1,J2,J3,J4,J5:0.000000,479.265711,-599.200608,-2.899624,-96.276805:eff_
1562211019.037851,cobot_dynamixel_driver/goal|-:J1,J2,J3,J4,J5:0.000000,479.265711,-599.200608,-2.899624,-96.276805:eff_
1562211019.141854,cobot_dynamixel_driver/goal|-:J1,J2,J3,J4,J5:0.000000,480.279299,-600.062899,-3.000114,-48.055272:eff_
1562211019.181895,cobot_dynamixel_driver/goal|-:J1,J2,J3,J4,J5:0.000000,480.279299,-600.062899,-3.000114,-48.055272:eff_
1562211019.221826,cobot_dynamixel_driver/goal|-:J1,J2,J3,J4,J5:0.000000,480.243683,-600.063486,-3.000113,-48.056656:eff_
1562211019.261843,cobot_dynamixel_driver/goal|-:J1,J2,J3,J4,J5:0.000000,480.243683,-600.063486,-3.000113,-48.056656:eff_
1562211019.301833,cobot_dynamixel_driver/goal|-:J1,J2,J3,J4,J5:0.000000,480.243683,-600.063486,-3.000113,-48.056656:eff_
1562211019.341913,cobot_dynamixel_driver/goal|-:J1,J2,J3,J4,J5:0.000000,480.243683,-600.063486,-3.000113,-48.056656:eff_
1562211019.381838,cobot_dynamixel_driver/goal|-:J1,J2,J3,J4,J5:0.000000,480.243683,-600.063486,-3.000113,-48.056656:eff_
1562211019.421865,cobot_dynamixel_driver/goal|-:J1,J2,J3,J4,J5:0.000000,480.243683,-600.063486,-3.000113,-48.056656:eff_
1562211019.461862,cobot_dynamixel_driver/goal|-:J1,J2,J3,J4,J5:0.000000,480.244065,-600.063780,-3.000112,-48.057348:eff_
1562211019.501824,cobot_dynamixel_driver/goal|-:J1,J2,J3,J4,J5:0.000000,480.244065,-600.063780,-3.000112,-48.057348:eff_
1562211019.541870,cobot_dynamixel_driver/goal|-:J1,J2,J3,J4,J5:0.000000,480.155025,-600.065247,-3.000109,-48.060807:eff_
1562211019.581845,cobot_dynamixel_driver/goal|-:J1,J2,J3,J4,J5:0.000000,779.923512,-600.069053,-3.000100,-48.069801:eff_
1562211019.621848,cobot_dynamixel_driver/goal|-:J1,J2,J3,J4,J5:0.000000,776.913418,-600.118079,-3.000326,-48.188065:eff_
1562211019.661905,cobot_dynamixel_driver/goal|-:J1,J2,J3,J4,J5:0.000000,773.935385,-600.163553,-3.000121,-48.302142:eff_
1562211019.701833,cobot_dynamixel_driver/goal|-:J1,J2,J3,J4,J5:0.000000,755.203908,-600.409899,-2.998887,-49.019164:eff_
1562211019.741918,cobot_dynamixel_driver/goal|-:J1,J2,J3,J4,J5:0.000000,746.185831,-600.502701,-2.998143,-49.360860:eff_
1562211019.781837,cobot_dynamixel_driver/goal|-:J1,J2,J3,J4,J5:0.000000,714.169391,-600.697042,-2.994564,-50.552244:eff_
1562211019.821826,cobot_dynamixel_driver/goal|-:J1,J2,J3,J4,J5:0.000000,703.245756,-600.715696,-2.993010,-50.951527:eff_
1562211019.861890,cobot_dynamixel_driver/goal|-:J1,J2,J3,J4,J5:0.000000,673.489791,-600.645514,-2.987945,-52.017688:eff_
1562211019.901841,cobot_dynamixel_driver/goal|-:J1,J2,J3,J4,J5:0.000000,665.456272,-600.596533,-2.986368,-52.300904:eff_
1562211019.941827,cobot_dynamixel_driver/goal|-:J1,J2,J3,J4,J5:0.000000,646.905938,-600.434684,-2.982381,-52.948797:eff_
1562211019.981868,cobot_dynamixel_driver/goal|-:J1,J2,J3,J4,J5:0.000000,643.210998,-600.394399,-2.981530,-53.076593:eff_
1562211020.021835,cobot_dynamixel_driver/goal|-:J1,J2,J3,J4,J5:0.000000,39.971831,-600.357108,-2.980774,-53.187664:eff_
1562211020.061869,cobot_dynamixel_driver/goal|-:J1,J2,J3,J4,J5:0.000000,40.338234,-600.361664,-2.980865,-53.174425:eff_
1562211020.101823,cobot_dynamixel_driver/goal|-:J1,J2,J3,J4,J5:0.000000,45.060559,-600.416272,-2.981987,-53.008309:eff_
1562211020.141865,cobot_dynamixel_driver/goal|-:J1,J2,J3,J4,J5:0.000000,48.352094,-600.451019,-2.982737,-52.894286:eff_
1562211020.181834,cobot_dynamixel_driver/goal|-:J1,J2,J3,J4,J5:0.000000,61.701032,-600.570190,-2.985625,-52.428474:eff_
1562211020.221829,cobot_dynamixel_driver/goal|-:J1,J2,J3,J4,J5:0.000000,66.842655,-600.606750,-2.986672,-52.247600:eff_
1562211020.261893,cobot_dynamixel_driver/goal|-:J1,J2,J3,J4,J5:0.000000,81.949034,-600.683935,-2.989539,-51.711472:eff_
1562211020.301896,cobot_dynamixel_driver/goal|-:J1,J2,J3,J4,J5:0.000000,86.563785,-600.698480,-2.990352,-51.546285:eff_
1562211020.341832,cobot_dynamixel_driver/goal|-:J1,J2,J3,J4,J5:0.000000,97.576022,-600.716003,-2.992169,-51.150078:eff_
1562211020.381898,cobot_dynamixel_driver/goal|-:J1,J2,J3,J4,J5:0.000000,100.474974,-600.716589,-2.992620,-51.044976:eff_
1562211020.421830,cobot_dynamixel_driver/goal|-:J1,J2,J3,J4,J5:0.000000,107.443969,-600.711083,-2.993656,-50.791237:eff_
1562211020.461850,cobot_dynamixel_driver/goal|-:J1,J2,J3,J4,J5:0.000000,109.144058,-600.708254,-2.993898,-50.729106:eff_
1562211020.501875,cobot_dynamixel_driver/goal|-:J1,J2,J3,J4,J5:0.000000,113.156910,-600.699261,-2.994454,-50.582092:eff_
1562211020.541833,cobot_dynamixel_driver/goal|-:J1,J2,J3,J4,J5:0.000000,114.620266,-600.695170,-2.994651,-50.528354:eff_
1562211020.581875,cobot_dynamixel_driver/goal|-:J1,J2,J3,J4,J5:0.000000,118.700954,-600.681473,-2.994831,-50.378064:eff_
1562211020.621835,cobot_dynamixel_driver/goal|-:J1,J2,J3,J4,J5:0.000000,119.747670,-600.677414,-2.994964,-50.339449:eff_
1562211020.661870,cobot_dynamixel_driver/goal|-:J1,J2,J3,J4,J5:0.000000,421.173114,-600.671606,-2.995141,-50.287478:eff_
1562211020.701886,cobot_dynamixel_driver/goal|-:J1,J2,J3,J4,J5:0.000000,421.209194,-600.671452,-2.995145,-50.286145:eff_
1562211020.741828,cobot_dynamixel_driver/goal|-:J1,J2,J3,J4,J5:0.000000,420.631891,-600.673888,-2.995073,-50.307473:eff_
1562211020.781852,cobot_dynamixel_driver/goal|-:J1,J2,J3,J4,J5:0.000000,720.595807,-600.674038,-2.995069,-50.308805:eff_
1562211020.781852,cobot_dynamixel_driver/goal|-:J1,J2,J3,J4,J5:0.000000,420.252998,-600.675449,-2.995026,-50.321465:eff_
1562211020.781852,cobot_dynamixel_driver/goal|-:J1,J2,J3,J4,J5:0.000000,420.252998,-600.675449,-2.995026,-50.321465:eff_
1562211020.781852,cobot_dynamixel_driver/goal|-:J1,J2,J3,J4,J5:0.000000,420.252998,-600.675449,-2.995026,-50.321465:eff_
1562211020.781852,cobot_dynamixel_driver/goal|-:J1,J2,J3,J4,J5:0.000000,420.252998,-600.675449,-2.995026,-50.321465:eff_
1562211020.781852,cobot_dynamixel_driver/goal|-:J1,J2,J3,J4,J5:0.000000,420.252998,-600.675449,-2.995026,-50.321465:eff_
1562211020.781852,cobot_dynamixel_driver/goal|-:J1,J2,J3,J4,J5:0.000000,420.252998,-600.675449,-2.995026,-50.321465:eff_
1562211020.781852,cobot_dynamixel_driver/goal|-:J1,J2,J3,J4,J5:0.000000,420.252998,-600.675449,-2.995026,-50.321465:eff_
1562211021.830939,cobot_dynamixel_driver/goal|-:J1,J2,J3,J4,J5:0.000000,420.252998,-600.675449,-2.995026,-50.321465:eff_
1562211021.932923,cobot_dynamixel_driver/goal|-:J1,J2,J3,J4,J5:0.000000,393.968231,-600.712922,-2.991238,-51.280430:eff_
1562211021.972891,cobot_dynamixel_driver/goal|-:J1,J2,J3,J4,J5:0.000000,394.476009,-600.713513,-2.991320,-51.262097:eff_
1562211022.012893,cobot_dynamixel_driver/goal|-:J1,J2,J3,J4,J5:0.000000,394.530411,-600.713574,-2.991329,-51.260132:eff_
1562211022.052896,cobot_dynamixel_driver/goal|-:J1,J2,J3,J4,J5:0.000000,394.530411,-600.713574,-2.991329,-51.260132:eff_
1562211022.092926,cobot_dynamixel_driver/goal|-:J1,J2,J3,J4,J5:0.000000,394.548545,-600.713594,-2.991332,-51.259477:eff_
1562211022.132895,cobot_dynamixel_driver/goal|-:J1,J2,J3,J4,J5:0.000000,394.548545,-600.713594,-2.991332,-51.259477:eff_
1562211022.172917,cobot_dynamixel_driver/goal|-:J1,J2,J3,J4,J5:0.000000,394.566679,-600.713614,-2.991335,-51.258822:eff_
1562211022.212948,cobot_dynamixel_driver/goal|-:J1,J2,J3,J4,J5:0.000000,394.874943,-600.713942,-2.991385,-51.247688:eff_
1562211022.252903,cobot_dynamixel_driver/goal|-:J1,J2,J3,J4,J5:0.000000,395.111340,-600.714700,-2.991489,-101.240242:eff_
1562211022.292887,cobot_dynamixel_driver/goal|-:J1,J2,J3,J4,J5:0.000000,96.060083,-600.775761,-2.999309,-101.332936:eff_
1562211022.332926,cobot_dynamixel_driver/goal|-:J1,J2,J3,J4,J5:50.000000,97.143576,-600.842905,-3.007970,-101.433700:eff_
1562211022.372938,cobot_dynamixel_driver/goal|-:J1,J2,J3,J4,J5:0.000000,107.542595,-601.218341,-3.058558,-101.854863:eff_
1562211022.412899,cobot_dynamixel_driver/goal|-:J1,J2,J3,J4,J5:0.000000,112.878163,-601.376353,-3.081258,-102.013215:eff_
1562211022.452934,cobot_dynamixel_driver/goal|-:J1,J2,J3,J4,J5:0.000000,134.095575,-601.788379,-3.150369,-102.292748:eff_
1562211022.492898,cobot_dynamixel_driver/goal|-:J1,J2,J3,J4,J5:0.000000,142.980201,-601.876798,-3.171409,-102.283981:eff_
1562211022.532949,cobot_dynamixel_driver/goal|-:J1,J2,J3,J4,J5:0.000000,173.821114,-601.891492,-3.220113,-101.880735:eff_
1562211022.572895,cobot_dynamixel_driver/goal|-:J1,J2,J3,J4,J5:0.000000,184.919100,-601.810178,-3.231778,-101.647026:eff_
1562211022.612897,cobot_dynamixel_driver/goal|-:J1,J2,J3,J4,J5:0.000000,218.595616,-601.313155,-3.252994,-100.722707:eff_
1562211022.652859,cobot_dynamixel_driver/goal|-:J1,J2,J3,J4,J5:0.000000,229.228123,-601.075354,-3.255116,-50.360238:eff_
1562211022.692905,cobot_dynamixel_driver/goal|-:J1,J2,J3,J4,J5:0.000000,258.499241,-600.243644,-3.253510,-49.242179:eff_
1562211022.732902,cobot_dynamixel_driver/goal|-:J1,J2,J3,J4,J5:0.000000,267.055233,-599.962573,-3.252532,-48.905766:eff_
1562211022.772936,cobot_dynamixel_driver/goal|-:J1,J2,J3,J4,J5:0.000000,287.385630,-599.232070,-3.250219,-48.103718:eff_
1562211022.812935,cobot_dynamixel_driver/goal|-:J1,J2,J3,J4,J5:0.000000,292.116377,-599.049217,-3.249580,-47.915616:eff_
1562211022.852888,cobot_dynamixel_driver/goal|-:J1,J2,J3,J4,J5:0.000000,299.327260,-598.759059,-3.248388,-47.624577:eff_
1562211022.892892,cobot_dynamixel_driver/goal|-:J1,J2,J3,J4,J5:0.000000,899.533823,-598.750000,-3.248284,-47.615088:eff_
1562211022.932903,cobot_dynamixel_driver/goal|-:J1,J2,J3,J4,J5:0.000000,895.751587,-598.891927,-3.247127,-47.741376:eff_
1562211022.972892,cobot_dynamixel_driver/goal|-:J1,J2,J3,J4,J5:0.000000,890.602521,-599.088663,-3.246709,2.068771:eff_
1562211023.012889,cobot_dynamixel_driver/goal|-:J1,J2,J3,J4,J5:0.000000,862.623044,-599.998611,-3.238206,1.150008:eff_
1562211023.052890,cobot_dynamixel_driver/goal|-:J1,J2,J3,J4,J5:0.000000,850.477350,-600.333885,-3.233345,0.770234:eff_
1562211023.092896,cobot_dynamixel_driver/goal|-:J1,J2,J3,J4,J5:0.000000,810.737940,-601.150410,-3.208120,-0.324271:eff_
1562211023.132904,cobot_dynamixel_driver/goal|-:J1,J2,J3,J4,J5:0.000000,797.429858,-601.329500,-3.196456,-0.640274:eff_
1562211023.172911,cobot_dynamixel_driver/goal|-:J1,J2,J3,J4,J5:0.000000,758.635506,-601.579919,-3.151999,-1.401585:eff_
1562211023.212908,cobot_dynamixel_driver/goal|-:J1,J2,J3,J4,J5:0.000000,746.761029,-601.572265,-3.134697,-1.577669:eff_
1562211023.252913,cobot_dynamixel_driver/goal|-:J1,J2,J3,J4,J5:0.000000,715.819821,-601.337933,-3.077436,-1.843011:eff_
1562211023.292899,cobot_dynamixel_driver/goal|-:J1,J2,J3,J4,J5:0.000000,707.334207,-601.211405,-3.057572,-1.849110:eff_
1562211023.332943,cobot_dynamixel_driver/goal|-:J1,J2,J3,J4,J5:0.000000,685.608913,-600.743425,-2.995962,-1.684110:eff_
1562211023.372893,cobot_dynamixel_driver/goal|-:J1,J2,J3,J4,J5:0.000000,680.075259,-600.564663,-2.974498,-1.544060:eff_
1562211023.412927,cobot_dynamixel_driver/goal|-:J1,J2,J3,J4,J5:0.000000,669.017156,-600.014637,-2.910126,-0.888370:eff_
1562211023.452885,cobot_dynamixel_driver/goal|-:J1,J2,J3,J4,J5:0.000000,667.058083,-599.842414,-2.890066,-0.617887:eff_
1562211023.492905,cobot_dynamixel_driver/goal|-:J1,J2,J3,J4,J5:0.000000,365.714498,-599.532136,-2.853543,-0.025048:eff_
1562211023.532938,cobot_dynamixel_driver/goal|-:J1,J2,J3,J4,J5:0.000000,365.631196,-599.259999,-2.821758,0.548676:eff_
1562211023.572886,cobot_dynamixel_driver/goal|-:J1,J2,J3,J4,J5:0.000000,65.916187,-598.909889,-2.781812,1.305961:eff_
1562211023.612888,cobot_dynamixel_driver/goal|-:J1,J2,J3,J4,J5:0.000000,365.907972,-598.806431,-2.770283,1.525199:eff_
1562211023.652890,cobot_dynamixel_driver/goal|-:J1,J2,J3,J4,J5:0.000000,66.318748,-598.552886,-2.742317,2.083414:eff_
1562211023.692902,cobot_dynamixel_driver/goal|-:J1,J2,J3,J4,J5:0.000000,66.449343,-598.486634,-2.735108,2.230373:eff_
1562211023.732934,cobot_dynamixel_driver/goal|-:J1,J2,J3,J4,J5:0.000000,68.841880,-598.353061,-2.720088,2.628466:eff_
1562211023.772922,cobot_dynamixel_driver/goal|-:J1,J2,J3,J4,J5:0.000000,70.200588,-598.327569,-2.717040,2.746592:eff_
1562211023.812914,cobot_dynamixel_driver/goal|-:J1,J2,J3,J4,J5:0.000000,75.620503,-598.310139,-2.714215,3.031750:eff_
1562211023.852929,cobot_dynamixel_driver/goal|-:J1,J2,J3,J4,J5:0.000000,77.743856,-598.315620,-2.714568,3.114229:eff_
1562211023.892905,cobot_dynamixel_driver/goal|-:J1,J2,J3,J4,J5:0.000000,84.960792,-598.327543,-2.715723,3.395553:eff_
1562211023.932887,cobot_dynamixel_driver/goal|-:J1,J2,J3,J4,J5:0.000000,87.642049,-598.329329,-2.716136,-46.499539:eff_
1562211023.972902,cobot_dynamixel_driver/goal|-:J1,J2,J3,J4,J5:0.000000,96.004054,-598.326229,-2.717422,-46.172195:eff_
1562211024.012898,cobot_dynamixel_driver/goal|-:J1,J2,J3,J4,J5:0.000000,98.736942,-598.324264,-2.718039,-46.069160:eff_
1562211024.052891,cobot_dynamixel_driver/goal|-:J1,J2,J3,J4,J5:0.000000,106.359474,-598.305093,-2.719112,-45.768482:eff_
1562211024.092895,cobot_dynamixel_driver/goal|-:J1,J2,J3,J4,J5:0.000000,108.651116,-598.296936,-2.719401,-45.678110:eff_
1562211024.132904,cobot_dynamixel_driver/goal|-:J1,J2,J3,J4,J5:0.000000,114.564691,-598.270823,-2.720120,-45.442322:eff_
1562211024.172898,cobot_dynamixel_driver/goal|-:J1,J2,J3,J4,J5:0.000000,116.294176,-598.261846,-2.720321,-45.373166:eff_
1562211024.212899,cobot_dynamixel_driver/goal|-:J1,J2,J3,J4,J5:0.000000,120.759223,-598.235859,-2.720824,-45.194210:eff_
1562211024.252895,cobot_dynamixel_driver/goal|-:J1,J2,J3,J4,J5:0.000000,122.054769,-598.227560,-2.720965,-45.142174:eff_
1562211024.292977,cobot_dynamixel_driver/goal|-:J1,J2,J3,J4,J5:0.000000,125.777551,-598.201806,-2.721359,-44.992364:eff_
1562211024.332936,cobot_dynamixel_driver/goal|-:J1,J2,J3,J4,J5:0.000000,126.963925,-598.193005,-2.721480,-44.944535:eff_
1562211024.373024,cobot_dynamixel_driver/goal|-:J1,J2,J3,J4,J5:0.000000,130.503335,-598.165035,-2.721832,-44.801590:eff_
1562211024.412899,cobot_dynamixel_driver/goal|-:J1,J2,J3,J4,J5:0.000000,131.706499,-598.154943,-2.721948,-44.752913:eff_
1562211024.452890,cobot_dynamixel_driver/goal|-:J1,J2,J3,J4,J5:0.000000,135.314163,-598.122902,-2.722284,-44.606691:eff_
1562211024.492931,cobot_dynamixel_driver/goal|-:J1,J2,J3,J4,J5:0.000000,136.516107,-598.111633,-2.722392,-44.557887:eff_
1562211024.532899,cobot_dynamixel_driver/goal|-:J1,J2,J3,J4,J5:0.000000,140.012550,-598.077162,-2.722696,-44.415669:eff_
1562211024.572937,cobot_dynamixel_driver/goal|-:J1,J2,J3,J4,J5:0.000000,141.105772,-598.065868,-2.722788,-44.371126:eff_
1562211024.612944,cobot_dynamixel_driver/goal|-:J1,J2,J3,J4,J5:0.000000,144.652486,-598.027527,-2.723075,-44.226365:eff_
1562211024.652923,cobot_dynamixel_driver/goal|-:J1,J2,J3,J4,J5:0.000000,145.905723,-598.013357,-2.723173,-44.175122:eff_
1562211024.692888,cobot_dynamixel_driver/goal|-:J1,J2,J3,J4,J5:0.000000,149.860118,-597.966516,-2.723467,-44.013117:eff_
1562211024.732916,cobot_dynamixel_driver/goal|-:J1,J2,J3,J4,J5:0.000000,151.219207,-597.949668,-2.723563,-43.957327:eff_
1562211024.772942,cobot_dynamixel_driver/goal|-:J1,J2,J3,J4,J5:0.000000,155.365472,-597.895898,-2.723842,-43.786776:eff_
1562211024.812907,cobot_dynamixel_driver/goal|-:J1,J2,J3,J4,J5:0.000000,156.722897,-597.877518,-2.723928,-43.730825:eff_
1562211024.852893,cobot_dynamixel_driver/goal|-:J1,J2,J3,J4,J5:0.000000,160.828373,-597.819588,-2.724174,-43.561259:eff_
1562211024.892901,cobot_dynamixel_driver/goal|-:J1,J2,J3,J4,J5:0.000000,162.219798,-597.799155,-2.724252,-43.503672:eff_
1562211024.932889,cobot_dynamixel_driver/goal|-:J1,J2,J3,J4,J5:0.000000,166.480520,-597.734068,-2.724476,-43.326962:eff_
1562211024.972891,cobot_dynamixel_driver/goal|-:J1,J2,J3,J4,J5:0.000000,167.870147,-597.712017,-2.724544,-43.269207:eff_
1562211025.012902,cobot_dynamixel_driver/goal|-:J1,J2,J3,J4,J5:0.000000,171.876182,-597.646177,-2.724725,-43.102375:eff_
1562211025.052925,cobot_dynamixel_driver/goal|-:J1,J2,J3,J4,J5:0.000000,172.837864,-597.630489,-2.724764,-43.063769:eff_
1562211025.092895,cobot_dynamixel_driver/goal|-:J1,J2,J3,J4,J5:0.000000,773.285430,-597.625016,-2.725156,-43.050474:eff_
1562211025.132901,cobot_dynamixel_driver/goal|-:J1,J2,J3,J4,J5:0.000000,772.540490,-597.639560,-2.725121,-43.086116:eff_
1562211025.172901,cobot_dynamixel_driver/goal|-:J1,J2,J3,J4,J5:0.000000,759.880382,-597.845452,-2.724448,-43.635838:eff_
1562211025.212925,cobot_dynamixel_driver/goal|-:J1,J2,J3,J4,J5:0.000000,751.700687,-597.956585,-2.723903,-43.980161:eff_
1562211025.252904,cobot_dynamixel_driver/goal|-:J1,J2,J3,J4,J5:0.000000,720.645800,-598.246288,-2.721013,-45.262886:eff_
1562211025.292907,cobot_dynamixel_driver/goal|-:J1,J2,J3,J4,J5:0.000000,709.921824,-598.298163,-2.719739,-45.691099:eff_
1562211025.332910,cobot_dynamixel_driver/goal|-:J1,J2,J3,J4,J5:0.000000,680.764234,-598.342778,-2.717697,-96.881818:eff_
1562211025.372888,cobot_dynamixel_driver/goal|-:J1,J2,J3,J4,J5:0.000000,672.529881,-598.339186,-2.718481,-97.244468:eff_
1562211025.412929,cobot_dynamixel_driver/goal|-:J1,J2,J3,J4,J5:0.000000,652.645089,-598.440513,-2.738116,-98.463683:eff_
1562211025.452890,cobot_dynamixel_driver/goal|-:J1,J2,J3,J4,J5:0.000000,647.401172,-598.515329,-2.750179,-98.914379:eff_
1562211025.492922,cobot_dynamixel_driver/goal|-:J1,J2,J3,J4,J5:0.000000,637.230830,-598.888656,-2.802405,-100.308551:eff_
1562211025.532887,cobot_dynamixel_driver/goal|-:J1,J2,J3,J4,J5:0.000000,635.208986,-599.051936,-2.824040,-100.781538:eff_
1562211025.572926,cobot_dynamixel_driver/goal|-:J1,J2,J3,J4,J5:0.000000,632.133387,-599.581388,-2.893043,-102.106390:eff_
1562211025.612893,cobot_dynamixel_driver/goal|-:J1,J2,J3,J4,J5:0.000000,631.616272,-599.751349,-2.915437,-102.502948:eff_
1562211025.652892,cobot_dynamixel_driver/goal|-:J1,J2,J3,J4,J5:0.000000,331.058446,-600.194268,-2.974481,-103.486706:eff_
1562211025.692898,cobot_dynamixel_driver/goal|-:J1,J2,J3,J4,J5:0.000000,330.973007,-600.308436,-2.990042,-103.736614:eff_
1562211025.732930,cobot_dynamixel_driver/goal|-:J1,J2,J3,J4,J5:0.000000,331.454090,-600.525795,-3.019065,-104.171217:eff_
1562211025.772933,cobot_dynamixel_driver/goal|-:J1,J2,J3,J4,J5:0.000000,331.523910,-600.551759,-3.022550,-4.222341:eff_
1562211025.812937,cobot_dynamixel_driver/goal|-:J1,J2,J3,J4,J5:0.000000,331.522975,-600.551040,-3.022421,-4.219713:eff_
1562211025.852890,cobot_dynamixel_driver/goal|-:J1,J2,J3,J4,J5:0.000000,331.508325,-600.539789,-3.020883,-4.196560:eff_
1562211025.892899,cobot_dynamixel_driver/goal|-:J1,J2,J3,J4,J5:0.000000,331.481553,-600.519227,-3.018077,-54.154250:eff_
1562211025.932893,cobot_dynamixel_driver/goal|-:J1,J2,J3,J4,J5:0.000000,331.477089,-600.515798,-3.017610,-54.147195:eff_
1562211025.972913,cobot_dynamixel_driver/goal|-:J1,J2,J3,J4,J5:0.000000,331.474537,-600.513839,-3.017343,-54.143162:eff_
1562211026.012908,cobot_dynamixel_driver/goal|-:J1,J2,J3,J4,J5:0.000000,331.474537,-600.513839,-3.017343,-54.143162:eff_
1562211026.052934,cobot_dynamixel_driver/goal|-:J1,J2,J3,J4,J5:0.000000,331.474537,-600.513839,-3.017343,-54.143162:eff_
1562211026.092898,cobot_dynamixel_driver/goal|-:J1,J2,J3,J4,J5:0.000000,331.474537,-600.513839,-3.017343,-54.143162:eff_
1562211026.132926,cobot_dynamixel_driver/goal|-:J1,J2,J3,J4,J5:0.000000,331.474537,-600.513839,-3.017343,-54.143162:eff_
1562211026.172889,cobot_dynamixel_driver/goal|-:J1,J2,J3,J4,J5:0.000000,331.474537,-600.513839,-3.017343,-54.143162:eff_
1562211026.212927,cobot_dynamixel_driver/goal|-:J1,J2,J3,J4,J5:0.000000,331.474537,-600.513839,-3.017343,-54.143162:eff_
1562211026.252887,cobot_dynamixel_driver/goal|-:J1,J2,J3,J4,J5:0.000000,331.474537,-600.513839,-3.017343,-54.143162:eff_
1562211026.292899,cobot_dynamixel_driver/goal|-:J1,J2,J3,J4,J5:0.000000,331.474537,-600.513839,-3.017343,-54.143162:eff_
1562211026.332893,cobot_dynamixel_driver/goal|-:J1,J2,J3,J4,J5:0.000000,331.474537,-600.513839,-3.017343,-54.143162:eff_
1562211026.372918,cobot_dynamixel_driver/goal|-:J1,J2,J3,J4,J5:0.000000,331.474537,-600.513839,-3.017343,-54.143162:eff_
1562211026.412917,cobot_dynamixel_driver/goal|-:J1,J2,J3,J4,J5:0.000000,331.474537,-600.513839,-3.017343,-54.143162:eff_
1562211026.452929,cobot_dynamixel_driver/goal|-:J1,J2,J3,J4,J5:0.000000,331.474537,-600.513839,-3.017343,-54.143162:eff_
